(1001)
(T1  D=6.35 CR=0 - ZMIN=-6.35 - FLAT END MILL)
G0 G40 G90 G17
G21

(2D CONTOUR2)
T1 M6
M3 S5000
G0 X0 Y-3.175
G0 Z18.796
G1 Z16.891 F333.
G1 Z6.096
G1 X203.2 F1000.
G3 X206.375 Y0 I0 J3.175
G1 Y127
G3 X203.2 Y130.175 I-3.175 J0
G1 X161.925
G1 Y279.4
G3 X158.75 Y282.575 I-3.175 J0
G1 X120.65
G3 X117.475 Y279.4 I0 J-3.175
G1 Y130.175
G1 X85.725
G1 Y279.4
G3 X82.55 Y282.575 I-3.175 J0
G1 X44.45
G3 X41.275 Y279.4 I0 J-3.175
G1 Y130.175
G1 X0
G3 X-3.175 Y127 I0 J-3.175
G1 Y0
G3 X0 Y-3.175 I3.175 J0
G0 Z18.796
G0 X-3.175 Y0
G1 Z9.271 F333.
G1 Z-1.524
G3 X0 Y-3.175 I3.175 J0 F1000.
G1 X203.2
G3 X206.375 Y0 I0 J3.175
G1 Y127
G3 X203.2 Y130.175 I-3.175 J0
G1 X161.925
G1 Y279.4
G3 X158.75 Y282.575 I-3.175 J0
G1 X120.65
G3 X117.475 Y279.4 I0 J-3.175
G1 Y130.175
G1 X85.725
G1 Y279.4
G3 X82.55 Y282.575 I-3.175 J0
G1 X44.45
G3 X41.275 Y279.4 I0 J-3.175
G1 Y130.175
G1 X0
G3 X-3.175 Y127 I0 J-3.175
G1 Y0
G1 Z-6.35 F333.
G3 X0 Y-3.175 I3.175 J0 F1000.
G1 X41.439
G1 Z-3.81
G1 X52.869
G1 Z-6.35 F333.
G1 X148.397 F1000.
G1 Z-3.81
G1 X159.827
G1 Z-6.35 F333.
G1 X203.2 F1000.
G3 X206.375 Y0 I0 J3.175
G1 Y24.547
G1 Z-3.81
G1 Y35.977
G1 Z-6.35 F333.
G1 Y59.449 F1000.
G1 Z-3.81
G1 Y70.879
G1 Z-6.35 F333.
G1 Y95.477 F1000.
G1 Z-3.81
G1 Y106.907
G1 Z-6.35 F333.
G1 Y127 F1000.
G3 X203.2 Y130.175 I-3.175 J0
G1 X161.925
G1 Y185.547
G1 Z-3.81
G1 Y196.977
G1 Z-6.35 F333.
G1 Y279.4 F1000.
G3 X158.75 Y282.575 I-3.175 J0
G1 X144.065
G1 Z-3.81
G1 X132.635
G1 Z-6.35 F333.
G1 X120.65 F1000.
G3 X117.475 Y279.4 I0 J-3.175
G1 Y195.851
G1 Z-3.81
G1 Y184.421
G1 Z-6.35 F333.
G1 Y130.175 F1000.
G1 X85.725
G1 Y184.421
G1 Z-3.81
G1 Y195.851
G1 Z-6.35 F333.
G1 Y279.4 F1000.
G3 X82.55 Y282.575 I-3.175 J0
G1 X68.632
G1 Z-3.81
G1 X57.202
G1 Z-6.35 F333.
G1 X44.45 F1000.
G3 X41.275 Y279.4 I0 J-3.175
G1 Y194.725
G1 Z-3.81
G1 Y183.295
G1 Z-6.35 F333.
G1 Y130.175 F1000.
G1 X0
G3 X-3.175 Y127 I0 J-3.175
G1 Y109.158
G1 Z-3.81
G1 Y97.728
G1 Z-6.35 F333.
G1 Y73.131 F1000.
G1 Z-3.81
G1 Y61.701
G1 Z-6.35 F333.
G1 Y34.851 F1000.
G1 Z-3.81
G1 Y23.421
G1 Z-6.35 F333.
G1 Y0 F1000.
G0 Z18.796

(2D POCKET2)
G0 Z28.956
G0 X127.581 Y89.937
G0 Z18.796
G1 Z16.256 F1000.
G1 X148.717 Z15.518 F333.
G1 Y95.271 Z15.332
G1 X54.483 Z12.041
G1 Y89.937 Z11.855
G1 X146.653 Z8.636
G1 X148.717 F1000.
G1 Y95.271
G1 X54.483
G1 Y89.937
G1 X146.653
G1 X148.717 Z8.564 F333.
G1 Y95.271 Z8.378
G1 X54.483 Z5.087
G1 Y89.937 Z4.901
G1 X92.989 Z3.556
G1 X146.653 F1000.
G1 X148.717
G1 Y95.271
G1 X54.483
G1 Y89.937
G1 X92.989
G1 X148.717 Z1.61 F333.
G1 Y95.271 Z1.424
G1 X64.306 Z-1.524
G1 X54.483 F1000.
G1 Y89.937
G1 X148.717
G1 Y95.271
G1 X64.306
G1 X54.483 Z-1.867 F333.
G1 Y89.937 Z-2.053
G1 X148.717 Z-5.344
G1 Y95.271 Z-5.53
G1 X139.791 Z-5.842
G1 X64.306 F1000.
G1 X54.483
G1 Y89.937
G1 X148.717
G1 Y95.271
G1 X139.791
G0 Z18.796
G0 X40.767 Y66.939
G1 Z16.256 F1000.
G1 Y76.221 Z15.932 F333.
G1 X35.433 Z15.746
G1 Y30.141 Z14.136
G1 X40.767 Z13.95
G1 Y76.221 Z12.341
G1 X35.433 Z12.155
G1 Y30.141 Z10.546
G1 X40.767 Z10.359
G1 Y76.221 Z8.75
G1 X37.497 Z8.636
G1 X35.433 F1000.
G1 Y30.141
G1 X40.767
G1 Y76.221
G1 X37.497
G1 X35.433 Z8.564 F333.
G1 Y30.141 Z6.955
G1 X40.767 Z6.769
G1 Y76.221 Z5.159
G1 X35.433 Z4.973
G1 Y35.641 Z3.556
G1 Y30.141 F1000.
G1 X40.767
G1 Y76.221
G1 X37.497
G1 X35.433
G1 Y35.641
G1 Y30.141 Z3.364 F333.
G1 X40.767 Z3.178
G1 Y76.221 Z1.569
G1 X35.433 Z1.382
G1 Y30.141 Z-0.227
G1 X40.767 Z-0.413
G1 Y61.952 Z-1.524
G1 Y76.221 F1000.
G1 X35.433
G1 Y35.641
G1 Y30.141
G1 X40.767
G1 Y61.952
G1 Y76.221 Z-2.022 F333.
G1 X35.433 Z-2.209
G1 Y30.141 Z-3.818
G1 X40.767 Z-4.004
G1 Y76.221 Z-5.613
G1 X35.433 Z-5.799
G1 Y75 Z-5.842
G1 Y30.141 F1000.
G1 X40.767
G1 Y61.952
G1 Y76.221
G1 X35.433
G1 Y75
G0 Z28.956

G0 Z28.956
M5
M30
