(1001)
(T1  D=6.35 CR=0 - ZMIN=-7.366 - FLAT END MILL)
G0 G40 G90 G17
G21

(2D CONTOUR2)
T1 M6
M3 S5000
G0 X117.475 Y279.4
G0 Z18.796
G1 Z16.891 F508.
G1 Z6.096
G1 Y130.175
G1 X85.725
G1 Y279.4
G3 X82.55 Y282.575 I-3.175 J0
G1 X44.45
G3 X41.275 Y279.4 I0 J-3.175
G1 Y130.175
G1 X0
G3 X-3.175 Y127 I0 J-3.175
G1 Y0
G3 X0 Y-3.175 I3.175 J0
G1 X203.2
G3 X206.375 Y0 I0 J3.175
G1 Y127
G3 X203.2 Y130.175 I-3.175 J0
G1 X161.925
G1 Y279.4
G3 X158.75 Y282.575 I-3.175 J0
G1 X120.65
G3 X117.475 Y279.4 I0 J-3.175
G1 Z-1.524
G1 Y130.175
G1 X85.725
G1 Y279.4
G3 X82.55 Y282.575 I-3.175 J0
G1 X44.45
G3 X41.275 Y279.4 I0 J-3.175
G1 Y130.175
G1 X0
G3 X-3.175 Y127 I0 J-3.175
G1 Y0
G3 X0 Y-3.175 I3.175 J0
G1 X203.2
G3 X206.375 Y0 I0 J3.175
G1 Y127
G3 X203.2 Y130.175 I-3.175 J0
G1 X161.925
G1 Y279.4
G3 X158.75 Y282.575 I-3.175 J0
G1 X120.65
G3 X117.475 Y279.4 I0 J-3.175
G1 Z-7.366
G1 Y130.175
G1 X85.725
G1 Y279.4
G3 X82.55 Y282.575 I-3.175 J0
G1 X44.45
G3 X41.275 Y279.4 I0 J-3.175
G1 Y130.175
G1 X0
G3 X-3.175 Y127 I0 J-3.175
G1 Y0
G3 X0 Y-3.175 I3.175 J0
G1 X203.2
G3 X206.375 Y0 I0 J3.175
G1 Y127
G3 X203.2 Y130.175 I-3.175 J0
G1 X161.925
G1 Y279.4
G3 X158.75 Y282.575 I-3.175 J0
G1 X120.65
G3 X117.475 Y279.4 I0 J-3.175
G0 Z18.796

(2D POCKET2)
G0 Z28.956
G0 X137.687 Y95.271
G0 Z18.796
G1 Z16.256 F508.
G1 X54.483 Z13.35
G1 Y89.937 Z13.164
G1 X148.717 Z9.873
G1 Y95.271 Z9.687
G1 X54.483 Z6.396
G1 Y89.937 Z6.21
G1 X57.753 Z6.096
G1 X148.717
G1 Y95.271
G1 X54.483
G1 Y89.937
G1 X57.753
G1 X148.717 Z2.919
G1 Y95.271 Z2.733
G1 X54.483 Z-0.558
G1 Y89.937 Z-0.744
G1 X76.826 Z-1.524
G1 X148.717
G1 Y95.271
G1 X54.483
G1 Y89.937
G1 X76.826
G1 X148.717 Z-4.035
G1 Y95.271 Z-4.221
G1 X65.923 Z-7.112
G1 X54.483
G1 Y89.937
G1 X148.717
G1 Y95.271
G1 X65.923
G0 Z18.796
G0 X40.767 Y50.951
G1 Z16.256 F508.
G1 Y76.221 Z15.374
G1 X35.433 Z15.187
G1 Y30.141 Z13.578
G1 X40.767 Z13.392
G1 Y76.221 Z11.783
G1 X35.433 Z11.596
G1 Y30.141 Z9.987
G1 X40.767 Z9.801
G1 Y76.221 Z8.192
G1 X35.433 Z8.006
G1 Y30.141 Z6.396
G1 X40.767 Z6.21
G1 Y33.412 Z6.096
G1 Y76.221
G1 X35.433
G1 Y30.141
G1 X40.767
G1 Y33.412
G1 Y76.221 Z4.601
G1 X35.433 Z4.415
G1 Y30.141 Z2.806
G1 X40.767 Z2.619
G1 Y76.221 Z1.01
G1 X35.433 Z0.824
G1 Y30.141 Z-0.785
G1 X40.767 Z-0.971
G1 Y45.964 Z-1.524
G1 Y76.221
G1 X35.433
G1 Y30.141
G1 X40.767
G1 Y45.964
G1 Y76.221 Z-2.581
G1 X35.433 Z-2.767
G1 Y30.141 Z-4.376
G1 X40.767 Z-4.562
G1 Y76.221 Z-6.171
G1 X35.433 Z-6.358
G1 Y54.621 Z-7.112
G1 Y30.141
G1 X40.767
G1 Y76.221
G1 X35.433
G1 Y54.621
G0 Z28.956

G0 Z28.956
M5
M30
