(1001)
(T1  D=6.35 CR=0 - ZMIN=-19.05 - FLAT END MILL)
G0 G40 G90 G17
G21

(2D CONTOUR2)
T1 M6
M3 S5000
G0 X117.475 Y279.4
G0 Z6.096
G1 Z4.191 F333.
G1 Z-6.604
G1 Y130.175 F1000.
G1 X85.725
G1 Y279.4
G3 X82.55 Y282.575 I-3.175 J0
G1 X44.45
G3 X41.275 Y279.4 I0 J-3.175
G1 Y130.175
G1 X0
G3 X-3.175 Y127 I0 J-3.175
G1 Y0
G3 X0 Y-3.175 I3.175 J0
G1 X203.2
G3 X206.375 Y0 I0 J3.175
G1 Y127
G3 X203.2 Y130.175 I-3.175 J0
G1 X161.925
G1 Y279.4
G3 X158.75 Y282.575 I-3.175 J0
G1 X120.65
G3 X117.475 Y279.4 I0 J-3.175
G1 Z-14.224 F333.
G1 Y130.175 F1000.
G1 X85.725
G1 Y279.4
G3 X82.55 Y282.575 I-3.175 J0
G1 X44.45
G3 X41.275 Y279.4 I0 J-3.175
G1 Y130.175
G1 X0
G3 X-3.175 Y127 I0 J-3.175
G1 Y0
G3 X0 Y-3.175 I3.175 J0
G1 X203.2
G3 X206.375 Y0 I0 J3.175
G1 Y127
G3 X203.2 Y130.175 I-3.175 J0
G1 X161.925
G1 Y279.4
G3 X158.75 Y282.575 I-3.175 J0
G1 X120.65
G3 X117.475 Y279.4 I0 J-3.175
G1 Z-19.05 F333.
G1 Y130.175 F1000.
G1 X85.725
G1 Y279.4
G3 X82.55 Y282.575 I-3.175 J0
G1 X44.45
G3 X41.275 Y279.4 I0 J-3.175
G1 Y130.175
G1 X0
G3 X-3.175 Y127 I0 J-3.175
G1 Y0
G3 X0 Y-3.175 I3.175 J0
G1 X203.2
G3 X206.375 Y0 I0 J3.175
G1 Y127
G3 X203.2 Y130.175 I-3.175 J0
G1 X161.925
G1 Y279.4
G3 X158.75 Y282.575 I-3.175 J0
G1 X120.65
G3 X117.475 Y279.4 I0 J-3.175
G0 Z6.096

(2D POCKET2)
G0 Z11.176
G0 X64.951 Y95.271
G0 Z6.096
G1 Z3.556 F1000.
G1 X54.483 Z3.19 F333.
G1 Y89.937 Z3.004
G1 X148.717 Z-0.287
G1 Y95.271 Z-0.473
G1 X54.483 Z-3.764
G1 Y89.937 Z-3.95
G1 X57.753 Z-4.064
G1 X148.717 F1000.
G1 Y95.271
G1 X54.483
G1 Y89.937
G1 X57.753
G1 X148.717 Z-7.241 F333.
G1 Y95.271 Z-7.427
G1 X99.543 Z-9.144
G1 X54.483 F1000.
G1 Y89.937
G1 X148.717
G1 Y95.271
G1 X99.543
G1 X54.483 Z-10.718 F333.
G1 Y89.937 Z-10.904
G1 X148.717 Z-14.195
G1 Y90.782 Z-14.224
G1 Y95.271 F1000.
G1 X99.543
G1 X54.483
G1 Y89.937
G1 X148.717
G1 Y90.782
G1 Y95.271 Z-14.381 F333.
G1 X54.483 Z-17.671
G1 Y89.937 Z-17.858
G1 X74.077 Z-18.542
G1 X148.717 F1000.
G1 Y95.271
G1 X54.483
G1 Y89.937
G1 X74.077
G0 Z6.096
G0 X35.433 Y34.09
G1 Z3.556 F1000.
G1 Y30.141 Z3.418 F333.
G1 X40.767 Z3.232
G1 Y76.221 Z1.623
G1 X35.433 Z1.436
G1 Y30.141 Z-0.173
G1 X40.767 Z-0.359
G1 Y76.221 Z-1.968
G1 X35.433 Z-2.154
G1 Y30.141 Z-3.764
G1 X40.767 Z-3.95
G1 Y33.412 Z-4.064
G1 Y76.221 F1000.
G1 X35.433
G1 Y30.141
G1 X40.767
G1 Y33.412
G1 Y76.221 Z-5.559 F333.
G1 X35.433 Z-5.745
G1 Y30.141 Z-7.354
G1 X40.767 Z-7.541
G1 Y76.056 Z-9.144
G1 Y76.221 F1000.
G1 X35.433
G1 Y30.141
G1 X40.767
G1 Y76.056
G1 Y76.221 Z-9.15 F333.
G1 X35.433 Z-9.336
G1 Y30.141 Z-10.945
G1 X40.767 Z-11.131
G1 Y76.221 Z-12.741
G1 X35.433 Z-12.927
G1 Y39.076 Z-14.224
G1 Y30.141 F1000.
G1 X40.767
G1 Y76.056
G1 Y76.221
G1 X35.433
G1 Y39.076
G1 Y30.141 Z-14.536 F333.
G1 X40.767 Z-14.722
G1 Y76.221 Z-16.331
G1 X35.433 Z-16.518
G1 Y30.141 Z-18.127
G1 X40.767 Z-18.313
G1 Y36.696 Z-18.542
G1 Y76.221 F1000.
G1 X35.433
G1 Y39.076
G1 Y30.141
G1 X40.767
G1 Y36.696
G0 Z11.176

G0 Z11.176
M5
M30
