%
(Made in : Autodesk CAM Post Processor)
(G Code optimized for OpenBuilds OX CNC 1000 x 750 with GRBL V0.9j controller)

(Program Name : 1001)
(1 Operation :)
(1 : 2D Contour3)
(  Tool : Flat End Mill 2 Flutes, Diam = 6.35mm, Len = 25.399999999999995mm)
(  Spindle : RPM = 5000, set router dial to 1)
(  Machining time : 41 min 6 sec)

G90 G94
G17
G21

(Operation 1 of 1 : 2D Contour3)

G53 G0 Z-10
G54
S5000 M3
G4 P1.0
X-1122.115 Y490.135
Z5.08
G1 F508
Z-5.08
G2 X-1118.9399 Y493.31 I3.175
G1 X-725.235
G2 X-722.06 Y490.135 J-3.175
G1 Y337.735
G2 X-725.235 Y334.56 I-3.175
G1 X-1118.9399
G2 X-1122.115 Y337.735 J3.175
G1 Y490.135
Z-10.16
G2 X-1118.9399 Y493.31 I3.175
G1 X-725.235
G2 X-722.06 Y490.135 J-3.175
G1 Y337.735
G2 X-725.235 Y334.56 I-3.175
G1 X-1118.9399
G2 X-1122.115 Y337.735 J3.175
G1 Y490.135
Z-13.716
G2 X-1118.9399 Y493.31 I3.175
G1 X-1059.67
Z-12.1285
X-1046.97
Z-13.716
X-928.435
Z-12.1285
X-915.735
Z-13.716
X-797.202
Z-12.1285
X-784.502
Z-13.716
X-725.235
G2 X-722.06 Y490.135 J-3.175
G1 Y420.285
Z-12.1285
Y407.585
Z-13.716
Y337.735
G2 X-725.235 Y334.56 I-3.175
G1 X-784.502
Z-12.1285
X-797.202
Z-13.716
X-915.735
Z-12.1285
X-928.435
Z-13.716
X-1046.97
Z-12.1285
X-1059.67
Z-13.716
X-1118.9399
G2 X-1122.115 Y337.735 J3.175
G1 Y407.585
Z-12.1285
Y420.285
Z-13.716
Y490.135
G0 Z5.08
X-1118.9399 Y315.51
G1 Z-5.08 F508
X-1030.04
G2 X-1026.865 Y312.335 J-3.175
G1 Y185.335
G2 X-1030.04 Y182.16 I-3.175
G1 X-1118.9399
G2 X-1122.115 Y185.335 J3.175
G1 Y312.335
G2 X-1118.9399 Y315.51 I3.175
G1 Z-10.16
X-1030.04
G2 X-1026.865 Y312.335 J-3.175
G1 Y185.335
G2 X-1030.04 Y182.16 I-3.175
G1 X-1118.9399
G2 X-1122.115 Y185.335 J3.175
G1 Y312.335
G2 X-1118.9399 Y315.51 I3.175
G1 Z-13.716
X-1030.04
G2 X-1026.865 Y312.335 J-3.175
G1 Y255.185
Z-12.1285
Y242.485
Z-13.716
Y185.335
G2 X-1030.04 Y182.16 I-3.175
G1 X-1118.9399
G2 X-1122.115 Y185.335 J3.175
G1 Y242.485
Z-12.1285
Y255.185
Z-13.716
Y312.335
G2 X-1118.9399 Y315.51 I3.175
G0 Z5.08
X-1006.3569 Y315.0057
G1 Z-5.08 F508
G2 X-1004.64 Y315.51 I1.7169 J-2.6707
G1 X-915.735
G2 X-912.56 Y312.335 J-3.175
G1 Y185.335
G2 X-915.735 Y182.16 I-3.175
G1 X-1004.64
G2 X-1007.815 Y185.335 J3.175
G1 Y312.335
G2 X-1006.3569 Y315.0057 I3.175
G1 Z-10.16
G2 X-1004.64 Y315.51 I1.7169 J-2.6707
G1 X-915.735
G2 X-912.56 Y312.335 J-3.175
G1 Y185.335
G2 X-915.735 Y182.16 I-3.175
G1 X-1004.64
G2 X-1007.815 Y185.335 J3.175
G1 Y312.335
G2 X-1006.3569 Y315.0057 I3.175
G1 Z-13.716
G2 X-1004.64 Y315.51 I1.7169 J-2.6707
G1 X-915.735
G2 X-912.56 Y312.335 J-3.175
G1 Y255.185
Z-12.1285
Y242.485
Z-13.716
Y185.335
G2 X-915.735 Y182.16 I-3.175
G1 X-1004.64
G2 X-1007.815 Y185.335 J3.175
G1 Y242.485
Z-12.1285
Y255.185
Z-13.716
Y312.335
G2 X-1006.3569 Y315.0057 I3.175
G0 Z5.08
X-892.8412 Y314.2842
G1 Z-5.08 F508
G2 X-890.335 Y315.51 I2.5062 J-1.9492
G1 X-801.435
G2 X-798.26 Y312.335 J-3.175
G1 Y185.335
G2 X-801.435 Y182.16 I-3.175
G1 X-890.335
G2 X-893.51 Y185.335 J3.175
G1 Y312.335
G2 X-892.8412 Y314.2842 I3.175
G1 Z-10.16
G2 X-890.335 Y315.51 I2.5062 J-1.9492
G1 X-801.435
G2 X-798.26 Y312.335 J-3.175
G1 Y185.335
G2 X-801.435 Y182.16 I-3.175
G1 X-890.335
G2 X-893.51 Y185.335 J3.175
G1 Y312.335
G2 X-892.8412 Y314.2842 I3.175
G1 Z-13.716
G2 X-890.335 Y315.51 I2.5062 J-1.9492
G1 X-801.435
G2 X-798.26 Y312.335 J-3.175
G1 Y255.185
Z-12.1285
Y242.485
Z-13.716
Y185.335
G2 X-801.435 Y182.16 I-3.175
G1 X-890.335
G2 X-893.51 Y185.335 J3.175
G1 Y242.485
Z-12.1285
Y255.185
Z-13.716
Y312.335
G2 X-892.8412 Y314.2842 I3.175
G0 Z5.08
X-778.8536 Y313.7965
G1 Z-5.08 F508
G2 X-776.035 Y315.51 I2.8187 J-1.4615
G1 X-725.235
X-687.135
G2 X-683.96 Y312.335 J-3.175
G1 Y185.335
G2 X-687.135 Y182.16 I-3.175
G1 X-776.035
G2 X-779.21 Y185.335 J3.175
G1 Y312.335
G2 X-778.8536 Y313.7965 I3.175
G1 Z-10.16
G2 X-776.035 Y315.51 I2.8187 J-1.4615
G1 X-725.235
X-687.135
G2 X-683.96 Y312.335 J-3.175
G1 Y185.335
G2 X-687.135 Y182.16 I-3.175
G1 X-776.035
G2 X-779.21 Y185.335 J3.175
G1 Y312.335
G2 X-778.8536 Y313.7965 I3.175
G1 Z-13.716
G2 X-776.035 Y315.51 I2.8187 J-1.4615
G1 X-687.135
G2 X-683.96 Y312.335 J-3.175
G1 Y255.185
Z-12.1285
Y242.485
Z-13.716
Y185.335
G2 X-687.135 Y182.16 I-3.175
G1 X-776.035
G2 X-779.21 Y185.335 J3.175
G1 Y242.485
Z-12.1285
Y255.185
Z-13.716
Y312.335
G2 X-778.8536 Y313.7965 I3.175
G0 Z5.08
X-703.0042 Y464.9271
G1 Z-5.08 F508
G2 X-699.835 Y467.91 I3.1692 J-0.1921
G1 X-306.135
G2 X-302.96 Y464.735 J-3.175
G1 Y337.735
G2 X-306.135 Y334.56 I-3.175
G1 X-699.835
G2 X-703.01 Y337.735 J3.175
G1 Y464.735
X-703.0042 Y464.9271
Z-10.16
G2 X-699.835 Y467.91 I3.1692 J-0.1921
G1 X-306.135
G2 X-302.96 Y464.735 J-3.175
G1 Y337.735
G2 X-306.135 Y334.56 I-3.175
G1 X-699.835
G2 X-703.01 Y337.735 J3.175
G1 Y464.735
X-703.0042 Y464.9271
Z-13.716
G2 X-699.835 Y467.91 I3.1692 J-0.1921
G1 X-640.569
Z-12.1285
X-627.869
Z-13.716
X-509.335
Z-12.1285
X-496.635
Z-13.716
X-378.102
Z-12.1285
X-365.402
Z-13.716
X-306.135
G2 X-302.96 Y464.735 J-3.175
G1 Y407.585
Z-12.1285
Y394.885
Z-13.716
Y337.735
G2 X-306.135 Y334.56 I-3.175
G1 X-365.402
Z-12.1285
X-378.102
Z-13.716
X-496.635
Z-12.1285
X-509.335
Z-13.716
X-627.869
Z-12.1285
X-640.569
Z-13.716
X-699.835
G2 X-703.01 Y337.735 J3.175
G1 Y394.885
Z-12.1285
Y407.585
Z-13.716
Y464.735
X-703.0042 Y464.9271
G0 Z5.08
X-664.6941 Y313.4857
G1 Z-5.08 F508
G2 X-661.735 Y315.51 I2.9591 J-1.1508
G1 X-572.835
G2 X-569.66 Y312.335 J-3.175
G1 Y185.335
G2 X-572.835 Y182.16 I-3.175
G1 X-661.735
G2 X-664.91 Y185.335 J3.175
G1 Y312.335
G2 X-664.6941 Y313.4857 I3.175
G1 Z-10.16
G2 X-661.735 Y315.51 I2.9591 J-1.1508
G1 X-572.835
G2 X-569.66 Y312.335 J-3.175
G1 Y185.335
G2 X-572.835 Y182.16 I-3.175
G1 X-661.735
G2 X-664.91 Y185.335 J3.175
G1 Y312.335
G2 X-664.6941 Y313.4857 I3.175
G1 Z-13.716
G2 X-661.735 Y315.51 I2.9591 J-1.1508
G1 X-572.835
G2 X-569.66 Y312.335 J-3.175
G1 Y255.185
Z-12.1285
Y242.485
Z-13.716
Y185.335
G2 X-572.835 Y182.16 I-3.175
G1 X-661.735
G2 X-664.91 Y185.335 J3.175
G1 Y242.485
Z-12.1285
Y255.185
Z-13.716
Y312.335
G2 X-664.6941 Y313.4857 I3.175
G0 Z5.08
X-550.4667 Y313.2782
G1 Z-5.08 F508
G2 X-547.435 Y315.51 I3.0317 J-0.9432
G1 X-458.535
G2 X-455.36 Y312.335 J-3.175
G1 Y185.335
G2 X-458.535 Y182.16 I-3.175
G1 X-547.435
G2 X-550.61 Y185.335 J3.175
G1 Y312.335
G2 X-550.4667 Y313.2782 I3.175
G1 Z-10.16
G2 X-547.435 Y315.51 I3.0317 J-0.9432
G1 X-458.535
G2 X-455.36 Y312.335 J-3.175
G1 Y185.335
G2 X-458.535 Y182.16 I-3.175
G1 X-547.435
G2 X-550.61 Y185.335 J3.175
G1 Y312.335
G2 X-550.4667 Y313.2782 I3.175
G1 Z-13.716
G2 X-547.435 Y315.51 I3.0317 J-0.9432
G1 X-458.535
G2 X-455.36 Y312.335 J-3.175
G1 Y255.185
Z-12.1285
Y242.485
Z-13.716
Y185.335
G2 X-458.535 Y182.16 I-3.175
G1 X-547.435
G2 X-550.61 Y185.335 J3.175
G1 Y242.485
Z-12.1285
Y255.185
Z-13.716
Y312.335
G2 X-550.4667 Y313.2782 I3.175
G0 Z5.08
X-436.2084 Y313.1318
G1 Z-5.08 F508
G2 X-433.135 Y315.51 I3.0734 J-0.7968
G1 X-344.235
G2 X-341.06 Y312.335 J-3.175
G1 Y185.335
G2 X-344.235 Y182.16 I-3.175
G1 X-433.135
G2 X-436.31 Y185.335 J3.175
G1 Y312.335
G2 X-436.2084 Y313.1318 I3.175
G1 Z-10.16
G2 X-433.135 Y315.51 I3.0734 J-0.7968
G1 X-344.235
G2 X-341.06 Y312.335 J-3.175
G1 Y185.335
G2 X-344.235 Y182.16 I-3.175
G1 X-433.135
G2 X-436.31 Y185.335 J3.175
G1 Y312.335
G2 X-436.2084 Y313.1318 I3.175
G1 Z-13.716
G2 X-433.135 Y315.51 I3.0734 J-0.7968
G1 X-344.235
G2 X-341.06 Y312.335 J-3.175
G1 Y255.185
Z-12.1285
Y242.485
Z-13.716
Y185.335
G2 X-344.235 Y182.16 I-3.175
G1 X-433.135
G2 X-436.31 Y185.335 J3.175
G1 Y242.485
Z-12.1285
Y255.185
Z-13.716
Y312.335
G2 X-436.2084 Y313.1318 I3.175
G0 Z5.08
X-321.9344 Y313.0237
G1 Z-5.08 F508
G2 X-318.835 Y315.51 I3.0994 J-0.6888
G1 X-229.935
G2 X-226.76 Y312.335 J-3.175
G1 Y185.335
G2 X-229.935 Y182.16 I-3.175
G1 X-318.835
G2 X-322.01 Y185.335 J3.175
G1 Y312.335
G2 X-321.9344 Y313.0237 I3.175
G1 Z-10.16
G2 X-318.835 Y315.51 I3.0994 J-0.6888
G1 X-229.935
G2 X-226.76 Y312.335 J-3.175
G1 Y185.335
G2 X-229.935 Y182.16 I-3.175
G1 X-318.835
G2 X-322.01 Y185.335 J3.175
G1 Y312.335
G2 X-321.9344 Y313.0237 I3.175
G1 Z-13.716
G2 X-318.835 Y315.51 I3.0994 J-0.6888
G1 X-229.935
G2 X-226.76 Y312.335 J-3.175
G1 Y255.185
Z-12.1285
Y242.485
Z-13.716
Y185.335
G2 X-229.935 Y182.16 I-3.175
G1 X-318.835
G2 X-322.01 Y185.335 J3.175
G1 Y242.485
Z-12.1285
Y255.185
Z-13.716
Y312.335
G2 X-321.9344 Y313.0237 I3.175
G0 Z5.08
X-283.9085 Y464.8312
G1 Z-5.08 F508
G2 X-280.735 Y467.91 I3.1736 J-0.0962
G1 X112.965
G2 X116.14 Y464.735 J-3.175
G1 Y337.735
G2 X112.965 Y334.56 I-3.175
G1 X-229.935
X-280.735
G2 X-283.91 Y337.735 J3.175
G1 Y464.735
X-283.9085 Y464.8312
Z-10.16
G2 X-280.735 Y467.91 I3.1736 J-0.0962
G1 X112.965
G2 X116.14 Y464.735 J-3.175
G1 Y337.735
G2 X112.965 Y334.56 I-3.175
G1 X-229.935
X-280.735
G2 X-283.91 Y337.735 J3.175
G1 Y464.735
X-283.9085 Y464.8312
Z-13.716
G2 X-280.735 Y467.91 I3.1736 J-0.0962
G1 X-221.469
Z-12.1285
X-208.769
Z-13.716
X-90.2354
Z-12.1285
X-77.5354
Z-13.716
X40.9979
Z-12.1285
X53.6979
Z-13.716
X112.965
G2 X116.14 Y464.735 J-3.175
G1 Y407.585
Z-12.1285
Y394.885
Z-13.716
Y337.735
G2 X112.965 Y334.56 I-3.175
G1 X53.6979
Z-12.1285
X40.9979
Z-13.716
X-77.5354
Z-12.1285
X-90.2354
Z-13.716
X-208.769
Z-12.1285
X-221.469
Z-13.716
X-280.735
G2 X-283.91 Y337.735 J3.175
G1 Y394.885
Z-12.1285
Y407.585
Z-13.716
Y464.735
X-283.9085 Y464.8312
G0 Z5.08

G53 Z-10
M5
G4 P1.0
G53 X-10 Y-10
M30
%
