%
(Made in : Autodesk CAM Post Processor)
(G Code optimized for OpenBuilds OX CNC 1000 x 750 with GRBL V0.9j controller)

(Program Name : 1001)
(1 Operation :)
(1 : 2D Contour3)
(  Tool : Flat End Mill 2 Flutes, Diam = 0.25mm, Len = 0.9999999999999998mm)
(  Spindle : RPM = 5000, set router dial to 1)
(  Machining time : 41 min 6 sec)

G90 G94
G17
G20

(Operation 1 of 1 : 2D Contour3)

G53 G0 Z-10
G54
S5000 M3
G4 P1.0
X-44.177756 Y19.296654
Z0.2
G1 F20
Z-0.2
G2 X-44.052754 Y19.421653 I0.125002
G1 X-28.552558
G2 X-28.427559 Y19.296654 J-0.125
G1 Y13.296653
G2 X-28.552558 Y13.171653 I-0.125
G1 X-44.052754
G2 X-44.177756 Y13.296653 J0.125
G1 Y19.296654
Z-0.4
G2 X-44.052754 Y19.421653 I0.125002
G1 X-28.552558
G2 X-28.427559 Y19.296654 J-0.125
G1 Y13.296653
G2 X-28.552558 Y13.171653 I-0.125
G1 X-44.052754
G2 X-44.177756 Y13.296653 J0.125
G1 Y19.296654
Z-0.54
G2 X-44.052754 Y19.421653 I0.125002
G1 X-41.719293
Z-0.4775
X-41.21929
Z-0.54
X-36.552559
Z-0.4775
X-36.052558
Z-0.54
X-31.385907
Z-0.4775
X-30.885906
Z-0.54
X-28.552558
G2 X-28.427559 Y19.296654 J-0.125
G1 Y16.546654
Z-0.4775
Y16.046653
Z-0.54
Y13.296653
G2 X-28.552558 Y13.171653 I-0.125
G1 X-30.885906
Z-0.4775
X-31.385907
Z-0.54
X-36.052558
Z-0.4775
X-36.552559
Z-0.54
X-41.21929
Z-0.4775
X-41.719293
Z-0.54
X-44.052754
G2 X-44.177756 Y13.296653 J0.125
G1 Y16.046653
Z-0.4775
Y16.546654
Z-0.54
Y19.296654
G0 Z0.2
X-44.052754 Y12.421654
G1 Z-0.2 F20
X-40.552757
G2 X-40.427756 Y12.296653 J-0.125001
G1 Y7.296654
G2 X-40.552757 Y7.171654 I-0.125002
G1 X-44.052754
G2 X-44.177756 Y7.296654 J0.125
G1 Y12.296653
G2 X-44.052754 Y12.421654 I0.125002
G1 Z-0.4
X-40.552757
G2 X-40.427756 Y12.296653 J-0.125001
G1 Y7.296654
G2 X-40.552757 Y7.171654 I-0.125002
G1 X-44.052754
G2 X-44.177756 Y7.296654 J0.125
G1 Y12.296653
G2 X-44.052754 Y12.421654 I0.125002
G1 Z-0.54
X-40.552757
G2 X-40.427756 Y12.296653 J-0.125001
G1 Y10.046653
Z-0.4775
Y9.546654
Z-0.54
Y7.296654
G2 X-40.552757 Y7.171654 I-0.125002
G1 X-44.052754
G2 X-44.177756 Y7.296654 J0.125
G1 Y9.546654
Z-0.4775
Y10.046653
Z-0.54
Y12.296653
G2 X-44.052754 Y12.421654 I0.125002
G0 Z0.2
X-39.620352 Y12.401801
G1 Z-0.2 F20
G2 X-39.552756 Y12.421654 I0.067595 J-0.105147
G1 X-36.052558
G2 X-35.927559 Y12.296653 J-0.125001
G1 Y7.296654
G2 X-36.052558 Y7.171654 I-0.125
G1 X-39.552756
G2 X-39.677756 Y7.296654 J0.125
G1 Y12.296653
G2 X-39.620352 Y12.401801 I0.125
G1 Z-0.4
G2 X-39.552756 Y12.421654 I0.067595 J-0.105147
G1 X-36.052558
G2 X-35.927559 Y12.296653 J-0.125001
G1 Y7.296654
G2 X-36.052558 Y7.171654 I-0.125
G1 X-39.552756
G2 X-39.677756 Y7.296654 J0.125
G1 Y12.296653
G2 X-39.620352 Y12.401801 I0.125
G1 Z-0.54
G2 X-39.552756 Y12.421654 I0.067595 J-0.105147
G1 X-36.052558
G2 X-35.927559 Y12.296653 J-0.125001
G1 Y10.046653
Z-0.4775
Y9.546654
Z-0.54
Y7.296654
G2 X-36.052558 Y7.171654 I-0.125
G1 X-39.552756
G2 X-39.677756 Y7.296654 J0.125
G1 Y9.546654
Z-0.4775
Y10.046653
Z-0.54
Y12.296653
G2 X-39.620352 Y12.401801 I0.125
G0 Z0.2
X-35.151228 Y12.373395
G1 Z-0.2 F20
G2 X-35.05256 Y12.421654 I0.098668 J-0.076742
G1 X-31.552559
G2 X-31.427559 Y12.296653 J-0.125001
G1 Y7.296654
G2 X-31.552559 Y7.171654 I-0.125
G1 X-35.05256
G2 X-35.177559 Y7.296654 J0.125
G1 Y12.296653
G2 X-35.151228 Y12.373395 I0.125
G1 Z-0.4
G2 X-35.05256 Y12.421654 I0.098668 J-0.076742
G1 X-31.552559
G2 X-31.427559 Y12.296653 J-0.125001
G1 Y7.296654
G2 X-31.552559 Y7.171654 I-0.125
G1 X-35.05256
G2 X-35.177559 Y7.296654 J0.125
G1 Y12.296653
G2 X-35.151228 Y12.373395 I0.125
G1 Z-0.54
G2 X-35.05256 Y12.421654 I0.098668 J-0.076742
G1 X-31.552559
G2 X-31.427559 Y12.296653 J-0.125001
G1 Y10.046653
Z-0.4775
Y9.546654
Z-0.54
Y7.296654
G2 X-31.552559 Y7.171654 I-0.125
G1 X-35.05256
G2 X-35.177559 Y7.296654 J0.125
G1 Y9.546654
Z-0.4775
Y10.046653
Z-0.54
Y12.296653
G2 X-35.151228 Y12.373395 I0.125
G0 Z0.2
X-30.663529 Y12.354192
G1 Z-0.2 F20
G2 X-30.552558 Y12.421654 I0.110971 J-0.057539
G1 X-28.552558
X-27.052559
G2 X-26.92756 Y12.296653 J-0.125001
G1 Y7.296654
G2 X-27.052559 Y7.171654 I-0.125
G1 X-30.552558
G2 X-30.67756 Y7.296654 J0.125
G1 Y12.296653
G2 X-30.663529 Y12.354192 I0.125002
G1 Z-0.4
G2 X-30.552558 Y12.421654 I0.110971 J-0.057539
G1 X-28.552558
X-27.052559
G2 X-26.92756 Y12.296653 J-0.125001
G1 Y7.296654
G2 X-27.052559 Y7.171654 I-0.125
G1 X-30.552558
G2 X-30.67756 Y7.296654 J0.125
G1 Y12.296653
G2 X-30.663529 Y12.354192 I0.125002
G1 Z-0.54
G2 X-30.552558 Y12.421654 I0.110971 J-0.057539
G1 X-27.052559
G2 X-26.92756 Y12.296653 J-0.125001
G1 Y10.046653
Z-0.4775
Y9.546654
Z-0.54
Y7.296654
G2 X-27.052559 Y7.171654 I-0.125
G1 X-30.552558
G2 X-30.67756 Y7.296654 J0.125
G1 Y9.546654
Z-0.4775
Y10.046653
Z-0.54
Y12.296653
G2 X-30.663529 Y12.354192 I0.125002
G0 Z0.2
X-27.677331 Y18.304215
G1 Z-0.2 F20
G2 X-27.55256 Y18.421654 I0.124771 J-0.007562
G1 X-12.052559
G2 X-11.927559 Y18.296653 J-0.125001
G1 Y13.296653
G2 X-12.052559 Y13.171653 I-0.125001
G1 X-27.55256
G2 X-27.677559 Y13.296653 J0.125
G1 Y18.296653
X-27.677331 Y18.304215
Z-0.4
G2 X-27.55256 Y18.421654 I0.124771 J-0.007562
G1 X-12.052559
G2 X-11.927559 Y18.296653 J-0.125001
G1 Y13.296653
G2 X-12.052559 Y13.171653 I-0.125001
G1 X-27.55256
G2 X-27.677559 Y13.296653 J0.125
G1 Y18.296653
X-27.677331 Y18.304215
Z-0.54
G2 X-27.55256 Y18.421654 I0.124771 J-0.007562
G1 X-25.219251
Z-0.4775
X-24.719253
Z-0.54
X-20.052559
Z-0.4775
X-19.552559
Z-0.54
X-14.885905
Z-0.4775
X-14.385906
Z-0.54
X-12.052559
G2 X-11.927559 Y18.296653 J-0.125001
G1 Y16.046653
Z-0.4775
Y15.546654
Z-0.54
Y13.296653
G2 X-12.052559 Y13.171653 I-0.125001
G1 X-14.385906
Z-0.4775
X-14.885905
Z-0.54
X-19.552559
Z-0.4775
X-20.052559
Z-0.54
X-24.719253
Z-0.4775
X-25.219251
Z-0.54
X-27.55256
G2 X-27.677559 Y13.296653 J0.125
G1 Y15.546654
Z-0.4775
Y16.046653
Z-0.54
Y18.296653
X-27.677331 Y18.304215
G0 Z0.2
X-26.169059 Y12.341959
G1 Z-0.2 F20
G2 X-26.052558 Y12.421654 I0.1165 J-0.045305
G1 X-22.55256
G2 X-22.427558 Y12.296653 J-0.125001
G1 Y7.296654
G2 X-22.55256 Y7.171654 I-0.125002
G1 X-26.052558
G2 X-26.177558 Y7.296654 J0.125
G1 Y12.296653
G2 X-26.169059 Y12.341959 I0.125
G1 Z-0.4
G2 X-26.052558 Y12.421654 I0.1165 J-0.045305
G1 X-22.55256
G2 X-22.427558 Y12.296653 J-0.125001
G1 Y7.296654
G2 X-22.55256 Y7.171654 I-0.125002
G1 X-26.052558
G2 X-26.177558 Y7.296654 J0.125
G1 Y12.296653
G2 X-26.169059 Y12.341959 I0.125
G1 Z-0.54
G2 X-26.052558 Y12.421654 I0.1165 J-0.045305
G1 X-22.55256
G2 X-22.427558 Y12.296653 J-0.125001
G1 Y10.046653
Z-0.4775
Y9.546654
Z-0.54
Y7.296654
G2 X-22.55256 Y7.171654 I-0.125002
G1 X-26.052558
G2 X-26.177558 Y7.296654 J0.125
G1 Y9.546654
Z-0.4775
Y10.046653
Z-0.54
Y12.296653
G2 X-26.169059 Y12.341959 I0.125
G0 Z0.2
X-21.671916 Y12.333786
G1 Z-0.2 F20
G2 X-21.552559 Y12.421654 I0.119357 J-0.037133
G1 X-18.052559
G2 X-17.927558 Y12.296653 J-0.125001
G1 Y7.296654
G2 X-18.052559 Y7.171654 I-0.125001
G1 X-21.552559
G2 X-21.677558 Y7.296654 J0.125
G1 Y12.296653
G2 X-21.671916 Y12.333786 I0.125
G1 Z-0.4
G2 X-21.552559 Y12.421654 I0.119357 J-0.037133
G1 X-18.052559
G2 X-17.927558 Y12.296653 J-0.125001
G1 Y7.296654
G2 X-18.052559 Y7.171654 I-0.125001
G1 X-21.552559
G2 X-21.677558 Y7.296654 J0.125
G1 Y12.296653
G2 X-21.671916 Y12.333786 I0.125
G1 Z-0.54
G2 X-21.552559 Y12.421654 I0.119357 J-0.037133
G1 X-18.052559
G2 X-17.927558 Y12.296653 J-0.125001
G1 Y10.046653
Z-0.4775
Y9.546654
Z-0.54
Y7.296654
G2 X-18.052559 Y7.171654 I-0.125001
G1 X-21.552559
G2 X-21.677558 Y7.296654 J0.125
G1 Y9.546654
Z-0.4775
Y10.046653
Z-0.54
Y12.296653
G2 X-21.671916 Y12.333786 I0.125
G0 Z0.2
X-17.173559 Y12.328024
G1 Z-0.2 F20
G2 X-17.052559 Y12.421654 I0.121 J-0.031371
G1 X-13.552558
G2 X-13.427559 Y12.296653 J-0.125001
G1 Y7.296654
G2 X-13.552558 Y7.171654 I-0.125
G1 X-17.052559
G2 X-17.177559 Y7.296654 J0.125
G1 Y12.296653
G2 X-17.173559 Y12.328024 I0.125
G1 Z-0.4
G2 X-17.052559 Y12.421654 I0.121 J-0.031371
G1 X-13.552558
G2 X-13.427559 Y12.296653 J-0.125001
G1 Y7.296654
G2 X-13.552558 Y7.171654 I-0.125
G1 X-17.052559
G2 X-17.177559 Y7.296654 J0.125
G1 Y12.296653
G2 X-17.173559 Y12.328024 I0.125
G1 Z-0.54
G2 X-17.052559 Y12.421654 I0.121 J-0.031371
G1 X-13.552558
G2 X-13.427559 Y12.296653 J-0.125001
G1 Y10.046653
Z-0.4775
Y9.546654
Z-0.54
Y7.296654
G2 X-13.552558 Y7.171654 I-0.125
G1 X-17.052559
G2 X-17.177559 Y7.296654 J0.125
G1 Y9.546654
Z-0.4775
Y10.046653
Z-0.54
Y12.296653
G2 X-17.173559 Y12.328024 I0.125
G0 Z0.2
X-12.674582 Y12.323769
G1 Z-0.2 F20
G2 X-12.552559 Y12.421654 I0.122023 J-0.027116
G1 X-9.052559
G2 X-8.927559 Y12.296653 J-0.125001
G1 Y7.296654
G2 X-9.052559 Y7.171654 I-0.125
G1 X-12.552559
G2 X-12.677559 Y7.296654 J0.125
G1 Y12.296653
G2 X-12.674582 Y12.323769 I0.125001
G1 Z-0.4
G2 X-12.552559 Y12.421654 I0.122023 J-0.027116
G1 X-9.052559
G2 X-8.927559 Y12.296653 J-0.125001
G1 Y7.296654
G2 X-9.052559 Y7.171654 I-0.125
G1 X-12.552559
G2 X-12.677559 Y7.296654 J0.125
G1 Y12.296653
G2 X-12.674582 Y12.323769 I0.125001
G1 Z-0.54
G2 X-12.552559 Y12.421654 I0.122023 J-0.027116
G1 X-9.052559
G2 X-8.927559 Y12.296653 J-0.125001
G1 Y10.046653
Z-0.4775
Y9.546654
Z-0.54
Y7.296654
G2 X-9.052559 Y7.171654 I-0.125
G1 X-12.552559
G2 X-12.677559 Y7.296654 J0.125
G1 Y9.546654
Z-0.4775
Y10.046653
Z-0.54
Y12.296653
G2 X-12.674582 Y12.323769 I0.125001
G0 Z0.2
X-11.177502 Y18.30044
G1 Z-0.2 F20
G2 X-11.052558 Y18.421654 I0.124943 J-0.003787
G1 X4.447441
G2 X4.572441 Y18.296653 J-0.125001
G1 Y13.296653
G2 X4.447441 Y13.171653 I-0.125
G1 X-9.052559
X-11.052558
G2 X-11.177559 Y13.296653 J0.125
G1 Y18.296653
X-11.177502 Y18.30044
Z-0.4
G2 X-11.052558 Y18.421654 I0.124943 J-0.003787
G1 X4.447441
G2 X4.572441 Y18.296653 J-0.125001
G1 Y13.296653
G2 X4.447441 Y13.171653 I-0.125
G1 X-9.052559
X-11.052558
G2 X-11.177559 Y13.296653 J0.125
G1 Y18.296653
X-11.177502 Y18.30044
Z-0.54
G2 X-11.052558 Y18.421654 I0.124943 J-0.003787
G1 X-8.719252
Z-0.4775
X-8.219252
Z-0.54
X-3.552575
Z-0.4775
X-3.052575
Z-0.54
X1.61409
Z-0.4775
X2.114091
Z-0.54
X4.447441
G2 X4.572441 Y18.296653 J-0.125001
G1 Y16.046653
Z-0.4775
Y15.546654
Z-0.54
Y13.296653
G2 X4.447441 Y13.171653 I-0.125
G1 X2.114091
Z-0.4775
X1.61409
Z-0.54
X-3.052575
Z-0.4775
X-3.552575
Z-0.54
X-8.219252
Z-0.4775
X-8.719252
Z-0.54
X-11.052558
G2 X-11.177559 Y13.296653 J0.125
G1 Y15.546654
Z-0.4775
Y16.046653
Z-0.54
Y18.296653
X-11.177502 Y18.30044
G0 Z0.2

G53 Z-10
M5
G4 P1.0
G53 X-10 Y-10
M30
%
