%
(Made in : Autodesk CAM Post Processor)
(G Code optimized for OpenBuilds OX CNC 1000 x 750 with GRBL V0.9j controller)

(Program Name : 1001)
(1 Operation :)
(1 : 2D Contour4)
(  Tool : Flat End Mill 2 Flutes, Diam = 6.35mm, Len = 25.399999999999995mm)
(  Spindle : RPM = 5000, set router dial to 1)
(  Machining time : 11 min 50 sec)

G90 G94
G17
G21

(Operation 1 of 1 : 2D Contour4)

G53 G0 Z-10
G54
S5000 M3
G4 P1.0
X92.075 Y-393.7
Z7.096
G1 F508
Z-4.064
Y0
G3 X88.9 Y3.175 I-3.175
G1 X0
G3 X-3.175 Y0 J-3.175
G1 Y-393.7
G3 X0 Y-396.875 I3.175
G1 X88.9
G3 X92.075 Y-393.7 J3.175
G1 Z-9.144
Y0
G3 X88.9 Y3.175 I-3.175
G1 X0
G3 X-3.175 Y0 J-3.175
G1 Y-393.7
G3 X0 Y-396.875 I3.175
G1 X88.9
G3 X92.075 Y-393.7 J3.175
G1 Z-12.7
Y-334.433
Z-10.16
Y-321.733
Z-12.7
Y-203.2
Z-10.16
Y-190.5
Z-12.7
Y-71.9667
Z-10.16
Y-59.2667
Z-12.7
Y0
G3 X88.9 Y3.175 I-3.175
G1 X0
G3 X-3.175 Y0 J-3.175
G1 Y-59.2667
Z-10.16
Y-71.9667
Z-12.7
Y-190.5
Z-10.16
Y-203.2
Z-12.7
Y-321.733
Z-10.16
Y-334.433
Z-12.7
Y-393.7
G3 X0 Y-396.875 I3.175
G1 X88.9
G3 X92.075 Y-393.7 J3.175
G0 Z7.096
X114.1729 Y-396.8725
G1 Z-4.064 F508
X114.3 Y-396.875
X203.2
G3 X206.375 Y-393.7 J3.175
G1 Y0
G3 X203.2 Y3.175 I-3.175
G1 X114.3
G3 X111.125 Y0 J-3.175
G1 Y-393.7
G3 X114.1729 Y-396.8725 I3.175
G1 Z-9.144
X114.3 Y-396.875
X203.2
G3 X206.375 Y-393.7 J3.175
G1 Y0
G3 X203.2 Y3.175 I-3.175
G1 X114.3
G3 X111.125 Y0 J-3.175
G1 Y-393.7
G3 X114.1729 Y-396.8725 I3.175
G1 Z-12.7
X114.3 Y-396.875
X203.2
G3 X206.375 Y-393.7 J3.175
G1 Y-334.433
Z-10.16
Y-321.733
Z-12.7
Y-203.2
Z-10.16
Y-190.5
Z-12.7
Y-71.9667
Z-10.16
Y-59.2667
Z-12.7
Y0
G3 X203.2 Y3.175 I-3.175
G1 X114.3
G3 X111.125 Y0 J-3.175
G1 Y-59.2667
Z-10.16
Y-71.9667
Z-12.7
Y-190.5
Z-10.16
Y-203.2
Z-12.7
Y-321.733
Z-10.16
Y-334.433
Z-12.7
Y-393.7
G3 X114.1729 Y-396.8725 I3.175
G0 Z6.096

G53 Z-10
M5
G4 P1.0
G53 X-10 Y-10
M30
%
