%
(Made in : Autodesk CAM Post Processor)
(G Code optimized for OpenBuilds OX CNC 1000 x 750 with GRBL V0.9j controller)

(Program Name : 1001)
(1 Operation :)
(1 : 2D Contour3)
(  Tool : Flat End Mill 2 Flutes, Diam = 6.35mm, Len = 25.399999999999995mm)
(  Spindle : RPM = 5000, set router dial to 1)
(  Machining time : 41 min 6 sec)

G90 G94
G17
G21

(Operation 1 of 1 : 2D Contour3)

G53 G0 Z-10
G54
S5000 M3
G4 P1.0
X0 Y3.175
Z6.096
G1 F508
Z-4.064
G3 X-3.175 Y0 J-3.175
G1 Y-152.4
G3 X0 Y-155.575 I3.175
G1 X393.7
G3 X396.875 Y-152.4 J3.175
G1 Y0
G3 X393.7 Y3.175 I-3.175
G1 X0
Z-9.144
G3 X-3.175 Y0 J-3.175
G1 Y-152.4
G3 X0 Y-155.575 I3.175
G1 X393.7
G3 X396.875 Y-152.4 J3.175
G1 Y0
G3 X393.7 Y3.175 I-3.175
G1 X0
Z-12.7
G3 X-3.175 Y0 J-3.175
G1 Y-69.85
Z-11.1125
Y-82.55
Z-12.7
Y-152.4
G3 X0 Y-155.575 I3.175
G1 X59.2667
Z-11.1125
X71.9667
Z-12.7
X190.5
Z-11.1125
X203.2
Z-12.7
X321.733
Z-11.1125
X334.433
Z-12.7
X393.7
G3 X396.875 Y-152.4 J3.175
G1 Y-82.55
Z-11.1125
Y-69.85
Z-12.7
Y0
G3 X393.7 Y3.175 I-3.175
G1 X334.433
Z-11.1125
X321.733
Z-12.7
X203.2
Z-11.1125
X190.5
Z-12.7
X71.9667
Z-11.1125
X59.2667
Z-12.7
X0
G0 Z6.096
Y-174.625
G1 Z-4.064 F508
G3 X-3.175 Y-177.8 J-3.175
G1 Y-304.8
G3 X0 Y-307.975 I3.175
G1 X88.9
G3 X92.075 Y-304.8 J3.175
G1 Y-177.8
G3 X88.9 Y-174.625 I-3.175
G1 X0
Z-9.144
G3 X-3.175 Y-177.8 J-3.175
G1 Y-304.8
G3 X0 Y-307.975 I3.175
G1 X88.9
G3 X92.075 Y-304.8 J3.175
G1 Y-177.8
G3 X88.9 Y-174.625 I-3.175
G1 X0
Z-12.7
G3 X-3.175 Y-177.8 J-3.175
G1 Y-234.95
Z-11.1125
Y-247.65
Z-12.7
Y-304.8
G3 X0 Y-307.975 I3.175
G1 X88.9
G3 X92.075 Y-304.8 J3.175
G1 Y-247.65
Z-11.1125
Y-234.95
Z-12.7
Y-177.8
G3 X88.9 Y-174.625 I-3.175
G1 X0
G0 Z6.096
X112.5831 Y-175.1293
G1 Z-4.064 F508
G3 X111.125 Y-177.8 I1.7169 J-2.6707
G1 Y-304.8
G3 X114.3 Y-307.975 I3.175
G1 X203.2
G3 X206.375 Y-304.8 J3.175
G1 Y-177.8
G3 X203.2 Y-174.625 I-3.175
G1 X114.3
G3 X112.5831 Y-175.1293 J-3.175
G1 Z-9.144
G3 X111.125 Y-177.8 I1.7169 J-2.6707
G1 Y-304.8
G3 X114.3 Y-307.975 I3.175
G1 X203.2
G3 X206.375 Y-304.8 J3.175
G1 Y-177.8
G3 X203.2 Y-174.625 I-3.175
G1 X114.3
G3 X112.5831 Y-175.1293 J-3.175
G1 Z-12.7
G3 X111.125 Y-177.8 I1.7169 J-2.6707
G1 Y-234.95
Z-11.1125
Y-247.65
Z-12.7
Y-304.8
G3 X114.3 Y-307.975 I3.175
G1 X203.2
G3 X206.375 Y-304.8 J3.175
G1 Y-247.65
Z-11.1125
Y-234.95
Z-12.7
Y-177.8
G3 X203.2 Y-174.625 I-3.175
G1 X114.3
G3 X112.5831 Y-175.1293 J-3.175
G0 Z6.096
X226.0938 Y-175.8507
G1 Z-4.064 F508
G3 X225.425 Y-177.8 I2.5062 J-1.9493
G1 Y-304.8
G3 X228.6 Y-307.975 I3.175
G1 X317.5
G3 X320.675 Y-304.8 J3.175
G1 Y-177.8
G3 X317.5 Y-174.625 I-3.175
G1 X228.6
G3 X226.0938 Y-175.8507 J-3.175
G1 Z-9.144
G3 X225.425 Y-177.8 I2.5062 J-1.9493
G1 Y-304.8
G3 X228.6 Y-307.975 I3.175
G1 X317.5
G3 X320.675 Y-304.8 J3.175
G1 Y-177.8
G3 X317.5 Y-174.625 I-3.175
G1 X228.6
G3 X226.0938 Y-175.8507 J-3.175
G1 Z-12.7
G3 X225.425 Y-177.8 I2.5062 J-1.9493
G1 Y-234.95
Z-11.1125
Y-247.65
Z-12.7
Y-304.8
G3 X228.6 Y-307.975 I3.175
G1 X317.5
G3 X320.675 Y-304.8 J3.175
G1 Y-247.65
Z-11.1125
Y-234.95
Z-12.7
Y-177.8
G3 X317.5 Y-174.625 I-3.175
G1 X228.6
G3 X226.0938 Y-175.8507 J-3.175
G0 Z6.096
X340.0814 Y-176.3385
G1 Z-4.064 F508
G3 X339.725 Y-177.8 I2.8186 J-1.4615
G1 Y-304.8
G3 X342.9 Y-307.975 I3.175
G1 X431.8
G3 X434.975 Y-304.8 J3.175
G1 Y-177.8
G3 X431.8 Y-174.625 I-3.175
G1 X342.9
G3 X340.0814 Y-176.3385 J-3.175
G1 Z-9.144
G3 X339.725 Y-177.8 I2.8186 J-1.4615
G1 Y-304.8
G3 X342.9 Y-307.975 I3.175
G1 X431.8
G3 X434.975 Y-304.8 J3.175
G1 Y-177.8
G3 X431.8 Y-174.625 I-3.175
G1 X342.9
G3 X340.0814 Y-176.3385 J-3.175
G1 Z-12.7
G3 X339.725 Y-177.8 I2.8186 J-1.4615
G1 Y-234.95
Z-11.1125
Y-247.65
Z-12.7
Y-304.8
G3 X342.9 Y-307.975 I3.175
G1 X431.8
G3 X434.975 Y-304.8 J3.175
G1 Y-247.65
Z-11.1125
Y-234.95
Z-12.7
Y-177.8
G3 X431.8 Y-174.625 I-3.175
G1 X342.9
G3 X340.0814 Y-176.3385 J-3.175
G0 Z6.096
X415.9308 Y-25.2079
G1 Z-4.064 F508
X415.925 Y-25.4
Y-152.4
G3 X419.1 Y-155.575 I3.175
G1 X812.8
G3 X815.975 Y-152.4 J3.175
G1 Y-25.4
G3 X812.8 Y-22.225 I-3.175
G1 X419.1
G3 X415.9308 Y-25.2079 J-3.175
G1 Z-9.144
X415.925 Y-25.4
Y-152.4
G3 X419.1 Y-155.575 I3.175
G1 X812.8
G3 X815.975 Y-152.4 J3.175
G1 Y-25.4
G3 X812.8 Y-22.225 I-3.175
G1 X419.1
G3 X415.9308 Y-25.2079 J-3.175
G1 Z-12.7
X415.925 Y-25.4
Y-82.55
Z-11.1125
Y-95.25
Z-12.7
Y-152.4
G3 X419.1 Y-155.575 I3.175
G1 X478.367
Z-11.1125
X491.067
Z-12.7
X609.6
Z-11.1125
X622.3
Z-12.7
X740.833
Z-11.1125
X753.533
Z-12.7
X812.8
G3 X815.975 Y-152.4 J3.175
G1 Y-95.25
Z-11.1125
Y-82.55
Z-12.7
Y-25.4
G3 X812.8 Y-22.225 I-3.175
G1 X753.533
Z-11.1125
X740.833
Z-12.7
X622.3
Z-11.1125
X609.6
Z-12.7
X491.067
Z-11.1125
X478.367
Z-12.7
X419.1
G3 X415.9308 Y-25.2079 J-3.175
G0 Z6.096
X454.2409 Y-176.6492
G1 Z-4.064 F508
G3 X454.025 Y-177.8 I2.9591 J-1.1508
G1 Y-304.8
G3 X457.2 Y-307.975 I3.175
G1 X546.1
G3 X549.275 Y-304.8 J3.175
G1 Y-177.8
G3 X546.1 Y-174.625 I-3.175
G1 X457.2
G3 X454.2409 Y-176.6492 J-3.175
G1 Z-9.144
G3 X454.025 Y-177.8 I2.9591 J-1.1508
G1 Y-304.8
G3 X457.2 Y-307.975 I3.175
G1 X546.1
G3 X549.275 Y-304.8 J3.175
G1 Y-177.8
G3 X546.1 Y-174.625 I-3.175
G1 X457.2
G3 X454.2409 Y-176.6492 J-3.175
G1 Z-12.7
G3 X454.025 Y-177.8 I2.9591 J-1.1508
G1 Y-234.95
Z-11.1125
Y-247.65
Z-12.7
Y-304.8
G3 X457.2 Y-307.975 I3.175
G1 X546.1
G3 X549.275 Y-304.8 J3.175
G1 Y-247.65
Z-11.1125
Y-234.95
Z-12.7
Y-177.8
G3 X546.1 Y-174.625 I-3.175
G1 X457.2
G3 X454.2409 Y-176.6492 J-3.175
G0 Z6.096
X568.4683 Y-176.8568
G1 Z-4.064 F508
G3 X568.325 Y-177.8 I3.0317 J-0.9432
G1 Y-304.8
G3 X571.5 Y-307.975 I3.175
G1 X660.4
G3 X663.575 Y-304.8 J3.175
G1 Y-177.8
G3 X660.4 Y-174.625 I-3.175
G1 X571.5
G3 X568.4683 Y-176.8568 J-3.175
G1 Z-9.144
G3 X568.325 Y-177.8 I3.0317 J-0.9432
G1 Y-304.8
G3 X571.5 Y-307.975 I3.175
G1 X660.4
G3 X663.575 Y-304.8 J3.175
G1 Y-177.8
G3 X660.4 Y-174.625 I-3.175
G1 X571.5
G3 X568.4683 Y-176.8568 J-3.175
G1 Z-12.7
G3 X568.325 Y-177.8 I3.0317 J-0.9432
G1 Y-234.95
Z-11.1125
Y-247.65
Z-12.7
Y-304.8
G3 X571.5 Y-307.975 I3.175
G1 X660.4
G3 X663.575 Y-304.8 J3.175
G1 Y-247.65
Z-11.1125
Y-234.95
Z-12.7
Y-177.8
G3 X660.4 Y-174.625 I-3.175
G1 X571.5
G3 X568.4683 Y-176.8568 J-3.175
G0 Z6.096
X682.7266 Y-177.0032
G1 Z-4.064 F508
G3 X682.625 Y-177.8 I3.0734 J-0.7968
G1 Y-304.8
G3 X685.8 Y-307.975 I3.175
G1 X774.7
G3 X777.875 Y-304.8 J3.175
G1 Y-177.8
G3 X774.7 Y-174.625 I-3.175
G1 X685.8
G3 X682.7266 Y-177.0032 J-3.175
G1 Z-9.144
G3 X682.625 Y-177.8 I3.0734 J-0.7968
G1 Y-304.8
G3 X685.8 Y-307.975 I3.175
G1 X774.7
G3 X777.875 Y-304.8 J3.175
G1 Y-177.8
G3 X774.7 Y-174.625 I-3.175
G1 X685.8
G3 X682.7266 Y-177.0032 J-3.175
G1 Z-12.7
G3 X682.625 Y-177.8 I3.0734 J-0.7968
G1 Y-234.95
Z-11.1125
Y-247.65
Z-12.7
Y-304.8
G3 X685.8 Y-307.975 I3.175
G1 X774.7
G3 X777.875 Y-304.8 J3.175
G1 Y-247.65
Z-11.1125
Y-234.95
Z-12.7
Y-177.8
G3 X774.7 Y-174.625 I-3.175
G1 X685.8
G3 X682.7266 Y-177.0032 J-3.175
G0 Z6.096
X797.0006 Y-177.1113
G1 Z-4.064 F508
G3 X796.925 Y-177.8 I3.0994 J-0.6888
G1 Y-304.8
G3 X800.1 Y-307.975 I3.175
G1 X889
G3 X892.175 Y-304.8 J3.175
G1 Y-177.8
G3 X889 Y-174.625 I-3.175
G1 X838.2
X800.1
G3 X797.0006 Y-177.1113 J-3.175
G1 Z-9.144
G3 X796.925 Y-177.8 I3.0994 J-0.6888
G1 Y-304.8
G3 X800.1 Y-307.975 I3.175
G1 X889
G3 X892.175 Y-304.8 J3.175
G1 Y-177.8
G3 X889 Y-174.625 I-3.175
G1 X838.2
X800.1
G3 X797.0006 Y-177.1113 J-3.175
G1 Z-12.7
G3 X796.925 Y-177.8 I3.0994 J-0.6888
G1 Y-234.95
Z-11.1125
Y-247.65
Z-12.7
Y-304.8
G3 X800.1 Y-307.975 I3.175
G1 X889
G3 X892.175 Y-304.8 J3.175
G1 Y-247.65
Z-11.1125
Y-234.95
Z-12.7
Y-177.8
G3 X889 Y-174.625 I-3.175
G1 X800.1
G3 X797.0006 Y-177.1113 J-3.175
G0 Z6.096
X835.0264 Y-25.3038
G1 Z-4.064 F508
X835.025 Y-25.4
Y-152.4
G3 X838.2 Y-155.575 I3.175
G1 X1231.9
G3 X1235.075 Y-152.4 J3.175
G1 Y-25.4
G3 X1231.9 Y-22.225 I-3.1749
G1 X838.2
G3 X835.0264 Y-25.3038 J-3.175
G1 Z-9.144
X835.025 Y-25.4
Y-152.4
G3 X838.2 Y-155.575 I3.175
G1 X1231.9
G3 X1235.075 Y-152.4 J3.175
G1 Y-25.4
G3 X1231.9 Y-22.225 I-3.1749
G1 X838.2
G3 X835.0264 Y-25.3038 J-3.175
G1 Z-12.7
X835.025 Y-25.4
Y-82.55
Z-11.1125
Y-95.25
Z-12.7
Y-152.4
G3 X838.2 Y-155.575 I3.175
G1 X897.467
Z-11.1125
X910.167
Z-12.7
X1028.7
Z-11.1125
X1041.4
Z-12.7
X1159.9301
Z-11.1125
X1172.63
Z-12.7
X1231.9
G3 X1235.075 Y-152.4 J3.175
G1 Y-95.25
Z-11.1125
Y-82.55
Z-12.7
Y-25.4
G3 X1231.9 Y-22.225 I-3.1749
G1 X1172.63
Z-11.1125
X1159.9301
Z-12.7
X1041.4
Z-11.1125
X1028.7
Z-12.7
X910.167
Z-11.1125
X897.467
Z-12.7
X838.2
G3 X835.0264 Y-25.3038 J-3.175
G0 Z6.096

G53 Z-10
M5
G4 P1.0
G53 X-10 Y-10
M30
%
