%
(Made in : Autodesk CAM Post Processor)
(G Code optimized for OpenBuilds OX CNC 1000 x 750 with GRBL V0.9j controller)

(Program Name : 1001)
(1 Operation :)
(1 : 2D Contour2)
(  Tool : Flat End Mill 2 Flutes, Diam = 6.35mm, Len = 25.399999999999995mm)
(  Spindle : RPM = 5000, set router dial to 1)
(  Machining time : 17 min 6 sec)

G90 G94
G17
G21

(Operation 1 of 1 : 2D Contour2)

G53 G0 Z-10
G54
S5000 M3
G4 P1.0
X0 Y3.175
Z6.096
G1 F508
Z4.191
Z-4.064
G3 X-3.175 Y0 J-3.175
G1 Y-393.7
G3 X0 Y-396.875 I3.175
G1 X127
G3 X130.175 Y-393.7 J3.175
G1 Y0
G3 X127 Y3.175 I-3.175
G1 X0
G0 Z6.096
X136.525 Y-3.4514
G1 Z4.191 F508
Z-4.064
Y-393.7
G3 X139.7 Y-396.875 I3.175
G1 X177.8
G3 X180.975 Y-393.7 J3.175
G1 Y0
G3 X177.8 Y3.175 I-3.175
G1 X139.7
G3 X136.525 Y0 J-3.175
G1 Y-3.4514
G0 Z6.096
X0 Y3.175
G1 Z-0.889 F508
Z-9.144
G3 X-3.175 Y0 J-3.175
G1 Y-393.7
G3 X0 Y-396.875 I3.175
G1 X127
G3 X130.175 Y-393.7 J3.175
G1 Y0
G3 X127 Y3.175 I-3.175
G1 X0
G0 Z6.096
X187.325 Y0
G1 Z4.191 F508
Z-4.064
Y-393.7
G3 X190.5 Y-396.875 I3.175
G1 X228.6
G3 X231.775 Y-393.7 J3.175
G1 Y0
G3 X228.6 Y3.175 I-3.175
G1 X190.5
G3 X187.325 Y0 J-3.175
G1 Z-9.144
Y-393.7
G3 X190.5 Y-396.875 I3.175
G1 X228.6
G3 X231.775 Y-393.7 J3.175
G1 Y0
G3 X228.6 Y3.175 I-3.175
G1 X190.5
G3 X187.325 Y0 J-3.175
G0 Z6.096
X136.525 Y-3.4514
G1 Z-0.889 F508
Z-9.144
Y-393.7
G3 X139.7 Y-396.875 I3.175
G1 X177.8
G3 X180.975 Y-393.7 J3.175
G1 Y0
G3 X177.8 Y3.175 I-3.175
G1 X139.7
G3 X136.525 Y0 J-3.175
G1 Y-3.4514
Z-12.7
Y-59.9017
Z-10.16
Y-71.3317
Z-12.7
Y-191.135
Z-10.16
Y-202.565
Z-12.7
Y-322.368
Z-10.16
Y-333.798
Z-12.7
Y-393.7
G3 X139.7 Y-396.875 I3.175
G1 X177.8
G3 X180.975 Y-393.7 J3.175
G1 Y-333.798
Z-10.16
Y-322.368
Z-12.7
Y-202.565
Z-10.16
Y-191.135
Z-12.7
Y-71.3317
Z-10.16
Y-59.9017
Z-12.7
Y0
G3 X177.8 Y3.175 I-3.175
G1 X139.7
G3 X136.525 Y0 J-3.175
G1 Y-3.4514
G0 Z6.096
X0 Y3.175
G1 Z-5.969 F508
Z-12.7
G3 X-3.175 Y0 J-3.175
G1 Y-59.9017
Z-10.16
Y-71.3317
Z-12.7
Y-191.135
Z-10.16
Y-202.565
Z-12.7
Y-322.368
Z-10.16
Y-333.798
Z-12.7
Y-393.7
G3 X0 Y-396.875 I3.175
G1 X57.785
Z-10.16
X69.215
Z-12.7
X127
G3 X130.175 Y-393.7 J3.175
G1 Y-333.798
Z-10.16
Y-322.368
Z-12.7
Y-202.565
Z-10.16
Y-191.135
Z-12.7
Y-71.3317
Z-10.16
Y-59.9017
Z-12.7
Y0
G3 X127 Y3.175 I-3.175
G1 X69.215
Z-10.16
X57.785
Z-12.7
X0
G0 Z6.096
X187.325 Y0
G1 Z-5.969 F508
Z-12.7
Y-59.9017
Z-10.16
Y-71.3317
Z-12.7
Y-191.135
Z-10.16
Y-202.565
Z-12.7
Y-322.368
Z-10.16
Y-333.798
Z-12.7
Y-393.7
G3 X190.5 Y-396.875 I3.175
G1 X228.6
G3 X231.775 Y-393.7 J3.175
G1 Y-333.798
Z-10.16
Y-322.368
Z-12.7
Y-202.565
Z-10.16
Y-191.135
Z-12.7
Y-71.3317
Z-10.16
Y-59.9017
Z-12.7
Y0
G3 X228.6 Y3.175 I-3.175
G1 X190.5
G3 X187.325 Y0 J-3.175
G0 Z6.096

G53 Z-10
M5
G4 P1.0
G53 X-10 Y-10
M30
%
