%
(Made in : Autodesk CAM Post Processor)
(G Code optimized for OpenBuilds OX CNC 1000 x 750 with GRBL V0.9j controller)

(Program Name : 1001)
(1 Operation :)
(1 : 2D Contour1)
(  Tool : Flat End Mill 2 Flutes, Diam = 6.35mm, Len = 25.399999999999995mm)
(  Spindle : RPM = 5000, set router dial to 1)
(  Machining time : 22 min 59 sec)

G90 G94
G17
G21

(Operation 1 of 1 : 2D Contour1)

G53 G0 Z-10
G54
S5000 M3
G4 P1.0
X0 Y3.175
Z6.096
G1 F508
Z4.191
Z-4.064
G3 X-3.175 Y0 J-3.175
G1 Y-139.7
G3 X2.3493 Y-141.8357 I3.175
G1 X129.3493 Y-2.1357
G3 X127 Y3.175 I-2.3493 J2.1357
G1 X0
Z-9.144
G3 X-3.175 Y0 J-3.175
G1 Y-139.7
G3 X2.3493 Y-141.8357 I3.175
G1 X129.3493 Y-2.1357
G3 X127 Y3.175 I-2.3493 J2.1357
G1 X0
Z-12.7
G3 X-3.175 Y0 J-3.175
G1 Y-63.5
Z-10.16
Y-76.2
Z-12.7
Y-139.7
G3 X2.3493 Y-141.8357 I3.175
G1 X61.5778 Y-76.6844
Z-10.16
X70.1208 Y-67.2871
Z-12.7
X129.3493 Y-2.1357
G3 X127 Y3.175 I-2.3493 J2.1357
G1 X69.85
Z-10.16
X57.15
Z-12.7
X0
G0 Z6.096
X80.6569 Y-73.3242
G1 Z4.191 F508
Z-4.064
X22.257 Y-137.5643
G3 X24.6063 Y-142.875 I2.3493 J-2.1357
G1 X151.606
G3 X154.781 Y-139.7 J3.175
G1 Y0
G3 X149.2567 Y2.1357 I-3.175
G1 X80.6569 Y-73.3242
Z-9.144
X22.257 Y-137.5643
G3 X24.6063 Y-142.875 I2.3493 J-2.1357
G1 X151.606
G3 X154.781 Y-139.7 J3.175
G1 Y0
G3 X149.2567 Y2.1357 I-3.175
G1 X80.6569 Y-73.3242
Z-12.7
X22.257 Y-137.5643
G3 X24.6063 Y-142.875 I2.3493 J-2.1357
G1 X81.7563
Z-10.16
X94.4563
Z-12.7
X151.606
G3 X154.781 Y-139.7 J3.175
G1 Y-76.2
Z-10.16
Y-63.5
Z-12.7
Y0
G3 X149.2567 Y2.1357 I-3.175
G1 X90.0284 Y-63.0156
Z-10.16
X81.4854 Y-72.4128
Z-12.7
X80.6569 Y-73.3242
G0 Z6.096
X0 Y-161.925
G1 Z4.191 F508
Z-4.064
G3 X-3.175 Y-165.1 J-3.175
G1 Y-304.8
G3 X2.3493 Y-306.9357 I3.175
G1 X129.3493 Y-167.2357
G3 X127 Y-161.925 I-2.3493 J2.1357
G1 X0
Z-9.144
G3 X-3.175 Y-165.1 J-3.175
G1 Y-304.8
G3 X2.3493 Y-306.9357 I3.175
G1 X129.3493 Y-167.2357
G3 X127 Y-161.925 I-2.3493 J2.1357
G1 X0
Z-12.7
G3 X-3.175 Y-165.1 J-3.175
G1 Y-228.6
Z-10.16
Y-241.3
Z-12.7
Y-304.8
G3 X2.3493 Y-306.9357 I3.175
G1 X61.5778 Y-241.7844
Z-10.16
X70.1208 Y-232.3871
Z-12.7
X129.3493 Y-167.2357
G3 X127 Y-161.925 I-2.3493 J2.1357
G1 X69.85
Z-10.16
X57.15
Z-12.7
X0
G0 Z6.096
X149.4585 Y-162.7614
G1 Z4.191 F508
Z-4.064
G3 X149.2567 Y-162.9643 I2.1475 J-2.3386
G1 X22.257 Y-302.6643
G3 X24.6063 Y-307.975 I2.3493 J-2.1357
G1 X151.606
G3 X154.781 Y-304.8 J3.175
G1 Y-165.1
G3 X149.4585 Y-162.7614 I-3.175
G1 Z-9.144
G3 X149.2567 Y-162.9643 I2.1475 J-2.3386
G1 X22.257 Y-302.6643
G3 X24.6063 Y-307.975 I2.3493 J-2.1357
G1 X151.606
G3 X154.781 Y-304.8 J3.175
G1 Y-165.1
G3 X149.4585 Y-162.7614 I-3.175
G1 Z-12.7
G3 X149.2567 Y-162.9643 I2.1475 J-2.3386
G1 X90.0284 Y-228.1156
Z-10.16
X81.4854 Y-237.5128
Z-12.7
X22.257 Y-302.6643
G3 X24.6063 Y-307.975 I2.3493 J-2.1357
G1 X81.7563
Z-10.16
X94.4563
Z-12.7
X151.606
G3 X154.781 Y-304.8 J3.175
G1 Y-241.3
Z-10.16
Y-228.6
Z-12.7
Y-165.1
G3 X149.4585 Y-162.7614 I-3.175
G0 Z6.096
X150.2812 Y-327.3146
G1 Z4.191 F508
Z-4.064
G3 X149.2567 Y-328.0643 I1.3248 J-2.8854
G1 X22.257 Y-467.7643
G3 X24.6063 Y-473.075 I2.3493 J-2.1357
G1 X151.606
G3 X154.781 Y-469.9 J3.175
G1 Y-330.2
G3 X150.2812 Y-327.3146 I-3.175
G1 Z-9.144
G3 X149.2567 Y-328.0643 I1.3248 J-2.8854
G1 X22.257 Y-467.7643
G3 X24.6063 Y-473.075 I2.3493 J-2.1357
G1 X151.606
G3 X154.781 Y-469.9 J3.175
G1 Y-330.2
G3 X150.2812 Y-327.3146 I-3.175
G1 Z-12.7
G3 X149.2567 Y-328.0643 I1.3248 J-2.8854
G1 X90.0284 Y-393.2156
Z-10.16
X81.4854 Y-402.6128
Z-12.7
X22.257 Y-467.7643
G3 X24.6063 Y-473.075 I2.3493 J-2.1357
G1 X81.7563
Z-10.16
X94.4563
Z-12.7
X151.606
G3 X154.781 Y-469.9 J3.175
G1 Y-406.4
Z-10.16
Y-393.7
Z-12.7
Y-330.2
G3 X150.2812 Y-327.3146 I-3.175
G0 Z6.096
X0 Y-327.025
G1 Z4.191 F508
Z-4.064
G3 X-3.175 Y-330.2 J-3.175
G1 Y-469.9
G3 X0 Y-473.075 I3.175
X2.3493 Y-472.0357 J3.175
G1 X129.3493 Y-332.3357
G3 X127 Y-327.025 I-2.3493 J2.1357
G1 X0
Z-9.144
G3 X-3.175 Y-330.2 J-3.175
G1 Y-469.9
G3 X0 Y-473.075 I3.175
X2.3493 Y-472.0357 J3.175
G1 X129.3493 Y-332.3357
G3 X127 Y-327.025 I-2.3493 J2.1357
G1 X0
Z-12.7
G3 X-3.175 Y-330.2 J-3.175
G1 Y-393.7
Z-10.16
Y-406.4
Z-12.7
Y-469.9
G3 X2.3493 Y-472.0357 I3.175
G1 X61.5778 Y-406.8844
Z-10.16
X70.1208 Y-397.4871
Z-12.7
X129.3493 Y-332.3357
G3 X127 Y-327.025 I-2.3493 J2.1357
G1 X69.85
Z-10.16
X57.15
Z-12.7
X0
G0 Z6.096
Y-492.125
G1 Z4.191 F508
Z-4.064
G3 X-3.175 Y-495.3 J-3.175
G1 Y-635
G3 X2.3493 Y-637.1357 I3.175
G1 X129.3493 Y-497.4357
G3 X127 Y-492.125 I-2.3493 J2.1357
G1 X24.6063
X0
Z-9.144
G3 X-3.175 Y-495.3 J-3.175
G1 Y-635
G3 X2.3493 Y-637.1357 I3.175
G1 X129.3493 Y-497.4357
G3 X127 Y-492.125 I-2.3493 J2.1357
G1 X24.6063
X0
Z-12.7
G3 X-3.175 Y-495.3 J-3.175
G1 Y-558.8
Z-10.16
Y-571.5
Z-12.7
Y-635
G3 X2.3493 Y-637.1357 I3.175
G1 X61.5778 Y-571.9844
Z-10.16
X70.1208 Y-562.5871
Z-12.7
X129.3493 Y-497.4357
G3 X127 Y-492.125 I-2.3493 J2.1357
G1 X69.85
Z-10.16
X57.15
Z-12.7
X0
G0 Z6.096
X150.6767 Y-492.264
G1 Z4.191 F508
Z-4.064
G3 X149.2567 Y-493.1643 I0.9293 J-3.0359
G1 X22.257 Y-632.8643
G3 X24.6063 Y-638.175 I2.3493 J-2.1357
G1 X151.606
G3 X154.781 Y-635 J3.175
G1 Y-495.3
G3 X150.6767 Y-492.264 I-3.175
G1 Z-9.144
G3 X149.2567 Y-493.1643 I0.9293 J-3.0359
G1 X22.257 Y-632.8643
G3 X24.6063 Y-638.175 I2.3493 J-2.1357
G1 X151.606
G3 X154.781 Y-635 J3.175
G1 Y-495.3
G3 X150.6767 Y-492.264 I-3.175
G1 Z-12.7
G3 X149.2567 Y-493.1643 I0.9293 J-3.0359
G1 X90.0284 Y-558.3156
Z-10.16
X81.4854 Y-567.7128
Z-12.7
X22.257 Y-632.8643
G3 X24.6063 Y-638.175 I2.3493 J-2.1357
G1 X81.7563
Z-10.16
X94.4563
Z-12.7
X151.606
G3 X154.781 Y-635 J3.175
G1 Y-571.5
Z-10.16
Y-558.8
Z-12.7
Y-495.3
G3 X150.6767 Y-492.264 I-3.175
G0 Z6.096

G53 Z-10
M5
G4 P1.0
G53 X-10 Y-10
M30
%
