%
(Made in : Autodesk CAM Post Processor)
(G Code optimized for OpenBuilds OX CNC 1000 x 750 with GRBL V0.9j controller)

(Program Name : 1001)
(1 Operation :)
(1 : 2D Contour3)
(  Tool : Flat End Mill 2 Flutes, Diam = 6.35mm, Len = 25.399999999999995mm)
(  Spindle : RPM = 5000, set router dial to 1)
(  Machining time : 8 min 0 sec)

G90 G94
G17
G21

(Operation 1 of 1 : 2D Contour3)

G53 G0 Z-10
G54
S5000 M3
G4 P1.0
X0.0661 Y3.1743
Z8.636
Z7.096
G1 Z-4.064 F508
X0.0331 Y3.1748
X-0.226 Y3.1775
X-0.3393 Y3.1767
X-0.9794 Y3.1605
X-1.1399 Y3.1524
X-1.7715 Y3.1043
X-1.931 Y3.0882
X-2.5535 Y3.0091
X-2.7114 Y2.9849
X-3.324 Y2.8756
X-3.4798 Y2.8437
X-4.0816 Y2.7048
X-4.2349 Y2.6654
X-4.8251 Y2.4977
X-4.9754 Y2.451
X-5.5534 Y2.2555
X-5.7003 Y2.2017
X-6.2652 Y1.9789
X-6.4085 Y1.9183
X-6.9595 Y1.6692
X-7.0989 Y1.6021
X-7.6352 Y1.3274
X-7.7705 Y1.2539
X-8.2913 Y0.9544
X-8.4223 Y0.8749
X-8.9269 Y0.5513
X-9.0534 Y0.4659
X-9.541 Y0.1192
X-9.6628 Y0.0281
X-10.1327 Y-0.3412
X-10.2497 Y-0.4377
X-10.701 Y-0.8286
X-10.8131 Y-0.9306
X-11.2451 Y-1.3424
X-11.3522 Y-1.4495
X-11.764 Y-1.8814
X-11.8659 Y-1.9935
X-12.2568 Y-2.4448
X-12.3534 Y-2.5619
X-12.7227 Y-3.0318
X-12.8136 Y-3.1534
X-13.1604 Y-3.6411
X-13.246 Y-3.7677
X-13.5695 Y-4.2724
X-13.6489 Y-4.4032
X-13.9484 Y-4.9241
X-14.0219 Y-5.0593
X-14.2966 Y-5.5956
X-14.3638 Y-5.735
X-14.6129 Y-6.286
X-14.6735 Y-6.4294
X-14.8962 Y-6.9942
X-14.9501 Y-7.1414
X-15.1456 Y-7.7193
X-15.1921 Y-7.869
X-15.3598 Y-8.4592
X-15.3995 Y-8.6134
X-15.5383 Y-9.2152
X-15.57 Y-9.3705
X-15.6794 Y-9.9831
X-15.7036 Y-10.141
X-15.7827 Y-10.7634
X-15.7988 Y-10.9226
X-15.8469 Y-11.5543
X-15.8551 Y-11.7156
X-15.8712 Y-12.3557
X-15.872 Y-12.4686
X-15.8693 Y-12.7276
X-15.8661 Y-12.8408
X-15.8366 Y-13.4804
X-15.8252 Y-13.6403
X-15.7641 Y-14.2709
X-15.7445 Y-14.4307
X-15.6524 Y-15.0514
X-15.6251 Y-15.2085
X-15.503 Y-15.8186
X-15.4678 Y-15.9739
X-15.3164 Y-16.5726
X-15.2738 Y-16.7251
X-15.0939 Y-17.3117
X-15.0442 Y-17.4605
X-14.8367 Y-18.0343
X-14.7797 Y-18.1805
X-14.5453 Y-18.7405
X-14.4818 Y-18.8824
X-14.2213 Y-19.4281
X-14.1512 Y-19.5662
X-13.8654 Y-20.0967
X-13.789 Y-20.2305
X-13.4787 Y-20.745
X-13.3964 Y-20.8743
X-13.0624 Y-21.3721
X-12.9746 Y-21.4964
X-12.6178 Y-21.9767
X-12.524 Y-22.0969
X-12.145 Y-22.559
X-12.0462 Y-22.6737
X-11.6459 Y-23.1168
X-11.5417 Y-23.2269
X-11.1209 Y-23.6502
X-11.0115 Y-23.7552
X-10.571 Y-24.1579
X-10.4572 Y-24.2571
X-9.9978 Y-24.6386
X-9.8787 Y-24.7328
X-9.4012 Y-25.0922
X-9.2773 Y-25.1809
X-8.7826 Y-25.5174
X-8.6547 Y-25.5999
X-8.1435 Y-25.9129
X-8.0104 Y-25.99
X-7.4834 Y-26.2785
X-7.3471 Y-26.3488
X-6.8052 Y-26.6123
X-6.664 Y-26.6768
X-6.108 Y-26.9143
X-5.9637 Y-26.9718
X-5.3943 Y-27.1827
X-5.2464 Y-27.2334
X-4.6645 Y-27.4169
X-4.5132 Y-27.4605
X-3.9196 Y-27.6158
X-3.7653 Y-27.6521
X-3.1608 Y-27.7784
X-3.0044 Y-27.807
X-2.3897 Y-27.9036
X-2.2312 Y-27.9244
X-1.6072 Y-27.9905
X-1.4477 Y-28.0034
X-0.8152 Y-28.0383
X-0.6541 Y-28.0431
X-0.0139 Y-28.0459
X0.0661 Y-28.0452
X292.1691 Y-21.9598
X292.3247 Y-21.9527
X292.9547 Y-21.9086
G3 X293.2648 Y-21.8716 I-0.2217 J3.1672
G1 X293.8758 Y-21.7678
G3 X294.1766 Y-21.7015 I-0.5318 J3.1302
G1 X294.7676 Y-21.5409
G3 X295.061 Y-21.4456 I-0.8326 J3.0639
G1 X295.626 Y-21.2313
G3 X295.9013 Y-21.1117 I-1.126 J2.9686
G1 X296.4403 Y-20.8466
G3 X296.7045 Y-20.7007 I-1.4013 J2.849
G1 X297.2125 Y-20.3877
G3 X297.4554 Y-20.222 I-1.6655 J2.7031
G1 X297.9314 Y-19.864
G3 X298.1614 Y-19.6735 I-1.9084 J2.5374
G1 X298.6004 Y-19.2735
G3 X298.8091 Y-19.0647 I-2.1384 J2.3469
G1 X299.2091 Y-18.6256
G3 X299.3979 Y-18.398 I-2.3471 J2.1381
G1 X299.7559 Y-17.9228
G3 X299.9236 Y-17.6771 I-2.5359 J1.9105
G1 X300.2365 Y-17.1688
G3 X300.3818 Y-16.9057 I-2.7036 J1.6648
G1 X300.6469 Y-16.3671
G3 X300.7677 Y-16.0886 I-2.8488 J1.4017
G1 X300.9817 Y-15.5228
G3 X301.0751 Y-15.2352 I-2.9697 J1.1232
G1 X301.2361 Y-14.645
G3 X301.3039 Y-14.3367 I-3.0631 J0.8356
G1 X301.4069 Y-13.7251
G3 X301.4433 Y-13.419 I-3.1309 J0.5273
G1 X301.4873 Y-12.789
G3 X301.4937 Y-12.475 I-3.1673 J0.2212
G1 X301.4746 Y-11.825
G3 X301.449 Y-11.5047 I-3.1736 J-0.0928
G1 X301.366 Y-10.8722
G3 X301.3085 Y-10.5579 I-3.148 J-0.4131
G1 X301.1646 Y-9.9461
G3 X301.0782 Y-9.6462 I-3.0905 J-0.7274
G1 X300.8772 Y-9.0584
G3 X300.7612 Y-8.767 I-3.0042 J-1.0273
G1 X300.5052 Y-8.2063
G3 X300.3646 Y-7.934 I-2.8882 J-1.3187
G1 X300.0576 Y-7.4038
G3 X299.8926 Y-7.1481 I-2.7476 J-1.591
G1 X299.5377 Y-6.6516
G3 X299.3471 Y-6.4107 I-2.5827 J-1.8468
G1 X298.9461 Y-5.9512
G3 X298.739 Y-5.7353 I-2.3922 J-2.0877
G1 X298.2969 Y-5.316
G3 X298.0665 Y-5.1176 I-2.1849 J-2.3036
G1 X297.5855 Y-4.7418
G3 X297.3355 Y-4.5652 I-1.9545 J-2.5021
G1 X296.8185 Y-4.2363
G3 X296.5502 Y-4.0833 I-1.7045 J-2.6787
G1 X296.0002 Y-3.8044
G3 X295.717 Y-3.6778 I-1.4362 J-2.8316
G1 X295.138 Y-3.4521
G3 X294.8399 Y-3.3526 I-1.153 J-2.9582
G1 X294.235 Y-3.1834
G3 X293.9239 Y-3.1131 I-0.8549 J-3.0577
G1 X293.2949 Y-3.0037
G3 X292.9773 Y-2.9649 I-0.5439 J-3.1281
G1 X292.3293 Y-2.9185
X292.1691 Y-2.9112
X0.0661 Y3.1743
G0 Z7.096
X-0.2372 Y-34.3932
G1 Z-4.064 F508
X-0.3394 Y-34.3941
X-0.9795 Y-34.4103
X-1.1402 Y-34.4185
X-1.7719 Y-34.4666
X-1.9305 Y-34.4827
X-2.553 Y-34.5617
X-2.7115 Y-34.5859
X-3.324 Y-34.6953
X-3.4799 Y-34.7271
X-4.0816 Y-34.866
X-4.2348 Y-34.9054
X-4.8251 Y-35.073
X-4.9757 Y-35.1199
X-5.5536 Y-35.3155
X-5.7003 Y-35.3692
X-6.2651 Y-35.5919
X-6.4086 Y-35.6525
X-6.9595 Y-35.9016
X-7.099 Y-35.9688
X-7.6353 Y-36.2435
X-7.7701 Y-36.3167
X-8.2909 Y-36.6161
X-8.4226 Y-36.6961
X-8.9272 Y-37.0197
X-9.0534 Y-37.105
X-9.5411 Y-37.4518
X-9.6627 Y-37.5427
X-10.1325 Y-37.9119
X-10.2496 Y-38.0084
X-10.7009 Y-38.3993
X-10.8133 Y-38.5015
X-11.2452 Y-38.9134
X-11.3522 Y-39.0204
X-11.7641 Y-39.4524
X-11.8658 Y-39.5644
X-12.2568 Y-40.0157
X-12.3533 Y-40.1326
X-12.7225 Y-40.6024
X-12.8137 Y-40.7243
X-13.1605 Y-41.212
X-13.246 Y-41.3387
X-13.5695 Y-41.8434
X-13.6488 Y-41.9739
X-13.9483 Y-42.4947
X-14.0219 Y-42.6301
X-14.2966 Y-43.1664
X-14.3638 Y-43.3059
X-14.6129 Y-43.8569
X-14.6735 Y-44.0002
X-14.8962 Y-44.565
X-14.9501 Y-44.7123
X-15.1456 Y-45.2903
X-15.1921 Y-45.4398
X-15.3598 Y-46.03
X-15.3995 Y-46.1842
X-15.5383 Y-46.786
X-15.57 Y-46.9413
X-15.6794 Y-47.5538
X-15.7036 Y-47.7119
X-15.7827 Y-48.3344
X-15.7988 Y-48.4935
X-15.8469 Y-49.1251
X-15.8551 Y-49.2864
X-15.8712 Y-49.9265
X-15.872 Y-50.0394
X-15.8693 Y-50.2985
X-15.8661 Y-50.4117
X-15.8366 Y-51.0513
X-15.8252 Y-51.2112
X-15.7641 Y-51.8417
X-15.7445 Y-52.0015
X-15.6524 Y-52.6222
X-15.6251 Y-52.7793
X-15.503 Y-53.3894
X-15.4678 Y-53.5447
X-15.3164 Y-54.1434
X-15.2738 Y-54.2958
X-15.0939 Y-54.8825
X-15.0441 Y-55.0316
X-14.8366 Y-55.6053
X-14.7798 Y-55.7511
X-14.5454 Y-56.3112
X-14.4817 Y-56.4535
X-14.2212 Y-56.9991
X-14.1512 Y-57.137
X-13.8654 Y-57.6675
X-13.789 Y-57.8013
X-13.4787 Y-58.3158
X-13.3964 Y-58.4451
X-13.0624 Y-58.9429
X-12.9748 Y-59.067
X-12.618 Y-59.5474
X-12.5238 Y-59.668
X-12.1448 Y-60.13
X-12.0462 Y-60.2445
X-11.6459 Y-60.6876
X-11.5417 Y-60.7977
X-11.1209 Y-61.221
X-11.0118 Y-61.3257
X-10.5713 Y-61.7285
X-10.4568 Y-61.8282
X-9.9975 Y-62.2096
X-9.8787 Y-62.3036
X-9.4012 Y-62.663
X-9.2773 Y-62.7517
X-8.7826 Y-63.0882
X-8.6547 Y-63.1707
X-8.1435 Y-63.4837
X-8.0108 Y-63.5606
X-7.4838 Y-63.8492
X-7.3467 Y-63.92
X-6.8048 Y-64.1833
X-6.6644 Y-64.2474
X-6.1084 Y-64.485
X-5.9637 Y-64.5427
X-5.3943 Y-64.7536
X-5.2459 Y-64.8044
X-4.664 Y-64.9878
X-4.5132 Y-65.0313
X-3.9196 Y-65.1866
X-3.7653 Y-65.2229
X-3.1608 Y-65.3492
X-3.0049 Y-65.3777
X-2.3902 Y-65.4744
X-2.2312 Y-65.4953
X-1.6072 Y-65.5614
X-1.4472 Y-65.5743
X-0.8147 Y-65.6091
X-0.6546 Y-65.6139
X-0.0144 Y-65.6168
X0.0661 Y-65.6161
X292.1691 Y-59.5306
X292.3247 Y-59.5235
X292.9547 Y-59.4795
G3 X293.2648 Y-59.4424 I-0.2217 J3.1673
G1 X293.8758 Y-59.3386
G3 X294.1761 Y-59.2724 I-0.5318 J3.1301
G1 X294.7671 Y-59.1119
G3 X295.061 Y-59.0165 I-0.8321 J3.064
G1 X295.626 Y-58.8022
G3 X295.9017 Y-58.6824 I-1.126 J2.9686
G1 X296.4407 Y-58.4172
G3 X296.7045 Y-58.2715 I-1.4017 J2.8488
G1 X297.2125 Y-57.9585
G3 X297.4554 Y-57.7928 I-1.6655 J2.7031
G1 X297.9314 Y-57.4348
G3 X298.1614 Y-57.2443 I-1.9084 J2.5374
G1 X298.6004 Y-56.8443
G3 X298.8089 Y-56.6358 I-2.1384 J2.3469
G1 X299.2089 Y-56.1968
G3 X299.3979 Y-55.9689 I-2.3469 J2.1384
G1 X299.7559 Y-55.4937
G3 X299.9237 Y-55.2477 I-2.5359 J1.9105
G1 X300.2367 Y-54.7393
G3 X300.3817 Y-54.4767 I-2.7037 J1.6645
G1 X300.6467 Y-53.9382
G3 X300.7678 Y-53.6593 I-2.8487 J1.4019
G1 X300.9818 Y-53.0934
G3 X301.0751 Y-52.806 I-2.9698 J1.123
G1 X301.2361 Y-52.2158
G3 X301.3039 Y-51.9075 I-3.0631 J0.8356
G1 X301.4069 Y-51.2959
G3 X301.4433 Y-50.9898 I-3.1309 J0.5273
G1 X301.4873 Y-50.3598
G3 X301.4937 Y-50.0458 I-3.1673 J0.2212
G1 X301.4746 Y-49.3959
G3 X301.449 Y-49.0756 I-3.1736 J-0.0928
G1 X301.366 Y-48.4431
G3 X301.3085 Y-48.1288 I-3.148 J-0.4131
G1 X301.1646 Y-47.517
G3 X301.0783 Y-47.2173 I-3.0905 J-0.7274
G1 X300.8773 Y-46.6294
G3 X300.7612 Y-46.3378 I-3.0043 J-1.0271
G1 X300.5052 Y-45.7771
G3 X300.3645 Y-45.5046 I-2.8882 J-1.3187
G1 X300.0575 Y-44.9745
G3 X299.8927 Y-44.719 I-2.7475 J-1.5912
G1 X299.5377 Y-44.2225
G3 X299.3472 Y-43.9816 I-2.5827 J-1.8467
G1 X298.9462 Y-43.5221
G3 X298.7389 Y-43.306 I-2.3922 J-2.0876
G1 X298.2969 Y-42.8868
G3 X298.0664 Y-42.6883 I-2.1849 J-2.3037
G1 X297.5854 Y-42.3126
G3 X297.3356 Y-42.1362 I-1.9544 J-2.5022
G1 X296.8186 Y-41.8072
G3 X296.5504 Y-41.6543 I-1.7046 J-2.6786
G1 X296.0004 Y-41.3753
G3 X295.7171 Y-41.2486 I-1.4364 J-2.8315
G1 X295.1381 Y-41.0229
G3 X294.8397 Y-40.9233 I-1.1531 J-2.9582
G1 X294.2347 Y-40.7542
G3 X293.924 Y-40.684 I-0.8547 J-3.0578
G1 X293.295 Y-40.5746
G3 X292.9773 Y-40.5357 I-0.544 J-3.128
G1 X292.3293 Y-40.4894
X292.1691 Y-40.482
X0.0661 Y-34.3965
X0.0331 Y-34.396
X-0.226 Y-34.3933
X-0.2372 Y-34.3932
Z-9.144
X-0.3394 Y-34.3941
X-0.9795 Y-34.4103
X-1.1402 Y-34.4185
X-1.7719 Y-34.4666
X-1.9305 Y-34.4827
X-2.553 Y-34.5617
X-2.7115 Y-34.5859
X-3.324 Y-34.6953
X-3.4799 Y-34.7271
X-4.0816 Y-34.866
X-4.2348 Y-34.9054
X-4.8251 Y-35.073
X-4.9757 Y-35.1199
X-5.5536 Y-35.3155
X-5.7003 Y-35.3692
X-6.2651 Y-35.5919
X-6.4086 Y-35.6525
X-6.9595 Y-35.9016
X-7.099 Y-35.9688
X-7.6353 Y-36.2435
X-7.7701 Y-36.3167
X-8.2909 Y-36.6161
X-8.4226 Y-36.6961
X-8.9272 Y-37.0197
X-9.0534 Y-37.105
X-9.5411 Y-37.4518
X-9.6627 Y-37.5427
X-10.1325 Y-37.9119
X-10.2496 Y-38.0084
X-10.7009 Y-38.3993
X-10.8133 Y-38.5015
X-11.2452 Y-38.9134
X-11.3522 Y-39.0204
X-11.7641 Y-39.4524
X-11.8658 Y-39.5644
X-12.2568 Y-40.0157
X-12.3533 Y-40.1326
X-12.7225 Y-40.6024
X-12.8137 Y-40.7243
X-13.1605 Y-41.212
X-13.246 Y-41.3387
X-13.5695 Y-41.8434
X-13.6488 Y-41.9739
X-13.9483 Y-42.4947
X-14.0219 Y-42.6301
X-14.2966 Y-43.1664
X-14.3638 Y-43.3059
X-14.6129 Y-43.8569
X-14.6735 Y-44.0002
X-14.8962 Y-44.565
X-14.9501 Y-44.7123
X-15.1456 Y-45.2903
X-15.1921 Y-45.4398
X-15.3598 Y-46.03
X-15.3995 Y-46.1842
X-15.5383 Y-46.786
X-15.57 Y-46.9413
X-15.6794 Y-47.5538
X-15.7036 Y-47.7119
X-15.7827 Y-48.3344
X-15.7988 Y-48.4935
X-15.8469 Y-49.1251
X-15.8551 Y-49.2864
X-15.8712 Y-49.9265
X-15.872 Y-50.0394
X-15.8693 Y-50.2985
X-15.8661 Y-50.4117
X-15.8366 Y-51.0513
X-15.8252 Y-51.2112
X-15.7641 Y-51.8417
X-15.7445 Y-52.0015
X-15.6524 Y-52.6222
X-15.6251 Y-52.7793
X-15.503 Y-53.3894
X-15.4678 Y-53.5447
X-15.3164 Y-54.1434
X-15.2738 Y-54.2958
X-15.0939 Y-54.8825
X-15.0441 Y-55.0316
X-14.8366 Y-55.6053
X-14.7798 Y-55.7511
X-14.5454 Y-56.3112
X-14.4817 Y-56.4535
X-14.2212 Y-56.9991
X-14.1512 Y-57.137
X-13.8654 Y-57.6675
X-13.789 Y-57.8013
X-13.4787 Y-58.3158
X-13.3964 Y-58.4451
X-13.0624 Y-58.9429
X-12.9748 Y-59.067
X-12.618 Y-59.5474
X-12.5238 Y-59.668
X-12.1448 Y-60.13
X-12.0462 Y-60.2445
X-11.6459 Y-60.6876
X-11.5417 Y-60.7977
X-11.1209 Y-61.221
X-11.0118 Y-61.3257
X-10.5713 Y-61.7285
X-10.4568 Y-61.8282
X-9.9975 Y-62.2096
X-9.8787 Y-62.3036
X-9.4012 Y-62.663
X-9.2773 Y-62.7517
X-8.7826 Y-63.0882
X-8.6547 Y-63.1707
X-8.1435 Y-63.4837
X-8.0108 Y-63.5606
X-7.4838 Y-63.8492
X-7.3467 Y-63.92
X-6.8048 Y-64.1833
X-6.6644 Y-64.2474
X-6.1084 Y-64.485
X-5.9637 Y-64.5427
X-5.3943 Y-64.7536
X-5.2459 Y-64.8044
X-4.664 Y-64.9878
X-4.5132 Y-65.0313
X-3.9196 Y-65.1866
X-3.7653 Y-65.2229
X-3.1608 Y-65.3492
X-3.0049 Y-65.3777
X-2.3902 Y-65.4744
X-2.2312 Y-65.4953
X-1.6072 Y-65.5614
X-1.4472 Y-65.5743
X-0.8147 Y-65.6091
X-0.6546 Y-65.6139
X-0.0144 Y-65.6168
X0.0661 Y-65.6161
X292.1691 Y-59.5306
X292.3247 Y-59.5235
X292.9547 Y-59.4795
G3 X293.2648 Y-59.4424 I-0.2217 J3.1673
G1 X293.8758 Y-59.3386
G3 X294.1761 Y-59.2724 I-0.5318 J3.1301
G1 X294.7671 Y-59.1119
G3 X295.061 Y-59.0165 I-0.8321 J3.064
G1 X295.626 Y-58.8022
G3 X295.9017 Y-58.6824 I-1.126 J2.9686
G1 X296.4407 Y-58.4172
G3 X296.7045 Y-58.2715 I-1.4017 J2.8488
G1 X297.2125 Y-57.9585
G3 X297.4554 Y-57.7928 I-1.6655 J2.7031
G1 X297.9314 Y-57.4348
G3 X298.1614 Y-57.2443 I-1.9084 J2.5374
G1 X298.6004 Y-56.8443
G3 X298.8089 Y-56.6358 I-2.1384 J2.3469
G1 X299.2089 Y-56.1968
G3 X299.3979 Y-55.9689 I-2.3469 J2.1384
G1 X299.7559 Y-55.4937
G3 X299.9237 Y-55.2477 I-2.5359 J1.9105
G1 X300.2367 Y-54.7393
G3 X300.3817 Y-54.4767 I-2.7037 J1.6645
G1 X300.6467 Y-53.9382
G3 X300.7678 Y-53.6593 I-2.8487 J1.4019
G1 X300.9818 Y-53.0934
G3 X301.0751 Y-52.806 I-2.9698 J1.123
G1 X301.2361 Y-52.2158
G3 X301.3039 Y-51.9075 I-3.0631 J0.8356
G1 X301.4069 Y-51.2959
G3 X301.4433 Y-50.9898 I-3.1309 J0.5273
G1 X301.4873 Y-50.3598
G3 X301.4937 Y-50.0458 I-3.1673 J0.2212
G1 X301.4746 Y-49.3959
G3 X301.449 Y-49.0756 I-3.1736 J-0.0928
G1 X301.366 Y-48.4431
G3 X301.3085 Y-48.1288 I-3.148 J-0.4131
G1 X301.1646 Y-47.517
G3 X301.0783 Y-47.2173 I-3.0905 J-0.7274
G1 X300.8773 Y-46.6294
G3 X300.7612 Y-46.3378 I-3.0043 J-1.0271
G1 X300.5052 Y-45.7771
G3 X300.3645 Y-45.5046 I-2.8882 J-1.3187
G1 X300.0575 Y-44.9745
G3 X299.8927 Y-44.719 I-2.7475 J-1.5912
G1 X299.5377 Y-44.2225
G3 X299.3472 Y-43.9816 I-2.5827 J-1.8467
G1 X298.9462 Y-43.5221
G3 X298.7389 Y-43.306 I-2.3922 J-2.0876
G1 X298.2969 Y-42.8868
G3 X298.0664 Y-42.6883 I-2.1849 J-2.3037
G1 X297.5854 Y-42.3126
G3 X297.3356 Y-42.1362 I-1.9544 J-2.5022
G1 X296.8186 Y-41.8072
G3 X296.5504 Y-41.6543 I-1.7046 J-2.6786
G1 X296.0004 Y-41.3753
G3 X295.7171 Y-41.2486 I-1.4364 J-2.8315
G1 X295.1381 Y-41.0229
G3 X294.8397 Y-40.9233 I-1.1531 J-2.9582
G1 X294.2347 Y-40.7542
G3 X293.924 Y-40.684 I-0.8547 J-3.0578
G1 X293.295 Y-40.5746
G3 X292.9773 Y-40.5357 I-0.544 J-3.128
G1 X292.3293 Y-40.4894
X292.1691 Y-40.482
X0.0661 Y-34.3965
X0.0331 Y-34.396
X-0.226 Y-34.3933
X-0.2372 Y-34.3932
G0 Z6.096
X0.0331 Y3.1748
G1 Z2.016 F508
Z-9.144
X-0.226 Y3.1775
X-0.3393 Y3.1767
X-0.9794 Y3.1605
X-1.1399 Y3.1524
X-1.7715 Y3.1043
X-1.931 Y3.0882
X-2.5535 Y3.0091
X-2.7114 Y2.9849
X-3.324 Y2.8756
X-3.4798 Y2.8437
X-4.0816 Y2.7048
X-4.2349 Y2.6654
X-4.8251 Y2.4977
X-4.9754 Y2.451
X-5.5534 Y2.2555
X-5.7003 Y2.2017
X-6.2652 Y1.9789
X-6.4085 Y1.9183
X-6.9595 Y1.6692
X-7.0989 Y1.6021
X-7.6352 Y1.3274
X-7.7705 Y1.2539
X-8.2913 Y0.9544
X-8.4223 Y0.8749
X-8.9269 Y0.5513
X-9.0534 Y0.4659
X-9.541 Y0.1192
X-9.6628 Y0.0281
X-10.1327 Y-0.3412
X-10.2497 Y-0.4377
X-10.701 Y-0.8286
X-10.8131 Y-0.9306
X-11.2451 Y-1.3424
X-11.3522 Y-1.4495
X-11.764 Y-1.8814
X-11.8659 Y-1.9935
X-12.2568 Y-2.4448
X-12.3534 Y-2.5619
X-12.7227 Y-3.0318
X-12.8136 Y-3.1534
X-13.1604 Y-3.6411
X-13.246 Y-3.7677
X-13.5695 Y-4.2724
X-13.6489 Y-4.4032
X-13.9484 Y-4.9241
X-14.0219 Y-5.0593
X-14.2966 Y-5.5956
X-14.3638 Y-5.735
X-14.6129 Y-6.286
X-14.6735 Y-6.4294
X-14.8962 Y-6.9942
X-14.9501 Y-7.1414
X-15.1456 Y-7.7193
X-15.1921 Y-7.869
X-15.3598 Y-8.4592
X-15.3995 Y-8.6134
X-15.5383 Y-9.2152
X-15.57 Y-9.3705
X-15.6794 Y-9.9831
X-15.7036 Y-10.141
X-15.7827 Y-10.7634
X-15.7988 Y-10.9226
X-15.8469 Y-11.5543
X-15.8551 Y-11.7156
X-15.8712 Y-12.3557
X-15.872 Y-12.4686
X-15.8693 Y-12.7276
X-15.8661 Y-12.8408
X-15.8366 Y-13.4804
X-15.8252 Y-13.6403
X-15.7641 Y-14.2709
X-15.7445 Y-14.4307
X-15.6524 Y-15.0514
X-15.6251 Y-15.2085
X-15.503 Y-15.8186
X-15.4678 Y-15.9739
X-15.3164 Y-16.5726
X-15.2738 Y-16.7251
X-15.0939 Y-17.3117
X-15.0442 Y-17.4605
X-14.8367 Y-18.0343
X-14.7797 Y-18.1805
X-14.5453 Y-18.7405
X-14.4818 Y-18.8824
X-14.2213 Y-19.4281
X-14.1512 Y-19.5662
X-13.8654 Y-20.0967
X-13.789 Y-20.2305
X-13.4787 Y-20.745
X-13.3964 Y-20.8743
X-13.0624 Y-21.3721
X-12.9746 Y-21.4964
X-12.6178 Y-21.9767
X-12.524 Y-22.0969
X-12.145 Y-22.559
X-12.0462 Y-22.6737
X-11.6459 Y-23.1168
X-11.5417 Y-23.2269
X-11.1209 Y-23.6502
X-11.0115 Y-23.7552
X-10.571 Y-24.1579
X-10.4572 Y-24.2571
X-9.9978 Y-24.6386
X-9.8787 Y-24.7328
X-9.4012 Y-25.0922
X-9.2773 Y-25.1809
X-8.7826 Y-25.5174
X-8.6547 Y-25.5999
X-8.1435 Y-25.9129
X-8.0104 Y-25.99
X-7.4834 Y-26.2785
X-7.3471 Y-26.3488
X-6.8052 Y-26.6123
X-6.664 Y-26.6768
X-6.108 Y-26.9143
X-5.9637 Y-26.9718
X-5.3943 Y-27.1827
X-5.2464 Y-27.2334
X-4.6645 Y-27.4169
X-4.5132 Y-27.4605
X-3.9196 Y-27.6158
X-3.7653 Y-27.6521
X-3.1608 Y-27.7784
X-3.0044 Y-27.807
X-2.3897 Y-27.9036
X-2.2312 Y-27.9244
X-1.6072 Y-27.9905
X-1.4477 Y-28.0034
X-0.8152 Y-28.0383
X-0.6541 Y-28.0431
X-0.0139 Y-28.0459
X0.0661 Y-28.0452
X292.1691 Y-21.9598
X292.3247 Y-21.9527
X292.9547 Y-21.9086
G3 X293.2648 Y-21.8716 I-0.2217 J3.1672
G1 X293.8758 Y-21.7678
G3 X294.1766 Y-21.7015 I-0.5318 J3.1302
G1 X294.7676 Y-21.5409
G3 X295.061 Y-21.4456 I-0.8326 J3.0639
G1 X295.626 Y-21.2313
G3 X295.9013 Y-21.1117 I-1.126 J2.9686
G1 X296.4403 Y-20.8466
G3 X296.7045 Y-20.7007 I-1.4013 J2.849
G1 X297.2125 Y-20.3877
G3 X297.4554 Y-20.222 I-1.6655 J2.7031
G1 X297.9314 Y-19.864
G3 X298.1614 Y-19.6735 I-1.9084 J2.5374
G1 X298.6004 Y-19.2735
G3 X298.8091 Y-19.0647 I-2.1384 J2.3469
G1 X299.2091 Y-18.6256
G3 X299.3979 Y-18.398 I-2.3471 J2.1381
G1 X299.7559 Y-17.9228
G3 X299.9236 Y-17.6771 I-2.5359 J1.9105
G1 X300.2365 Y-17.1688
G3 X300.3818 Y-16.9057 I-2.7036 J1.6648
G1 X300.6469 Y-16.3671
G3 X300.7677 Y-16.0886 I-2.8488 J1.4017
G1 X300.9817 Y-15.5228
G3 X301.0751 Y-15.2352 I-2.9697 J1.1232
G1 X301.2361 Y-14.645
G3 X301.3039 Y-14.3367 I-3.0631 J0.8356
G1 X301.4069 Y-13.7251
G3 X301.4433 Y-13.419 I-3.1309 J0.5273
G1 X301.4873 Y-12.789
G3 X301.4937 Y-12.475 I-3.1673 J0.2212
G1 X301.4746 Y-11.825
G3 X301.449 Y-11.5047 I-3.1736 J-0.0928
G1 X301.366 Y-10.8722
G3 X301.3085 Y-10.5579 I-3.148 J-0.4131
G1 X301.1646 Y-9.9461
G3 X301.0782 Y-9.6462 I-3.0905 J-0.7274
G1 X300.8772 Y-9.0584
G3 X300.7612 Y-8.767 I-3.0042 J-1.0273
G1 X300.5052 Y-8.2063
G3 X300.3646 Y-7.934 I-2.8882 J-1.3187
G1 X300.0576 Y-7.4038
G3 X299.8926 Y-7.1481 I-2.7476 J-1.591
G1 X299.5377 Y-6.6516
G3 X299.3471 Y-6.4107 I-2.5827 J-1.8468
G1 X298.9461 Y-5.9512
G3 X298.739 Y-5.7353 I-2.3922 J-2.0877
G1 X298.2969 Y-5.316
G3 X298.0665 Y-5.1176 I-2.1849 J-2.3036
G1 X297.5855 Y-4.7418
G3 X297.3355 Y-4.5652 I-1.9545 J-2.5021
G1 X296.8185 Y-4.2363
G3 X296.5502 Y-4.0833 I-1.7045 J-2.6787
G1 X296.0002 Y-3.8044
G3 X295.717 Y-3.6778 I-1.4362 J-2.8316
G1 X295.138 Y-3.4521
G3 X294.8399 Y-3.3526 I-1.153 J-2.9582
G1 X294.235 Y-3.1834
G3 X293.9239 Y-3.1131 I-0.8549 J-3.0577
G1 X293.2949 Y-3.0037
G3 X292.9773 Y-2.9649 I-0.5439 J-3.1281
G1 X292.3293 Y-2.9185
X292.1691 Y-2.9112
X0.0661 Y3.1743
X0.0331 Y3.1748
Z-12.7
X-0.226 Y3.1775
X-0.3393 Y3.1767
X-0.9794 Y3.1605
X-1.1399 Y3.1524
X-1.7715 Y3.1043
X-1.931 Y3.0882
X-2.5535 Y3.0091
X-2.7114 Y2.9849
X-3.324 Y2.8756
X-3.4798 Y2.8437
X-4.0816 Y2.7048
X-4.2349 Y2.6654
X-4.8251 Y2.4977
X-4.9754 Y2.451
X-5.5534 Y2.2555
X-5.7003 Y2.2017
X-6.2652 Y1.9789
X-6.4085 Y1.9183
X-6.9595 Y1.6692
X-7.0989 Y1.6021
X-7.6352 Y1.3274
X-7.7705 Y1.2539
X-8.2913 Y0.9544
X-8.4223 Y0.8749
X-8.9269 Y0.5513
X-9.0534 Y0.4659
X-9.541 Y0.1192
X-9.6628 Y0.0281
X-10.1327 Y-0.3412
X-10.2497 Y-0.4377
X-10.701 Y-0.8286
X-10.8131 Y-0.9306
X-11.2451 Y-1.3424
X-11.3522 Y-1.4495
X-11.764 Y-1.8814
X-11.8659 Y-1.9935
X-12.2568 Y-2.4448
X-12.3534 Y-2.5619
X-12.7227 Y-3.0318
X-12.8136 Y-3.1534
X-13.1604 Y-3.6411
X-13.246 Y-3.7677
X-13.5695 Y-4.2724
X-13.6489 Y-4.4032
X-13.9484 Y-4.9241
X-14.0219 Y-5.0593
X-14.2966 Y-5.5956
X-14.3638 Y-5.735
X-14.6129 Y-6.286
X-14.6735 Y-6.4294
X-14.8962 Y-6.9942
X-14.9501 Y-7.1414
X-15.1456 Y-7.7193
X-15.1921 Y-7.869
X-15.3598 Y-8.4592
X-15.3995 Y-8.6134
X-15.5383 Y-9.2152
X-15.57 Y-9.3705
X-15.6794 Y-9.9831
X-15.7036 Y-10.141
X-15.7827 Y-10.7634
X-15.7988 Y-10.9226
X-15.8469 Y-11.5543
X-15.8551 Y-11.7156
X-15.8712 Y-12.3557
X-15.872 Y-12.4686
X-15.8693 Y-12.7276
X-15.8661 Y-12.8408
X-15.8366 Y-13.4804
X-15.8252 Y-13.6403
X-15.7641 Y-14.2709
X-15.7445 Y-14.4307
X-15.6524 Y-15.0514
X-15.6251 Y-15.2085
X-15.503 Y-15.8186
X-15.4678 Y-15.9739
X-15.3164 Y-16.5726
X-15.2738 Y-16.7251
X-15.0939 Y-17.3117
X-15.0442 Y-17.4605
X-14.8367 Y-18.0343
X-14.7797 Y-18.1805
X-14.5453 Y-18.7405
X-14.4818 Y-18.8824
X-14.2213 Y-19.4281
X-14.1512 Y-19.5662
X-13.8654 Y-20.0967
X-13.789 Y-20.2305
X-13.4787 Y-20.745
X-13.3964 Y-20.8743
X-13.0624 Y-21.3721
X-12.9746 Y-21.4964
X-12.6178 Y-21.9767
X-12.524 Y-22.0969
X-12.145 Y-22.559
X-12.0462 Y-22.6737
X-11.6459 Y-23.1168
X-11.5417 Y-23.2269
X-11.1209 Y-23.6502
X-11.0115 Y-23.7552
X-10.571 Y-24.1579
X-10.4572 Y-24.2571
X-9.9978 Y-24.6386
X-9.8787 Y-24.7328
X-9.4012 Y-25.0922
X-9.2773 Y-25.1809
X-8.7826 Y-25.5174
X-8.6547 Y-25.5999
X-8.1435 Y-25.9129
X-8.0104 Y-25.99
X-7.4834 Y-26.2785
X-7.3471 Y-26.3488
X-6.8052 Y-26.6123
X-6.664 Y-26.6768
X-6.108 Y-26.9143
X-5.9637 Y-26.9718
X-5.3943 Y-27.1827
X-5.2464 Y-27.2334
X-4.6645 Y-27.4169
X-4.5132 Y-27.4605
X-3.9196 Y-27.6158
X-3.7653 Y-27.6521
X-3.1608 Y-27.7784
X-3.0044 Y-27.807
X-2.3897 Y-27.9036
X-2.2312 Y-27.9244
X-1.6072 Y-27.9905
X-1.4477 Y-28.0034
X-0.8152 Y-28.0383
X-0.6541 Y-28.0431
X-0.0139 Y-28.0459
X0.0661 Y-28.0452
X59.4527 Y-26.808
Z-10.16
X70.8802 Y-26.5699
Z-12.7
X292.1691 Y-21.9598
X292.3247 Y-21.9527
X292.9547 Y-21.9086
G3 X293.2648 Y-21.8716 I-0.2217 J3.1672
G1 X293.8758 Y-21.7678
G3 X294.1766 Y-21.7015 I-0.5318 J3.1302
G1 X294.7676 Y-21.5409
G3 X295.061 Y-21.4456 I-0.8326 J3.0639
G1 X295.626 Y-21.2313
G3 X295.9013 Y-21.1117 I-1.126 J2.9686
G1 X296.4403 Y-20.8466
G3 X296.7045 Y-20.7007 I-1.4013 J2.849
G1 X297.2125 Y-20.3877
G3 X297.4554 Y-20.222 I-1.6655 J2.7031
G1 X297.9314 Y-19.864
G3 X298.1614 Y-19.6735 I-1.9084 J2.5374
G1 X298.6004 Y-19.2735
G3 X298.8091 Y-19.0647 I-2.1384 J2.3469
G1 X299.2091 Y-18.6256
G3 X299.3979 Y-18.398 I-2.3471 J2.1381
G1 X299.7559 Y-17.9228
G3 X299.9236 Y-17.6771 I-2.5359 J1.9105
G1 X300.2365 Y-17.1688
G3 X300.3818 Y-16.9057 I-2.7036 J1.6648
G1 X300.6469 Y-16.3671
G3 X300.7677 Y-16.0886 I-2.8488 J1.4017
G1 X300.9817 Y-15.5228
G3 X301.0751 Y-15.2352 I-2.9697 J1.1232
G1 X301.2361 Y-14.645
G3 X301.3039 Y-14.3367 I-3.0631 J0.8356
G1 X301.4069 Y-13.7251
G3 X301.4433 Y-13.419 I-3.1309 J0.5273
G1 X301.4873 Y-12.789
G3 X301.4937 Y-12.475 I-3.1673 J0.2212
G1 X301.4746 Y-11.825
G3 X301.449 Y-11.5047 I-3.1736 J-0.0928
G1 X301.366 Y-10.8722
G3 X301.3085 Y-10.5579 I-3.148 J-0.4131
G1 X301.1646 Y-9.9461
G3 X301.0782 Y-9.6462 I-3.0905 J-0.7274
G1 X300.8772 Y-9.0584
G3 X300.7612 Y-8.767 I-3.0042 J-1.0273
G1 X300.5052 Y-8.2063
G3 X300.3646 Y-7.934 I-2.8882 J-1.3187
G1 X300.0576 Y-7.4038
G3 X299.8926 Y-7.1481 I-2.7476 J-1.591
G1 X299.5377 Y-6.6516
G3 X299.3471 Y-6.4107 I-2.5827 J-1.8468
G1 X298.9461 Y-5.9512
G3 X298.739 Y-5.7353 I-2.3922 J-2.0877
G1 X298.2969 Y-5.316
G3 X298.0665 Y-5.1176 I-2.1849 J-2.3036
G1 X297.5855 Y-4.7418
G3 X297.3355 Y-4.5652 I-1.9545 J-2.5021
G1 X296.8185 Y-4.2363
G3 X296.5502 Y-4.0833 I-1.7045 J-2.6787
G1 X296.0002 Y-3.8044
G3 X295.717 Y-3.6778 I-1.4362 J-2.8316
G1 X295.138 Y-3.4521
G3 X294.8399 Y-3.3526 I-1.153 J-2.9582
G1 X294.235 Y-3.1834
G3 X293.9239 Y-3.1131 I-0.8549 J-3.0577
G1 X293.2949 Y-3.0037
G3 X292.9773 Y-2.9649 I-0.5439 J-3.1281
G1 X292.3293 Y-2.9185
X292.1691 Y-2.9112
X200.9239 Y-1.0102
Z-10.16
X189.4964 Y-0.7721
Z-12.7
X0.0661 Y3.1743
X0.0331 Y3.1748
G0 Z6.096
X-0.2372 Y-34.3932
G1 Z-3.064 F508
Z-12.7
X-0.3394 Y-34.3941
X-0.9795 Y-34.4103
X-1.1402 Y-34.4185
X-1.7719 Y-34.4666
X-1.9305 Y-34.4827
X-2.553 Y-34.5617
X-2.7115 Y-34.5859
X-3.324 Y-34.6953
X-3.4799 Y-34.7271
X-4.0816 Y-34.866
X-4.2348 Y-34.9054
X-4.8251 Y-35.073
X-4.9757 Y-35.1199
X-5.5536 Y-35.3155
X-5.7003 Y-35.3692
X-6.2651 Y-35.5919
X-6.4086 Y-35.6525
X-6.9595 Y-35.9016
X-7.099 Y-35.9688
X-7.6353 Y-36.2435
X-7.7701 Y-36.3167
X-8.2909 Y-36.6161
X-8.4226 Y-36.6961
X-8.9272 Y-37.0197
X-9.0534 Y-37.105
X-9.5411 Y-37.4518
X-9.6627 Y-37.5427
X-10.1325 Y-37.9119
X-10.2496 Y-38.0084
X-10.7009 Y-38.3993
X-10.8133 Y-38.5015
X-11.2452 Y-38.9134
X-11.3522 Y-39.0204
X-11.7641 Y-39.4524
X-11.8658 Y-39.5644
X-12.2568 Y-40.0157
X-12.3533 Y-40.1326
X-12.7225 Y-40.6024
X-12.8137 Y-40.7243
X-13.1605 Y-41.212
X-13.246 Y-41.3387
X-13.5695 Y-41.8434
X-13.6488 Y-41.9739
X-13.9483 Y-42.4947
X-14.0219 Y-42.6301
X-14.2966 Y-43.1664
X-14.3638 Y-43.3059
X-14.6129 Y-43.8569
X-14.6735 Y-44.0002
X-14.8962 Y-44.565
X-14.9501 Y-44.7123
X-15.1456 Y-45.2903
X-15.1921 Y-45.4398
X-15.3598 Y-46.03
X-15.3995 Y-46.1842
X-15.5383 Y-46.786
X-15.57 Y-46.9413
X-15.6794 Y-47.5538
X-15.7036 Y-47.7119
X-15.7827 Y-48.3344
X-15.7988 Y-48.4935
X-15.8469 Y-49.1251
X-15.8551 Y-49.2864
X-15.8712 Y-49.9265
X-15.872 Y-50.0394
X-15.8693 Y-50.2985
X-15.8661 Y-50.4117
X-15.8366 Y-51.0513
X-15.8252 Y-51.2112
X-15.7641 Y-51.8417
X-15.7445 Y-52.0015
X-15.6524 Y-52.6222
X-15.6251 Y-52.7793
X-15.503 Y-53.3894
X-15.4678 Y-53.5447
X-15.3164 Y-54.1434
X-15.2738 Y-54.2958
X-15.0939 Y-54.8825
X-15.0441 Y-55.0316
X-14.8366 Y-55.6053
X-14.7798 Y-55.7511
X-14.5454 Y-56.3112
X-14.4817 Y-56.4535
X-14.2212 Y-56.9991
X-14.1512 Y-57.137
X-13.8654 Y-57.6675
X-13.789 Y-57.8013
X-13.4787 Y-58.3158
X-13.3964 Y-58.4451
X-13.0624 Y-58.9429
X-12.9748 Y-59.067
X-12.618 Y-59.5474
X-12.5238 Y-59.668
X-12.1448 Y-60.13
X-12.0462 Y-60.2445
X-11.6459 Y-60.6876
X-11.5417 Y-60.7977
X-11.1209 Y-61.221
X-11.0118 Y-61.3257
X-10.5713 Y-61.7285
X-10.4568 Y-61.8282
X-9.9975 Y-62.2096
X-9.8787 Y-62.3036
X-9.4012 Y-62.663
X-9.2773 Y-62.7517
X-8.7826 Y-63.0882
X-8.6547 Y-63.1707
X-8.1435 Y-63.4837
X-8.0108 Y-63.5606
X-7.4838 Y-63.8492
X-7.3467 Y-63.92
X-6.8048 Y-64.1833
X-6.6644 Y-64.2474
X-6.1084 Y-64.485
X-5.9637 Y-64.5427
X-5.3943 Y-64.7536
X-5.2459 Y-64.8044
X-4.664 Y-64.9878
X-4.5132 Y-65.0313
X-3.9196 Y-65.1866
X-3.7653 Y-65.2229
X-3.1608 Y-65.3492
X-3.0049 Y-65.3777
X-2.3902 Y-65.4744
X-2.2312 Y-65.4953
X-1.6072 Y-65.5614
X-1.4472 Y-65.5743
X-0.8147 Y-65.6091
X-0.6546 Y-65.6139
X-0.0144 Y-65.6168
X0.0661 Y-65.6161
X29.9173 Y-64.9942
Z-10.16
X41.3448 Y-64.7561
Z-12.7
X292.1691 Y-59.5306
X292.3247 Y-59.5235
X292.9547 Y-59.4795
G3 X293.2648 Y-59.4424 I-0.2217 J3.1673
G1 X293.8758 Y-59.3386
G3 X294.1761 Y-59.2724 I-0.5318 J3.1301
G1 X294.7671 Y-59.1119
G3 X295.061 Y-59.0165 I-0.8321 J3.064
G1 X295.626 Y-58.8022
G3 X295.9017 Y-58.6824 I-1.126 J2.9686
G1 X296.4407 Y-58.4172
G3 X296.7045 Y-58.2715 I-1.4017 J2.8488
G1 X297.2125 Y-57.9585
G3 X297.4554 Y-57.7928 I-1.6655 J2.7031
G1 X297.9314 Y-57.4348
G3 X298.1614 Y-57.2443 I-1.9084 J2.5374
G1 X298.6004 Y-56.8443
G3 X298.8089 Y-56.6358 I-2.1384 J2.3469
G1 X299.2089 Y-56.1968
G3 X299.3979 Y-55.9689 I-2.3469 J2.1384
G1 X299.7559 Y-55.4937
G3 X299.9237 Y-55.2477 I-2.5359 J1.9105
G1 X300.2367 Y-54.7393
G3 X300.3817 Y-54.4767 I-2.7037 J1.6645
G1 X300.6467 Y-53.9382
G3 X300.7678 Y-53.6593 I-2.8487 J1.4019
G1 X300.9818 Y-53.0934
G3 X301.0751 Y-52.806 I-2.9698 J1.123
G1 X301.2361 Y-52.2158
G3 X301.3039 Y-51.9075 I-3.0631 J0.8356
G1 X301.4069 Y-51.2959
G3 X301.4433 Y-50.9898 I-3.1309 J0.5273
G1 X301.4873 Y-50.3598
G3 X301.4937 Y-50.0458 I-3.1673 J0.2212
G1 X301.4746 Y-49.3959
G3 X301.449 Y-49.0756 I-3.1736 J-0.0928
G1 X301.366 Y-48.4431
G3 X301.3085 Y-48.1288 I-3.148 J-0.4131
G1 X301.1646 Y-47.517
G3 X301.0783 Y-47.2173 I-3.0905 J-0.7274
G1 X300.8773 Y-46.6294
G3 X300.7612 Y-46.3378 I-3.0043 J-1.0271
G1 X300.5052 Y-45.7771
G3 X300.3645 Y-45.5046 I-2.8882 J-1.3187
G1 X300.0575 Y-44.9745
G3 X299.8927 Y-44.719 I-2.7475 J-1.5912
G1 X299.5377 Y-44.2225
G3 X299.3472 Y-43.9816 I-2.5827 J-1.8467
G1 X298.9462 Y-43.5221
G3 X298.7389 Y-43.306 I-2.3922 J-2.0876
G1 X298.2969 Y-42.8868
G3 X298.0664 Y-42.6883 I-2.1849 J-2.3037
G1 X297.5854 Y-42.3126
G3 X297.3356 Y-42.1362 I-1.9544 J-2.5022
G1 X296.8186 Y-41.8072
G3 X296.5504 Y-41.6543 I-1.7046 J-2.6786
G1 X296.0004 Y-41.3753
G3 X295.7171 Y-41.2486 I-1.4364 J-2.8315
G1 X295.1381 Y-41.0229
G3 X294.8397 Y-40.9233 I-1.1531 J-2.9582
G1 X294.2347 Y-40.7542
G3 X293.924 Y-40.684 I-0.8547 J-3.0578
G1 X293.295 Y-40.5746
G3 X292.9773 Y-40.5357 I-0.544 J-3.128
G1 X292.3293 Y-40.4894
X292.1691 Y-40.482
X198.5729 Y-38.5321
Z-10.16
X187.1454 Y-38.294
Z-12.7
X0.0661 Y-34.3965
X0.0331 Y-34.396
X-0.226 Y-34.3933
X-0.2372 Y-34.3932
G0 Z8.636

G53 Z-10
M5
G4 P1.0
G53 X-10 Y-10
M30
%
