(1001)
(T1  D=6.35 CR=0 - ZMIN=-20.066 - FLAT END MILL)
G0 G40 G90 G17
G21

(2D CONTOUR2)
T1 M6
M3 S5000
G0 X24.124 Y-22.225
G0 Z6.096
G1 Z4.191 F508.
G1 Z-4.064
G1 X609.6
G3 X612.775 Y-19.05 I0 J3.175
G1 Y19.05
G3 X609.6 Y22.225 I-3.175 J0
G1 X19.05
G1 X18.997
G1 X18.342 Y22.214
G1 X18.234 Y22.21
G1 X17.585 Y22.177
G1 X17.478 Y22.17
G1 X16.834 Y22.115
G1 X16.729 Y22.105
G1 X16.091 Y22.029
G1 X15.986 Y22.015
G1 X15.355 Y21.918
G1 X15.25 Y21.901
G1 X14.626 Y21.784
G1 X14.522 Y21.762
G1 X13.906 Y21.626
G1 X13.803 Y21.601
G1 X13.195 Y21.444
G1 X13.093 Y21.416
G1 X12.492 Y21.24
G1 X12.393 Y21.209
G1 X11.8 Y21.015
G1 X11.701 Y20.98
G1 X11.117 Y20.766
G1 X11.021 Y20.729
G1 X10.446 Y20.497
G1 X10.35 Y20.456
G1 X9.785 Y20.206
G1 X9.692 Y20.163
G1 X9.137 Y19.896
G1 X9.045 Y19.85
G1 X8.5 Y19.565
G1 X8.409 Y19.516
G1 X7.875 Y19.214
G1 X7.786 Y19.162
G1 X7.263 Y18.844
G1 X7.177 Y18.79
G1 X6.664 Y18.456
G1 X6.58 Y18.399
G1 X6.079 Y18.048
G1 X5.997 Y17.989
G1 X5.508 Y17.623
G1 X5.427 Y17.561
G1 X4.951 Y17.181
G1 X4.873 Y17.116
G1 X4.409 Y16.721
G1 X4.333 Y16.654
G1 X3.882 Y16.244
G1 X3.808 Y16.175
G1 X3.371 Y15.751
G1 X3.299 Y15.68
G1 X2.875 Y15.242
G1 X2.806 Y15.168
G1 X2.396 Y14.717
G1 X2.329 Y14.641
G1 X1.934 Y14.177
G1 X1.869 Y14.099
G1 X1.489 Y13.622
G1 X1.427 Y13.542
G1 X1.061 Y13.053
G1 X1.002 Y12.971
G1 X0.651 Y12.47
G1 X0.594 Y12.386
G1 X0.26 Y11.874
G1 X0.206 Y11.787
G1 X-0.113 Y11.264
G1 X-0.164 Y11.175
G1 X-0.466 Y10.641
G1 X-0.515 Y10.551
G1 X-0.8 Y10.006
G1 X-0.846 Y9.913
G1 X-1.113 Y9.358
G1 X-1.157 Y9.264
G1 X-1.407 Y8.699
G1 X-1.447 Y8.604
G1 X-1.679 Y8.029
G1 X-1.716 Y7.932
G1 X-1.93 Y7.349
G1 X-1.964 Y7.25
G1 X-2.159 Y6.658
G1 X-2.19 Y6.558
G1 X-2.366 Y5.957
G1 X-2.394 Y5.855
G1 X-2.551 Y5.247
G1 X-2.576 Y5.144
G1 X-2.712 Y4.528
G1 X-2.734 Y4.424
G1 X-2.851 Y3.8
G1 X-2.868 Y3.695
G1 X-2.965 Y3.064
G1 X-2.979 Y2.959
G1 X-3.055 Y2.322
G1 X-3.065 Y2.215
G1 X-3.12 Y1.572
G1 X-3.127 Y1.465
G1 X-3.16 Y0.816
G1 X-3.164 Y0.708
G1 X-3.175 Y0.054
G1 Y-0.054
G1 X-3.164 Y-0.708
G1 X-3.16 Y-0.816
G1 X-3.127 Y-1.465
G1 X-3.12 Y-1.572
G1 X-3.065 Y-2.215
G1 X-3.055 Y-2.322
G1 X-2.979 Y-2.959
G1 X-2.965 Y-3.064
G1 X-2.868 Y-3.695
G1 X-2.851 Y-3.8
G1 X-2.734 Y-4.424
G1 X-2.712 Y-4.528
G1 X-2.576 Y-5.144
G1 X-2.551 Y-5.247
G1 X-2.394 Y-5.855
G1 X-2.366 Y-5.957
G1 X-2.19 Y-6.558
G1 X-2.159 Y-6.658
G1 X-1.964 Y-7.25
G1 X-1.93 Y-7.349
G1 X-1.716 Y-7.932
G1 X-1.679 Y-8.029
G1 X-1.447 Y-8.604
G1 X-1.407 Y-8.699
G1 X-1.157 Y-9.264
G1 X-1.113 Y-9.358
G1 X-0.846 Y-9.913
G1 X-0.8 Y-10.006
G1 X-0.515 Y-10.551
G1 X-0.466 Y-10.641
G1 X-0.164 Y-11.175
G1 X-0.113 Y-11.264
G1 X0.206 Y-11.787
G1 X0.26 Y-11.874
G1 X0.594 Y-12.386
G1 X0.651 Y-12.47
G1 X1.002 Y-12.971
G1 X1.061 Y-13.053
G1 X1.427 Y-13.542
G1 X1.489 Y-13.622
G1 X1.869 Y-14.099
G1 X1.934 Y-14.177
G1 X2.329 Y-14.641
G1 X2.396 Y-14.717
G1 X2.806 Y-15.168
G1 X2.875 Y-15.242
G1 X3.299 Y-15.68
G1 X3.371 Y-15.751
G1 X3.808 Y-16.175
G1 X3.882 Y-16.244
G1 X4.333 Y-16.654
G1 X4.409 Y-16.721
G1 X4.873 Y-17.116
G1 X4.951 Y-17.181
G1 X5.427 Y-17.561
G1 X5.508 Y-17.623
G1 X5.997 Y-17.989
G1 X6.079 Y-18.048
G1 X6.58 Y-18.399
G1 X6.664 Y-18.456
G1 X7.177 Y-18.79
G1 X7.263 Y-18.844
G1 X7.786 Y-19.162
G1 X7.875 Y-19.214
G1 X8.409 Y-19.516
G1 X8.5 Y-19.565
G1 X9.045 Y-19.85
G1 X9.137 Y-19.896
G1 X9.692 Y-20.163
G1 X9.785 Y-20.206
G1 X10.35 Y-20.456
G1 X10.446 Y-20.497
G1 X11.021 Y-20.729
G1 X11.117 Y-20.766
G1 X11.701 Y-20.98
G1 X11.8 Y-21.015
G1 X12.393 Y-21.209
G1 X12.492 Y-21.24
G1 X13.093 Y-21.416
G1 X13.195 Y-21.444
G1 X13.803 Y-21.601
G1 X13.906 Y-21.626
G1 X14.522 Y-21.762
G1 X14.626 Y-21.784
G1 X15.25 Y-21.901
G1 X15.355 Y-21.918
G1 X15.986 Y-22.015
G1 X16.091 Y-22.029
G1 X16.729 Y-22.105
G1 X16.834 Y-22.115
G1 X17.478 Y-22.17
G1 X17.585 Y-22.177
G1 X18.234 Y-22.21
G1 X18.342 Y-22.214
G1 X18.997 Y-22.225
G1 X19.05
G1 X24.124
G0 Z6.096
G0 X18.997 Y-29.105
G1 Z4.191 F508.
G1 Z-4.064
G1 X18.342 Y-29.116
G1 X18.234 Y-29.119
G1 X17.585 Y-29.152
G1 X17.478 Y-29.159
G1 X16.835 Y-29.214
G1 X16.728 Y-29.225
G1 X16.091 Y-29.3
G1 X15.986 Y-29.314
G1 X15.355 Y-29.411
G1 X15.25 Y-29.429
G1 X14.626 Y-29.545
G1 X14.522 Y-29.567
G1 X13.906 Y-29.704
G1 X13.803 Y-29.728
G1 X13.195 Y-29.885
G1 X13.094 Y-29.913
G1 X12.493 Y-30.089
G1 X12.392 Y-30.12
G1 X11.8 Y-30.315
G1 X11.701 Y-30.349
G1 X11.117 Y-30.563
G1 X11.021 Y-30.6
G1 X10.446 Y-30.832
G1 X10.351 Y-30.873
G1 X9.786 Y-31.122
G1 X9.692 Y-31.166
G1 X9.137 Y-31.433
G1 X9.044 Y-31.48
G1 X8.499 Y-31.764
G1 X8.409 Y-31.813
G1 X7.875 Y-32.115
G1 X7.787 Y-32.166
G1 X7.263 Y-32.485
G1 X7.176 Y-32.539
G1 X6.664 Y-32.874
G1 X6.58 Y-32.931
G1 X6.079 Y-33.281
G1 X5.997 Y-33.34
G1 X5.508 Y-33.706
G1 X5.427 Y-33.768
G1 X4.951 Y-34.149
G1 X4.873 Y-34.213
G1 X4.409 Y-34.608
G1 X4.333 Y-34.675
G1 X3.882 Y-35.085
G1 X3.808 Y-35.154
G1 X3.371 Y-35.578
G1 X3.299 Y-35.65
G1 X2.875 Y-36.087
G1 X2.806 Y-36.161
G1 X2.396 Y-36.612
G1 X2.329 Y-36.688
G1 X1.934 Y-37.152
G1 X1.869 Y-37.23
G1 X1.489 Y-37.707
G1 X1.427 Y-37.787
G1 X1.061 Y-38.276
G1 X1.002 Y-38.358
G1 X0.651 Y-38.859
G1 X0.594 Y-38.943
G1 X0.26 Y-39.456
G1 X0.206 Y-39.542
G1 X-0.113 Y-40.066
G1 X-0.164 Y-40.154
G1 X-0.466 Y-40.688
G1 X-0.515 Y-40.779
G1 X-0.8 Y-41.324
G1 X-0.846 Y-41.416
G1 X-1.113 Y-41.971
G1 X-1.157 Y-42.065
G1 X-1.406 Y-42.629
G1 X-1.447 Y-42.725
G1 X-1.679 Y-43.3
G1 X-1.716 Y-43.397
G1 X-1.93 Y-43.98
G1 X-1.964 Y-44.079
G1 X-2.159 Y-44.671
G1 X-2.19 Y-44.772
G1 X-2.366 Y-45.372
G1 X-2.394 Y-45.474
G1 X-2.551 Y-46.083
G1 X-2.576 Y-46.185
G1 X-2.712 Y-46.802
G1 X-2.734 Y-46.906
G1 X-2.851 Y-47.529
G1 X-2.868 Y-47.634
G1 X-2.965 Y-48.265
G1 X-2.979 Y-48.37
G1 X-3.055 Y-49.008
G1 X-3.065 Y-49.114
G1 X-3.12 Y-49.757
G1 X-3.127 Y-49.864
G1 X-3.16 Y-50.514
G1 X-3.164 Y-50.621
G1 X-3.175 Y-51.276
G1 Y-51.383
G1 X-3.164 Y-52.038
G1 X-3.16 Y-52.145
G1 X-3.127 Y-52.794
G1 X-3.12 Y-52.901
G1 X-3.065 Y-53.544
G1 X-3.055 Y-53.651
G1 X-2.979 Y-54.288
G1 X-2.965 Y-54.394
G1 X-2.868 Y-55.024
G1 X-2.851 Y-55.129
G1 X-2.734 Y-55.753
G1 X-2.712 Y-55.857
G1 X-2.576 Y-56.473
G1 X-2.551 Y-56.576
G1 X-2.394 Y-57.184
G1 X-2.366 Y-57.286
G1 X-2.191 Y-57.887
G1 X-2.159 Y-57.987
G1 X-1.964 Y-58.579
G1 X-1.93 Y-58.678
G1 X-1.716 Y-59.261
G1 X-1.679 Y-59.359
G1 X-1.447 Y-59.933
G1 X-1.407 Y-60.029
G1 X-1.157 Y-60.594
G1 X-1.113 Y-60.687
G1 X-0.846 Y-61.243
G1 X-0.8 Y-61.335
G1 X-0.515 Y-61.88
G1 X-0.466 Y-61.97
G1 X-0.164 Y-62.504
G1 X-0.112 Y-62.593
G1 X0.206 Y-63.117
G1 X0.26 Y-63.203
G1 X0.594 Y-63.715
G1 X0.651 Y-63.799
G1 X1.002 Y-64.3
G1 X1.061 Y-64.383
G1 X1.427 Y-64.872
G1 X1.489 Y-64.952
G1 X1.87 Y-65.429
G1 X1.934 Y-65.506
G1 X2.329 Y-65.97
G1 X2.396 Y-66.046
G1 X2.806 Y-66.497
G1 X2.875 Y-66.571
G1 X3.299 Y-67.008
G1 X3.371 Y-67.08
G1 X3.808 Y-67.504
G1 X3.882 Y-67.573
G1 X4.333 Y-67.983
G1 X4.409 Y-68.05
G1 X4.873 Y-68.445
G1 X4.951 Y-68.51
G1 X5.427 Y-68.891
G1 X5.508 Y-68.953
G1 X5.997 Y-69.318
G1 X6.079 Y-69.378
G1 X6.58 Y-69.728
G1 X6.664 Y-69.785
G1 X7.176 Y-70.119
G1 X7.263 Y-70.173
G1 X7.786 Y-70.492
G1 X7.875 Y-70.544
G1 X8.409 Y-70.845
G1 X8.499 Y-70.894
G1 X9.044 Y-71.179
G1 X9.137 Y-71.225
G1 X9.692 Y-71.493
G1 X9.786 Y-71.536
G1 X10.351 Y-71.786
G1 X10.446 Y-71.826
G1 X11.02 Y-72.058
G1 X11.118 Y-72.096
G1 X11.701 Y-72.309
G1 X11.8 Y-72.343
G1 X12.392 Y-72.538
G1 X12.492 Y-72.57
G1 X13.093 Y-72.746
G1 X13.195 Y-72.774
G1 X13.803 Y-72.93
G1 X13.906 Y-72.955
G1 X14.523 Y-73.092
G1 X14.626 Y-73.113
G1 X15.25 Y-73.23
G1 X15.355 Y-73.247
G1 X15.985 Y-73.344
G1 X16.091 Y-73.358
G1 X16.729 Y-73.434
G1 X16.835 Y-73.445
G1 X17.478 Y-73.499
G1 X17.585 Y-73.506
G1 X18.234 Y-73.539
G1 X18.341 Y-73.543
G1 X18.996 Y-73.554
G1 X19.05
G1 X609.6
G3 X612.775 Y-70.379 I0 J3.175
G1 Y-32.279
G3 X609.6 Y-29.104 I-3.175 J0
G1 X19.05
G1 X18.997 Y-29.105
G1 Z-9.144
G1 X18.342 Y-29.116
G1 X18.234 Y-29.119
G1 X17.585 Y-29.152
G1 X17.478 Y-29.159
G1 X16.835 Y-29.214
G1 X16.728 Y-29.225
G1 X16.091 Y-29.3
G1 X15.986 Y-29.314
G1 X15.355 Y-29.411
G1 X15.25 Y-29.429
G1 X14.626 Y-29.545
G1 X14.522 Y-29.567
G1 X13.906 Y-29.704
G1 X13.803 Y-29.728
G1 X13.195 Y-29.885
G1 X13.094 Y-29.913
G1 X12.493 Y-30.089
G1 X12.392 Y-30.12
G1 X11.8 Y-30.315
G1 X11.701 Y-30.349
G1 X11.117 Y-30.563
G1 X11.021 Y-30.6
G1 X10.446 Y-30.832
G1 X10.351 Y-30.873
G1 X9.786 Y-31.122
G1 X9.692 Y-31.166
G1 X9.137 Y-31.433
G1 X9.044 Y-31.48
G1 X8.499 Y-31.764
G1 X8.409 Y-31.813
G1 X7.875 Y-32.115
G1 X7.787 Y-32.166
G1 X7.263 Y-32.485
G1 X7.176 Y-32.539
G1 X6.664 Y-32.874
G1 X6.58 Y-32.931
G1 X6.079 Y-33.281
G1 X5.997 Y-33.34
G1 X5.508 Y-33.706
G1 X5.427 Y-33.768
G1 X4.951 Y-34.149
G1 X4.873 Y-34.213
G1 X4.409 Y-34.608
G1 X4.333 Y-34.675
G1 X3.882 Y-35.085
G1 X3.808 Y-35.154
G1 X3.371 Y-35.578
G1 X3.299 Y-35.65
G1 X2.875 Y-36.087
G1 X2.806 Y-36.161
G1 X2.396 Y-36.612
G1 X2.329 Y-36.688
G1 X1.934 Y-37.152
G1 X1.869 Y-37.23
G1 X1.489 Y-37.707
G1 X1.427 Y-37.787
G1 X1.061 Y-38.276
G1 X1.002 Y-38.358
G1 X0.651 Y-38.859
G1 X0.594 Y-38.943
G1 X0.26 Y-39.456
G1 X0.206 Y-39.542
G1 X-0.113 Y-40.066
G1 X-0.164 Y-40.154
G1 X-0.466 Y-40.688
G1 X-0.515 Y-40.779
G1 X-0.8 Y-41.324
G1 X-0.846 Y-41.416
G1 X-1.113 Y-41.971
G1 X-1.157 Y-42.065
G1 X-1.406 Y-42.629
G1 X-1.447 Y-42.725
G1 X-1.679 Y-43.3
G1 X-1.716 Y-43.397
G1 X-1.93 Y-43.98
G1 X-1.964 Y-44.079
G1 X-2.159 Y-44.671
G1 X-2.19 Y-44.772
G1 X-2.366 Y-45.372
G1 X-2.394 Y-45.474
G1 X-2.551 Y-46.083
G1 X-2.576 Y-46.185
G1 X-2.712 Y-46.802
G1 X-2.734 Y-46.906
G1 X-2.851 Y-47.529
G1 X-2.868 Y-47.634
G1 X-2.965 Y-48.265
G1 X-2.979 Y-48.37
G1 X-3.055 Y-49.008
G1 X-3.065 Y-49.114
G1 X-3.12 Y-49.757
G1 X-3.127 Y-49.864
G1 X-3.16 Y-50.514
G1 X-3.164 Y-50.621
G1 X-3.175 Y-51.276
G1 Y-51.383
G1 X-3.164 Y-52.038
G1 X-3.16 Y-52.145
G1 X-3.127 Y-52.794
G1 X-3.12 Y-52.901
G1 X-3.065 Y-53.544
G1 X-3.055 Y-53.651
G1 X-2.979 Y-54.288
G1 X-2.965 Y-54.394
G1 X-2.868 Y-55.024
G1 X-2.851 Y-55.129
G1 X-2.734 Y-55.753
G1 X-2.712 Y-55.857
G1 X-2.576 Y-56.473
G1 X-2.551 Y-56.576
G1 X-2.394 Y-57.184
G1 X-2.366 Y-57.286
G1 X-2.191 Y-57.887
G1 X-2.159 Y-57.987
G1 X-1.964 Y-58.579
G1 X-1.93 Y-58.678
G1 X-1.716 Y-59.261
G1 X-1.679 Y-59.359
G1 X-1.447 Y-59.933
G1 X-1.407 Y-60.029
G1 X-1.157 Y-60.594
G1 X-1.113 Y-60.687
G1 X-0.846 Y-61.243
G1 X-0.8 Y-61.335
G1 X-0.515 Y-61.88
G1 X-0.466 Y-61.97
G1 X-0.164 Y-62.504
G1 X-0.112 Y-62.593
G1 X0.206 Y-63.117
G1 X0.26 Y-63.203
G1 X0.594 Y-63.715
G1 X0.651 Y-63.799
G1 X1.002 Y-64.3
G1 X1.061 Y-64.383
G1 X1.427 Y-64.872
G1 X1.489 Y-64.952
G1 X1.87 Y-65.429
G1 X1.934 Y-65.506
G1 X2.329 Y-65.97
G1 X2.396 Y-66.046
G1 X2.806 Y-66.497
G1 X2.875 Y-66.571
G1 X3.299 Y-67.008
G1 X3.371 Y-67.08
G1 X3.808 Y-67.504
G1 X3.882 Y-67.573
G1 X4.333 Y-67.983
G1 X4.409 Y-68.05
G1 X4.873 Y-68.445
G1 X4.951 Y-68.51
G1 X5.427 Y-68.891
G1 X5.508 Y-68.953
G1 X5.997 Y-69.318
G1 X6.079 Y-69.378
G1 X6.58 Y-69.728
G1 X6.664 Y-69.785
G1 X7.176 Y-70.119
G1 X7.263 Y-70.173
G1 X7.786 Y-70.492
G1 X7.875 Y-70.544
G1 X8.409 Y-70.845
G1 X8.499 Y-70.894
G1 X9.044 Y-71.179
G1 X9.137 Y-71.225
G1 X9.692 Y-71.493
G1 X9.786 Y-71.536
G1 X10.351 Y-71.786
G1 X10.446 Y-71.826
G1 X11.02 Y-72.058
G1 X11.118 Y-72.096
G1 X11.701 Y-72.309
G1 X11.8 Y-72.343
G1 X12.392 Y-72.538
G1 X12.492 Y-72.57
G1 X13.093 Y-72.746
G1 X13.195 Y-72.774
G1 X13.803 Y-72.93
G1 X13.906 Y-72.955
G1 X14.523 Y-73.092
G1 X14.626 Y-73.113
G1 X15.25 Y-73.23
G1 X15.355 Y-73.247
G1 X15.985 Y-73.344
G1 X16.091 Y-73.358
G1 X16.729 Y-73.434
G1 X16.835 Y-73.445
G1 X17.478 Y-73.499
G1 X17.585 Y-73.506
G1 X18.234 Y-73.539
G1 X18.341 Y-73.543
G1 X18.996 Y-73.554
G1 X19.05
G1 X609.6
G3 X612.775 Y-70.379 I0 J3.175
G1 Y-32.279
G3 X609.6 Y-29.104 I-3.175 J0
G1 X19.05
G1 X18.997 Y-29.105
G0 Z6.096
G0 X24.124 Y-22.225
G1 Z-0.889 F508.
G1 Z-9.144
G1 X609.6
G3 X612.775 Y-19.05 I0 J3.175
G1 Y19.05
G3 X609.6 Y22.225 I-3.175 J0
G1 X19.05
G1 X18.997
G1 X18.342 Y22.214
G1 X18.234 Y22.21
G1 X17.585 Y22.177
G1 X17.478 Y22.17
G1 X16.834 Y22.115
G1 X16.729 Y22.105
G1 X16.091 Y22.029
G1 X15.986 Y22.015
G1 X15.355 Y21.918
G1 X15.25 Y21.901
G1 X14.626 Y21.784
G1 X14.522 Y21.762
G1 X13.906 Y21.626
G1 X13.803 Y21.601
G1 X13.195 Y21.444
G1 X13.093 Y21.416
G1 X12.492 Y21.24
G1 X12.393 Y21.209
G1 X11.8 Y21.015
G1 X11.701 Y20.98
G1 X11.117 Y20.766
G1 X11.021 Y20.729
G1 X10.446 Y20.497
G1 X10.35 Y20.456
G1 X9.785 Y20.206
G1 X9.692 Y20.163
G1 X9.137 Y19.896
G1 X9.045 Y19.85
G1 X8.5 Y19.565
G1 X8.409 Y19.516
G1 X7.875 Y19.214
G1 X7.786 Y19.162
G1 X7.263 Y18.844
G1 X7.177 Y18.79
G1 X6.664 Y18.456
G1 X6.58 Y18.399
G1 X6.079 Y18.048
G1 X5.997 Y17.989
G1 X5.508 Y17.623
G1 X5.427 Y17.561
G1 X4.951 Y17.181
G1 X4.873 Y17.116
G1 X4.409 Y16.721
G1 X4.333 Y16.654
G1 X3.882 Y16.244
G1 X3.808 Y16.175
G1 X3.371 Y15.751
G1 X3.299 Y15.68
G1 X2.875 Y15.242
G1 X2.806 Y15.168
G1 X2.396 Y14.717
G1 X2.329 Y14.641
G1 X1.934 Y14.177
G1 X1.869 Y14.099
G1 X1.489 Y13.622
G1 X1.427 Y13.542
G1 X1.061 Y13.053
G1 X1.002 Y12.971
G1 X0.651 Y12.47
G1 X0.594 Y12.386
G1 X0.26 Y11.874
G1 X0.206 Y11.787
G1 X-0.113 Y11.264
G1 X-0.164 Y11.175
G1 X-0.466 Y10.641
G1 X-0.515 Y10.551
G1 X-0.8 Y10.006
G1 X-0.846 Y9.913
G1 X-1.113 Y9.358
G1 X-1.157 Y9.264
G1 X-1.407 Y8.699
G1 X-1.447 Y8.604
G1 X-1.679 Y8.029
G1 X-1.716 Y7.932
G1 X-1.93 Y7.349
G1 X-1.964 Y7.25
G1 X-2.159 Y6.658
G1 X-2.19 Y6.558
G1 X-2.366 Y5.957
G1 X-2.394 Y5.855
G1 X-2.551 Y5.247
G1 X-2.576 Y5.144
G1 X-2.712 Y4.528
G1 X-2.734 Y4.424
G1 X-2.851 Y3.8
G1 X-2.868 Y3.695
G1 X-2.965 Y3.064
G1 X-2.979 Y2.959
G1 X-3.055 Y2.322
G1 X-3.065 Y2.215
G1 X-3.12 Y1.572
G1 X-3.127 Y1.465
G1 X-3.16 Y0.816
G1 X-3.164 Y0.708
G1 X-3.175 Y0.054
G1 Y-0.054
G1 X-3.164 Y-0.708
G1 X-3.16 Y-0.816
G1 X-3.127 Y-1.465
G1 X-3.12 Y-1.572
G1 X-3.065 Y-2.215
G1 X-3.055 Y-2.322
G1 X-2.979 Y-2.959
G1 X-2.965 Y-3.064
G1 X-2.868 Y-3.695
G1 X-2.851 Y-3.8
G1 X-2.734 Y-4.424
G1 X-2.712 Y-4.528
G1 X-2.576 Y-5.144
G1 X-2.551 Y-5.247
G1 X-2.394 Y-5.855
G1 X-2.366 Y-5.957
G1 X-2.19 Y-6.558
G1 X-2.159 Y-6.658
G1 X-1.964 Y-7.25
G1 X-1.93 Y-7.349
G1 X-1.716 Y-7.932
G1 X-1.679 Y-8.029
G1 X-1.447 Y-8.604
G1 X-1.407 Y-8.699
G1 X-1.157 Y-9.264
G1 X-1.113 Y-9.358
G1 X-0.846 Y-9.913
G1 X-0.8 Y-10.006
G1 X-0.515 Y-10.551
G1 X-0.466 Y-10.641
G1 X-0.164 Y-11.175
G1 X-0.113 Y-11.264
G1 X0.206 Y-11.787
G1 X0.26 Y-11.874
G1 X0.594 Y-12.386
G1 X0.651 Y-12.47
G1 X1.002 Y-12.971
G1 X1.061 Y-13.053
G1 X1.427 Y-13.542
G1 X1.489 Y-13.622
G1 X1.869 Y-14.099
G1 X1.934 Y-14.177
G1 X2.329 Y-14.641
G1 X2.396 Y-14.717
G1 X2.806 Y-15.168
G1 X2.875 Y-15.242
G1 X3.299 Y-15.68
G1 X3.371 Y-15.751
G1 X3.808 Y-16.175
G1 X3.882 Y-16.244
G1 X4.333 Y-16.654
G1 X4.409 Y-16.721
G1 X4.873 Y-17.116
G1 X4.951 Y-17.181
G1 X5.427 Y-17.561
G1 X5.508 Y-17.623
G1 X5.997 Y-17.989
G1 X6.079 Y-18.048
G1 X6.58 Y-18.399
G1 X6.664 Y-18.456
G1 X7.177 Y-18.79
G1 X7.263 Y-18.844
G1 X7.786 Y-19.162
G1 X7.875 Y-19.214
G1 X8.409 Y-19.516
G1 X8.5 Y-19.565
G1 X9.045 Y-19.85
G1 X9.137 Y-19.896
G1 X9.692 Y-20.163
G1 X9.785 Y-20.206
G1 X10.35 Y-20.456
G1 X10.446 Y-20.497
G1 X11.021 Y-20.729
G1 X11.117 Y-20.766
G1 X11.701 Y-20.98
G1 X11.8 Y-21.015
G1 X12.393 Y-21.209
G1 X12.492 Y-21.24
G1 X13.093 Y-21.416
G1 X13.195 Y-21.444
G1 X13.803 Y-21.601
G1 X13.906 Y-21.626
G1 X14.522 Y-21.762
G1 X14.626 Y-21.784
G1 X15.25 Y-21.901
G1 X15.355 Y-21.918
G1 X15.986 Y-22.015
G1 X16.091 Y-22.029
G1 X16.729 Y-22.105
G1 X16.834 Y-22.115
G1 X17.478 Y-22.17
G1 X17.585 Y-22.177
G1 X18.234 Y-22.21
G1 X18.342 Y-22.214
G1 X18.997 Y-22.225
G1 X19.05
G1 X24.124
G1 Z-14.224
G1 X609.6
G3 X612.775 Y-19.05 I0 J3.175
G1 Y19.05
G3 X609.6 Y22.225 I-3.175 J0
G1 X19.05
G1 X18.997
G1 X18.342 Y22.214
G1 X18.234 Y22.21
G1 X17.585 Y22.177
G1 X17.478 Y22.17
G1 X16.834 Y22.115
G1 X16.729 Y22.105
G1 X16.091 Y22.029
G1 X15.986 Y22.015
G1 X15.355 Y21.918
G1 X15.25 Y21.901
G1 X14.626 Y21.784
G1 X14.522 Y21.762
G1 X13.906 Y21.626
G1 X13.803 Y21.601
G1 X13.195 Y21.444
G1 X13.093 Y21.416
G1 X12.492 Y21.24
G1 X12.393 Y21.209
G1 X11.8 Y21.015
G1 X11.701 Y20.98
G1 X11.117 Y20.766
G1 X11.021 Y20.729
G1 X10.446 Y20.497
G1 X10.35 Y20.456
G1 X9.785 Y20.206
G1 X9.692 Y20.163
G1 X9.137 Y19.896
G1 X9.045 Y19.85
G1 X8.5 Y19.565
G1 X8.409 Y19.516
G1 X7.875 Y19.214
G1 X7.786 Y19.162
G1 X7.263 Y18.844
G1 X7.177 Y18.79
G1 X6.664 Y18.456
G1 X6.58 Y18.399
G1 X6.079 Y18.048
G1 X5.997 Y17.989
G1 X5.508 Y17.623
G1 X5.427 Y17.561
G1 X4.951 Y17.181
G1 X4.873 Y17.116
G1 X4.409 Y16.721
G1 X4.333 Y16.654
G1 X3.882 Y16.244
G1 X3.808 Y16.175
G1 X3.371 Y15.751
G1 X3.299 Y15.68
G1 X2.875 Y15.242
G1 X2.806 Y15.168
G1 X2.396 Y14.717
G1 X2.329 Y14.641
G1 X1.934 Y14.177
G1 X1.869 Y14.099
G1 X1.489 Y13.622
G1 X1.427 Y13.542
G1 X1.061 Y13.053
G1 X1.002 Y12.971
G1 X0.651 Y12.47
G1 X0.594 Y12.386
G1 X0.26 Y11.874
G1 X0.206 Y11.787
G1 X-0.113 Y11.264
G1 X-0.164 Y11.175
G1 X-0.466 Y10.641
G1 X-0.515 Y10.551
G1 X-0.8 Y10.006
G1 X-0.846 Y9.913
G1 X-1.113 Y9.358
G1 X-1.157 Y9.264
G1 X-1.407 Y8.699
G1 X-1.447 Y8.604
G1 X-1.679 Y8.029
G1 X-1.716 Y7.932
G1 X-1.93 Y7.349
G1 X-1.964 Y7.25
G1 X-2.159 Y6.658
G1 X-2.19 Y6.558
G1 X-2.366 Y5.957
G1 X-2.394 Y5.855
G1 X-2.551 Y5.247
G1 X-2.576 Y5.144
G1 X-2.712 Y4.528
G1 X-2.734 Y4.424
G1 X-2.851 Y3.8
G1 X-2.868 Y3.695
G1 X-2.965 Y3.064
G1 X-2.979 Y2.959
G1 X-3.055 Y2.322
G1 X-3.065 Y2.215
G1 X-3.12 Y1.572
G1 X-3.127 Y1.465
G1 X-3.16 Y0.816
G1 X-3.164 Y0.708
G1 X-3.175 Y0.054
G1 Y-0.054
G1 X-3.164 Y-0.708
G1 X-3.16 Y-0.816
G1 X-3.127 Y-1.465
G1 X-3.12 Y-1.572
G1 X-3.065 Y-2.215
G1 X-3.055 Y-2.322
G1 X-2.979 Y-2.959
G1 X-2.965 Y-3.064
G1 X-2.868 Y-3.695
G1 X-2.851 Y-3.8
G1 X-2.734 Y-4.424
G1 X-2.712 Y-4.528
G1 X-2.576 Y-5.144
G1 X-2.551 Y-5.247
G1 X-2.394 Y-5.855
G1 X-2.366 Y-5.957
G1 X-2.19 Y-6.558
G1 X-2.159 Y-6.658
G1 X-1.964 Y-7.25
G1 X-1.93 Y-7.349
G1 X-1.716 Y-7.932
G1 X-1.679 Y-8.029
G1 X-1.447 Y-8.604
G1 X-1.407 Y-8.699
G1 X-1.157 Y-9.264
G1 X-1.113 Y-9.358
G1 X-0.846 Y-9.913
G1 X-0.8 Y-10.006
G1 X-0.515 Y-10.551
G1 X-0.466 Y-10.641
G1 X-0.164 Y-11.175
G1 X-0.113 Y-11.264
G1 X0.206 Y-11.787
G1 X0.26 Y-11.874
G1 X0.594 Y-12.386
G1 X0.651 Y-12.47
G1 X1.002 Y-12.971
G1 X1.061 Y-13.053
G1 X1.427 Y-13.542
G1 X1.489 Y-13.622
G1 X1.869 Y-14.099
G1 X1.934 Y-14.177
G1 X2.329 Y-14.641
G1 X2.396 Y-14.717
G1 X2.806 Y-15.168
G1 X2.875 Y-15.242
G1 X3.299 Y-15.68
G1 X3.371 Y-15.751
G1 X3.808 Y-16.175
G1 X3.882 Y-16.244
G1 X4.333 Y-16.654
G1 X4.409 Y-16.721
G1 X4.873 Y-17.116
G1 X4.951 Y-17.181
G1 X5.427 Y-17.561
G1 X5.508 Y-17.623
G1 X5.997 Y-17.989
G1 X6.079 Y-18.048
G1 X6.58 Y-18.399
G1 X6.664 Y-18.456
G1 X7.177 Y-18.79
G1 X7.263 Y-18.844
G1 X7.786 Y-19.162
G1 X7.875 Y-19.214
G1 X8.409 Y-19.516
G1 X8.5 Y-19.565
G1 X9.045 Y-19.85
G1 X9.137 Y-19.896
G1 X9.692 Y-20.163
G1 X9.785 Y-20.206
G1 X10.35 Y-20.456
G1 X10.446 Y-20.497
G1 X11.021 Y-20.729
G1 X11.117 Y-20.766
G1 X11.701 Y-20.98
G1 X11.8 Y-21.015
G1 X12.393 Y-21.209
G1 X12.492 Y-21.24
G1 X13.093 Y-21.416
G1 X13.195 Y-21.444
G1 X13.803 Y-21.601
G1 X13.906 Y-21.626
G1 X14.522 Y-21.762
G1 X14.626 Y-21.784
G1 X15.25 Y-21.901
G1 X15.355 Y-21.918
G1 X15.986 Y-22.015
G1 X16.091 Y-22.029
G1 X16.729 Y-22.105
G1 X16.834 Y-22.115
G1 X17.478 Y-22.17
G1 X17.585 Y-22.177
G1 X18.234 Y-22.21
G1 X18.342 Y-22.214
G1 X18.997 Y-22.225
G1 X19.05
G1 X24.124
G0 Z6.096
G0 X18.997 Y-29.105
G1 Z-5.969 F508.
G1 Z-14.224
G1 X18.342 Y-29.116
G1 X18.234 Y-29.119
G1 X17.585 Y-29.152
G1 X17.478 Y-29.159
G1 X16.835 Y-29.214
G1 X16.728 Y-29.225
G1 X16.091 Y-29.3
G1 X15.986 Y-29.314
G1 X15.355 Y-29.411
G1 X15.25 Y-29.429
G1 X14.626 Y-29.545
G1 X14.522 Y-29.567
G1 X13.906 Y-29.704
G1 X13.803 Y-29.728
G1 X13.195 Y-29.885
G1 X13.094 Y-29.913
G1 X12.493 Y-30.089
G1 X12.392 Y-30.12
G1 X11.8 Y-30.315
G1 X11.701 Y-30.349
G1 X11.117 Y-30.563
G1 X11.021 Y-30.6
G1 X10.446 Y-30.832
G1 X10.351 Y-30.873
G1 X9.786 Y-31.122
G1 X9.692 Y-31.166
G1 X9.137 Y-31.433
G1 X9.044 Y-31.48
G1 X8.499 Y-31.764
G1 X8.409 Y-31.813
G1 X7.875 Y-32.115
G1 X7.787 Y-32.166
G1 X7.263 Y-32.485
G1 X7.176 Y-32.539
G1 X6.664 Y-32.874
G1 X6.58 Y-32.931
G1 X6.079 Y-33.281
G1 X5.997 Y-33.34
G1 X5.508 Y-33.706
G1 X5.427 Y-33.768
G1 X4.951 Y-34.149
G1 X4.873 Y-34.213
G1 X4.409 Y-34.608
G1 X4.333 Y-34.675
G1 X3.882 Y-35.085
G1 X3.808 Y-35.154
G1 X3.371 Y-35.578
G1 X3.299 Y-35.65
G1 X2.875 Y-36.087
G1 X2.806 Y-36.161
G1 X2.396 Y-36.612
G1 X2.329 Y-36.688
G1 X1.934 Y-37.152
G1 X1.869 Y-37.23
G1 X1.489 Y-37.707
G1 X1.427 Y-37.787
G1 X1.061 Y-38.276
G1 X1.002 Y-38.358
G1 X0.651 Y-38.859
G1 X0.594 Y-38.943
G1 X0.26 Y-39.456
G1 X0.206 Y-39.542
G1 X-0.113 Y-40.066
G1 X-0.164 Y-40.154
G1 X-0.466 Y-40.688
G1 X-0.515 Y-40.779
G1 X-0.8 Y-41.324
G1 X-0.846 Y-41.416
G1 X-1.113 Y-41.971
G1 X-1.157 Y-42.065
G1 X-1.406 Y-42.629
G1 X-1.447 Y-42.725
G1 X-1.679 Y-43.3
G1 X-1.716 Y-43.397
G1 X-1.93 Y-43.98
G1 X-1.964 Y-44.079
G1 X-2.159 Y-44.671
G1 X-2.19 Y-44.772
G1 X-2.366 Y-45.372
G1 X-2.394 Y-45.474
G1 X-2.551 Y-46.083
G1 X-2.576 Y-46.185
G1 X-2.712 Y-46.802
G1 X-2.734 Y-46.906
G1 X-2.851 Y-47.529
G1 X-2.868 Y-47.634
G1 X-2.965 Y-48.265
G1 X-2.979 Y-48.37
G1 X-3.055 Y-49.008
G1 X-3.065 Y-49.114
G1 X-3.12 Y-49.757
G1 X-3.127 Y-49.864
G1 X-3.16 Y-50.514
G1 X-3.164 Y-50.621
G1 X-3.175 Y-51.276
G1 Y-51.383
G1 X-3.164 Y-52.038
G1 X-3.16 Y-52.145
G1 X-3.127 Y-52.794
G1 X-3.12 Y-52.901
G1 X-3.065 Y-53.544
G1 X-3.055 Y-53.651
G1 X-2.979 Y-54.288
G1 X-2.965 Y-54.394
G1 X-2.868 Y-55.024
G1 X-2.851 Y-55.129
G1 X-2.734 Y-55.753
G1 X-2.712 Y-55.857
G1 X-2.576 Y-56.473
G1 X-2.551 Y-56.576
G1 X-2.394 Y-57.184
G1 X-2.366 Y-57.286
G1 X-2.191 Y-57.887
G1 X-2.159 Y-57.987
G1 X-1.964 Y-58.579
G1 X-1.93 Y-58.678
G1 X-1.716 Y-59.261
G1 X-1.679 Y-59.359
G1 X-1.447 Y-59.933
G1 X-1.407 Y-60.029
G1 X-1.157 Y-60.594
G1 X-1.113 Y-60.687
G1 X-0.846 Y-61.243
G1 X-0.8 Y-61.335
G1 X-0.515 Y-61.88
G1 X-0.466 Y-61.97
G1 X-0.164 Y-62.504
G1 X-0.112 Y-62.593
G1 X0.206 Y-63.117
G1 X0.26 Y-63.203
G1 X0.594 Y-63.715
G1 X0.651 Y-63.799
G1 X1.002 Y-64.3
G1 X1.061 Y-64.383
G1 X1.427 Y-64.872
G1 X1.489 Y-64.952
G1 X1.87 Y-65.429
G1 X1.934 Y-65.506
G1 X2.329 Y-65.97
G1 X2.396 Y-66.046
G1 X2.806 Y-66.497
G1 X2.875 Y-66.571
G1 X3.299 Y-67.008
G1 X3.371 Y-67.08
G1 X3.808 Y-67.504
G1 X3.882 Y-67.573
G1 X4.333 Y-67.983
G1 X4.409 Y-68.05
G1 X4.873 Y-68.445
G1 X4.951 Y-68.51
G1 X5.427 Y-68.891
G1 X5.508 Y-68.953
G1 X5.997 Y-69.318
G1 X6.079 Y-69.378
G1 X6.58 Y-69.728
G1 X6.664 Y-69.785
G1 X7.176 Y-70.119
G1 X7.263 Y-70.173
G1 X7.786 Y-70.492
G1 X7.875 Y-70.544
G1 X8.409 Y-70.845
G1 X8.499 Y-70.894
G1 X9.044 Y-71.179
G1 X9.137 Y-71.225
G1 X9.692 Y-71.493
G1 X9.786 Y-71.536
G1 X10.351 Y-71.786
G1 X10.446 Y-71.826
G1 X11.02 Y-72.058
G1 X11.118 Y-72.096
G1 X11.701 Y-72.309
G1 X11.8 Y-72.343
G1 X12.392 Y-72.538
G1 X12.492 Y-72.57
G1 X13.093 Y-72.746
G1 X13.195 Y-72.774
G1 X13.803 Y-72.93
G1 X13.906 Y-72.955
G1 X14.523 Y-73.092
G1 X14.626 Y-73.113
G1 X15.25 Y-73.23
G1 X15.355 Y-73.247
G1 X15.985 Y-73.344
G1 X16.091 Y-73.358
G1 X16.729 Y-73.434
G1 X16.835 Y-73.445
G1 X17.478 Y-73.499
G1 X17.585 Y-73.506
G1 X18.234 Y-73.539
G1 X18.341 Y-73.543
G1 X18.996 Y-73.554
G1 X19.05
G1 X609.6
G3 X612.775 Y-70.379 I0 J3.175
G1 Y-32.279
G3 X609.6 Y-29.104 I-3.175 J0
G1 X19.05
G1 X18.997 Y-29.105
G1 Z-17.145
G1 X18.342 Y-29.116
G1 X18.234 Y-29.119
G1 X17.585 Y-29.152
G1 X17.478 Y-29.159
G1 X16.835 Y-29.214
G1 X16.728 Y-29.225
G1 X16.091 Y-29.3
G1 X15.986 Y-29.314
G1 X15.355 Y-29.411
G1 X15.25 Y-29.429
G1 X14.626 Y-29.545
G1 X14.522 Y-29.567
G1 X13.906 Y-29.704
G1 X13.803 Y-29.728
G1 X13.195 Y-29.885
G1 X13.094 Y-29.913
G1 X12.493 Y-30.089
G1 X12.392 Y-30.12
G1 X11.8 Y-30.315
G1 X11.701 Y-30.349
G1 X11.117 Y-30.563
G1 X11.021 Y-30.6
G1 X10.446 Y-30.832
G1 X10.351 Y-30.873
G1 X9.786 Y-31.122
G1 X9.692 Y-31.166
G1 X9.137 Y-31.433
G1 X9.044 Y-31.48
G1 X8.499 Y-31.764
G1 X8.409 Y-31.813
G1 X7.875 Y-32.115
G1 X7.787 Y-32.166
G1 X7.263 Y-32.485
G1 X7.176 Y-32.539
G1 X6.664 Y-32.874
G1 X6.58 Y-32.931
G1 X6.079 Y-33.281
G1 X5.997 Y-33.34
G1 X5.508 Y-33.706
G1 X5.427 Y-33.768
G1 X4.951 Y-34.149
G1 X4.873 Y-34.213
G1 X4.409 Y-34.608
G1 X4.333 Y-34.675
G1 X3.882 Y-35.085
G1 X3.808 Y-35.154
G1 X3.371 Y-35.578
G1 X3.299 Y-35.65
G1 X2.875 Y-36.087
G1 X2.806 Y-36.161
G1 X2.396 Y-36.612
G1 X2.329 Y-36.688
G1 X1.934 Y-37.152
G1 X1.869 Y-37.23
G1 X1.489 Y-37.707
G1 X1.427 Y-37.787
G1 X1.061 Y-38.276
G1 X1.002 Y-38.358
G1 X0.651 Y-38.859
G1 X0.594 Y-38.943
G1 X0.26 Y-39.456
G1 X0.206 Y-39.542
G1 X-0.113 Y-40.066
G1 X-0.164 Y-40.154
G1 X-0.466 Y-40.688
G1 X-0.515 Y-40.779
G1 X-0.8 Y-41.324
G1 X-0.846 Y-41.416
G1 X-1.113 Y-41.971
G1 X-1.157 Y-42.065
G1 X-1.406 Y-42.629
G1 X-1.447 Y-42.725
G1 X-1.679 Y-43.3
G1 X-1.716 Y-43.397
G1 X-1.93 Y-43.98
G1 X-1.964 Y-44.079
G1 X-2.159 Y-44.671
G1 X-2.19 Y-44.772
G1 X-2.366 Y-45.372
G1 X-2.394 Y-45.474
G1 X-2.551 Y-46.083
G1 X-2.576 Y-46.185
G1 X-2.712 Y-46.802
G1 X-2.734 Y-46.906
G1 X-2.851 Y-47.529
G1 X-2.868 Y-47.634
G1 X-2.965 Y-48.265
G1 X-2.979 Y-48.37
G1 X-3.055 Y-49.008
G1 X-3.065 Y-49.114
G1 X-3.12 Y-49.757
G1 X-3.127 Y-49.864
G1 X-3.16 Y-50.514
G1 X-3.164 Y-50.621
G1 X-3.175 Y-51.276
G1 Y-51.383
G1 X-3.164 Y-52.038
G1 X-3.16 Y-52.145
G1 X-3.127 Y-52.794
G1 X-3.12 Y-52.901
G1 X-3.065 Y-53.544
G1 X-3.055 Y-53.651
G1 X-2.979 Y-54.288
G1 X-2.965 Y-54.394
G1 X-2.868 Y-55.024
G1 X-2.851 Y-55.129
G1 X-2.734 Y-55.753
G1 X-2.712 Y-55.857
G1 X-2.576 Y-56.473
G1 X-2.551 Y-56.576
G1 X-2.394 Y-57.184
G1 X-2.366 Y-57.286
G1 X-2.191 Y-57.887
G1 X-2.159 Y-57.987
G1 X-1.964 Y-58.579
G1 X-1.93 Y-58.678
G1 X-1.716 Y-59.261
G1 X-1.679 Y-59.359
G1 X-1.447 Y-59.933
G1 X-1.407 Y-60.029
G1 X-1.157 Y-60.594
G1 X-1.113 Y-60.687
G1 X-0.846 Y-61.243
G1 X-0.8 Y-61.335
G1 X-0.515 Y-61.88
G1 X-0.466 Y-61.97
G1 X-0.164 Y-62.504
G1 X-0.112 Y-62.593
G1 X0.206 Y-63.117
G1 X0.26 Y-63.203
G1 X0.594 Y-63.715
G1 X0.651 Y-63.799
G1 X1.002 Y-64.3
G1 X1.061 Y-64.383
G1 X1.427 Y-64.872
G1 X1.489 Y-64.952
G1 X1.87 Y-65.429
G1 X1.934 Y-65.506
G1 X2.329 Y-65.97
G1 X2.396 Y-66.046
G1 X2.806 Y-66.497
G1 X2.875 Y-66.571
G1 X3.299 Y-67.008
G1 X3.371 Y-67.08
G1 X3.808 Y-67.504
G1 X3.882 Y-67.573
G1 X4.333 Y-67.983
G1 X4.409 Y-68.05
G1 X4.873 Y-68.445
G1 X4.951 Y-68.51
G1 X5.427 Y-68.891
G1 X5.508 Y-68.953
G1 X5.997 Y-69.318
G1 X6.079 Y-69.378
G1 X6.58 Y-69.728
G1 X6.664 Y-69.785
G1 X7.176 Y-70.119
G1 X7.263 Y-70.173
G1 X7.786 Y-70.492
G1 X7.875 Y-70.544
G1 X8.409 Y-70.845
G1 X8.499 Y-70.894
G1 X9.044 Y-71.179
G1 X9.137 Y-71.225
G1 X9.692 Y-71.493
G1 X9.786 Y-71.536
G1 X10.351 Y-71.786
G1 X10.446 Y-71.826
G1 X11.02 Y-72.058
G1 X11.118 Y-72.096
G1 X11.701 Y-72.309
G1 X11.8 Y-72.343
G1 X12.392 Y-72.538
G1 X12.492 Y-72.57
G1 X13.093 Y-72.746
G1 X13.195 Y-72.774
G1 X13.803 Y-72.93
G1 X13.906 Y-72.955
G1 X14.523 Y-73.092
G1 X14.626 Y-73.113
G1 X15.25 Y-73.23
G1 X15.355 Y-73.247
G1 X15.985 Y-73.344
G1 X16.091 Y-73.358
G1 X16.729 Y-73.434
G1 X16.835 Y-73.445
G1 X17.478 Y-73.499
G1 X17.585 Y-73.506
G1 X18.234 Y-73.539
G1 X18.341 Y-73.543
G1 X18.996 Y-73.554
G1 X19.05
G1 X609.6
G3 X612.775 Y-70.379 I0 J3.175
G1 Y-32.279
G3 X609.6 Y-29.104 I-3.175 J0
G1 X19.05
G1 X18.997 Y-29.105
G0 Z6.096
G0 X24.124 Y-22.225
G1 Z-11.049 F508.
G1 Z-17.145
G1 X609.6
G3 X612.775 Y-19.05 I0 J3.175
G1 Y19.05
G3 X609.6 Y22.225 I-3.175 J0
G1 X19.05
G1 X18.997
G1 X18.342 Y22.214
G1 X18.234 Y22.21
G1 X17.585 Y22.177
G1 X17.478 Y22.17
G1 X16.834 Y22.115
G1 X16.729 Y22.105
G1 X16.091 Y22.029
G1 X15.986 Y22.015
G1 X15.355 Y21.918
G1 X15.25 Y21.901
G1 X14.626 Y21.784
G1 X14.522 Y21.762
G1 X13.906 Y21.626
G1 X13.803 Y21.601
G1 X13.195 Y21.444
G1 X13.093 Y21.416
G1 X12.492 Y21.24
G1 X12.393 Y21.209
G1 X11.8 Y21.015
G1 X11.701 Y20.98
G1 X11.117 Y20.766
G1 X11.021 Y20.729
G1 X10.446 Y20.497
G1 X10.35 Y20.456
G1 X9.785 Y20.206
G1 X9.692 Y20.163
G1 X9.137 Y19.896
G1 X9.045 Y19.85
G1 X8.5 Y19.565
G1 X8.409 Y19.516
G1 X7.875 Y19.214
G1 X7.786 Y19.162
G1 X7.263 Y18.844
G1 X7.177 Y18.79
G1 X6.664 Y18.456
G1 X6.58 Y18.399
G1 X6.079 Y18.048
G1 X5.997 Y17.989
G1 X5.508 Y17.623
G1 X5.427 Y17.561
G1 X4.951 Y17.181
G1 X4.873 Y17.116
G1 X4.409 Y16.721
G1 X4.333 Y16.654
G1 X3.882 Y16.244
G1 X3.808 Y16.175
G1 X3.371 Y15.751
G1 X3.299 Y15.68
G1 X2.875 Y15.242
G1 X2.806 Y15.168
G1 X2.396 Y14.717
G1 X2.329 Y14.641
G1 X1.934 Y14.177
G1 X1.869 Y14.099
G1 X1.489 Y13.622
G1 X1.427 Y13.542
G1 X1.061 Y13.053
G1 X1.002 Y12.971
G1 X0.651 Y12.47
G1 X0.594 Y12.386
G1 X0.26 Y11.874
G1 X0.206 Y11.787
G1 X-0.113 Y11.264
G1 X-0.164 Y11.175
G1 X-0.466 Y10.641
G1 X-0.515 Y10.551
G1 X-0.8 Y10.006
G1 X-0.846 Y9.913
G1 X-1.113 Y9.358
G1 X-1.157 Y9.264
G1 X-1.407 Y8.699
G1 X-1.447 Y8.604
G1 X-1.679 Y8.029
G1 X-1.716 Y7.932
G1 X-1.93 Y7.349
G1 X-1.964 Y7.25
G1 X-2.159 Y6.658
G1 X-2.19 Y6.558
G1 X-2.366 Y5.957
G1 X-2.394 Y5.855
G1 X-2.551 Y5.247
G1 X-2.576 Y5.144
G1 X-2.712 Y4.528
G1 X-2.734 Y4.424
G1 X-2.851 Y3.8
G1 X-2.868 Y3.695
G1 X-2.965 Y3.064
G1 X-2.979 Y2.959
G1 X-3.055 Y2.322
G1 X-3.065 Y2.215
G1 X-3.12 Y1.572
G1 X-3.127 Y1.465
G1 X-3.16 Y0.816
G1 X-3.164 Y0.708
G1 X-3.175 Y0.054
G1 Y-0.054
G1 X-3.164 Y-0.708
G1 X-3.16 Y-0.816
G1 X-3.127 Y-1.465
G1 X-3.12 Y-1.572
G1 X-3.065 Y-2.215
G1 X-3.055 Y-2.322
G1 X-2.979 Y-2.959
G1 X-2.965 Y-3.064
G1 X-2.868 Y-3.695
G1 X-2.851 Y-3.8
G1 X-2.734 Y-4.424
G1 X-2.712 Y-4.528
G1 X-2.576 Y-5.144
G1 X-2.551 Y-5.247
G1 X-2.394 Y-5.855
G1 X-2.366 Y-5.957
G1 X-2.19 Y-6.558
G1 X-2.159 Y-6.658
G1 X-1.964 Y-7.25
G1 X-1.93 Y-7.349
G1 X-1.716 Y-7.932
G1 X-1.679 Y-8.029
G1 X-1.447 Y-8.604
G1 X-1.407 Y-8.699
G1 X-1.157 Y-9.264
G1 X-1.113 Y-9.358
G1 X-0.846 Y-9.913
G1 X-0.8 Y-10.006
G1 X-0.515 Y-10.551
G1 X-0.466 Y-10.641
G1 X-0.164 Y-11.175
G1 X-0.113 Y-11.264
G1 X0.206 Y-11.787
G1 X0.26 Y-11.874
G1 X0.594 Y-12.386
G1 X0.651 Y-12.47
G1 X1.002 Y-12.971
G1 X1.061 Y-13.053
G1 X1.427 Y-13.542
G1 X1.489 Y-13.622
G1 X1.869 Y-14.099
G1 X1.934 Y-14.177
G1 X2.329 Y-14.641
G1 X2.396 Y-14.717
G1 X2.806 Y-15.168
G1 X2.875 Y-15.242
G1 X3.299 Y-15.68
G1 X3.371 Y-15.751
G1 X3.808 Y-16.175
G1 X3.882 Y-16.244
G1 X4.333 Y-16.654
G1 X4.409 Y-16.721
G1 X4.873 Y-17.116
G1 X4.951 Y-17.181
G1 X5.427 Y-17.561
G1 X5.508 Y-17.623
G1 X5.997 Y-17.989
G1 X6.079 Y-18.048
G1 X6.58 Y-18.399
G1 X6.664 Y-18.456
G1 X7.177 Y-18.79
G1 X7.263 Y-18.844
G1 X7.786 Y-19.162
G1 X7.875 Y-19.214
G1 X8.409 Y-19.516
G1 X8.5 Y-19.565
G1 X9.045 Y-19.85
G1 X9.137 Y-19.896
G1 X9.692 Y-20.163
G1 X9.785 Y-20.206
G1 X10.35 Y-20.456
G1 X10.446 Y-20.497
G1 X11.021 Y-20.729
G1 X11.117 Y-20.766
G1 X11.701 Y-20.98
G1 X11.8 Y-21.015
G1 X12.393 Y-21.209
G1 X12.492 Y-21.24
G1 X13.093 Y-21.416
G1 X13.195 Y-21.444
G1 X13.803 Y-21.601
G1 X13.906 Y-21.626
G1 X14.522 Y-21.762
G1 X14.626 Y-21.784
G1 X15.25 Y-21.901
G1 X15.355 Y-21.918
G1 X15.986 Y-22.015
G1 X16.091 Y-22.029
G1 X16.729 Y-22.105
G1 X16.834 Y-22.115
G1 X17.478 Y-22.17
G1 X17.585 Y-22.177
G1 X18.234 Y-22.21
G1 X18.342 Y-22.214
G1 X18.997 Y-22.225
G1 X19.05
G1 X24.124
G1 Z-20.066
G1 X151.042
G1 Z-17.526
G1 X162.472
G1 Z-20.066
G1 X386.453
G1 Z-17.526
G1 X397.883
G1 Z-20.066
G1 X536.641
G1 Z-17.526
G1 X548.071
G1 Z-20.066
G1 X609.6
G3 X612.775 Y-19.05 I0 J3.175
G1 Y19.05
G3 X609.6 Y22.225 I-3.175 J0
G1 X543.182
G1 Z-17.526
G1 X531.752
G1 Z-20.066
G1 X395.089
G1 Z-17.526
G1 X383.659
G1 Z-20.066
G1 X107.985
G1 Z-17.526
G1 X96.555
G1 Z-20.066
G1 X19.05
G1 X18.997
G1 X18.342 Y22.214
G1 X18.234 Y22.21
G1 X17.585 Y22.177
G1 X17.478 Y22.17
G1 X16.834 Y22.115
G1 X16.729 Y22.105
G1 X16.091 Y22.029
G1 X15.986 Y22.015
G1 X15.355 Y21.918
G1 X15.25 Y21.901
G1 X14.626 Y21.784
G1 X14.522 Y21.762
G1 X13.906 Y21.626
G1 X13.803 Y21.601
G1 X13.195 Y21.444
G1 X13.093 Y21.416
G1 X12.492 Y21.24
G1 X12.393 Y21.209
G1 X11.8 Y21.015
G1 X11.701 Y20.98
G1 X11.117 Y20.766
G1 X11.021 Y20.729
G1 X10.446 Y20.497
G1 X10.35 Y20.456
G1 X9.785 Y20.206
G1 X9.692 Y20.163
G1 X9.137 Y19.896
G1 X9.045 Y19.85
G1 X8.5 Y19.565
G1 X8.409 Y19.516
G1 X7.875 Y19.214
G1 X7.786 Y19.162
G1 X7.263 Y18.844
G1 X7.177 Y18.79
G1 X6.664 Y18.456
G1 X6.58 Y18.399
G1 X6.079 Y18.048
G1 X5.997 Y17.989
G1 X5.508 Y17.623
G1 X5.427 Y17.561
G1 X4.951 Y17.181
G1 X4.873 Y17.116
G1 X4.409 Y16.721
G1 X4.333 Y16.654
G1 X3.882 Y16.244
G1 X3.808 Y16.175
G1 X3.371 Y15.751
G1 X3.299 Y15.68
G1 X2.875 Y15.242
G1 X2.806 Y15.168
G1 X2.396 Y14.717
G1 X2.329 Y14.641
G1 X1.934 Y14.177
G1 X1.869 Y14.099
G1 X1.489 Y13.622
G1 X1.427 Y13.542
G1 X1.061 Y13.053
G1 X1.002 Y12.971
G1 X0.651 Y12.47
G1 X0.594 Y12.386
G1 X0.26 Y11.874
G1 X0.206 Y11.787
G1 X-0.113 Y11.264
G1 X-0.164 Y11.175
G1 X-0.466 Y10.641
G1 X-0.515 Y10.551
G1 X-0.8 Y10.006
G1 X-0.846 Y9.913
G1 X-1.113 Y9.358
G1 X-1.157 Y9.264
G1 X-1.407 Y8.699
G1 X-1.447 Y8.604
G1 X-1.679 Y8.029
G1 X-1.716 Y7.932
G1 X-1.93 Y7.349
G1 X-1.964 Y7.25
G1 X-2.159 Y6.658
G1 X-2.19 Y6.558
G1 X-2.366 Y5.957
G1 X-2.394 Y5.855
G1 X-2.551 Y5.247
G1 X-2.576 Y5.144
G1 X-2.712 Y4.528
G1 X-2.734 Y4.424
G1 X-2.851 Y3.8
G1 X-2.868 Y3.695
G1 X-2.965 Y3.064
G1 X-2.979 Y2.959
G1 X-3.055 Y2.322
G1 X-3.065 Y2.215
G1 X-3.12 Y1.572
G1 X-3.127 Y1.465
G1 X-3.16 Y0.816
G1 X-3.164 Y0.708
G1 X-3.175 Y0.054
G1 Y-0.054
G1 X-3.164 Y-0.708
G1 X-3.16 Y-0.816
G1 X-3.127 Y-1.465
G1 X-3.12 Y-1.572
G1 X-3.065 Y-2.215
G1 X-3.055 Y-2.322
G1 X-2.979 Y-2.959
G1 X-2.965 Y-3.064
G1 X-2.868 Y-3.695
G1 X-2.851 Y-3.8
G1 X-2.734 Y-4.424
G1 X-2.712 Y-4.528
G1 X-2.576 Y-5.144
G1 X-2.551 Y-5.247
G1 X-2.394 Y-5.855
G1 X-2.366 Y-5.957
G1 X-2.19 Y-6.558
G1 X-2.159 Y-6.658
G1 X-1.964 Y-7.25
G1 X-1.93 Y-7.349
G1 X-1.716 Y-7.932
G1 X-1.679 Y-8.029
G1 X-1.447 Y-8.604
G1 X-1.407 Y-8.699
G1 X-1.157 Y-9.264
G1 X-1.113 Y-9.358
G1 X-0.846 Y-9.913
G1 X-0.8 Y-10.006
G1 X-0.515 Y-10.551
G1 X-0.466 Y-10.641
G1 X-0.164 Y-11.175
G1 X-0.113 Y-11.264
G1 X0.206 Y-11.787
G1 X0.26 Y-11.874
G1 X0.594 Y-12.386
G1 X0.651 Y-12.47
G1 X1.002 Y-12.971
G1 X1.061 Y-13.053
G1 X1.427 Y-13.542
G1 X1.489 Y-13.622
G1 X1.869 Y-14.099
G1 X1.934 Y-14.177
G1 X2.329 Y-14.641
G1 X2.396 Y-14.717
G1 X2.806 Y-15.168
G1 X2.875 Y-15.242
G1 X3.299 Y-15.68
G1 X3.371 Y-15.751
G1 X3.808 Y-16.175
G1 X3.882 Y-16.244
G1 X4.333 Y-16.654
G1 X4.409 Y-16.721
G1 X4.873 Y-17.116
G1 X4.951 Y-17.181
G1 X5.427 Y-17.561
G1 X5.508 Y-17.623
G1 X5.997 Y-17.989
G1 X6.079 Y-18.048
G1 X6.58 Y-18.399
G1 X6.664 Y-18.456
G1 X7.177 Y-18.79
G1 X7.263 Y-18.844
G1 X7.786 Y-19.162
G1 X7.875 Y-19.214
G1 X8.409 Y-19.516
G1 X8.5 Y-19.565
G1 X9.045 Y-19.85
G1 X9.137 Y-19.896
G1 X9.692 Y-20.163
G1 X9.785 Y-20.206
G1 X10.35 Y-20.456
G1 X10.446 Y-20.497
G1 X11.021 Y-20.729
G1 X11.117 Y-20.766
G1 X11.701 Y-20.98
G1 X11.8 Y-21.015
G1 X12.393 Y-21.209
G1 X12.492 Y-21.24
G1 X13.093 Y-21.416
G1 X13.195 Y-21.444
G1 X13.803 Y-21.601
G1 X13.906 Y-21.626
G1 X14.522 Y-21.762
G1 X14.626 Y-21.784
G1 X15.25 Y-21.901
G1 X15.355 Y-21.918
G1 X15.986 Y-22.015
G1 X16.091 Y-22.029
G1 X16.729 Y-22.105
G1 X16.834 Y-22.115
G1 X17.478 Y-22.17
G1 X17.585 Y-22.177
G1 X18.234 Y-22.21
G1 X18.342 Y-22.214
G1 X18.997 Y-22.225
G1 X19.05
G1 X24.124
G0 Z6.096
G0 X18.997 Y-29.105
G1 Z-13.97 F508.
G1 Z-20.066
G1 X18.342 Y-29.116
G1 X18.234 Y-29.119
G1 X17.585 Y-29.152
G1 X17.478 Y-29.159
G1 X16.835 Y-29.214
G1 X16.728 Y-29.225
G1 X16.091 Y-29.3
G1 X15.986 Y-29.314
G1 X15.355 Y-29.411
G1 X15.25 Y-29.429
G1 X14.626 Y-29.545
G1 X14.522 Y-29.567
G1 X13.906 Y-29.704
G1 X13.803 Y-29.728
G1 X13.195 Y-29.885
G1 X13.094 Y-29.913
G1 X12.493 Y-30.089
G1 X12.392 Y-30.12
G1 X11.8 Y-30.315
G1 X11.701 Y-30.349
G1 X11.117 Y-30.563
G1 X11.021 Y-30.6
G1 X10.446 Y-30.832
G1 X10.351 Y-30.873
G1 X9.786 Y-31.122
G1 X9.692 Y-31.166
G1 X9.137 Y-31.433
G1 X9.044 Y-31.48
G1 X8.499 Y-31.764
G1 X8.409 Y-31.813
G1 X7.875 Y-32.115
G1 X7.787 Y-32.166
G1 X7.263 Y-32.485
G1 X7.176 Y-32.539
G1 X6.664 Y-32.874
G1 X6.58 Y-32.931
G1 X6.079 Y-33.281
G1 X5.997 Y-33.34
G1 X5.508 Y-33.706
G1 X5.427 Y-33.768
G1 X4.951 Y-34.149
G1 X4.873 Y-34.213
G1 X4.409 Y-34.608
G1 X4.333 Y-34.675
G1 X3.882 Y-35.085
G1 X3.808 Y-35.154
G1 X3.371 Y-35.578
G1 X3.299 Y-35.65
G1 X2.875 Y-36.087
G1 X2.806 Y-36.161
G1 X2.396 Y-36.612
G1 X2.329 Y-36.688
G1 X1.934 Y-37.152
G1 X1.869 Y-37.23
G1 X1.489 Y-37.707
G1 X1.427 Y-37.787
G1 X1.061 Y-38.276
G1 X1.002 Y-38.358
G1 X0.651 Y-38.859
G1 X0.594 Y-38.943
G1 X0.26 Y-39.456
G1 X0.206 Y-39.542
G1 X-0.113 Y-40.066
G1 X-0.164 Y-40.154
G1 X-0.466 Y-40.688
G1 X-0.515 Y-40.779
G1 X-0.8 Y-41.324
G1 X-0.846 Y-41.416
G1 X-1.113 Y-41.971
G1 X-1.157 Y-42.065
G1 X-1.406 Y-42.629
G1 X-1.447 Y-42.725
G1 X-1.679 Y-43.3
G1 X-1.716 Y-43.397
G1 X-1.93 Y-43.98
G1 X-1.964 Y-44.079
G1 X-2.159 Y-44.671
G1 X-2.19 Y-44.772
G1 X-2.366 Y-45.372
G1 X-2.394 Y-45.474
G1 X-2.551 Y-46.083
G1 X-2.576 Y-46.185
G1 X-2.712 Y-46.802
G1 X-2.734 Y-46.906
G1 X-2.851 Y-47.529
G1 X-2.868 Y-47.634
G1 X-2.965 Y-48.265
G1 X-2.979 Y-48.37
G1 X-3.055 Y-49.008
G1 X-3.065 Y-49.114
G1 X-3.12 Y-49.757
G1 X-3.127 Y-49.864
G1 X-3.16 Y-50.514
G1 X-3.164 Y-50.621
G1 X-3.175 Y-51.276
G1 Y-51.383
G1 X-3.164 Y-52.038
G1 X-3.16 Y-52.145
G1 X-3.127 Y-52.794
G1 X-3.12 Y-52.901
G1 X-3.065 Y-53.544
G1 X-3.055 Y-53.651
G1 X-2.979 Y-54.288
G1 X-2.965 Y-54.394
G1 X-2.868 Y-55.024
G1 X-2.851 Y-55.129
G1 X-2.734 Y-55.753
G1 X-2.712 Y-55.857
G1 X-2.576 Y-56.473
G1 X-2.551 Y-56.576
G1 X-2.394 Y-57.184
G1 X-2.366 Y-57.286
G1 X-2.191 Y-57.887
G1 X-2.159 Y-57.987
G1 X-1.964 Y-58.579
G1 X-1.93 Y-58.678
G1 X-1.716 Y-59.261
G1 X-1.679 Y-59.359
G1 X-1.447 Y-59.933
G1 X-1.407 Y-60.029
G1 X-1.157 Y-60.594
G1 X-1.113 Y-60.687
G1 X-0.846 Y-61.243
G1 X-0.8 Y-61.335
G1 X-0.515 Y-61.88
G1 X-0.466 Y-61.97
G1 X-0.164 Y-62.504
G1 X-0.112 Y-62.593
G1 X0.206 Y-63.117
G1 X0.26 Y-63.203
G1 X0.594 Y-63.715
G1 X0.651 Y-63.799
G1 X1.002 Y-64.3
G1 X1.061 Y-64.383
G1 X1.427 Y-64.872
G1 X1.489 Y-64.952
G1 X1.87 Y-65.429
G1 X1.934 Y-65.506
G1 X2.329 Y-65.97
G1 X2.396 Y-66.046
G1 X2.806 Y-66.497
G1 X2.875 Y-66.571
G1 X3.299 Y-67.008
G1 X3.371 Y-67.08
G1 X3.808 Y-67.504
G1 X3.882 Y-67.573
G1 X4.333 Y-67.983
G1 X4.409 Y-68.05
G1 X4.873 Y-68.445
G1 X4.951 Y-68.51
G1 X5.427 Y-68.891
G1 X5.508 Y-68.953
G1 X5.997 Y-69.318
G1 X6.079 Y-69.378
G1 X6.58 Y-69.728
G1 X6.664 Y-69.785
G1 X7.176 Y-70.119
G1 X7.263 Y-70.173
G1 X7.786 Y-70.492
G1 X7.875 Y-70.544
G1 X8.409 Y-70.845
G1 X8.499 Y-70.894
G1 X9.044 Y-71.179
G1 X9.137 Y-71.225
G1 X9.692 Y-71.493
G1 X9.786 Y-71.536
G1 X10.351 Y-71.786
G1 X10.446 Y-71.826
G1 X11.02 Y-72.058
G1 X11.118 Y-72.096
G1 X11.701 Y-72.309
G1 X11.8 Y-72.343
G1 X12.392 Y-72.538
G1 X12.492 Y-72.57
G1 X13.093 Y-72.746
G1 X13.195 Y-72.774
G1 X13.803 Y-72.93
G1 X13.906 Y-72.955
G1 X14.523 Y-73.092
G1 X14.626 Y-73.113
G1 X15.25 Y-73.23
G1 X15.355 Y-73.247
G1 X15.985 Y-73.344
G1 X16.091 Y-73.358
G1 X16.729 Y-73.434
G1 X16.835 Y-73.445
G1 X17.478 Y-73.499
G1 X17.585 Y-73.506
G1 X18.234 Y-73.539
G1 X18.341 Y-73.543
G1 X18.996 Y-73.554
G1 X19.05
G1 X76.995
G1 Z-17.526
G1 X88.425
G1 Z-20.066
G1 X222.992
G1 Z-17.526
G1 X234.422
G1 Z-20.066
G1 X367.592
G1 Z-17.526
G1 X379.022
G1 Z-20.066
G1 X475.867
G1 Z-17.526
G1 X487.297
G1 Z-20.066
G1 X609.6
G3 X612.775 Y-70.379 I0 J3.175
G1 Y-32.279
G3 X609.6 Y-29.104 I-3.175 J0
G1 X553.66
G1 Z-17.526
G1 X542.23
G1 Z-20.066
G1 X230.231
G1 Z-17.526
G1 X218.801
G1 Z-20.066
G1 X19.05
G1 X18.997 Y-29.105
G0 Z6.096

G0 Z6.096
M5
M30
