%
(Made in : Autodesk CAM Post Processor)
(G Code optimized for OpenBuilds OX CNC 1000 x 750 with GRBL V0.9j controller)

(Program Name : 1001)
(1 Operation :)
(1 : 2D Contour4)
(  Tool : Flat End Mill 2 Flutes, Diam = 6.35mm, Len = 25.399999999999995mm)
(  Spindle : RPM = 5000, set router dial to 1)
(  Machining time : 15 min 16 sec)

G90 G94
G17
G21

(Operation 1 of 1 : 2D Contour4)

G53 G0 Z-10
G54
S5000 M3
G4 P1.0
X0.5064 Y5.0944
Z6.096
G1 F508
Z4.191
Z-3.429
X0.5066 Y5.0866 Z-3.5283
X0.5072 Y5.0634 Z-3.6252
X0.5081 Y5.0252 Z-3.7173
X0.5095 Y4.9732 Z-3.8022
X0.5111 Y4.9085 Z-3.878
X0.513 Y4.8328 Z-3.9427
X0.5152 Y4.7478 Z-3.9948
X0.5175 Y4.6558 Z-4.0329
X0.5199 Y4.5589 Z-4.0562
X0.5224 Y4.4596 Z-4.064
X0.5385 Y3.8248
G2 X-0.0803 Y3.174 I-0.6348 J-0.0161
G1 X-0.727 Y3.1576
X-0.8875 Y3.1495
X-1.5258 Y3.101
X-1.6853 Y3.0848
X-2.3143 Y3.0049
X-2.4722 Y2.9807
X-3.0911 Y2.8702
X-3.247 Y2.8383
X-3.8551 Y2.698
X-4.0083 Y2.6586
X-4.6048 Y2.4892
X-4.7551 Y2.4425
X-5.3391 Y2.2449
X-5.486 Y2.191
X-6.0568 Y1.966
X-6.2001 Y1.9054
X-6.7569 Y1.6537
X-6.8963 Y1.5865
X-7.4382 Y1.309
X-7.5734 Y1.2355
X-8.0998 Y0.9329
X-8.2307 Y0.8533
X-8.7406 Y0.5264
X-8.8671 Y0.441
X-9.3599 Y0.0906
X-9.4816 Y-0.0005
X-9.9564 Y-0.3736
X-10.0735 Y-0.4702
X-10.5295 Y-0.8652
X-10.6416 Y-0.9671
X-11.0781 Y-1.3833
X-11.1851 Y-1.4903
X-11.6013 Y-1.9268
X-11.7032 Y-2.0389
X-12.0982 Y-2.4949
X-12.1948 Y-2.6119
X-12.5679 Y-3.0867
X-12.659 Y-3.2086
X-13.0094 Y-3.7014
X-13.0948 Y-3.8278
X-13.4217 Y-4.3377
X-13.5011 Y-4.4683
X-13.8038 Y-4.9946
X-13.8775 Y-5.1304
X-14.155 Y-5.6724
X-14.2221 Y-5.8115
X-14.4738 Y-6.3682
X-14.5343 Y-6.5113
X-14.7594 Y-7.0821
X-14.8135 Y-7.2298
X-15.011 Y-7.8138
X-15.0575 Y-7.9635
X-15.2269 Y-8.5599
X-15.2663 Y-8.713
X-15.4067 Y-9.3211
X-15.4387 Y-9.4774
X-15.5492 Y-10.0964
X-15.5733 Y-10.2543
X-15.6532 Y-10.8833
X-15.6694 Y-11.0428
X-15.7179 Y-11.681
X-15.726 Y-11.8411
X-15.7424 Y-12.4879
X-15.7434 Y-12.5854
X-15.7427 Y-12.7163
X-15.7407 Y-12.8127
X-15.7176 Y-13.4593
X-15.7078 Y-13.6197
X-15.6526 Y-14.2574
X-15.6348 Y-14.4163
X-15.5484 Y-15.0444
X-15.5226 Y-15.2025
X-15.4056 Y-15.8203
X-15.372 Y-15.9758
X-15.2253 Y-16.5824
X-15.1844 Y-16.7349
X-15.0089 Y-17.3295
X-14.9605 Y-17.4797
X-14.7568 Y-18.0616
X-14.7014 Y-18.2082
X-14.4704 Y-18.7765
X-14.4084 Y-18.919
X-14.1509 Y-19.4731
X-14.0825 Y-19.6114
X-13.7994 Y-20.1504
X-13.7244 Y-20.2851
X-13.4163 Y-20.8083
X-13.3353 Y-20.9385
X-13.0031 Y-21.445
X-12.9163 Y-21.5707
X-12.5607 Y-22.0598
X-12.4685 Y-22.1804
X-12.0905 Y-22.6513
X-11.9926 Y-22.7674
X-11.5929 Y-23.2193
X-11.4898 Y-23.3304
X-11.0691 Y-23.7625
X-10.961 Y-23.8683
X-10.5202 Y-24.2799
X-10.4069 Y-24.3808
X-9.9467 Y-24.771
X-9.8291 Y-24.8661
X-9.3504 Y-25.2343
X-9.2273 Y-25.3244
X-8.7309 Y-25.6696
X-8.6039 Y-25.7535
X-8.0906 Y-26.0751
X-7.959 Y-26.1531
X-7.4295 Y-26.4503
X-7.2932 Y-26.5225
X-6.7485 Y-26.7944
X-6.608 Y-26.8603
X-6.0487 Y-27.1061
X-5.9051 Y-27.165
X-5.3321 Y-27.3841
X-5.1845 Y-27.4364
X-4.5985 Y-27.6279
X-4.448 Y-27.673
X-3.8498 Y-27.8362
X-3.6958 Y-27.8741
X-3.0863 Y-28.0081
X-2.9298 Y-28.0385
X-2.3097 Y-28.1425
X-2.1521 Y-28.1649
X-1.5223 Y-28.2383
X-1.3626 Y-28.2528
X-0.7238 Y-28.2947
X-0.5631 Y-28.3012
X0.0838 Y-28.3108
X0.164 Y-28.3109
X597.0651 Y-22.0932
X597.223 Y-22.0877
X597.8619 Y-22.0492
G3 X598.1763 Y-22.0144 I-0.1909 J3.1693
G1 X598.7972 Y-21.9143
G3 X599.1034 Y-21.8494 I-0.5052 J3.1345
G1 X599.7034 Y-21.6908
G3 X600.0007 Y-21.5963 I-0.8113 J3.0696
G1 X600.5747 Y-21.3824
G3 X600.8558 Y-21.262 I-1.1087 J2.9751
G1 X601.4028 Y-20.9957
G3 X601.6696 Y-20.8495 I-1.3898 J2.8547
G1 X602.1856 Y-20.5339
G3 X602.4347 Y-20.3649 I-1.6566 J2.7085
G1 X602.9167 Y-20.0032
G3 X603.1478 Y-19.8121 I-1.9057 J2.5395
G1 X603.5928 Y-19.4072
G3 X603.8041 Y-19.1958 I-2.1368 J2.3484
G1 X604.2091 Y-18.7508
G3 X604.3997 Y-18.5205 I-2.3481 J2.137
G1 X604.7617 Y-18.0385
G3 X604.9328 Y-17.7864 I-2.5387 J1.9067
G1 X605.2478 Y-17.2705
G3 X605.3931 Y-17.0048 I-2.7098 J1.6546
G1 X605.6591 Y-16.458
G3 X605.7794 Y-16.1772 I-2.8551 J1.3889
G1 X605.9933 Y-15.6026
G3 X606.0869 Y-15.3087 I-2.9753 J1.1081
G1 X606.2458 Y-14.7094
G3 X606.3116 Y-14.4 I-3.0688 J0.8142
G1 X606.4116 Y-13.779
G3 X606.4464 Y-13.4625 I-3.1346 J0.5048
G1 X606.4844 Y-12.8228
G3 X606.4875 Y-12.5075 I-3.1694 J0.1883
G1 X606.4615 Y-11.858
G3 X606.4329 Y-11.5419 I-3.1725 J-0.127
G1 X606.3439 Y-10.9104
G3 X606.2832 Y-10.5956 I-3.1439 J-0.4431
G1 X606.1332 Y-9.9854
G3 X606.0419 Y-9.6808 I-3.0833 J-0.7579
G1 X605.8339 Y-9.0951
G3 X605.7178 Y-8.8121 I-2.9919 J-1.0625
G1 X605.4568 Y-8.2542
G3 X605.3107 Y-7.9782 I-2.8758 J-1.3455
G1 X604.9976 Y-7.4513
G3 X604.8315 Y-7.1996 I-2.7296 J-1.6216
G1 X604.4715 Y-6.707
G3 X604.2775 Y-6.4669 I-2.5635 J-1.8733
G1 X603.8715 Y-6.0117
G3 X603.6636 Y-5.7995 I-2.3694 J-2.1133
G1 X603.2175 Y-5.3849
G3 X602.9839 Y-5.1878 I-2.1615 J-2.3256
G1 X602.4988 Y-4.8172
G3 X602.2459 Y-4.6426 I-1.9279 J-2.5227
G1 X601.7249 Y-4.3191
G3 X601.4583 Y-4.1707 I-1.6749 J-2.6973
G1 X600.9063 Y-3.8976
G3 X600.6206 Y-3.7732 I-1.4083 J-2.8456
G1 X600.0396 Y-3.5536
G3 X599.7395 Y-3.4569 I-1.1226 J-2.9699
G1 X599.1325 Y-3.2941
G3 X598.8221 Y-3.2273 I-0.8225 J-3.0666
G1 X598.1931 Y-3.1245
G3 X597.8741 Y-3.0888 I-0.5121 J-3.1334
G1 X597.2251 Y-3.0493
X597.0651 Y-3.0436
X0.164 Y3.1741
X0.1474 Y3.1743
X0.0165 Y3.175
X-0.0803 Y3.174
G2 X-0.7311 Y3.7927 I-0.0161 J0.6348
G1 X-0.7472 Y4.4275
X-0.7497 Y4.5268 Z-4.0562
X-0.7521 Y4.6237 Z-4.0329
X-0.7544 Y4.7157 Z-3.9948
X-0.7566 Y4.8007 Z-3.9427
X-0.7585 Y4.8764 Z-3.878
X-0.7601 Y4.9411 Z-3.8022
X-0.7615 Y4.9931 Z-3.7173
X-0.7624 Y5.0313 Z-3.6252
X-0.763 Y5.0545 Z-3.5283
X-0.7632 Y5.0623 Z-3.429
G0 Z6.096
X0.635 Y-32.4908
G1 Z4.191 F508
Z-3.429
G19 G2 Y-33.1258 Z-4.064 J-0.635
G1 Y-33.7608
G17 G2 X0 Y-34.3958 I-0.635
G1 X-0.0805 Y-34.3968
X-0.7273 Y-34.4132
X-0.8873 Y-34.4213
X-1.5256 Y-34.4698
X-1.6852 Y-34.486
X-2.3141 Y-34.5659
X-2.4726 Y-34.5901
X-3.0915 Y-34.7007
X-3.2468 Y-34.7325
X-3.8549 Y-34.8728
X-4.0085 Y-34.9123
X-4.6049 Y-35.0817
X-4.7551 Y-35.1284
X-5.3391 Y-35.326
X-5.4859 Y-35.3797
X-6.0566 Y-35.6047
X-6.2002 Y-35.6654
X-6.7569 Y-35.9171
X-6.8965 Y-35.9844
X-7.4384 Y-36.262
X-7.5733 Y-36.3353
X-8.0997 Y-36.6379
X-8.2307 Y-36.7175
X-8.7406 Y-37.0444
X-8.8671 Y-37.1298
X-9.3598 Y-37.4802
X-9.4816 Y-37.5712
X-9.9564 Y-37.9443
X-10.0737 Y-38.0411
X-10.5297 Y-38.4362
X-10.6415 Y-38.5378
X-11.0779 Y-38.9539
X-11.1852 Y-39.0611
X-11.6013 Y-39.4976
X-11.7033 Y-39.6099
X-12.0984 Y-40.066
X-12.1948 Y-40.1828
X-12.5679 Y-40.6576
X-12.6589 Y-40.7793
X-13.0093 Y-41.272
X-13.0949 Y-41.3987
X-13.4218 Y-41.9087
X-13.5011 Y-42.0392
X-13.8038 Y-42.5654
X-13.8775 Y-42.7012
X-14.155 Y-43.2431
X-14.222 Y-43.3823
X-14.4737 Y-43.939
X-14.5343 Y-44.0822
X-14.7594 Y-44.653
X-14.8135 Y-44.8007
X-15.011 Y-45.3847
X-15.0575 Y-45.5343
X-15.2269 Y-46.1307
X-15.2663 Y-46.2839
X-15.4067 Y-46.892
X-15.4387 Y-47.0483
X-15.5492 Y-47.6672
X-15.5733 Y-47.8251
X-15.6532 Y-48.4541
X-15.6694 Y-48.6136
X-15.7179 Y-49.2519
X-15.726 Y-49.412
X-15.7424 Y-50.0587
X-15.7434 Y-50.1562
X-15.7427 Y-50.2871
X-15.7407 Y-50.3835
X-15.7176 Y-51.0301
X-15.7078 Y-51.1905
X-15.6526 Y-51.8282
X-15.6348 Y-51.987
X-15.5484 Y-52.6152
X-15.5225 Y-52.7735
X-15.4055 Y-53.3912
X-15.372 Y-53.5466
X-15.2253 Y-54.1532
X-15.1844 Y-54.3057
X-15.0089 Y-54.9003
X-14.9605 Y-55.0505
X-14.7568 Y-55.6324
X-14.7015 Y-55.7788
X-14.4705 Y-56.3472
X-14.4084 Y-56.4899
X-14.1509 Y-57.044
X-14.0825 Y-57.1823
X-13.7994 Y-57.7213
X-13.7242 Y-57.8562
X-13.4161 Y-58.3793
X-13.3353 Y-58.5093
X-13.0031 Y-59.0158
X-12.9163 Y-59.1415
X-12.5607 Y-59.6306
X-12.4685 Y-59.7512
X-12.0905 Y-60.2221
X-11.9926 Y-60.3382
X-11.5929 Y-60.7901
X-11.4898 Y-60.9012
X-11.0691 Y-61.3333
X-10.961 Y-61.4391
X-10.5202 Y-61.8507
X-10.4072 Y-61.9513
X-9.9471 Y-62.3416
X-9.8287 Y-62.4372
X-9.3501 Y-62.8053
X-9.2276 Y-62.8949
X-8.7312 Y-63.2402
X-8.6039 Y-63.3244
X-8.0906 Y-63.646
X-7.9586 Y-63.7243
X-7.4291 Y-64.0213
X-7.2932 Y-64.0933
X-6.7485 Y-64.3652
X-6.6084 Y-64.4309
X-6.0491 Y-64.6768
X-5.9051 Y-64.7359
X-5.3321 Y-64.955
X-5.1845 Y-65.0073
X-4.5985 Y-65.1988
X-4.4475 Y-65.2441
X-3.8493 Y-65.4072
X-3.6958 Y-65.4449
X-3.0863 Y-65.5789
X-2.9303 Y-65.6092
X-2.3102 Y-65.7133
X-2.1516 Y-65.7358
X-1.5218 Y-65.8091
X-1.3626 Y-65.8236
X-0.7238 Y-65.8655
X-0.5631 Y-65.8719
X0.0838 Y-65.8816
X0.164 Y-65.8817
X597.0651 Y-59.664
X597.223 Y-59.6585
X597.8619 Y-59.62
G3 X598.1763 Y-59.5852 I-0.1909 J3.1693
G1 X598.7972 Y-59.4851
G3 X599.1029 Y-59.4203 I-0.5052 J3.1345
G1 X599.7029 Y-59.2618
G3 X600.0012 Y-59.1671 I-0.8109 J3.0697
G1 X600.5751 Y-58.9531
G3 X600.8558 Y-58.8328 I-1.1091 J2.975
G1 X601.4028 Y-58.5665
G3 X601.6693 Y-58.4206 I-1.3898 J2.8547
G1 X602.1852 Y-58.1051
G3 X602.435 Y-57.9355 I-1.6563 J2.7088
G1 X602.917 Y-57.5737
G3 X603.1478 Y-57.3829 I-1.906 J2.5392
G1 X603.5928 Y-56.978
G3 X603.8041 Y-56.7666 I-2.1368 J2.3484
G1 X604.2091 Y-56.3216
G3 X604.3997 Y-56.0913 I-2.3481 J2.137
G1 X604.7617 Y-55.6093
G3 X604.9328 Y-55.3572 I-2.5387 J1.9067
G1 X605.2478 Y-54.8413
G3 X605.3931 Y-54.5756 I-2.7098 J1.6546
G1 X605.6591 Y-54.0288
G3 X605.7794 Y-53.748 I-2.8551 J1.3889
G1 X605.9933 Y-53.1734
G3 X606.0869 Y-52.8795 I-2.9753 J1.1081
G1 X606.2458 Y-52.2802
G3 X606.3116 Y-51.9708 I-3.0688 J0.8142
G1 X606.4116 Y-51.3498
G3 X606.4464 Y-51.0333 I-3.1346 J0.5048
G1 X606.4844 Y-50.3937
G3 X606.4875 Y-50.0784 I-3.1694 J0.1883
G1 X606.4615 Y-49.4288
G3 X606.4329 Y-49.1127 I-3.1725 J-0.127
G1 X606.3439 Y-48.4812
G3 X606.2832 Y-48.1664 I-3.1439 J-0.4431
G1 X606.1332 Y-47.5562
G3 X606.0419 Y-47.2514 I-3.0833 J-0.7579
G1 X605.8339 Y-46.6658
G3 X605.7178 Y-46.3831 I-2.9919 J-1.0627
G1 X605.4568 Y-45.8252
G3 X605.3107 Y-45.5491 I-2.8759 J-1.3454
G1 X604.9977 Y-45.0222
G3 X604.8314 Y-44.7703 I-2.7297 J-1.6215
G1 X604.4714 Y-44.2777
G3 X604.2775 Y-44.0377 I-2.5634 J-1.8734
G1 X603.8715 Y-43.5825
G3 X603.6637 Y-43.3705 I-2.3694 J-2.1134
G1 X603.2177 Y-42.9559
G3 X602.9837 Y-42.7585 I-2.1617 J-2.3254
G1 X602.4987 Y-42.3879
G3 X602.2458 Y-42.2134 I-1.9277 J-2.5228
G1 X601.7249 Y-41.8899
G3 X601.4584 Y-41.7416 I-1.6749 J-2.6973
G1 X600.9064 Y-41.4684
G3 X600.6205 Y-41.3441 I-1.4084 J-2.8456
G1 X600.0396 Y-41.1245
G3 X599.7395 Y-41.0278 I-1.1226 J-2.9699
G1 X599.1325 Y-40.865
G3 X598.8221 Y-40.7982 I-0.8225 J-3.0666
G1 X598.1931 Y-40.6954
G3 X597.8744 Y-40.6597 I-0.5121 J-3.1334
G1 X597.2253 Y-40.6201
X597.0651 Y-40.6144
X0.164 Y-34.3967
X0.1479 Y-34.3965
X0.017 Y-34.3958
X0
G2 X-0.635 Y-33.7608 J0.635
G1 Y-33.1258
G19 G3 Y-32.4908 Z-3.429 K0.635
G0 Z6.096
X0.635
G1 Z-0.889 F508
Z-8.509
G2 Y-33.1258 Z-9.144 J-0.635
G1 Y-33.7608
G17 G2 X0 Y-34.3958 I-0.635
G1 X-0.0805 Y-34.3968
X-0.7273 Y-34.4132
X-0.8873 Y-34.4213
X-1.5256 Y-34.4698
X-1.6852 Y-34.486
X-2.3141 Y-34.5659
X-2.4726 Y-34.5901
X-3.0915 Y-34.7007
X-3.2468 Y-34.7325
X-3.8549 Y-34.8728
X-4.0085 Y-34.9123
X-4.6049 Y-35.0817
X-4.7551 Y-35.1284
X-5.3391 Y-35.326
X-5.4859 Y-35.3797
X-6.0566 Y-35.6047
X-6.2002 Y-35.6654
X-6.7569 Y-35.9171
X-6.8965 Y-35.9844
X-7.4384 Y-36.262
X-7.5733 Y-36.3353
X-8.0997 Y-36.6379
X-8.2307 Y-36.7175
X-8.7406 Y-37.0444
X-8.8671 Y-37.1298
X-9.3598 Y-37.4802
X-9.4816 Y-37.5712
X-9.9564 Y-37.9443
X-10.0737 Y-38.0411
X-10.5297 Y-38.4362
X-10.6415 Y-38.5378
X-11.0779 Y-38.9539
X-11.1852 Y-39.0611
X-11.6013 Y-39.4976
X-11.7033 Y-39.6099
X-12.0984 Y-40.066
X-12.1948 Y-40.1828
X-12.5679 Y-40.6576
X-12.6589 Y-40.7793
X-13.0093 Y-41.272
X-13.0949 Y-41.3987
X-13.4218 Y-41.9087
X-13.5011 Y-42.0392
X-13.8038 Y-42.5654
X-13.8775 Y-42.7012
X-14.155 Y-43.2431
X-14.222 Y-43.3823
X-14.4737 Y-43.939
X-14.5343 Y-44.0822
X-14.7594 Y-44.653
X-14.8135 Y-44.8007
X-15.011 Y-45.3847
X-15.0575 Y-45.5343
X-15.2269 Y-46.1307
X-15.2663 Y-46.2839
X-15.4067 Y-46.892
X-15.4387 Y-47.0483
X-15.5492 Y-47.6672
X-15.5733 Y-47.8251
X-15.6532 Y-48.4541
X-15.6694 Y-48.6136
X-15.7179 Y-49.2519
X-15.726 Y-49.412
X-15.7424 Y-50.0587
X-15.7434 Y-50.1562
X-15.7427 Y-50.2871
X-15.7407 Y-50.3835
X-15.7176 Y-51.0301
X-15.7078 Y-51.1905
X-15.6526 Y-51.8282
X-15.6348 Y-51.987
X-15.5484 Y-52.6152
X-15.5225 Y-52.7735
X-15.4055 Y-53.3912
X-15.372 Y-53.5466
X-15.2253 Y-54.1532
X-15.1844 Y-54.3057
X-15.0089 Y-54.9003
X-14.9605 Y-55.0505
X-14.7568 Y-55.6324
X-14.7015 Y-55.7788
X-14.4705 Y-56.3472
X-14.4084 Y-56.4899
X-14.1509 Y-57.044
X-14.0825 Y-57.1823
X-13.7994 Y-57.7213
X-13.7242 Y-57.8562
X-13.4161 Y-58.3793
X-13.3353 Y-58.5093
X-13.0031 Y-59.0158
X-12.9163 Y-59.1415
X-12.5607 Y-59.6306
X-12.4685 Y-59.7512
X-12.0905 Y-60.2221
X-11.9926 Y-60.3382
X-11.5929 Y-60.7901
X-11.4898 Y-60.9012
X-11.0691 Y-61.3333
X-10.961 Y-61.4391
X-10.5202 Y-61.8507
X-10.4072 Y-61.9513
X-9.9471 Y-62.3416
X-9.8287 Y-62.4372
X-9.3501 Y-62.8053
X-9.2276 Y-62.8949
X-8.7312 Y-63.2402
X-8.6039 Y-63.3244
X-8.0906 Y-63.646
X-7.9586 Y-63.7243
X-7.4291 Y-64.0213
X-7.2932 Y-64.0933
X-6.7485 Y-64.3652
X-6.6084 Y-64.4309
X-6.0491 Y-64.6768
X-5.9051 Y-64.7359
X-5.3321 Y-64.955
X-5.1845 Y-65.0073
X-4.5985 Y-65.1988
X-4.4475 Y-65.2441
X-3.8493 Y-65.4072
X-3.6958 Y-65.4449
X-3.0863 Y-65.5789
X-2.9303 Y-65.6092
X-2.3102 Y-65.7133
X-2.1516 Y-65.7358
X-1.5218 Y-65.8091
X-1.3626 Y-65.8236
X-0.7238 Y-65.8655
X-0.5631 Y-65.8719
X0.0838 Y-65.8816
X0.164 Y-65.8817
X597.0651 Y-59.664
X597.223 Y-59.6585
X597.8619 Y-59.62
G3 X598.1763 Y-59.5852 I-0.1909 J3.1693
G1 X598.7972 Y-59.4851
G3 X599.1029 Y-59.4203 I-0.5052 J3.1345
G1 X599.7029 Y-59.2618
G3 X600.0012 Y-59.1671 I-0.8109 J3.0697
G1 X600.5751 Y-58.9531
G3 X600.8558 Y-58.8328 I-1.1091 J2.975
G1 X601.4028 Y-58.5665
G3 X601.6693 Y-58.4206 I-1.3898 J2.8547
G1 X602.1852 Y-58.1051
G3 X602.435 Y-57.9355 I-1.6563 J2.7088
G1 X602.917 Y-57.5737
G3 X603.1478 Y-57.3829 I-1.906 J2.5392
G1 X603.5928 Y-56.978
G3 X603.8041 Y-56.7666 I-2.1368 J2.3484
G1 X604.2091 Y-56.3216
G3 X604.3997 Y-56.0913 I-2.3481 J2.137
G1 X604.7617 Y-55.6093
G3 X604.9328 Y-55.3572 I-2.5387 J1.9067
G1 X605.2478 Y-54.8413
G3 X605.3931 Y-54.5756 I-2.7098 J1.6546
G1 X605.6591 Y-54.0288
G3 X605.7794 Y-53.748 I-2.8551 J1.3889
G1 X605.9933 Y-53.1734
G3 X606.0869 Y-52.8795 I-2.9753 J1.1081
G1 X606.2458 Y-52.2802
G3 X606.3116 Y-51.9708 I-3.0688 J0.8142
G1 X606.4116 Y-51.3498
G3 X606.4464 Y-51.0333 I-3.1346 J0.5048
G1 X606.4844 Y-50.3937
G3 X606.4875 Y-50.0784 I-3.1694 J0.1883
G1 X606.4615 Y-49.4288
G3 X606.4329 Y-49.1127 I-3.1725 J-0.127
G1 X606.3439 Y-48.4812
G3 X606.2832 Y-48.1664 I-3.1439 J-0.4431
G1 X606.1332 Y-47.5562
G3 X606.0419 Y-47.2514 I-3.0833 J-0.7579
G1 X605.8339 Y-46.6658
G3 X605.7178 Y-46.3831 I-2.9919 J-1.0627
G1 X605.4568 Y-45.8252
G3 X605.3107 Y-45.5491 I-2.8759 J-1.3454
G1 X604.9977 Y-45.0222
G3 X604.8314 Y-44.7703 I-2.7297 J-1.6215
G1 X604.4714 Y-44.2777
G3 X604.2775 Y-44.0377 I-2.5634 J-1.8734
G1 X603.8715 Y-43.5825
G3 X603.6637 Y-43.3705 I-2.3694 J-2.1134
G1 X603.2177 Y-42.9559
G3 X602.9837 Y-42.7585 I-2.1617 J-2.3254
G1 X602.4987 Y-42.3879
G3 X602.2458 Y-42.2134 I-1.9277 J-2.5228
G1 X601.7249 Y-41.8899
G3 X601.4584 Y-41.7416 I-1.6749 J-2.6973
G1 X600.9064 Y-41.4684
G3 X600.6205 Y-41.3441 I-1.4084 J-2.8456
G1 X600.0396 Y-41.1245
G3 X599.7395 Y-41.0278 I-1.1226 J-2.9699
G1 X599.1325 Y-40.865
G3 X598.8221 Y-40.7982 I-0.8225 J-3.0666
G1 X598.1931 Y-40.6954
G3 X597.8744 Y-40.6597 I-0.5121 J-3.1334
G1 X597.2253 Y-40.6201
X597.0651 Y-40.6144
X0.164 Y-34.3967
X0.1479 Y-34.3965
X0.017 Y-34.3958
X0
G2 X-0.635 Y-33.7608 J0.635
G1 Y-33.1258
G19 G3 Y-32.4908 Z-8.509 K0.635
G0 Z6.096
X0.5064 Y5.0944
G1 Z-0.889 F508
Z-8.509
X0.5066 Y5.0866 Z-8.6083
X0.5072 Y5.0634 Z-8.7052
X0.5081 Y5.0252 Z-8.7973
X0.5095 Y4.9732 Z-8.8822
X0.5111 Y4.9085 Z-8.958
X0.513 Y4.8328 Z-9.0227
X0.5152 Y4.7478 Z-9.0748
X0.5175 Y4.6558 Z-9.1129
X0.5199 Y4.5589 Z-9.1362
X0.5224 Y4.4596 Z-9.144
X0.5385 Y3.8248
G17 G2 X-0.0803 Y3.174 I-0.6348 J-0.0161
G1 X-0.727 Y3.1576
X-0.8875 Y3.1495
X-1.5258 Y3.101
X-1.6853 Y3.0848
X-2.3143 Y3.0049
X-2.4722 Y2.9807
X-3.0911 Y2.8702
X-3.247 Y2.8383
X-3.8551 Y2.698
X-4.0083 Y2.6586
X-4.6048 Y2.4892
X-4.7551 Y2.4425
X-5.3391 Y2.2449
X-5.486 Y2.191
X-6.0568 Y1.966
X-6.2001 Y1.9054
X-6.7569 Y1.6537
X-6.8963 Y1.5865
X-7.4382 Y1.309
X-7.5734 Y1.2355
X-8.0998 Y0.9329
X-8.2307 Y0.8533
X-8.7406 Y0.5264
X-8.8671 Y0.441
X-9.3599 Y0.0906
X-9.4816 Y-0.0005
X-9.9564 Y-0.3736
X-10.0735 Y-0.4702
X-10.5295 Y-0.8652
X-10.6416 Y-0.9671
X-11.0781 Y-1.3833
X-11.1851 Y-1.4903
X-11.6013 Y-1.9268
X-11.7032 Y-2.0389
X-12.0982 Y-2.4949
X-12.1948 Y-2.6119
X-12.5679 Y-3.0867
X-12.659 Y-3.2086
X-13.0094 Y-3.7014
X-13.0948 Y-3.8278
X-13.4217 Y-4.3377
X-13.5011 Y-4.4683
X-13.8038 Y-4.9946
X-13.8775 Y-5.1304
X-14.155 Y-5.6724
X-14.2221 Y-5.8115
X-14.4738 Y-6.3682
X-14.5343 Y-6.5113
X-14.7594 Y-7.0821
X-14.8135 Y-7.2298
X-15.011 Y-7.8138
X-15.0575 Y-7.9635
X-15.2269 Y-8.5599
X-15.2663 Y-8.713
X-15.4067 Y-9.3211
X-15.4387 Y-9.4774
X-15.5492 Y-10.0964
X-15.5733 Y-10.2543
X-15.6532 Y-10.8833
X-15.6694 Y-11.0428
X-15.7179 Y-11.681
X-15.726 Y-11.8411
X-15.7424 Y-12.4879
X-15.7434 Y-12.5854
X-15.7427 Y-12.7163
X-15.7407 Y-12.8127
X-15.7176 Y-13.4593
X-15.7078 Y-13.6197
X-15.6526 Y-14.2574
X-15.6348 Y-14.4163
X-15.5484 Y-15.0444
X-15.5226 Y-15.2025
X-15.4056 Y-15.8203
X-15.372 Y-15.9758
X-15.2253 Y-16.5824
X-15.1844 Y-16.7349
X-15.0089 Y-17.3295
X-14.9605 Y-17.4797
X-14.7568 Y-18.0616
X-14.7014 Y-18.2082
X-14.4704 Y-18.7765
X-14.4084 Y-18.919
X-14.1509 Y-19.4731
X-14.0825 Y-19.6114
X-13.7994 Y-20.1504
X-13.7244 Y-20.2851
X-13.4163 Y-20.8083
X-13.3353 Y-20.9385
X-13.0031 Y-21.445
X-12.9163 Y-21.5707
X-12.5607 Y-22.0598
X-12.4685 Y-22.1804
X-12.0905 Y-22.6513
X-11.9926 Y-22.7674
X-11.5929 Y-23.2193
X-11.4898 Y-23.3304
X-11.0691 Y-23.7625
X-10.961 Y-23.8683
X-10.5202 Y-24.2799
X-10.4069 Y-24.3808
X-9.9467 Y-24.771
X-9.8291 Y-24.8661
X-9.3504 Y-25.2343
X-9.2273 Y-25.3244
X-8.7309 Y-25.6696
X-8.6039 Y-25.7535
X-8.0906 Y-26.0751
X-7.959 Y-26.1531
X-7.4295 Y-26.4503
X-7.2932 Y-26.5225
X-6.7485 Y-26.7944
X-6.608 Y-26.8603
X-6.0487 Y-27.1061
X-5.9051 Y-27.165
X-5.3321 Y-27.3841
X-5.1845 Y-27.4364
X-4.5985 Y-27.6279
X-4.448 Y-27.673
X-3.8498 Y-27.8362
X-3.6958 Y-27.8741
X-3.0863 Y-28.0081
X-2.9298 Y-28.0385
X-2.3097 Y-28.1425
X-2.1521 Y-28.1649
X-1.5223 Y-28.2383
X-1.3626 Y-28.2528
X-0.7238 Y-28.2947
X-0.5631 Y-28.3012
X0.0838 Y-28.3108
X0.164 Y-28.3109
X597.0651 Y-22.0932
X597.223 Y-22.0877
X597.8619 Y-22.0492
G3 X598.1763 Y-22.0144 I-0.1909 J3.1693
G1 X598.7972 Y-21.9143
G3 X599.1034 Y-21.8494 I-0.5052 J3.1345
G1 X599.7034 Y-21.6908
G3 X600.0007 Y-21.5963 I-0.8113 J3.0696
G1 X600.5747 Y-21.3824
G3 X600.8558 Y-21.262 I-1.1087 J2.9751
G1 X601.4028 Y-20.9957
G3 X601.6696 Y-20.8495 I-1.3898 J2.8547
G1 X602.1856 Y-20.5339
G3 X602.4347 Y-20.3649 I-1.6566 J2.7085
G1 X602.9167 Y-20.0032
G3 X603.1478 Y-19.8121 I-1.9057 J2.5395
G1 X603.5928 Y-19.4072
G3 X603.8041 Y-19.1958 I-2.1368 J2.3484
G1 X604.2091 Y-18.7508
G3 X604.3997 Y-18.5205 I-2.3481 J2.137
G1 X604.7617 Y-18.0385
G3 X604.9328 Y-17.7864 I-2.5387 J1.9067
G1 X605.2478 Y-17.2705
G3 X605.3931 Y-17.0048 I-2.7098 J1.6546
G1 X605.6591 Y-16.458
G3 X605.7794 Y-16.1772 I-2.8551 J1.3889
G1 X605.9933 Y-15.6026
G3 X606.0869 Y-15.3087 I-2.9753 J1.1081
G1 X606.2458 Y-14.7094
G3 X606.3116 Y-14.4 I-3.0688 J0.8142
G1 X606.4116 Y-13.779
G3 X606.4464 Y-13.4625 I-3.1346 J0.5048
G1 X606.4844 Y-12.8228
G3 X606.4875 Y-12.5075 I-3.1694 J0.1883
G1 X606.4615 Y-11.858
G3 X606.4329 Y-11.5419 I-3.1725 J-0.127
G1 X606.3439 Y-10.9104
G3 X606.2832 Y-10.5956 I-3.1439 J-0.4431
G1 X606.1332 Y-9.9854
G3 X606.0419 Y-9.6808 I-3.0833 J-0.7579
G1 X605.8339 Y-9.0951
G3 X605.7178 Y-8.8121 I-2.9919 J-1.0625
G1 X605.4568 Y-8.2542
G3 X605.3107 Y-7.9782 I-2.8758 J-1.3455
G1 X604.9976 Y-7.4513
G3 X604.8315 Y-7.1996 I-2.7296 J-1.6216
G1 X604.4715 Y-6.707
G3 X604.2775 Y-6.4669 I-2.5635 J-1.8733
G1 X603.8715 Y-6.0117
G3 X603.6636 Y-5.7995 I-2.3694 J-2.1133
G1 X603.2175 Y-5.3849
G3 X602.9839 Y-5.1878 I-2.1615 J-2.3256
G1 X602.4988 Y-4.8172
G3 X602.2459 Y-4.6426 I-1.9279 J-2.5227
G1 X601.7249 Y-4.3191
G3 X601.4583 Y-4.1707 I-1.6749 J-2.6973
G1 X600.9063 Y-3.8976
G3 X600.6206 Y-3.7732 I-1.4083 J-2.8456
G1 X600.0396 Y-3.5536
G3 X599.7395 Y-3.4569 I-1.1226 J-2.9699
G1 X599.1325 Y-3.2941
G3 X598.8221 Y-3.2273 I-0.8225 J-3.0666
G1 X598.1931 Y-3.1245
G3 X597.8741 Y-3.0888 I-0.5121 J-3.1334
G1 X597.2251 Y-3.0493
X597.0651 Y-3.0436
X0.164 Y3.1741
X0.1474 Y3.1743
X0.0165 Y3.175
X-0.0803 Y3.174
G2 X-0.7311 Y3.7927 I-0.0161 J0.6348
G1 X-0.7472 Y4.4275
X-0.7497 Y4.5268 Z-9.1362
X-0.7521 Y4.6237 Z-9.1129
X-0.7544 Y4.7157 Z-9.0748
X-0.7566 Y4.8007 Z-9.0227
X-0.7585 Y4.8764 Z-8.958
X-0.7601 Y4.9411 Z-8.8822
X-0.7615 Y4.9931 Z-8.7973
X-0.7624 Y5.0313 Z-8.7052
X-0.763 Y5.0545 Z-8.6083
X-0.7632 Y5.0623 Z-8.509
G0 Z6.096
X0.5064 Y5.0944
G1 Z-5.969 F508
Z-12.065
X0.5066 Y5.0866 Z-12.1643
X0.5072 Y5.0634 Z-12.2612
X0.5081 Y5.0252 Z-12.3533
X0.5095 Y4.9732 Z-12.4382
X0.5111 Y4.9085 Z-12.514
X0.513 Y4.8328 Z-12.5787
X0.5152 Y4.7478 Z-12.6308
X0.5175 Y4.6558 Z-12.6689
X0.5199 Y4.5589 Z-12.6922
X0.5224 Y4.4596 Z-12.7
X0.5385 Y3.8248
G2 X-0.0803 Y3.174 I-0.6348 J-0.0161
G1 X-0.727 Y3.1576
X-0.8875 Y3.1495
X-1.5258 Y3.101
X-1.6853 Y3.0848
X-2.3143 Y3.0049
X-2.4722 Y2.9807
X-3.0911 Y2.8702
X-3.247 Y2.8383
X-3.8551 Y2.698
X-4.0083 Y2.6586
X-4.6048 Y2.4892
X-4.7551 Y2.4425
X-5.3391 Y2.2449
X-5.486 Y2.191
X-6.0568 Y1.966
X-6.2001 Y1.9054
X-6.7569 Y1.6537
X-6.8963 Y1.5865
X-7.4382 Y1.309
X-7.5734 Y1.2355
X-8.0998 Y0.9329
X-8.2307 Y0.8533
X-8.7406 Y0.5264
X-8.8671 Y0.441
X-9.3599 Y0.0906
X-9.4816 Y-0.0005
X-9.9564 Y-0.3736
X-10.0735 Y-0.4702
X-10.5295 Y-0.8652
X-10.6416 Y-0.9671
X-11.0781 Y-1.3833
X-11.1851 Y-1.4903
X-11.6013 Y-1.9268
X-11.7032 Y-2.0389
X-12.0982 Y-2.4949
X-12.1948 Y-2.6119
X-12.5679 Y-3.0867
X-12.659 Y-3.2086
X-13.0094 Y-3.7014
X-13.0948 Y-3.8278
X-13.4217 Y-4.3377
X-13.5011 Y-4.4683
X-13.8038 Y-4.9946
X-13.8775 Y-5.1304
X-14.155 Y-5.6724
X-14.2221 Y-5.8115
X-14.4738 Y-6.3682
X-14.5343 Y-6.5113
X-14.7594 Y-7.0821
X-14.8135 Y-7.2298
X-15.011 Y-7.8138
X-15.0575 Y-7.9635
X-15.2269 Y-8.5599
X-15.2663 Y-8.713
X-15.4067 Y-9.3211
X-15.4387 Y-9.4774
X-15.5492 Y-10.0964
X-15.5733 Y-10.2543
X-15.6532 Y-10.8833
X-15.6694 Y-11.0428
X-15.7179 Y-11.681
X-15.726 Y-11.8411
X-15.7424 Y-12.4879
X-15.7434 Y-12.5854
X-15.7427 Y-12.7163
X-15.7407 Y-12.8127
X-15.7176 Y-13.4593
X-15.7078 Y-13.6197
X-15.6526 Y-14.2574
X-15.6348 Y-14.4163
X-15.5484 Y-15.0444
X-15.5226 Y-15.2025
X-15.4056 Y-15.8203
X-15.372 Y-15.9758
X-15.2253 Y-16.5824
X-15.1844 Y-16.7349
X-15.0089 Y-17.3295
X-14.9605 Y-17.4797
X-14.7568 Y-18.0616
X-14.7014 Y-18.2082
X-14.4704 Y-18.7765
X-14.4084 Y-18.919
X-14.1509 Y-19.4731
X-14.0825 Y-19.6114
X-13.7994 Y-20.1504
X-13.7244 Y-20.2851
X-13.4163 Y-20.8083
X-13.3353 Y-20.9385
X-13.0031 Y-21.445
X-12.9163 Y-21.5707
X-12.5607 Y-22.0598
X-12.4685 Y-22.1804
X-12.0905 Y-22.6513
X-11.9926 Y-22.7674
X-11.5929 Y-23.2193
X-11.4898 Y-23.3304
X-11.0691 Y-23.7625
X-10.961 Y-23.8683
X-10.5202 Y-24.2799
X-10.4069 Y-24.3808
X-9.9467 Y-24.771
X-9.8291 Y-24.8661
X-9.3504 Y-25.2343
X-9.2273 Y-25.3244
X-8.7309 Y-25.6696
X-8.6039 Y-25.7535
X-8.0906 Y-26.0751
X-7.959 Y-26.1531
X-7.4295 Y-26.4503
X-7.2932 Y-26.5225
X-6.7485 Y-26.7944
X-6.608 Y-26.8603
X-6.0487 Y-27.1061
X-5.9051 Y-27.165
X-5.3321 Y-27.3841
X-5.1845 Y-27.4364
X-4.5985 Y-27.6279
X-4.448 Y-27.673
X-3.8498 Y-27.8362
X-3.6958 Y-27.8741
X-3.0863 Y-28.0081
X-2.9298 Y-28.0385
X-2.3097 Y-28.1425
X-2.1521 Y-28.1649
X-1.5223 Y-28.2383
X-1.3626 Y-28.2528
X-0.7238 Y-28.2947
X-0.5631 Y-28.3012
X0.0838 Y-28.3108
X0.164 Y-28.3109
X597.0651 Y-22.0932
X597.223 Y-22.0877
X597.8619 Y-22.0492
G3 X598.1763 Y-22.0144 I-0.1909 J3.1693
G1 X598.7972 Y-21.9143
G3 X599.1034 Y-21.8494 I-0.5052 J3.1345
G1 X599.7034 Y-21.6908
G3 X600.0007 Y-21.5963 I-0.8113 J3.0696
G1 X600.5747 Y-21.3824
G3 X600.8558 Y-21.262 I-1.1087 J2.9751
G1 X601.4028 Y-20.9957
G3 X601.6696 Y-20.8495 I-1.3898 J2.8547
G1 X602.1856 Y-20.5339
G3 X602.4347 Y-20.3649 I-1.6566 J2.7085
G1 X602.9167 Y-20.0032
G3 X603.1478 Y-19.8121 I-1.9057 J2.5395
G1 X603.5928 Y-19.4072
G3 X603.8041 Y-19.1958 I-2.1368 J2.3484
G1 X604.2091 Y-18.7508
G3 X604.3997 Y-18.5205 I-2.3481 J2.137
G1 X604.7617 Y-18.0385
G3 X604.9328 Y-17.7864 I-2.5387 J1.9067
G1 X605.2478 Y-17.2705
G3 X605.3931 Y-17.0048 I-2.7098 J1.6546
G1 X605.6591 Y-16.458
G3 X605.7794 Y-16.1772 I-2.8551 J1.3889
G1 X605.9933 Y-15.6026
G3 X606.0869 Y-15.3087 I-2.9753 J1.1081
G1 X606.2458 Y-14.7094
G3 X606.3116 Y-14.4 I-3.0688 J0.8142
G1 X606.4116 Y-13.779
G3 X606.4464 Y-13.4625 I-3.1346 J0.5048
G1 X606.4844 Y-12.8228
G3 X606.4875 Y-12.5075 I-3.1694 J0.1883
G1 X606.4615 Y-11.858
G3 X606.4329 Y-11.5419 I-3.1725 J-0.127
G1 X606.3439 Y-10.9104
G3 X606.2832 Y-10.5956 I-3.1439 J-0.4431
G1 X606.1332 Y-9.9854
G3 X606.0419 Y-9.6808 I-3.0833 J-0.7579
G1 X605.8339 Y-9.0951
G3 X605.7178 Y-8.8121 I-2.9919 J-1.0625
G1 X605.4568 Y-8.2542
G3 X605.3107 Y-7.9782 I-2.8758 J-1.3455
G1 X604.9976 Y-7.4513
G3 X604.8315 Y-7.1996 I-2.7296 J-1.6216
G1 X604.4715 Y-6.707
G3 X604.2775 Y-6.4669 I-2.5635 J-1.8733
G1 X603.8715 Y-6.0117
G3 X603.6636 Y-5.7995 I-2.3694 J-2.1133
G1 X603.2175 Y-5.3849
G3 X602.9839 Y-5.1878 I-2.1615 J-2.3256
G1 X602.4988 Y-4.8172
G3 X602.2459 Y-4.6426 I-1.9279 J-2.5227
G1 X601.7249 Y-4.3191
G3 X601.4583 Y-4.1707 I-1.6749 J-2.6973
G1 X600.9063 Y-3.8976
G3 X600.6206 Y-3.7732 I-1.4083 J-2.8456
G1 X600.0396 Y-3.5536
G3 X599.7395 Y-3.4569 I-1.1226 J-2.9699
G1 X599.1325 Y-3.2941
G3 X598.8221 Y-3.2273 I-0.8225 J-3.0666
G1 X598.1931 Y-3.1245
G3 X597.8741 Y-3.0888 I-0.5121 J-3.1334
G1 X597.2251 Y-3.0493
X597.0651 Y-3.0436
X0.164 Y3.1741
X0.1474 Y3.1743
X0.0165 Y3.175
X-0.0803 Y3.174
G2 X-0.7311 Y3.7927 I-0.0161 J0.6348
G1 X-0.7472 Y4.4275
X-0.7497 Y4.5268 Z-12.6922
X-0.7521 Y4.6237 Z-12.6689
X-0.7544 Y4.7157 Z-12.6308
X-0.7566 Y4.8007 Z-12.5787
X-0.7585 Y4.8764 Z-12.514
X-0.7601 Y4.9411 Z-12.4382
X-0.7615 Y4.9931 Z-12.3533
X-0.7624 Y5.0313 Z-12.2612
X-0.763 Y5.0545 Z-12.1643
X-0.7632 Y5.0623 Z-12.065
G0 Z6.096
X0.635 Y-32.4908
G1 Z-5.969 F508
Z-12.065
G19 G2 Y-33.1258 Z-12.7 J-0.635
G1 Y-33.7608
G17 G2 X0 Y-34.3958 I-0.635
G1 X-0.0805 Y-34.3968
X-0.7273 Y-34.4132
X-0.8873 Y-34.4213
X-1.5256 Y-34.4698
X-1.6852 Y-34.486
X-2.3141 Y-34.5659
X-2.4726 Y-34.5901
X-3.0915 Y-34.7007
X-3.2468 Y-34.7325
X-3.8549 Y-34.8728
X-4.0085 Y-34.9123
X-4.6049 Y-35.0817
X-4.7551 Y-35.1284
X-5.3391 Y-35.326
X-5.4859 Y-35.3797
X-6.0566 Y-35.6047
X-6.2002 Y-35.6654
X-6.7569 Y-35.9171
X-6.8965 Y-35.9844
X-7.4384 Y-36.262
X-7.5733 Y-36.3353
X-8.0997 Y-36.6379
X-8.2307 Y-36.7175
X-8.7406 Y-37.0444
X-8.8671 Y-37.1298
X-9.3598 Y-37.4802
X-9.4816 Y-37.5712
X-9.9564 Y-37.9443
X-10.0737 Y-38.0411
X-10.5297 Y-38.4362
X-10.6415 Y-38.5378
X-11.0779 Y-38.9539
X-11.1852 Y-39.0611
X-11.6013 Y-39.4976
X-11.7033 Y-39.6099
X-12.0984 Y-40.066
X-12.1948 Y-40.1828
X-12.5679 Y-40.6576
X-12.6589 Y-40.7793
X-13.0093 Y-41.272
X-13.0949 Y-41.3987
X-13.4218 Y-41.9087
X-13.5011 Y-42.0392
X-13.8038 Y-42.5654
X-13.8775 Y-42.7012
X-14.155 Y-43.2431
X-14.222 Y-43.3823
X-14.4737 Y-43.939
X-14.5343 Y-44.0822
X-14.7594 Y-44.653
X-14.8135 Y-44.8007
X-15.011 Y-45.3847
X-15.0575 Y-45.5343
X-15.2269 Y-46.1307
X-15.2663 Y-46.2839
X-15.4067 Y-46.892
X-15.4387 Y-47.0483
X-15.5492 Y-47.6672
X-15.5733 Y-47.8251
X-15.6532 Y-48.4541
X-15.6694 Y-48.6136
X-15.7179 Y-49.2519
X-15.726 Y-49.412
X-15.7424 Y-50.0587
X-15.7434 Y-50.1562
X-15.7427 Y-50.2871
X-15.7407 Y-50.3835
X-15.7176 Y-51.0301
X-15.7078 Y-51.1905
X-15.6526 Y-51.8282
X-15.6348 Y-51.987
X-15.5484 Y-52.6152
X-15.5225 Y-52.7735
X-15.4055 Y-53.3912
X-15.372 Y-53.5466
X-15.2253 Y-54.1532
X-15.1844 Y-54.3057
X-15.0089 Y-54.9003
X-14.9605 Y-55.0505
X-14.7568 Y-55.6324
X-14.7015 Y-55.7788
X-14.4705 Y-56.3472
X-14.4084 Y-56.4899
X-14.1509 Y-57.044
X-14.0825 Y-57.1823
X-13.7994 Y-57.7213
X-13.7242 Y-57.8562
X-13.4161 Y-58.3793
X-13.3353 Y-58.5093
X-13.0031 Y-59.0158
X-12.9163 Y-59.1415
X-12.5607 Y-59.6306
X-12.4685 Y-59.7512
X-12.0905 Y-60.2221
X-11.9926 Y-60.3382
X-11.5929 Y-60.7901
X-11.4898 Y-60.9012
X-11.0691 Y-61.3333
X-10.961 Y-61.4391
X-10.5202 Y-61.8507
X-10.4072 Y-61.9513
X-9.9471 Y-62.3416
X-9.8287 Y-62.4372
X-9.3501 Y-62.8053
X-9.2276 Y-62.8949
X-8.7312 Y-63.2402
X-8.6039 Y-63.3244
X-8.0906 Y-63.646
X-7.9586 Y-63.7243
X-7.4291 Y-64.0213
X-7.2932 Y-64.0933
X-6.7485 Y-64.3652
X-6.6084 Y-64.4309
X-6.0491 Y-64.6768
X-5.9051 Y-64.7359
X-5.3321 Y-64.955
X-5.1845 Y-65.0073
X-4.5985 Y-65.1988
X-4.4475 Y-65.2441
X-3.8493 Y-65.4072
X-3.6958 Y-65.4449
X-3.0863 Y-65.5789
X-2.9303 Y-65.6092
X-2.3102 Y-65.7133
X-2.1516 Y-65.7358
X-1.5218 Y-65.8091
X-1.3626 Y-65.8236
X-0.7238 Y-65.8655
X-0.5631 Y-65.8719
X0.0838 Y-65.8816
X0.164 Y-65.8817
X597.0651 Y-59.664
X597.223 Y-59.6585
X597.8619 Y-59.62
G3 X598.1763 Y-59.5852 I-0.1909 J3.1693
G1 X598.7972 Y-59.4851
G3 X599.1029 Y-59.4203 I-0.5052 J3.1345
G1 X599.7029 Y-59.2618
G3 X600.0012 Y-59.1671 I-0.8109 J3.0697
G1 X600.5751 Y-58.9531
G3 X600.8558 Y-58.8328 I-1.1091 J2.975
G1 X601.4028 Y-58.5665
G3 X601.6693 Y-58.4206 I-1.3898 J2.8547
G1 X602.1852 Y-58.1051
G3 X602.435 Y-57.9355 I-1.6563 J2.7088
G1 X602.917 Y-57.5737
G3 X603.1478 Y-57.3829 I-1.906 J2.5392
G1 X603.5928 Y-56.978
G3 X603.8041 Y-56.7666 I-2.1368 J2.3484
G1 X604.2091 Y-56.3216
G3 X604.3997 Y-56.0913 I-2.3481 J2.137
G1 X604.7617 Y-55.6093
G3 X604.9328 Y-55.3572 I-2.5387 J1.9067
G1 X605.2478 Y-54.8413
G3 X605.3931 Y-54.5756 I-2.7098 J1.6546
G1 X605.6591 Y-54.0288
G3 X605.7794 Y-53.748 I-2.8551 J1.3889
G1 X605.9933 Y-53.1734
G3 X606.0869 Y-52.8795 I-2.9753 J1.1081
G1 X606.2458 Y-52.2802
G3 X606.3116 Y-51.9708 I-3.0688 J0.8142
G1 X606.4116 Y-51.3498
G3 X606.4464 Y-51.0333 I-3.1346 J0.5048
G1 X606.4844 Y-50.3937
G3 X606.4875 Y-50.0784 I-3.1694 J0.1883
G1 X606.4615 Y-49.4288
G3 X606.4329 Y-49.1127 I-3.1725 J-0.127
G1 X606.3439 Y-48.4812
G3 X606.2832 Y-48.1664 I-3.1439 J-0.4431
G1 X606.1332 Y-47.5562
G3 X606.0419 Y-47.2514 I-3.0833 J-0.7579
G1 X605.8339 Y-46.6658
G3 X605.7178 Y-46.3831 I-2.9919 J-1.0627
G1 X605.4568 Y-45.8252
G3 X605.3107 Y-45.5491 I-2.8759 J-1.3454
G1 X604.9977 Y-45.0222
G3 X604.8314 Y-44.7703 I-2.7297 J-1.6215
G1 X604.4714 Y-44.2777
G3 X604.2775 Y-44.0377 I-2.5634 J-1.8734
G1 X603.8715 Y-43.5825
G3 X603.6637 Y-43.3705 I-2.3694 J-2.1134
G1 X603.2177 Y-42.9559
G3 X602.9837 Y-42.7585 I-2.1617 J-2.3254
G1 X602.4987 Y-42.3879
G3 X602.2458 Y-42.2134 I-1.9277 J-2.5228
G1 X601.7249 Y-41.8899
G3 X601.4584 Y-41.7416 I-1.6749 J-2.6973
G1 X600.9064 Y-41.4684
G3 X600.6205 Y-41.3441 I-1.4084 J-2.8456
G1 X600.0396 Y-41.1245
G3 X599.7395 Y-41.0278 I-1.1226 J-2.9699
G1 X599.1325 Y-40.865
G3 X598.8221 Y-40.7982 I-0.8225 J-3.0666
G1 X598.1931 Y-40.6954
G3 X597.8744 Y-40.6597 I-0.5121 J-3.1334
G1 X597.2253 Y-40.6201
X597.0651 Y-40.6144
X0.164 Y-34.3967
X0.1479 Y-34.3965
X0.017 Y-34.3958
X0
G2 X-0.635 Y-33.7608 J0.635
G1 Y-33.1258
G19 G3 Y-32.4908 Z-12.065 K0.635
G0 Z6.096

G53 Z-10
M5
G4 P1.0
G53 X-10 Y-10
M30
%
