(1001)
(T1  D=6.35 CR=0 - ZMIN=-7.366 - FLAT END MILL)
G0 G40 G90 G17
G21

(2D CONTOUR2)
T1 M6
M3 S5000
G0 X5.074 Y-41.275
G0 Z18.796
G1 Z16.891 F508.
G1 Z6.096
G1 X590.55
G3 X593.725 Y-38.1 I0 J3.175
G1 Y0
G3 X590.55 Y3.175 I-3.175 J0
G1 X0
G1 X-0.054
G1 X-0.708 Y3.164
G1 X-0.816 Y3.16
G1 X-1.465 Y3.127
G1 X-1.572 Y3.12
G1 X-2.215 Y3.065
G1 X-2.322 Y3.055
G1 X-2.959 Y2.979
G1 X-3.064 Y2.965
G1 X-3.695 Y2.868
G1 X-3.8 Y2.851
G1 X-4.424 Y2.734
G1 X-4.528 Y2.712
G1 X-5.144 Y2.576
G1 X-5.247 Y2.551
G1 X-5.855 Y2.394
G1 X-5.957 Y2.366
G1 X-6.558 Y2.19
G1 X-6.658 Y2.159
G1 X-7.25 Y1.964
G1 X-7.349 Y1.93
G1 X-7.932 Y1.716
G1 X-8.029 Y1.679
G1 X-8.604 Y1.447
G1 X-8.699 Y1.407
G1 X-9.264 Y1.157
G1 X-9.358 Y1.113
G1 X-9.913 Y0.846
G1 X-10.006 Y0.8
G1 X-10.551 Y0.515
G1 X-10.641 Y0.466
G1 X-11.175 Y0.164
G1 X-11.264 Y0.113
G1 X-11.787 Y-0.206
G1 X-11.874 Y-0.26
G1 X-12.386 Y-0.594
G1 X-12.47 Y-0.651
G1 X-12.971 Y-1.002
G1 X-13.053 Y-1.061
G1 X-13.542 Y-1.427
G1 X-13.622 Y-1.489
G1 X-14.099 Y-1.869
G1 X-14.177 Y-1.934
G1 X-14.641 Y-2.329
G1 X-14.717 Y-2.396
G1 X-15.168 Y-2.806
G1 X-15.242 Y-2.875
G1 X-15.68 Y-3.299
G1 X-15.751 Y-3.371
G1 X-16.175 Y-3.808
G1 X-16.244 Y-3.882
G1 X-16.654 Y-4.333
G1 X-16.721 Y-4.409
G1 X-17.116 Y-4.873
G1 X-17.181 Y-4.951
G1 X-17.561 Y-5.427
G1 X-17.623 Y-5.508
G1 X-17.989 Y-5.997
G1 X-18.048 Y-6.079
G1 X-18.399 Y-6.58
G1 X-18.456 Y-6.664
G1 X-18.79 Y-7.177
G1 X-18.844 Y-7.263
G1 X-19.162 Y-7.786
G1 X-19.214 Y-7.875
G1 X-19.516 Y-8.409
G1 X-19.565 Y-8.5
G1 X-19.85 Y-9.045
G1 X-19.896 Y-9.137
G1 X-20.163 Y-9.692
G1 X-20.206 Y-9.785
G1 X-20.456 Y-10.35
G1 X-20.497 Y-10.446
G1 X-20.729 Y-11.021
G1 X-20.766 Y-11.117
G1 X-20.98 Y-11.701
G1 X-21.015 Y-11.8
G1 X-21.209 Y-12.393
G1 X-21.24 Y-12.492
G1 X-21.416 Y-13.093
G1 X-21.444 Y-13.195
G1 X-21.601 Y-13.803
G1 X-21.626 Y-13.906
G1 X-21.762 Y-14.522
G1 X-21.784 Y-14.626
G1 X-21.901 Y-15.25
G1 X-21.918 Y-15.355
G1 X-22.015 Y-15.986
G1 X-22.029 Y-16.091
G1 X-22.105 Y-16.729
G1 X-22.115 Y-16.834
G1 X-22.17 Y-17.478
G1 X-22.177 Y-17.585
G1 X-22.21 Y-18.234
G1 X-22.214 Y-18.342
G1 X-22.225 Y-18.997
G1 Y-19.103
G1 X-22.214 Y-19.758
G1 X-22.21 Y-19.866
G1 X-22.177 Y-20.515
G1 X-22.17 Y-20.622
G1 X-22.115 Y-21.266
G1 X-22.105 Y-21.371
G1 X-22.029 Y-22.009
G1 X-22.015 Y-22.114
G1 X-21.918 Y-22.745
G1 X-21.901 Y-22.85
G1 X-21.784 Y-23.474
G1 X-21.762 Y-23.578
G1 X-21.626 Y-24.194
G1 X-21.601 Y-24.297
G1 X-21.444 Y-24.905
G1 X-21.416 Y-25.007
G1 X-21.24 Y-25.608
G1 X-21.209 Y-25.707
G1 X-21.015 Y-26.3
G1 X-20.98 Y-26.399
G1 X-20.766 Y-26.983
G1 X-20.729 Y-27.079
G1 X-20.497 Y-27.654
G1 X-20.456 Y-27.75
G1 X-20.206 Y-28.315
G1 X-20.163 Y-28.408
G1 X-19.896 Y-28.963
G1 X-19.85 Y-29.055
G1 X-19.565 Y-29.6
G1 X-19.516 Y-29.691
G1 X-19.214 Y-30.226
G1 X-19.163 Y-30.314
G1 X-18.844 Y-30.837
G1 X-18.79 Y-30.923
G1 X-18.456 Y-31.436
G1 X-18.399 Y-31.52
G1 X-18.049 Y-32.021
G1 X-17.989 Y-32.103
G1 X-17.623 Y-32.592
G1 X-17.561 Y-32.673
G1 X-17.181 Y-33.149
G1 X-17.116 Y-33.227
G1 X-16.721 Y-33.691
G1 X-16.654 Y-33.767
G1 X-16.244 Y-34.218
G1 X-16.175 Y-34.292
G1 X-15.751 Y-34.729
G1 X-15.679 Y-34.801
G1 X-15.242 Y-35.225
G1 X-15.168 Y-35.294
G1 X-14.717 Y-35.704
G1 X-14.641 Y-35.771
G1 X-14.177 Y-36.166
G1 X-14.099 Y-36.231
G1 X-13.623 Y-36.611
G1 X-13.542 Y-36.673
G1 X-13.053 Y-37.039
G1 X-12.971 Y-37.099
G1 X-12.47 Y-37.449
G1 X-12.386 Y-37.506
G1 X-11.873 Y-37.84
G1 X-11.787 Y-37.894
G1 X-11.264 Y-38.213
G1 X-11.175 Y-38.264
G1 X-10.641 Y-38.566
G1 X-10.55 Y-38.615
G1 X-10.005 Y-38.9
G1 X-9.913 Y-38.946
G1 X-9.358 Y-39.213
G1 X-9.265 Y-39.256
G1 X-8.7 Y-39.506
G1 X-8.604 Y-39.547
G1 X-8.029 Y-39.779
G1 X-7.933 Y-39.816
G1 X-7.349 Y-40.03
G1 X-7.25 Y-40.064
G1 X-6.657 Y-40.259
G1 X-6.558 Y-40.29
G1 X-5.957 Y-40.466
G1 X-5.855 Y-40.494
G1 X-5.247 Y-40.651
G1 X-5.144 Y-40.676
G1 X-4.528 Y-40.812
G1 X-4.424 Y-40.834
G1 X-3.8 Y-40.951
G1 X-3.695 Y-40.968
G1 X-3.064 Y-41.065
G1 X-2.959 Y-41.079
G1 X-2.321 Y-41.155
G1 X-2.216 Y-41.165
G1 X-1.572 Y-41.22
G1 X-1.465 Y-41.227
G1 X-0.816 Y-41.26
G1 X-0.708 Y-41.264
G1 X-0.053 Y-41.275
G1 X0
G1 X5.074
G0 Z18.796
G0 X-0.053 Y-48.155
G1 Z16.891 F508.
G1 Z6.096
G1 X-0.708 Y-48.166
G1 X-0.816 Y-48.169
G1 X-1.465 Y-48.202
G1 X-1.572 Y-48.209
G1 X-2.215 Y-48.264
G1 X-2.322 Y-48.275
G1 X-2.959 Y-48.35
G1 X-3.064 Y-48.364
G1 X-3.695 Y-48.461
G1 X-3.8 Y-48.479
G1 X-4.424 Y-48.595
G1 X-4.528 Y-48.617
G1 X-5.144 Y-48.754
G1 X-5.247 Y-48.778
G1 X-5.855 Y-48.935
G1 X-5.957 Y-48.963
G1 X-6.557 Y-49.139
G1 X-6.658 Y-49.17
G1 X-7.25 Y-49.365
G1 X-7.349 Y-49.399
G1 X-7.933 Y-49.613
G1 X-8.029 Y-49.65
G1 X-8.604 Y-49.882
G1 X-8.699 Y-49.923
G1 X-9.264 Y-50.172
G1 X-9.358 Y-50.216
G1 X-9.913 Y-50.483
G1 X-10.006 Y-50.53
G1 X-10.551 Y-50.814
G1 X-10.641 Y-50.863
G1 X-11.175 Y-51.165
G1 X-11.263 Y-51.216
G1 X-11.787 Y-51.535
G1 X-11.874 Y-51.589
G1 X-12.386 Y-51.924
G1 X-12.47 Y-51.98
G1 X-12.971 Y-52.331
G1 X-13.053 Y-52.39
G1 X-13.542 Y-52.756
G1 X-13.623 Y-52.818
G1 X-14.099 Y-53.199
G1 X-14.177 Y-53.263
G1 X-14.641 Y-53.658
G1 X-14.717 Y-53.725
G1 X-15.168 Y-54.135
G1 X-15.242 Y-54.204
G1 X-15.679 Y-54.628
G1 X-15.751 Y-54.7
G1 X-16.175 Y-55.137
G1 X-16.244 Y-55.211
G1 X-16.654 Y-55.662
G1 X-16.721 Y-55.738
G1 X-17.116 Y-56.202
G1 X-17.181 Y-56.28
G1 X-17.561 Y-56.757
G1 X-17.623 Y-56.837
G1 X-17.989 Y-57.325
G1 X-18.049 Y-57.408
G1 X-18.399 Y-57.909
G1 X-18.456 Y-57.993
G1 X-18.79 Y-58.506
G1 X-18.844 Y-58.592
G1 X-19.163 Y-59.116
G1 X-19.214 Y-59.204
G1 X-19.516 Y-59.738
G1 X-19.565 Y-59.829
G1 X-19.85 Y-60.374
G1 X-19.896 Y-60.466
G1 X-20.163 Y-61.021
G1 X-20.206 Y-61.114
G1 X-20.456 Y-61.679
G1 X-20.497 Y-61.776
G1 X-20.729 Y-62.35
G1 X-20.766 Y-62.447
G1 X-20.98 Y-63.03
G1 X-21.015 Y-63.13
G1 X-21.209 Y-63.722
G1 X-21.24 Y-63.821
G1 X-21.416 Y-64.422
G1 X-21.444 Y-64.524
G1 X-21.601 Y-65.133
G1 X-21.626 Y-65.235
G1 X-21.762 Y-65.851
G1 X-21.784 Y-65.955
G1 X-21.901 Y-66.579
G1 X-21.918 Y-66.684
G1 X-22.015 Y-67.315
G1 X-22.029 Y-67.421
G1 X-22.105 Y-68.058
G1 X-22.115 Y-68.163
G1 X-22.17 Y-68.807
G1 X-22.177 Y-68.914
G1 X-22.21 Y-69.564
G1 X-22.214 Y-69.671
G1 X-22.225 Y-70.326
G1 Y-70.433
G1 X-22.214 Y-71.087
G1 X-22.21 Y-71.195
G1 X-22.177 Y-71.844
G1 X-22.17 Y-71.951
G1 X-22.115 Y-72.595
G1 X-22.105 Y-72.7
G1 X-22.029 Y-73.338
G1 X-22.015 Y-73.443
G1 X-21.918 Y-74.074
G1 X-21.901 Y-74.179
G1 X-21.784 Y-74.803
G1 X-21.762 Y-74.907
G1 X-21.626 Y-75.523
G1 X-21.601 Y-75.626
G1 X-21.444 Y-76.234
G1 X-21.416 Y-76.336
G1 X-21.24 Y-76.937
G1 X-21.209 Y-77.037
G1 X-21.014 Y-77.629
G1 X-20.98 Y-77.728
G1 X-20.766 Y-78.312
G1 X-20.729 Y-78.408
G1 X-20.497 Y-78.983
G1 X-20.456 Y-79.079
G1 X-20.206 Y-79.644
G1 X-20.163 Y-79.737
G1 X-19.896 Y-80.293
G1 X-19.85 Y-80.385
G1 X-19.565 Y-80.93
G1 X-19.516 Y-81.02
G1 X-19.214 Y-81.555
G1 X-19.162 Y-81.643
G1 X-18.844 Y-82.167
G1 X-18.79 Y-82.252
G1 X-18.456 Y-82.765
G1 X-18.399 Y-82.849
G1 X-18.049 Y-83.35
G1 X-17.989 Y-83.433
G1 X-17.623 Y-83.922
G1 X-17.561 Y-84.002
G1 X-17.18 Y-84.479
G1 X-17.116 Y-84.556
G1 X-16.721 Y-85.02
G1 X-16.654 Y-85.097
G1 X-16.244 Y-85.548
G1 X-16.175 Y-85.621
G1 X-15.751 Y-86.058
G1 X-15.679 Y-86.13
G1 X-15.242 Y-86.554
G1 X-15.168 Y-86.623
G1 X-14.717 Y-87.033
G1 X-14.642 Y-87.1
G1 X-14.178 Y-87.495
G1 X-14.099 Y-87.56
G1 X-13.623 Y-87.941
G1 X-13.542 Y-88.003
G1 X-13.053 Y-88.368
G1 X-12.971 Y-88.428
G1 X-12.47 Y-88.778
G1 X-12.386 Y-88.835
G1 X-11.874 Y-89.169
G1 X-11.787 Y-89.224
G1 X-11.264 Y-89.542
G1 X-11.175 Y-89.594
G1 X-10.641 Y-89.895
G1 X-10.551 Y-89.944
G1 X-10.006 Y-90.229
G1 X-9.913 Y-90.275
G1 X-9.358 Y-90.543
G1 X-9.264 Y-90.586
G1 X-8.699 Y-90.836
G1 X-8.604 Y-90.876
G1 X-8.03 Y-91.108
G1 X-7.932 Y-91.146
G1 X-7.349 Y-91.359
G1 X-7.25 Y-91.393
G1 X-6.658 Y-91.588
G1 X-6.558 Y-91.62
G1 X-5.957 Y-91.796
G1 X-5.855 Y-91.824
G1 X-5.247 Y-91.98
G1 X-5.144 Y-92.005
G1 X-4.527 Y-92.142
G1 X-4.424 Y-92.163
G1 X-3.8 Y-92.28
G1 X-3.695 Y-92.297
G1 X-3.065 Y-92.394
G1 X-2.959 Y-92.408
G1 X-2.321 Y-92.484
G1 X-2.215 Y-92.495
G1 X-1.572 Y-92.549
G1 X-1.465 Y-92.556
G1 X-0.816 Y-92.589
G1 X-0.709 Y-92.593
G1 X-0.054 Y-92.604
G1 X0
G1 X590.55
G3 X593.725 Y-89.429 I0 J3.175
G1 Y-51.329
G3 X590.55 Y-48.154 I-3.175 J0
G1 X0
G1 X-0.053 Y-48.155
G1 Z-1.524
G1 X-0.708 Y-48.166
G1 X-0.816 Y-48.169
G1 X-1.465 Y-48.202
G1 X-1.572 Y-48.209
G1 X-2.215 Y-48.264
G1 X-2.322 Y-48.275
G1 X-2.959 Y-48.35
G1 X-3.064 Y-48.364
G1 X-3.695 Y-48.461
G1 X-3.8 Y-48.479
G1 X-4.424 Y-48.595
G1 X-4.528 Y-48.617
G1 X-5.144 Y-48.754
G1 X-5.247 Y-48.778
G1 X-5.855 Y-48.935
G1 X-5.957 Y-48.963
G1 X-6.557 Y-49.139
G1 X-6.658 Y-49.17
G1 X-7.25 Y-49.365
G1 X-7.349 Y-49.399
G1 X-7.933 Y-49.613
G1 X-8.029 Y-49.65
G1 X-8.604 Y-49.882
G1 X-8.699 Y-49.923
G1 X-9.264 Y-50.172
G1 X-9.358 Y-50.216
G1 X-9.913 Y-50.483
G1 X-10.006 Y-50.53
G1 X-10.551 Y-50.814
G1 X-10.641 Y-50.863
G1 X-11.175 Y-51.165
G1 X-11.263 Y-51.216
G1 X-11.787 Y-51.535
G1 X-11.874 Y-51.589
G1 X-12.386 Y-51.924
G1 X-12.47 Y-51.98
G1 X-12.971 Y-52.331
G1 X-13.053 Y-52.39
G1 X-13.542 Y-52.756
G1 X-13.623 Y-52.818
G1 X-14.099 Y-53.199
G1 X-14.177 Y-53.263
G1 X-14.641 Y-53.658
G1 X-14.717 Y-53.725
G1 X-15.168 Y-54.135
G1 X-15.242 Y-54.204
G1 X-15.679 Y-54.628
G1 X-15.751 Y-54.7
G1 X-16.175 Y-55.137
G1 X-16.244 Y-55.211
G1 X-16.654 Y-55.662
G1 X-16.721 Y-55.738
G1 X-17.116 Y-56.202
G1 X-17.181 Y-56.28
G1 X-17.561 Y-56.757
G1 X-17.623 Y-56.837
G1 X-17.989 Y-57.325
G1 X-18.049 Y-57.408
G1 X-18.399 Y-57.909
G1 X-18.456 Y-57.993
G1 X-18.79 Y-58.506
G1 X-18.844 Y-58.592
G1 X-19.163 Y-59.116
G1 X-19.214 Y-59.204
G1 X-19.516 Y-59.738
G1 X-19.565 Y-59.829
G1 X-19.85 Y-60.374
G1 X-19.896 Y-60.466
G1 X-20.163 Y-61.021
G1 X-20.206 Y-61.114
G1 X-20.456 Y-61.679
G1 X-20.497 Y-61.776
G1 X-20.729 Y-62.35
G1 X-20.766 Y-62.447
G1 X-20.98 Y-63.03
G1 X-21.015 Y-63.13
G1 X-21.209 Y-63.722
G1 X-21.24 Y-63.821
G1 X-21.416 Y-64.422
G1 X-21.444 Y-64.524
G1 X-21.601 Y-65.133
G1 X-21.626 Y-65.235
G1 X-21.762 Y-65.851
G1 X-21.784 Y-65.955
G1 X-21.901 Y-66.579
G1 X-21.918 Y-66.684
G1 X-22.015 Y-67.315
G1 X-22.029 Y-67.421
G1 X-22.105 Y-68.058
G1 X-22.115 Y-68.163
G1 X-22.17 Y-68.807
G1 X-22.177 Y-68.914
G1 X-22.21 Y-69.564
G1 X-22.214 Y-69.671
G1 X-22.225 Y-70.326
G1 Y-70.433
G1 X-22.214 Y-71.087
G1 X-22.21 Y-71.195
G1 X-22.177 Y-71.844
G1 X-22.17 Y-71.951
G1 X-22.115 Y-72.595
G1 X-22.105 Y-72.7
G1 X-22.029 Y-73.338
G1 X-22.015 Y-73.443
G1 X-21.918 Y-74.074
G1 X-21.901 Y-74.179
G1 X-21.784 Y-74.803
G1 X-21.762 Y-74.907
G1 X-21.626 Y-75.523
G1 X-21.601 Y-75.626
G1 X-21.444 Y-76.234
G1 X-21.416 Y-76.336
G1 X-21.24 Y-76.937
G1 X-21.209 Y-77.037
G1 X-21.014 Y-77.629
G1 X-20.98 Y-77.728
G1 X-20.766 Y-78.312
G1 X-20.729 Y-78.408
G1 X-20.497 Y-78.983
G1 X-20.456 Y-79.079
G1 X-20.206 Y-79.644
G1 X-20.163 Y-79.737
G1 X-19.896 Y-80.293
G1 X-19.85 Y-80.385
G1 X-19.565 Y-80.93
G1 X-19.516 Y-81.02
G1 X-19.214 Y-81.555
G1 X-19.162 Y-81.643
G1 X-18.844 Y-82.167
G1 X-18.79 Y-82.252
G1 X-18.456 Y-82.765
G1 X-18.399 Y-82.849
G1 X-18.049 Y-83.35
G1 X-17.989 Y-83.433
G1 X-17.623 Y-83.922
G1 X-17.561 Y-84.002
G1 X-17.18 Y-84.479
G1 X-17.116 Y-84.556
G1 X-16.721 Y-85.02
G1 X-16.654 Y-85.097
G1 X-16.244 Y-85.548
G1 X-16.175 Y-85.621
G1 X-15.751 Y-86.058
G1 X-15.679 Y-86.13
G1 X-15.242 Y-86.554
G1 X-15.168 Y-86.623
G1 X-14.717 Y-87.033
G1 X-14.642 Y-87.1
G1 X-14.178 Y-87.495
G1 X-14.099 Y-87.56
G1 X-13.623 Y-87.941
G1 X-13.542 Y-88.003
G1 X-13.053 Y-88.368
G1 X-12.971 Y-88.428
G1 X-12.47 Y-88.778
G1 X-12.386 Y-88.835
G1 X-11.874 Y-89.169
G1 X-11.787 Y-89.224
G1 X-11.264 Y-89.542
G1 X-11.175 Y-89.594
G1 X-10.641 Y-89.895
G1 X-10.551 Y-89.944
G1 X-10.006 Y-90.229
G1 X-9.913 Y-90.275
G1 X-9.358 Y-90.543
G1 X-9.264 Y-90.586
G1 X-8.699 Y-90.836
G1 X-8.604 Y-90.876
G1 X-8.03 Y-91.108
G1 X-7.932 Y-91.146
G1 X-7.349 Y-91.359
G1 X-7.25 Y-91.393
G1 X-6.658 Y-91.588
G1 X-6.558 Y-91.62
G1 X-5.957 Y-91.796
G1 X-5.855 Y-91.824
G1 X-5.247 Y-91.98
G1 X-5.144 Y-92.005
G1 X-4.527 Y-92.142
G1 X-4.424 Y-92.163
G1 X-3.8 Y-92.28
G1 X-3.695 Y-92.297
G1 X-3.065 Y-92.394
G1 X-2.959 Y-92.408
G1 X-2.321 Y-92.484
G1 X-2.215 Y-92.495
G1 X-1.572 Y-92.549
G1 X-1.465 Y-92.556
G1 X-0.816 Y-92.589
G1 X-0.709 Y-92.593
G1 X-0.054 Y-92.604
G1 X0
G1 X590.55
G3 X593.725 Y-89.429 I0 J3.175
G1 Y-51.329
G3 X590.55 Y-48.154 I-3.175 J0
G1 X0
G1 X-0.053 Y-48.155
G0 Z18.796
G0 X5.074 Y-41.275
G1 Z9.271 F508.
G1 Z-1.524
G1 X590.55
G3 X593.725 Y-38.1 I0 J3.175
G1 Y0
G3 X590.55 Y3.175 I-3.175 J0
G1 X0
G1 X-0.054
G1 X-0.708 Y3.164
G1 X-0.816 Y3.16
G1 X-1.465 Y3.127
G1 X-1.572 Y3.12
G1 X-2.215 Y3.065
G1 X-2.322 Y3.055
G1 X-2.959 Y2.979
G1 X-3.064 Y2.965
G1 X-3.695 Y2.868
G1 X-3.8 Y2.851
G1 X-4.424 Y2.734
G1 X-4.528 Y2.712
G1 X-5.144 Y2.576
G1 X-5.247 Y2.551
G1 X-5.855 Y2.394
G1 X-5.957 Y2.366
G1 X-6.558 Y2.19
G1 X-6.658 Y2.159
G1 X-7.25 Y1.964
G1 X-7.349 Y1.93
G1 X-7.932 Y1.716
G1 X-8.029 Y1.679
G1 X-8.604 Y1.447
G1 X-8.699 Y1.407
G1 X-9.264 Y1.157
G1 X-9.358 Y1.113
G1 X-9.913 Y0.846
G1 X-10.006 Y0.8
G1 X-10.551 Y0.515
G1 X-10.641 Y0.466
G1 X-11.175 Y0.164
G1 X-11.264 Y0.113
G1 X-11.787 Y-0.206
G1 X-11.874 Y-0.26
G1 X-12.386 Y-0.594
G1 X-12.47 Y-0.651
G1 X-12.971 Y-1.002
G1 X-13.053 Y-1.061
G1 X-13.542 Y-1.427
G1 X-13.622 Y-1.489
G1 X-14.099 Y-1.869
G1 X-14.177 Y-1.934
G1 X-14.641 Y-2.329
G1 X-14.717 Y-2.396
G1 X-15.168 Y-2.806
G1 X-15.242 Y-2.875
G1 X-15.68 Y-3.299
G1 X-15.751 Y-3.371
G1 X-16.175 Y-3.808
G1 X-16.244 Y-3.882
G1 X-16.654 Y-4.333
G1 X-16.721 Y-4.409
G1 X-17.116 Y-4.873
G1 X-17.181 Y-4.951
G1 X-17.561 Y-5.427
G1 X-17.623 Y-5.508
G1 X-17.989 Y-5.997
G1 X-18.048 Y-6.079
G1 X-18.399 Y-6.58
G1 X-18.456 Y-6.664
G1 X-18.79 Y-7.177
G1 X-18.844 Y-7.263
G1 X-19.162 Y-7.786
G1 X-19.214 Y-7.875
G1 X-19.516 Y-8.409
G1 X-19.565 Y-8.5
G1 X-19.85 Y-9.045
G1 X-19.896 Y-9.137
G1 X-20.163 Y-9.692
G1 X-20.206 Y-9.785
G1 X-20.456 Y-10.35
G1 X-20.497 Y-10.446
G1 X-20.729 Y-11.021
G1 X-20.766 Y-11.117
G1 X-20.98 Y-11.701
G1 X-21.015 Y-11.8
G1 X-21.209 Y-12.393
G1 X-21.24 Y-12.492
G1 X-21.416 Y-13.093
G1 X-21.444 Y-13.195
G1 X-21.601 Y-13.803
G1 X-21.626 Y-13.906
G1 X-21.762 Y-14.522
G1 X-21.784 Y-14.626
G1 X-21.901 Y-15.25
G1 X-21.918 Y-15.355
G1 X-22.015 Y-15.986
G1 X-22.029 Y-16.091
G1 X-22.105 Y-16.729
G1 X-22.115 Y-16.834
G1 X-22.17 Y-17.478
G1 X-22.177 Y-17.585
G1 X-22.21 Y-18.234
G1 X-22.214 Y-18.342
G1 X-22.225 Y-18.997
G1 Y-19.103
G1 X-22.214 Y-19.758
G1 X-22.21 Y-19.866
G1 X-22.177 Y-20.515
G1 X-22.17 Y-20.622
G1 X-22.115 Y-21.266
G1 X-22.105 Y-21.371
G1 X-22.029 Y-22.009
G1 X-22.015 Y-22.114
G1 X-21.918 Y-22.745
G1 X-21.901 Y-22.85
G1 X-21.784 Y-23.474
G1 X-21.762 Y-23.578
G1 X-21.626 Y-24.194
G1 X-21.601 Y-24.297
G1 X-21.444 Y-24.905
G1 X-21.416 Y-25.007
G1 X-21.24 Y-25.608
G1 X-21.209 Y-25.707
G1 X-21.015 Y-26.3
G1 X-20.98 Y-26.399
G1 X-20.766 Y-26.983
G1 X-20.729 Y-27.079
G1 X-20.497 Y-27.654
G1 X-20.456 Y-27.75
G1 X-20.206 Y-28.315
G1 X-20.163 Y-28.408
G1 X-19.896 Y-28.963
G1 X-19.85 Y-29.055
G1 X-19.565 Y-29.6
G1 X-19.516 Y-29.691
G1 X-19.214 Y-30.226
G1 X-19.163 Y-30.314
G1 X-18.844 Y-30.837
G1 X-18.79 Y-30.923
G1 X-18.456 Y-31.436
G1 X-18.399 Y-31.52
G1 X-18.049 Y-32.021
G1 X-17.989 Y-32.103
G1 X-17.623 Y-32.592
G1 X-17.561 Y-32.673
G1 X-17.181 Y-33.149
G1 X-17.116 Y-33.227
G1 X-16.721 Y-33.691
G1 X-16.654 Y-33.767
G1 X-16.244 Y-34.218
G1 X-16.175 Y-34.292
G1 X-15.751 Y-34.729
G1 X-15.679 Y-34.801
G1 X-15.242 Y-35.225
G1 X-15.168 Y-35.294
G1 X-14.717 Y-35.704
G1 X-14.641 Y-35.771
G1 X-14.177 Y-36.166
G1 X-14.099 Y-36.231
G1 X-13.623 Y-36.611
G1 X-13.542 Y-36.673
G1 X-13.053 Y-37.039
G1 X-12.971 Y-37.099
G1 X-12.47 Y-37.449
G1 X-12.386 Y-37.506
G1 X-11.873 Y-37.84
G1 X-11.787 Y-37.894
G1 X-11.264 Y-38.213
G1 X-11.175 Y-38.264
G1 X-10.641 Y-38.566
G1 X-10.55 Y-38.615
G1 X-10.005 Y-38.9
G1 X-9.913 Y-38.946
G1 X-9.358 Y-39.213
G1 X-9.265 Y-39.256
G1 X-8.7 Y-39.506
G1 X-8.604 Y-39.547
G1 X-8.029 Y-39.779
G1 X-7.933 Y-39.816
G1 X-7.349 Y-40.03
G1 X-7.25 Y-40.064
G1 X-6.657 Y-40.259
G1 X-6.558 Y-40.29
G1 X-5.957 Y-40.466
G1 X-5.855 Y-40.494
G1 X-5.247 Y-40.651
G1 X-5.144 Y-40.676
G1 X-4.528 Y-40.812
G1 X-4.424 Y-40.834
G1 X-3.8 Y-40.951
G1 X-3.695 Y-40.968
G1 X-3.064 Y-41.065
G1 X-2.959 Y-41.079
G1 X-2.321 Y-41.155
G1 X-2.216 Y-41.165
G1 X-1.572 Y-41.22
G1 X-1.465 Y-41.227
G1 X-0.816 Y-41.26
G1 X-0.708 Y-41.264
G1 X-0.053 Y-41.275
G1 X0
G1 X5.074
G1 Z-7.366
G1 X590.55
G3 X593.725 Y-38.1 I0 J3.175
G1 Y0
G3 X590.55 Y3.175 I-3.175 J0
G1 X0
G1 X-0.054
G1 X-0.708 Y3.164
G1 X-0.816 Y3.16
G1 X-1.465 Y3.127
G1 X-1.572 Y3.12
G1 X-2.215 Y3.065
G1 X-2.322 Y3.055
G1 X-2.959 Y2.979
G1 X-3.064 Y2.965
G1 X-3.695 Y2.868
G1 X-3.8 Y2.851
G1 X-4.424 Y2.734
G1 X-4.528 Y2.712
G1 X-5.144 Y2.576
G1 X-5.247 Y2.551
G1 X-5.855 Y2.394
G1 X-5.957 Y2.366
G1 X-6.558 Y2.19
G1 X-6.658 Y2.159
G1 X-7.25 Y1.964
G1 X-7.349 Y1.93
G1 X-7.932 Y1.716
G1 X-8.029 Y1.679
G1 X-8.604 Y1.447
G1 X-8.699 Y1.407
G1 X-9.264 Y1.157
G1 X-9.358 Y1.113
G1 X-9.913 Y0.846
G1 X-10.006 Y0.8
G1 X-10.551 Y0.515
G1 X-10.641 Y0.466
G1 X-11.175 Y0.164
G1 X-11.264 Y0.113
G1 X-11.787 Y-0.206
G1 X-11.874 Y-0.26
G1 X-12.386 Y-0.594
G1 X-12.47 Y-0.651
G1 X-12.971 Y-1.002
G1 X-13.053 Y-1.061
G1 X-13.542 Y-1.427
G1 X-13.622 Y-1.489
G1 X-14.099 Y-1.869
G1 X-14.177 Y-1.934
G1 X-14.641 Y-2.329
G1 X-14.717 Y-2.396
G1 X-15.168 Y-2.806
G1 X-15.242 Y-2.875
G1 X-15.68 Y-3.299
G1 X-15.751 Y-3.371
G1 X-16.175 Y-3.808
G1 X-16.244 Y-3.882
G1 X-16.654 Y-4.333
G1 X-16.721 Y-4.409
G1 X-17.116 Y-4.873
G1 X-17.181 Y-4.951
G1 X-17.561 Y-5.427
G1 X-17.623 Y-5.508
G1 X-17.989 Y-5.997
G1 X-18.048 Y-6.079
G1 X-18.399 Y-6.58
G1 X-18.456 Y-6.664
G1 X-18.79 Y-7.177
G1 X-18.844 Y-7.263
G1 X-19.162 Y-7.786
G1 X-19.214 Y-7.875
G1 X-19.516 Y-8.409
G1 X-19.565 Y-8.5
G1 X-19.85 Y-9.045
G1 X-19.896 Y-9.137
G1 X-20.163 Y-9.692
G1 X-20.206 Y-9.785
G1 X-20.456 Y-10.35
G1 X-20.497 Y-10.446
G1 X-20.729 Y-11.021
G1 X-20.766 Y-11.117
G1 X-20.98 Y-11.701
G1 X-21.015 Y-11.8
G1 X-21.209 Y-12.393
G1 X-21.24 Y-12.492
G1 X-21.416 Y-13.093
G1 X-21.444 Y-13.195
G1 X-21.601 Y-13.803
G1 X-21.626 Y-13.906
G1 X-21.762 Y-14.522
G1 X-21.784 Y-14.626
G1 X-21.901 Y-15.25
G1 X-21.918 Y-15.355
G1 X-22.015 Y-15.986
G1 X-22.029 Y-16.091
G1 X-22.105 Y-16.729
G1 X-22.115 Y-16.834
G1 X-22.17 Y-17.478
G1 X-22.177 Y-17.585
G1 X-22.21 Y-18.234
G1 X-22.214 Y-18.342
G1 X-22.225 Y-18.997
G1 Y-19.103
G1 X-22.214 Y-19.758
G1 X-22.21 Y-19.866
G1 X-22.177 Y-20.515
G1 X-22.17 Y-20.622
G1 X-22.115 Y-21.266
G1 X-22.105 Y-21.371
G1 X-22.029 Y-22.009
G1 X-22.015 Y-22.114
G1 X-21.918 Y-22.745
G1 X-21.901 Y-22.85
G1 X-21.784 Y-23.474
G1 X-21.762 Y-23.578
G1 X-21.626 Y-24.194
G1 X-21.601 Y-24.297
G1 X-21.444 Y-24.905
G1 X-21.416 Y-25.007
G1 X-21.24 Y-25.608
G1 X-21.209 Y-25.707
G1 X-21.015 Y-26.3
G1 X-20.98 Y-26.399
G1 X-20.766 Y-26.983
G1 X-20.729 Y-27.079
G1 X-20.497 Y-27.654
G1 X-20.456 Y-27.75
G1 X-20.206 Y-28.315
G1 X-20.163 Y-28.408
G1 X-19.896 Y-28.963
G1 X-19.85 Y-29.055
G1 X-19.565 Y-29.6
G1 X-19.516 Y-29.691
G1 X-19.214 Y-30.226
G1 X-19.163 Y-30.314
G1 X-18.844 Y-30.837
G1 X-18.79 Y-30.923
G1 X-18.456 Y-31.436
G1 X-18.399 Y-31.52
G1 X-18.049 Y-32.021
G1 X-17.989 Y-32.103
G1 X-17.623 Y-32.592
G1 X-17.561 Y-32.673
G1 X-17.181 Y-33.149
G1 X-17.116 Y-33.227
G1 X-16.721 Y-33.691
G1 X-16.654 Y-33.767
G1 X-16.244 Y-34.218
G1 X-16.175 Y-34.292
G1 X-15.751 Y-34.729
G1 X-15.679 Y-34.801
G1 X-15.242 Y-35.225
G1 X-15.168 Y-35.294
G1 X-14.717 Y-35.704
G1 X-14.641 Y-35.771
G1 X-14.177 Y-36.166
G1 X-14.099 Y-36.231
G1 X-13.623 Y-36.611
G1 X-13.542 Y-36.673
G1 X-13.053 Y-37.039
G1 X-12.971 Y-37.099
G1 X-12.47 Y-37.449
G1 X-12.386 Y-37.506
G1 X-11.873 Y-37.84
G1 X-11.787 Y-37.894
G1 X-11.264 Y-38.213
G1 X-11.175 Y-38.264
G1 X-10.641 Y-38.566
G1 X-10.55 Y-38.615
G1 X-10.005 Y-38.9
G1 X-9.913 Y-38.946
G1 X-9.358 Y-39.213
G1 X-9.265 Y-39.256
G1 X-8.7 Y-39.506
G1 X-8.604 Y-39.547
G1 X-8.029 Y-39.779
G1 X-7.933 Y-39.816
G1 X-7.349 Y-40.03
G1 X-7.25 Y-40.064
G1 X-6.657 Y-40.259
G1 X-6.558 Y-40.29
G1 X-5.957 Y-40.466
G1 X-5.855 Y-40.494
G1 X-5.247 Y-40.651
G1 X-5.144 Y-40.676
G1 X-4.528 Y-40.812
G1 X-4.424 Y-40.834
G1 X-3.8 Y-40.951
G1 X-3.695 Y-40.968
G1 X-3.064 Y-41.065
G1 X-2.959 Y-41.079
G1 X-2.321 Y-41.155
G1 X-2.216 Y-41.165
G1 X-1.572 Y-41.22
G1 X-1.465 Y-41.227
G1 X-0.816 Y-41.26
G1 X-0.708 Y-41.264
G1 X-0.053 Y-41.275
G1 X0
G1 X5.074
G0 Z18.796
G0 X-0.053 Y-48.155
G1 Z1.651 F508.
G1 Z-7.366
G1 X-0.708 Y-48.166
G1 X-0.816 Y-48.169
G1 X-1.465 Y-48.202
G1 X-1.572 Y-48.209
G1 X-2.215 Y-48.264
G1 X-2.322 Y-48.275
G1 X-2.959 Y-48.35
G1 X-3.064 Y-48.364
G1 X-3.695 Y-48.461
G1 X-3.8 Y-48.479
G1 X-4.424 Y-48.595
G1 X-4.528 Y-48.617
G1 X-5.144 Y-48.754
G1 X-5.247 Y-48.778
G1 X-5.855 Y-48.935
G1 X-5.957 Y-48.963
G1 X-6.557 Y-49.139
G1 X-6.658 Y-49.17
G1 X-7.25 Y-49.365
G1 X-7.349 Y-49.399
G1 X-7.933 Y-49.613
G1 X-8.029 Y-49.65
G1 X-8.604 Y-49.882
G1 X-8.699 Y-49.923
G1 X-9.264 Y-50.172
G1 X-9.358 Y-50.216
G1 X-9.913 Y-50.483
G1 X-10.006 Y-50.53
G1 X-10.551 Y-50.814
G1 X-10.641 Y-50.863
G1 X-11.175 Y-51.165
G1 X-11.263 Y-51.216
G1 X-11.787 Y-51.535
G1 X-11.874 Y-51.589
G1 X-12.386 Y-51.924
G1 X-12.47 Y-51.98
G1 X-12.971 Y-52.331
G1 X-13.053 Y-52.39
G1 X-13.542 Y-52.756
G1 X-13.623 Y-52.818
G1 X-14.099 Y-53.199
G1 X-14.177 Y-53.263
G1 X-14.641 Y-53.658
G1 X-14.717 Y-53.725
G1 X-15.168 Y-54.135
G1 X-15.242 Y-54.204
G1 X-15.679 Y-54.628
G1 X-15.751 Y-54.7
G1 X-16.175 Y-55.137
G1 X-16.244 Y-55.211
G1 X-16.654 Y-55.662
G1 X-16.721 Y-55.738
G1 X-17.116 Y-56.202
G1 X-17.181 Y-56.28
G1 X-17.561 Y-56.757
G1 X-17.623 Y-56.837
G1 X-17.989 Y-57.325
G1 X-18.049 Y-57.408
G1 X-18.399 Y-57.909
G1 X-18.456 Y-57.993
G1 X-18.79 Y-58.506
G1 X-18.844 Y-58.592
G1 X-19.163 Y-59.116
G1 X-19.214 Y-59.204
G1 X-19.516 Y-59.738
G1 X-19.565 Y-59.829
G1 X-19.85 Y-60.374
G1 X-19.896 Y-60.466
G1 X-20.163 Y-61.021
G1 X-20.206 Y-61.114
G1 X-20.456 Y-61.679
G1 X-20.497 Y-61.776
G1 X-20.729 Y-62.35
G1 X-20.766 Y-62.447
G1 X-20.98 Y-63.03
G1 X-21.015 Y-63.13
G1 X-21.209 Y-63.722
G1 X-21.24 Y-63.821
G1 X-21.416 Y-64.422
G1 X-21.444 Y-64.524
G1 X-21.601 Y-65.133
G1 X-21.626 Y-65.235
G1 X-21.762 Y-65.851
G1 X-21.784 Y-65.955
G1 X-21.901 Y-66.579
G1 X-21.918 Y-66.684
G1 X-22.015 Y-67.315
G1 X-22.029 Y-67.421
G1 X-22.105 Y-68.058
G1 X-22.115 Y-68.163
G1 X-22.17 Y-68.807
G1 X-22.177 Y-68.914
G1 X-22.21 Y-69.564
G1 X-22.214 Y-69.671
G1 X-22.225 Y-70.326
G1 Y-70.433
G1 X-22.214 Y-71.087
G1 X-22.21 Y-71.195
G1 X-22.177 Y-71.844
G1 X-22.17 Y-71.951
G1 X-22.115 Y-72.595
G1 X-22.105 Y-72.7
G1 X-22.029 Y-73.338
G1 X-22.015 Y-73.443
G1 X-21.918 Y-74.074
G1 X-21.901 Y-74.179
G1 X-21.784 Y-74.803
G1 X-21.762 Y-74.907
G1 X-21.626 Y-75.523
G1 X-21.601 Y-75.626
G1 X-21.444 Y-76.234
G1 X-21.416 Y-76.336
G1 X-21.24 Y-76.937
G1 X-21.209 Y-77.037
G1 X-21.014 Y-77.629
G1 X-20.98 Y-77.728
G1 X-20.766 Y-78.312
G1 X-20.729 Y-78.408
G1 X-20.497 Y-78.983
G1 X-20.456 Y-79.079
G1 X-20.206 Y-79.644
G1 X-20.163 Y-79.737
G1 X-19.896 Y-80.293
G1 X-19.85 Y-80.385
G1 X-19.565 Y-80.93
G1 X-19.516 Y-81.02
G1 X-19.214 Y-81.555
G1 X-19.162 Y-81.643
G1 X-18.844 Y-82.167
G1 X-18.79 Y-82.252
G1 X-18.456 Y-82.765
G1 X-18.399 Y-82.849
G1 X-18.049 Y-83.35
G1 X-17.989 Y-83.433
G1 X-17.623 Y-83.922
G1 X-17.561 Y-84.002
G1 X-17.18 Y-84.479
G1 X-17.116 Y-84.556
G1 X-16.721 Y-85.02
G1 X-16.654 Y-85.097
G1 X-16.244 Y-85.548
G1 X-16.175 Y-85.621
G1 X-15.751 Y-86.058
G1 X-15.679 Y-86.13
G1 X-15.242 Y-86.554
G1 X-15.168 Y-86.623
G1 X-14.717 Y-87.033
G1 X-14.642 Y-87.1
G1 X-14.178 Y-87.495
G1 X-14.099 Y-87.56
G1 X-13.623 Y-87.941
G1 X-13.542 Y-88.003
G1 X-13.053 Y-88.368
G1 X-12.971 Y-88.428
G1 X-12.47 Y-88.778
G1 X-12.386 Y-88.835
G1 X-11.874 Y-89.169
G1 X-11.787 Y-89.224
G1 X-11.264 Y-89.542
G1 X-11.175 Y-89.594
G1 X-10.641 Y-89.895
G1 X-10.551 Y-89.944
G1 X-10.006 Y-90.229
G1 X-9.913 Y-90.275
G1 X-9.358 Y-90.543
G1 X-9.264 Y-90.586
G1 X-8.699 Y-90.836
G1 X-8.604 Y-90.876
G1 X-8.03 Y-91.108
G1 X-7.932 Y-91.146
G1 X-7.349 Y-91.359
G1 X-7.25 Y-91.393
G1 X-6.658 Y-91.588
G1 X-6.558 Y-91.62
G1 X-5.957 Y-91.796
G1 X-5.855 Y-91.824
G1 X-5.247 Y-91.98
G1 X-5.144 Y-92.005
G1 X-4.527 Y-92.142
G1 X-4.424 Y-92.163
G1 X-3.8 Y-92.28
G1 X-3.695 Y-92.297
G1 X-3.065 Y-92.394
G1 X-2.959 Y-92.408
G1 X-2.321 Y-92.484
G1 X-2.215 Y-92.495
G1 X-1.572 Y-92.549
G1 X-1.465 Y-92.556
G1 X-0.816 Y-92.589
G1 X-0.709 Y-92.593
G1 X-0.054 Y-92.604
G1 X0
G1 X590.55
G3 X593.725 Y-89.429 I0 J3.175
G1 Y-51.329
G3 X590.55 Y-48.154 I-3.175 J0
G1 X0
G1 X-0.053 Y-48.155
G0 Z18.796

G0 Z18.796
M5
M30
