%
(Made in : Autodesk CAM Post Processor)
(G Code optimized for OpenBuilds OX CNC 1000 x 750 with GRBL V0.9j controller)

(Program Name : 1001)
(3 Operations :)
(1 : 2D Contour2)
(  Tool : Flat End Mill 2 Flutes, Diam = 6.35mm, Len = 25.4mm)
(  Spindle : RPM = 5000, set router dial to 1)
(  Machining time : 8 min 58 sec)
(2 : Drill1)
(  Tool : Flat End Mill 2 Flutes, Diam = 6.35mm, Len = 25.4mm)
(  Spindle : RPM = 5000, set router dial to 1)
(  Machining time : 5 sec)
(3 : Drill2)
(  Tool : Flat End Mill 2 Flutes, Diam = 6.35mm, Len = 25.4mm)
(  Spindle : RPM = 5000, set router dial to 1)
(  Machining time : 9 sec)

G90 G94
G17
G21

(Operation 1 of 3 : 2D Contour2)

G53 G0 Z-10
G54
S5000 M3
G4 P1.0
X-3.4955 Y-1.9342
Z6.096
G1 F508
Z4.191
Z-6.604
X-15.6796 Y-84.346
G3 X-15.875 Y-87.0042 I17.9796 J-2.6582
G1 Y-700.3972
X-50.369 Y-697.3796
Y-81.1121
G3 X-44.1884 Y-81.6343 I3.6351 J6.1861
X-39.6668 Y-73.6828 I-2.5453 J6.7087
G1 X-37.0163 Y-67.6296
G3 X-34.1874 Y-59.0472 I-3.8796 J6.0362
X-41.074 Y-54.4199 I-6.7083 J-2.5455
G1 X-24.0263 Y-15.486
G3 X-16.2639 Y-17.2675 I5.2164 J4.9267
X-11.742 Y-9.3196 I-2.5455 J6.7086
G1 X-7.6964 Y-0.0923
X-3.4955 Y-1.9342
Z-14.224
X-15.6796 Y-84.346
G3 X-15.875 Y-87.0042 I17.9796 J-2.6582
G1 Y-700.3972
X-50.369 Y-697.3796
Y-81.1121
G3 X-44.1884 Y-81.6343 I3.6351 J6.1861
X-39.6668 Y-73.6828 I-2.5453 J6.7087
G1 X-37.0163 Y-67.6296
G3 X-34.1874 Y-59.0472 I-3.8796 J6.0362
X-41.074 Y-54.4199 I-6.7083 J-2.5455
G1 X-24.0263 Y-15.486
G3 X-16.2639 Y-17.2675 I5.2164 J4.9267
X-11.742 Y-9.3196 I-2.5455 J6.7086
G1 X-7.6964 Y-0.0923
X-3.4955 Y-1.9342
Z-19.05
X-15.6796 Y-84.346
G3 X-15.875 Y-87.0042 I17.9796 J-2.6582
G1 Y-95.125
Z-16.51
Y-106.555
Z-19.05
Y-228.4
Z-16.51
Y-239.83
Z-19.05
Y-492.845
Z-16.51
Y-504.275
Z-19.05
Y-700.3972
X-46.559 Y-697.7129
Z-16.51
X-50.369 Y-697.3796
Y-694.574
Z-19.05
Y-667.218
Z-16.51
Y-655.788
Z-19.05
Y-642.687
Z-16.51
Y-631.257
Z-19.05
Y-628.698
Z-16.51
Y-617.268
Z-19.05
Y-606.217
Z-16.51
Y-594.787
Z-19.05
Y-573.201
Z-16.51
Y-559.459
Z-19.05
Y-515.377
Z-16.51
Y-503.947
Z-19.05
Y-498.869
Z-16.51
Y-479.724
Z-19.05
Y-458.864
Z-16.51
Y-447.434
Z-19.05
Y-444.827
Z-16.51
Y-433.397
Z-19.05
Y-421.514
Z-16.51
Y-410.084
Z-19.05
Y-356.913
Z-16.51
Y-337.408
Z-19.05
Y-325.7
Z-16.51
Y-306.128
Z-19.05
Y-297.392
Z-16.51
Y-285.962
Z-19.05
Y-255.179
Z-16.51
Y-243.749
Z-19.05
Y-235.153
Z-16.51
Y-223.723
Z-19.05
Y-182.299
Z-16.51
Y-164
Z-19.05
Y-137.898
Z-16.51
Y-126.468
Z-19.05
Y-126.2
Z-16.51
Y-114.77
Z-19.05
Y-81.9981
Z-16.51
Y-81.1121
G3 X-50.0569 Y-81.2852 I3.6351 J6.1861
G1 Z-19.05
G3 X-44.1884 Y-81.6343 I3.3229 J6.3592
X-39.6668 Y-73.6828 I-2.5453 J6.7087
G1 X-37.0163 Y-67.6296
G3 X-34.1874 Y-59.0472 I-3.8796 J6.0362
X-37.3294 Y-55.3668 I-6.7083 J-2.5455
G1 Z-16.51
G3 X-41.074 Y-54.4199 I-3.5664 J-6.2259
G1 X-38.4372 Y-48.398
Z-19.05
X-29.1882 Y-27.2748
Z-16.51
X-24.0263 Y-15.486
G3 X-21.2748 Y-17.2978 I5.2164 J4.9267
G1 Z-19.05
G3 X-16.2639 Y-17.2675 I2.4649 J6.7385
X-11.742 Y-9.3196 I-2.5455 J6.7086
G1 X-9.2263 Y-3.5817
Z-16.51
X-7.6964 Y-0.0923
X-5.3702 Y-1.1123
Z-19.05
X-3.4955 Y-1.9342
G0 Z6.096

(Operation 2 of 3 : Drill1)

G54
S5000 M3
X-34.792 Y-302.3519
Z6.096
G1 Z-19.05 F508
G0 Z6.096
X-34.559 Y-372.8429
G1 Z-19.05 F508
G0 Z6.096

(Operation 3 of 3 : Drill2)

G54
S5000 M3
X-34.335 Y-452.5809
Z6.096
G1 Z-13.984 F508
G0 Z6.096
X-34.033 Y-526.3929
G1 Z-13.984 F508
G0 Z6.096
X-33.809 Y-605.8009
G1 Z-13.984 F508
G0 Z6.096
X-33.513 Y-693.7319
G1 Z-13.984 F508
G0 Z6.096

G53 Z-10
M5
G4 P1.0
G53 X-10 Y-10
M30
%
