(1001)
(T1  D=6.35 CR=0 - ZMIN=-20.066 - FLAT END MILL)
G0 G40 G90 G17
G21

(2D CONTOUR2)
T1 M6
M3 S5000
G0 X-7.175 Y-10.082
G0 Z6.096
G1 Z4.191 F508.
G1 Z-6.604
G3 X-5.365 Y-12.237 I3.084 J0.753
G1 X7.793 Y-18.006
G3 X10.252 Y-18.044 I1.275 J2.908
G2 X11.325 Y-18.502 I0.308 J-0.765
G2 X11.315 Y-19.141 I-0.765 J-0.308
G2 X10.852 Y-19.581 I-0.756 J0.331
G3 X9.07 Y-21.276 I1.126 J-2.968
G1 X8.219 Y-23.219
G3 X8.155 Y-26.414 I3.824 J-1.675
G3 X10.369 Y-28.718 I3.888 J1.52
G1 X54.345 Y-47.973
G3 X59.844 Y-45.824 I1.675 J3.824
G1 X60.791 Y-43.663
G3 X60.827 Y-41.204 I-2.908 J1.273
G2 X61.285 Y-40.13 I0.765 J0.308
G2 X61.924 Y-40.14 I0.308 J-0.765
G2 X62.364 Y-40.603 I-0.331 J-0.756
G3 X64.059 Y-42.385 I2.968 J1.126
G1 X72.159 Y-45.932
G3 X74.618 Y-45.969 I1.273 J2.908
G2 X75.691 Y-46.426 I0.308 J-0.765
G2 X75.682 Y-47.065 I-0.765 J-0.308
G2 X75.219 Y-47.505 I-0.756 J0.331
G3 X73.437 Y-49.2 I1.126 J-2.968
G1 X72.092 Y-52.271
G3 X73.727 Y-56.452 I2.908 J-1.273
G3 X75.001 Y-56.719 I1.273 J2.908
G1 X700.289
G3 X703.452 Y-53.821 I0 J3.175
G1 X707.025 Y-12.977
G3 X706.203 Y-10.555 I-3.163 J0.277
G3 X703.862 Y-9.525 I-2.341 J-2.145
G1 X87.004
G2 X85.275 Y-9.398 I0 J11.825
G1 X0.464 Y3.141
G3 X-2.908 Y1.275 I-0.464 J-3.141
G1 X-6.998 Y-8.054
G3 X-7.175 Y-10.082 I2.908 J-1.275
G1 Z-14.224
G3 X-5.365 Y-12.237 I3.084 J0.753
G1 X7.793 Y-18.006
G3 X10.252 Y-18.044 I1.275 J2.908
G2 X11.325 Y-18.502 I0.308 J-0.765
G2 X11.315 Y-19.141 I-0.765 J-0.308
G2 X10.852 Y-19.581 I-0.756 J0.331
G3 X9.07 Y-21.276 I1.126 J-2.968
G1 X8.219 Y-23.219
G3 X8.155 Y-26.414 I3.824 J-1.675
G3 X10.369 Y-28.718 I3.888 J1.52
G1 X54.345 Y-47.973
G3 X59.844 Y-45.824 I1.675 J3.824
G1 X60.791 Y-43.663
G3 X60.827 Y-41.204 I-2.908 J1.273
G2 X61.285 Y-40.13 I0.765 J0.308
G2 X61.924 Y-40.14 I0.308 J-0.765
G2 X62.364 Y-40.603 I-0.331 J-0.756
G3 X64.059 Y-42.385 I2.968 J1.126
G1 X72.159 Y-45.932
G3 X74.618 Y-45.969 I1.273 J2.908
G2 X75.691 Y-46.426 I0.308 J-0.765
G2 X75.682 Y-47.065 I-0.765 J-0.308
G2 X75.219 Y-47.505 I-0.756 J0.331
G3 X73.437 Y-49.2 I1.126 J-2.968
G1 X72.092 Y-52.271
G3 X73.727 Y-56.452 I2.908 J-1.273
G3 X75.001 Y-56.719 I1.273 J2.908
G1 X700.289
G3 X703.452 Y-53.821 I0 J3.175
G1 X707.025 Y-12.977
G3 X706.203 Y-10.555 I-3.163 J0.277
G3 X703.862 Y-9.525 I-2.341 J-2.145
G1 X87.004
G2 X85.275 Y-9.398 I0 J11.825
G1 X0.464 Y3.141
G3 X-2.908 Y1.275 I-0.464 J-3.141
G1 X-6.998 Y-8.054
G3 X-7.175 Y-10.082 I2.908 J-1.275
G1 Z-17.526
G3 X-5.365 Y-12.237 I3.084 J0.753
G1 X-0.131 Y-14.532
G1 Z-20.066
G1 X7.793 Y-18.006
G3 X10.252 Y-18.044 I1.275 J2.908
G2 X11.325 Y-18.502 I0.308 J-0.765
G2 X11.315 Y-19.141 I-0.765 J-0.308
G2 X10.852 Y-19.581 I-0.756 J0.331
G3 X10.105 Y-19.986 I1.126 J-2.968
G1 Z-17.526
G3 X9.07 Y-21.276 I1.873 J-2.564
G1 X8.219 Y-23.219
G3 X8.155 Y-26.414 I3.824 J-1.675
G3 X10.369 Y-28.718 I3.888 J1.52
G1 X24.728 Y-35.005
G1 Z-20.066
G1 X45.851 Y-44.254
G1 Z-17.526
G1 X54.345 Y-47.973
G3 X59.844 Y-45.824 I1.675 J3.824
G1 X60.791 Y-43.663
G3 X61.011 Y-42.931 I-2.908 J1.273
G1 Z-20.066
G3 X60.827 Y-41.204 I-3.128 J0.542
G2 X61.285 Y-40.13 I0.765 J0.308
G2 X61.924 Y-40.14 I0.308 J-0.765
G2 X62.364 Y-40.603 I-0.331 J-0.756
G3 X64.059 Y-42.385 I2.968 J1.126
G1 X72.159 Y-45.932
G3 X74.618 Y-45.969 I1.273 J2.908
G2 X75.691 Y-46.426 I0.308 J-0.765
G2 X75.682 Y-47.065 I-0.765 J-0.308
G2 X75.219 Y-47.505 I-0.756 J0.331
G3 X73.437 Y-49.2 I1.126 J-2.968
G1 X72.925 Y-50.369
G1 Z-17.526
G1 X72.092 Y-52.271
G3 X73.727 Y-56.452 I2.908 J-1.273
G3 X75.001 Y-56.719 I1.273 J2.908
G1 X80.716
G1 Z-20.066
G1 X114.77
G1 Z-17.526
G1 X126.2
G1 Z-20.066
G1 X126.468
G1 Z-17.526
G1 X137.898
G1 Z-20.066
G1 X164
G1 Z-17.526
G1 X182.299
G1 Z-20.066
G1 X223.723
G1 Z-17.526
G1 X235.153
G1 Z-20.066
G1 X243.749
G1 Z-17.526
G1 X255.179
G1 Z-20.066
G1 X285.962
G1 Z-17.526
G1 X297.392
G1 Z-20.066
G1 X306.128
G1 Z-17.526
G1 X325.7
G1 Z-20.066
G1 X337.408
G1 Z-17.526
G1 X356.913
G1 Z-20.066
G1 X410.084
G1 Z-17.526
G1 X421.514
G1 Z-20.066
G1 X433.397
G1 Z-17.526
G1 X444.827
G1 Z-20.066
G1 X447.434
G1 Z-17.526
G1 X458.864
G1 Z-20.066
G1 X479.724
G1 Z-17.526
G1 X498.869
G1 Z-20.066
G1 X503.947
G1 Z-17.526
G1 X515.377
G1 Z-20.066
G1 X559.459
G1 Z-17.526
G1 X573.201
G1 Z-20.066
G1 X594.787
G1 Z-17.526
G1 X606.217
G1 Z-20.066
G1 X617.268
G1 Z-17.526
G1 X628.698
G1 Z-20.066
G1 X631.257
G1 Z-17.526
G1 X642.687
G1 Z-20.066
G1 X655.788
G1 Z-17.526
G1 X667.218
G1 Z-20.066
G1 X694.574
G1 Z-17.526
G1 X700.289
G3 X703.452 Y-53.821 I0 J3.175
G1 X703.754 Y-50.369
G1 Z-20.066
G1 X707.025 Y-12.977
G3 X706.203 Y-10.555 I-3.163 J0.277
G3 X703.862 Y-9.525 I-2.341 J-2.145
G1 X504.275
G1 Z-17.526
G1 X492.845
G1 Z-20.066
G1 X239.83
G1 Z-17.526
G1 X228.4
G1 Z-20.066
G1 X106.555
G1 Z-17.526
G1 X95.125
G1 Z-20.066
G1 X87.004
G2 X85.275 Y-9.398 I0 J11.825
G1 X0.464 Y3.141
G3 X-2.908 Y1.275 I-0.464 J-3.141
G1 X-5.723 Y-5.147
G1 Z-17.526
G1 X-6.998 Y-8.054
G3 X-7.175 Y-10.082 I2.908 J-1.275
G0 Z6.096

(DRILL1)
G0 X302.352 Y-34.792
G0 Z6.096
G1 Z-19.05 F508.
G0 Z6.096
G0 X372.843 Y-34.559
G1 Z-19.05 F508.
G0 Z6.096

(DRILL2)
G0 X452.581 Y-34.335
G0 Z6.096
G1 Z-13.984 F508.
G0 Z6.096
G0 X526.393 Y-34.033
G1 Z-13.984 F508.
G0 Z6.096
G0 X605.801 Y-33.809
G1 Z-13.984 F508.
G0 Z6.096
G0 X693.732 Y-33.513
G1 Z-13.984 F508.
G0 Z6.096

G0 Z6.096
M5
M30
