%
(Made in : Autodesk CAM Post Processor)
(G Code optimized for OpenBuilds OX CNC 1000 x 750 with GRBL V0.9j controller)

(Program Name : 1001)
(3 Operations :)
(1 : 2D Contour2)
(  Tool : Flat End Mill 2 Flutes, Diam = 6.35mm, Len = 25.4mm)
(  Spindle : RPM = 5000, set router dial to 1)
(  Machining time : 9 min 17 sec)
(2 : Drill1)
(  Tool : Flat End Mill 2 Flutes, Diam = 6.35mm, Len = 25.4mm)
(  Spindle : RPM = 5000, set router dial to 1)
(  Machining time : 5 sec)
(3 : Drill2)
(  Tool : Flat End Mill 2 Flutes, Diam = 6.35mm, Len = 25.4mm)
(  Spindle : RPM = 5000, set router dial to 1)
(  Machining time : 9 sec)

G90 G94
G17
G21

(Operation 1 of 3 : 2D Contour2)

G53 G0 Z-10
G54
S5000 M3
G4 P1.0
X-7.1748 Y-10.0822
Z6.096
G1 F508
Z4.191
Z-6.604
G3 X-5.3652 Y-12.2371 I3.0844 J0.7529
G1 X7.7926 Y-18.006
G3 X10.2516 Y-18.0441 I1.2749 J2.9078
G2 X10.852 Y-19.581 I0.3077 J-0.7655
G3 X9.0701 Y-21.2759 I1.1265 J-2.9684
G1 X8.2193 Y-23.2189
G3 X10.3693 Y-28.7179 I3.8245 J-1.6746
G1 X54.3454 Y-47.9734
G3 X59.8444 Y-45.8236 I1.6746 J3.8244
G1 X60.7905 Y-43.6629
G3 X60.8274 Y-41.2038 I-2.9084 J1.2735
G2 X62.3641 Y-40.603 I0.7653 J0.3081
G3 X64.0591 Y-42.385 I2.9685 J1.1264
G1 X72.1589 Y-45.9316
G3 X74.6179 Y-45.9686 I1.2735 J2.9084
G2 X75.2187 Y-47.5052 I0.3081 J-0.7653
G3 X73.4367 Y-49.2003 I1.1264 J-2.9685
G1 X72.0924 Y-52.2706
G3 X75.0008 Y-56.719 I2.9084 J-1.2734
G1 X700.289
G3 X703.4519 Y-53.8207 J3.175
G1 X707.0249 Y-12.9767
G3 X703.862 Y-9.525 I-3.1629 J0.2767
G1 X87.0042
G2 X85.2748 Y-9.3978 J11.825
G1 X0.4644 Y3.1409
G3 X-2.9078 Y1.2749 I-0.4644 J-3.1409
G1 X-6.9981 Y-8.0544
G3 X-7.1748 Y-10.0822 I2.9078 J-1.2749
G1 Z-14.224
G3 X-5.3652 Y-12.2371 I3.0844 J0.7529
G1 X7.7926 Y-18.006
G3 X10.2516 Y-18.0441 I1.2749 J2.9078
G2 X10.852 Y-19.581 I0.3077 J-0.7655
G3 X9.0701 Y-21.2759 I1.1265 J-2.9684
G1 X8.2193 Y-23.2189
G3 X10.3693 Y-28.7179 I3.8245 J-1.6746
G1 X54.3454 Y-47.9734
G3 X59.8444 Y-45.8236 I1.6746 J3.8244
G1 X60.7905 Y-43.6629
G3 X60.8274 Y-41.2038 I-2.9084 J1.2735
G2 X62.3641 Y-40.603 I0.7653 J0.3081
G3 X64.0591 Y-42.385 I2.9685 J1.1264
G1 X72.1589 Y-45.9316
G3 X74.6179 Y-45.9686 I1.2735 J2.9084
G2 X75.2187 Y-47.5052 I0.3081 J-0.7653
G3 X73.4367 Y-49.2003 I1.1264 J-2.9685
G1 X72.0924 Y-52.2706
G3 X75.0008 Y-56.719 I2.9084 J-1.2734
G1 X700.289
G3 X703.4519 Y-53.8207 J3.175
G1 X707.0249 Y-12.9767
G3 X703.862 Y-9.525 I-3.1629 J0.2767
G1 X87.0042
G2 X85.2748 Y-9.3978 J11.825
G1 X0.4644 Y3.1409
G3 X-2.9078 Y1.2749 I-0.4644 J-3.1409
G1 X-6.9981 Y-8.0544
G3 X-7.1748 Y-10.0822 I2.9078 J-1.2749
G1 Z-17.526
G3 X-5.3652 Y-12.2371 I3.0844 J0.7529
G1 X-0.1312 Y-14.5319
Z-20.066
X7.7926 Y-18.006
G3 X10.2516 Y-18.0441 I1.2749 J2.9078
G2 X10.852 Y-19.581 I0.3077 J-0.7655
G3 X10.1053 Y-19.9858 I1.1265 J-2.9684
G1 Z-17.526
G3 X9.0701 Y-21.2759 I1.8732 J-2.5636
G1 X8.2193 Y-23.2189
G3 X10.3693 Y-28.7179 I3.8245 J-1.6746
G1 X24.7278 Y-35.005
Z-20.066
X45.851 Y-44.254
Z-17.526
X54.3454 Y-47.9734
G3 X59.8444 Y-45.8236 I1.6746 J3.8244
G1 X60.7905 Y-43.6629
G3 X61.0105 Y-42.9313 I-2.9084 J1.2735
G1 Z-20.066
G3 X60.8274 Y-41.2038 I-3.1284 J0.5419
G2 X62.3641 Y-40.603 I0.7653 J0.3081
G3 X64.0591 Y-42.385 I2.9685 J1.1264
G1 X72.1589 Y-45.9316
G3 X74.6179 Y-45.9686 I1.2735 J2.9084
G2 X75.2187 Y-47.5052 I0.3081 J-0.7653
G3 X73.4367 Y-49.2003 I1.1264 J-2.9685
G1 X72.9249 Y-50.369
Z-17.526
X72.0924 Y-52.2706
G3 X75.0008 Y-56.719 I2.9084 J-1.2734
G1 X80.7158
Z-20.066
X114.77
Z-17.526
X126.2
Z-20.066
X126.468
Z-17.526
X137.898
Z-20.066
X164
Z-17.526
X182.299
Z-20.066
X223.723
Z-17.526
X235.153
Z-20.066
X243.749
Z-17.526
X255.179
Z-20.066
X285.962
Z-17.526
X297.392
Z-20.066
X306.128
Z-17.526
X325.7
Z-20.066
X337.408
Z-17.526
X356.913
Z-20.066
X410.084
Z-17.526
X421.514
Z-20.066
X433.397
Z-17.526
X444.827
Z-20.066
X447.434
Z-17.526
X458.864
Z-20.066
X479.724
Z-17.526
X498.869
Z-20.066
X503.947
Z-17.526
X515.377
Z-20.066
X559.459
Z-17.526
X573.201
Z-20.066
X594.787
Z-17.526
X606.217
Z-20.066
X617.268
Z-17.526
X628.698
Z-20.066
X631.257
Z-17.526
X642.687
Z-20.066
X655.788
Z-17.526
X667.218
Z-20.066
X694.574
Z-17.526
X700.289
G3 X703.4519 Y-53.8207 J3.175
G1 X703.7538 Y-50.369
Z-20.066
X707.0249 Y-12.9767
G3 X703.862 Y-9.525 I-3.1629 J0.2767
G1 X504.275
Z-17.526
X492.845
Z-20.066
X239.83
Z-17.526
X228.4
Z-20.066
X106.555
Z-17.526
X95.125
Z-20.066
X87.0042
G2 X85.2748 Y-9.3978 J11.825
G1 X0.4644 Y3.1409
G3 X-2.9078 Y1.2749 I-0.4644 J-3.1409
G1 X-5.7232 Y-5.1466
Z-17.526
X-6.9981 Y-8.0544
G3 X-7.1748 Y-10.0822 I2.9078 J-1.2749
G0 Z6.096

(Operation 2 of 3 : Drill1)

G54
S5000 M3
X302.3519 Y-34.792
Z6.096
G1 Z-19.05 F508
G0 Z6.096
X372.8429 Y-34.559
G1 Z-19.05 F508
G0 Z6.096

(Operation 3 of 3 : Drill2)

G54
S5000 M3
X452.5809 Y-34.335
Z6.096
G1 Z-13.984 F508
G0 Z6.096
X526.3929 Y-34.033
G1 Z-13.984 F508
G0 Z6.096
X605.8009 Y-33.809
G1 Z-13.984 F508
G0 Z6.096
X693.7319 Y-33.513
G1 Z-13.984 F508
G0 Z6.096

G53 Z-10
M5
G4 P1.0
G53 X-10 Y-10
M30
%
