%
(Made in : Autodesk CAM Post Processor)
(G Code optimized for OpenBuilds OX CNC 1000 x 750 with GRBL V0.9j controller)

(Program Name : 1001)
(3 Operations :)
(1 : 2D Contour2)
(  Tool : Flat End Mill 2 Flutes, Diam = 6.35mm, Len = 25.4mm)
(  Spindle : RPM = 5000, set router dial to 1)
(  Machining time : 9 min 16 sec)
(2 : Drill1)
(  Tool : Flat End Mill 2 Flutes, Diam = 6.35mm, Len = 25.4mm)
(  Spindle : RPM = 5000, set router dial to 1)
(  Machining time : 5 sec)
(3 : Drill2)
(  Tool : Flat End Mill 2 Flutes, Diam = 6.35mm, Len = 25.4mm)
(  Spindle : RPM = 5000, set router dial to 1)
(  Machining time : 9 sec)

G90 G94
G17
G21

(Operation 1 of 3 : 2D Contour2)

G53 G0 Z-10
G54
S5000 M3
G4 P1.0
X2.1443 Y2.3415
Z6.096
G1 F508
Z4.191
Z-6.604
G3 X-0.2767 Y3.1629 I-2.1443 J-2.3415
G1 X-41.1207 Y-0.4105
G3 X-44.019 Y-3.5734 I0.2767 J-3.1629
G1 Y-628.862
G3 X-39.57 Y-631.7702 I3.175
G1 X-36.4997 Y-630.4252
G3 X-34.8052 Y-628.6434 I-1.274 J2.9081
G2 X-33.2684 Y-629.2442 I0.7714 J-0.2927
G3 X-33.2316 Y-631.7034 I2.9452 J-1.1858
G1 X-29.685 Y-639.8035
G3 X-27.903 Y-641.4985 I2.9084 J1.2734
G2 X-28.5036 Y-643.0347 I-0.2926 J-0.7712
G3 X-30.9628 Y-643.0715 I-1.1858 J-2.9453
G1 X-33.1235 Y-644.0175
G3 X-35.2735 Y-649.5163 I1.6745 J-3.8245
G1 X-16.018 Y-693.4933
G3 X-10.5189 Y-695.6434 I3.8245 J1.6743
G1 X-8.5756 Y-694.7923
G3 X-6.8809 Y-693.0104 I-1.2738 J2.9083
G2 X-5.3441 Y-693.6107 I0.7713 J-0.2927
G3 X-5.306 Y-696.0699 I2.9459 J-1.1843
G1 X0.4629 Y-709.2279
G3 X4.6457 Y-710.8607 I2.9078 J1.2749
G1 X13.9751 Y-706.7697
G3 X15.8409 Y-703.3976 I-1.2751 J2.9077
G1 X3.3022 Y-618.5876
G2 X3.175 Y-616.858 I11.6979 J1.7292
G1 Y0
G3 X2.1443 Y2.3415 I-3.175
G1 Z-14.224
G3 X-0.2767 Y3.1629 I-2.1443 J-2.3415
G1 X-41.1207 Y-0.4105
G3 X-44.019 Y-3.5734 I0.2767 J-3.1629
G1 Y-628.862
G3 X-39.57 Y-631.7702 I3.175
G1 X-36.4997 Y-630.4252
G3 X-34.8052 Y-628.6434 I-1.274 J2.9081
G2 X-33.2684 Y-629.2442 I0.7714 J-0.2927
G3 X-33.2316 Y-631.7034 I2.9452 J-1.1858
G1 X-29.685 Y-639.8035
G3 X-27.903 Y-641.4985 I2.9084 J1.2734
G2 X-28.5036 Y-643.0347 I-0.2926 J-0.7712
G3 X-30.9628 Y-643.0715 I-1.1858 J-2.9453
G1 X-33.1235 Y-644.0175
G3 X-35.2735 Y-649.5163 I1.6745 J-3.8245
G1 X-16.018 Y-693.4933
G3 X-10.5189 Y-695.6434 I3.8245 J1.6743
G1 X-8.5756 Y-694.7923
G3 X-6.8809 Y-693.0104 I-1.2738 J2.9083
G2 X-5.3441 Y-693.6107 I0.7713 J-0.2927
G3 X-5.306 Y-696.0699 I2.9459 J-1.1843
G1 X0.4629 Y-709.2279
G3 X4.6457 Y-710.8607 I2.9078 J1.2749
G1 X13.9751 Y-706.7697
G3 X15.8409 Y-703.3976 I-1.2751 J2.9077
G1 X3.3022 Y-618.5876
G2 X3.175 Y-616.858 I11.6979 J1.7292
G1 Y0
G3 X2.1443 Y2.3415 I-3.175
G1 Z-16.51
G3 X-0.2767 Y3.1629 I-2.1443 J-2.3415
G1 X-5.97 Y2.6648
Z-19.05
X-31.0091 Y0.4742
Z-16.51
X-41.1207 Y-0.4105
G3 X-42.3721 Y-0.7903 I0.2767 J-3.1629
G1 Z-19.05
G3 X-44.019 Y-3.5734 I1.5281 J-2.7831
G1 Y-154.855
Z-16.51
Y-166.285
Z-19.05
Y-475.822
Z-16.51
Y-487.252
Z-19.05
Y-628.862
G3 X-39.57 Y-631.7702 I3.175
G1 X-36.4997 Y-630.4252
G3 X-34.8052 Y-628.6434 I-1.274 J2.9081
G2 X-33.2684 Y-629.2442 I0.7714 J-0.2927
G3 X-33.2316 Y-631.7034 I2.9452 J-1.1858
G1 X-29.685 Y-639.8035
G3 X-27.903 Y-641.4985 I2.9084 J1.2734
G2 X-28.5036 Y-643.0347 I-0.2926 J-0.7712
G3 X-30.9628 Y-643.0715 I-1.1858 J-2.9453
G1 X-33.1235 Y-644.0175
G3 X-35.2735 Y-649.5163 I1.6745 J-3.8245
G1 X-16.018 Y-693.4933
G3 X-10.5189 Y-695.6434 I3.8245 J1.6743
G1 X-8.5756 Y-694.7923
G3 X-6.8809 Y-693.0104 I-1.2738 J2.9083
G2 X-5.3441 Y-693.6107 I0.7713 J-0.2927
G3 X-5.306 Y-696.0699 I2.9459 J-1.1843
G1 X0.4629 Y-709.2279
G3 X4.6457 Y-710.8607 I2.9078 J1.2749
G1 X10.1672 Y-708.4395
Z-16.51
X13.9751 Y-706.7697
G3 X15.8409 Y-703.3976 I-1.2751 J2.9077
G1 X15.005 Y-697.7441
Z-19.05
X14.2074 Y-692.3492
Z-16.51
X12.5357 Y-681.0421
Z-19.05
X11.8253 Y-676.2372
Z-16.51
X10.1536 Y-664.9301
Z-19.05
X9.588 Y-661.1042
Z-16.51
X7.3481 Y-645.9541
Z-19.05
X3.3022 Y-618.5876
G2 X3.175 Y-616.858 I11.6979 J1.7292
G1 Y-599.277
Z-16.51
Y-587.847
Z-19.05
Y-543.765
Z-16.51
Y-508.111
Z-19.05
Y-473.215
Z-16.51
Y-461.785
Z-19.05
Y-449.902
Z-16.51
Y-438.472
Z-19.05
Y-385.301
Z-16.51
Y-365.796
Z-19.05
Y-354.088
Z-16.51
Y-334.516
Z-19.05
Y-325.78
Z-16.51
Y-314.35
Z-19.05
Y-283.567
Z-16.51
Y-272.137
Z-19.05
Y-268.218
Z-16.51
Y-252.111
Z-19.05
Y-210.687
Z-16.51
Y-192.388
Z-19.05
Y-154.588
Z-16.51
Y-143.158
Z-19.05
Y-134.942
Z-16.51
Y-123.512
Z-19.05
Y-104.5131
Z-16.51
Y-93.0831
Z-19.05
Y-87.589
Z-16.51
Y-61.1591
Z-19.05
Y-47.692
Z-16.51
Y-36.262
Z-19.05
Y-14.5787
Z-16.51
Y-3.1486
Z-19.05
Y-2.9094
Z-16.51
Y0
G3 X2.1443 Y2.3415 I-3.175
G0 Z6.096

(Operation 2 of 3 : Drill1)

G54
S5000 M3
X-21.859 Y-331.0194
Z6.096
G1 Z-19.05 F508
G0 Z6.096
X-22.092 Y-401.5104
G1 Z-19.05 F508
G0 Z6.096

(Operation 3 of 3 : Drill2)

G54
S5000 M3
X-20.813 Y-10.1304
Z6.096
G1 Z-13.984 F508
G0 Z6.096
X-21.109 Y-98.0614
G1 Z-13.984 F508
G0 Z6.096
X-21.333 Y-177.4694
G1 Z-13.984 F508
G0 Z6.096
X-21.635 Y-251.2814
G1 Z-13.984 F508
G0 Z6.096

G53 Z-10
M5
G4 P1.0
G53 X-10 Y-10
M30
%
