(1001)
(T1  D=6.35 CR=0 - ZMIN=-20.066 - FLAT END MILL)
G0 G40 G90 G17
G21

(2D CONTOUR2)
T1 M6
M3 S5000
G0 X-32.457 Y-402.238
G0 Z6.096
G1 Z4.191 F508.
G1 Z-6.604
G3 X-29.611 Y-404.356 I2.995 J1.053
G1 X394.956 Y-424.448
G3 X398.277 Y-421.427 I0.15 J3.171
G1 X400.845 Y-367.171
G3 X399.945 Y-364.802 I-3.171 J0.15
G2 X399.959 Y-363.636 I0.59 J0.576
G2 X400.553 Y-363.401 I0.576 J-0.59
G2 X401.137 Y-363.661 I-0.018 J-0.825
G3 X403.303 Y-364.66 I2.315 J2.172
G1 X405.766 Y-364.776
G3 X410.133 Y-360.805 I0.198 J4.17
G1 X412.875 Y-302.881
G3 X411.794 Y-299.873 I-4.17 J0.199
G3 X408.901 Y-298.512 I-3.089 J-2.809
G1 X406.707 Y-298.408
G3 X404.34 Y-299.309 I-0.149 J-3.172
G2 X403.173 Y-299.295 I-0.577 J0.59
G2 X402.938 Y-298.7 I0.59 J0.577
G2 X403.198 Y-298.116 I0.825 J-0.018
G3 X404.197 Y-295.951 I-2.172 J2.315
G1 X407.245 Y-231.581
G1 X413.634 Y-167.455
G3 X412.962 Y-165.166 I-3.159 J0.315
G2 X413.096 Y-164.008 I0.646 J0.513
G2 X413.711 Y-163.835 I0.513 J-0.646
G2 X414.265 Y-164.154 I-0.103 J-0.818
G3 X416.476 Y-165.39 I2.526 J1.923
G1 X418.662 Y-165.608
G3 X421.721 Y-164.684 I0.414 J4.154
G3 X423.23 Y-161.868 I-2.645 J3.23
G1 X428.98 Y-104.165
G3 X428.056 Y-101.106 I-4.154 J0.414
G3 X425.24 Y-99.597 I-3.23 J-2.645
G1 X422.785 Y-99.352
G3 X420.497 Y-100.023 I-0.315 J-3.159
G2 X419.338 Y-99.89 I-0.512 J0.646
G2 X419.166 Y-99.274 I0.646 J0.512
G2 X419.485 Y-98.721 I0.818 J-0.103
G3 X420.721 Y-96.509 I-1.923 J2.526
G1 X426.107 Y-42.46
G3 X425.405 Y-40.133 I-3.159 J0.315
G3 X423.263 Y-38.985 I-2.457 J-2.011
G1 X0.315 Y3.159
G3 X-2.041 Y2.432 I-0.315 J-3.159
G3 X-3.166 Y0.239 I2.041 J-2.432
G1 X-5.725 Y-33.653
G3 X-2.97 Y-37.04 I3.166 J-0.239
G1 X352.429 Y-83.436
G2 X367.035 Y-101.431 I-2.179 J-16.694
G1 Y-101.443
G1 X348.456 Y-354.446
G1 X348.455 Y-354.459
G2 X331.375 Y-370.127 I-16.796 J1.165
G1 X-26.989 Y-364.107
G3 X-30.209 Y-367.056 I-0.053 J-3.175
G1 X-32.628 Y-400.959
G3 X-32.457 Y-402.238 I3.167 J-0.226
G0 Z6.096
G0 X-40.813 Y-342.829
G1 Z4.191 F508.
G1 Z-6.604
G3 X-32.043 Y-346.335 I9.738 J11.638
G1 X169.229 Y-359.21
G1 X169.439 Y-359.216
G1 X294.782 Y-358.959
G3 X337.347 Y-319.323 I-0.088 J42.769
G1 X348.788 Y-163.535
G1 X348.789 Y-163.533
G3 X347.418 Y-159.633 I-5.161 J0.377
G3 X343.627 Y-157.981 I-3.79 J-3.523
G1 X-47.105
G3 X-58.364 Y-162.981 I0 J-15.175
G3 X-62.203 Y-174.687 I11.259 J-10.175
G1 X-46.172 Y-332.721
G3 X-40.813 Y-342.829 I15.098 J1.531
G1 Z-14.224
G3 X-32.043 Y-346.335 I9.738 J11.638
G1 X169.229 Y-359.21
G1 X169.439 Y-359.216
G1 X294.782 Y-358.959
G3 X337.347 Y-319.323 I-0.088 J42.769
G1 X348.788 Y-163.535
G1 X348.789 Y-163.533
G3 X347.418 Y-159.633 I-5.161 J0.377
G3 X343.627 Y-157.981 I-3.79 J-3.523
G1 X-47.105
G3 X-58.364 Y-162.981 I0 J-15.175
G3 X-62.203 Y-174.687 I11.259 J-10.175
G1 X-46.172 Y-332.721
G3 X-40.813 Y-342.829 I15.098 J1.531
G1 Z-20.066
G3 X-32.043 Y-346.335 I9.738 J11.638
G1 X12.95 Y-349.213
G1 Z-17.526
G1 X24.356 Y-349.942
G1 Z-20.066
G1 X169.229 Y-359.21
G1 X169.439 Y-359.216
G1 X258.337 Y-359.034
G1 Z-17.526
G1 X269.766 Y-359.01
G1 Z-20.066
G1 X294.782 Y-358.959
G3 X337.347 Y-319.323 I-0.088 J42.769
G1 X338.59 Y-302.401
G1 Z-17.526
G1 X339.427 Y-291.002
G1 Z-20.066
G1 X348.788 Y-163.535
G1 X348.789 Y-163.533
G3 X347.418 Y-159.633 I-5.161 J0.377
G3 X343.627 Y-157.981 I-3.79 J-3.524
G1 X305.088
G1 Z-17.526
G1 X293.658
G1 Z-20.066
G1 X47.708
G1 Z-17.526
G1 X36.278
G1 Z-20.066
G1 X-47.105
G3 X-58.861 Y-163.56 I0 J-15.175
G1 Z-17.526
G3 X-62.203 Y-174.687 I11.755 J-9.596
G1 X-60.851 Y-188.012
G1 Z-20.066
G1 X-57.785 Y-218.236
G1 Z-17.526
G1 X-56.632 Y-229.607
G1 Z-20.066
G1 X-55.564 Y-240.13
G1 Z-17.526
G1 X-54.248 Y-253.112
G1 Z-20.066
G1 X-52.962 Y-265.789
G1 Z-17.526
G1 X-51.808 Y-277.16
G1 Z-20.066
G1 X-48.28 Y-311.94
G1 Z-17.526
G1 X-47.127 Y-323.311
G1 Z-20.066
G1 X-46.719 Y-327.328
G1 Z-17.526
G1 X-46.172 Y-332.721
G3 X-42.931 Y-340.661 I15.098 J1.531
G1 Z-20.066
G3 X-40.813 Y-342.829 I11.857 J9.471
G0 Z6.096
G0 X-43.102 Y-138.718
G1 Z4.191 F508.
G1 Z-6.604
G3 X-42.269 Y-138.808 I0.755 J3.084
G1 X11.324 Y-137.499
G3 X13.619 Y-136.435 I-0.078 J3.174
G2 X14.784 Y-136.367 I0.616 J-0.548
G2 X15.059 Y-136.943 I-0.548 J-0.616
G2 X14.841 Y-137.544 I-0.824 J-0.04
G3 X13.996 Y-139.779 I2.329 J-2.157
G1 X14.057 Y-142.259
G1 Y-142.26
G3 X18.332 Y-146.33 I4.174 J0.104
G1 X34.328 Y-145.939
G3 X38.399 Y-141.664 I-0.102 J4.174
G1 X38.345 Y-139.454
G3 X37.281 Y-137.16 I-3.174 J-0.078
G2 X37.213 Y-135.995 I0.548 J0.616
G2 X37.79 Y-135.719 I0.616 J-0.548
G2 X38.39 Y-135.938 I0.04 J-0.824
G3 X40.625 Y-136.783 I2.158 J2.329
G1 X128.022 Y-134.647
G1 X215.418 Y-136.783
G3 X217.653 Y-135.939 I0.078 J3.174
G2 X218.819 Y-135.983 I0.56 J-0.605
G2 X219.037 Y-136.584 I-0.605 J-0.56
G2 X218.762 Y-137.16 I-0.824 J0.04
G3 X217.698 Y-139.454 I2.11 J-2.372
G1 X217.644 Y-141.663
G1 Y-141.665
G3 X221.714 Y-145.939 I4.174 J-0.1
G1 X221.715
G1 X237.71 Y-146.33
G3 X241.987 Y-142.26 I0.103 J4.174
G1 Y-142.258
G1 X242.047 Y-139.778
G3 X241.203 Y-137.544 I-3.174 J0.077
G2 X241.247 Y-136.378 I0.605 J0.561
G2 X241.848 Y-136.159 I0.561 J-0.605
G2 X242.424 Y-136.435 I-0.04 J-0.824
G3 X244.719 Y-137.499 I2.373 J2.11
G1 X298.312 Y-138.808
G3 X301.564 Y-135.712 I0.078 J3.174
G1 X302.272 Y-106.74
G3 X301.098 Y-103.732 I-4.173 J0.104
G3 X298.129 Y-102.461 I-2.999 J-2.904
G1 X298.128
G1 X295.963 Y-102.446
G3 X293.704 Y-103.368 I-0.022 J-3.175
G2 X292.538 Y-103.363 I-0.581 J0.585
G2 X292.299 Y-102.756 I0.585 J0.581
G2 X292.575 Y-102.166 I0.825 J-0.026
G3 X293.639 Y-99.871 I-2.11 J2.373
G1 X293.986 Y-85.665
G3 X293.084 Y-83.37 I-3.174 J0.078
G3 X290.812 Y-82.413 I-2.272 J-2.217
G1 X-34.769
G3 X-37.041 Y-83.37 I0 J-3.175
G3 X-37.943 Y-85.665 I2.272 J-2.217
G1 X-37.596 Y-99.871
G3 X-36.532 Y-102.165 I3.174 J0.078
G2 X-36.464 Y-103.33 I-0.548 J-0.616
G2 X-37.054 Y-103.606 I-0.616 J0.548
G2 X-37.661 Y-103.367 I-0.026 J0.825
G3 X-39.92 Y-102.446 I-2.237 J-2.254
G1 X-42.084 Y-102.461
G3 X-45.054 Y-103.731 I0.029 J-4.175
G3 X-46.229 Y-106.739 I2.999 J-2.905
G1 X-45.521 Y-135.712
G3 X-43.102 Y-138.718 I3.174 J0.078
G1 Z-14.224
G3 X-42.269 Y-138.808 I0.755 J3.084
G1 X11.324 Y-137.499
G3 X13.619 Y-136.435 I-0.078 J3.174
G2 X14.784 Y-136.367 I0.616 J-0.548
G2 X15.059 Y-136.943 I-0.548 J-0.616
G2 X14.841 Y-137.544 I-0.824 J-0.04
G3 X13.996 Y-139.779 I2.329 J-2.157
G1 X14.057 Y-142.259
G1 Y-142.26
G3 X18.332 Y-146.33 I4.174 J0.104
G1 X34.328 Y-145.939
G3 X38.399 Y-141.664 I-0.102 J4.174
G1 X38.345 Y-139.454
G3 X37.281 Y-137.16 I-3.174 J-0.078
G2 X37.213 Y-135.995 I0.548 J0.616
G2 X37.79 Y-135.719 I0.616 J-0.548
G2 X38.39 Y-135.938 I0.04 J-0.824
G3 X40.625 Y-136.783 I2.158 J2.329
G1 X128.022 Y-134.647
G1 X215.418 Y-136.783
G3 X217.653 Y-135.939 I0.078 J3.174
G2 X218.819 Y-135.983 I0.56 J-0.605
G2 X219.037 Y-136.584 I-0.605 J-0.56
G2 X218.762 Y-137.16 I-0.824 J0.04
G3 X217.698 Y-139.454 I2.11 J-2.372
G1 X217.644 Y-141.663
G1 Y-141.665
G3 X221.714 Y-145.939 I4.174 J-0.1
G1 X221.715
G1 X237.71 Y-146.33
G3 X241.987 Y-142.26 I0.103 J4.174
G1 Y-142.258
G1 X242.047 Y-139.778
G3 X241.203 Y-137.544 I-3.174 J0.077
G2 X241.247 Y-136.378 I0.605 J0.561
G2 X241.848 Y-136.159 I0.561 J-0.605
G2 X242.424 Y-136.435 I-0.04 J-0.824
G3 X244.719 Y-137.499 I2.373 J2.11
G1 X298.312 Y-138.808
G3 X301.564 Y-135.712 I0.078 J3.174
G1 X302.272 Y-106.74
G3 X301.098 Y-103.732 I-4.173 J0.104
G3 X298.129 Y-102.461 I-2.999 J-2.904
G1 X298.128
G1 X295.963 Y-102.446
G3 X293.704 Y-103.368 I-0.022 J-3.175
G2 X292.538 Y-103.363 I-0.581 J0.585
G2 X292.299 Y-102.756 I0.585 J0.581
G2 X292.575 Y-102.166 I0.825 J-0.026
G3 X293.639 Y-99.871 I-2.11 J2.373
G1 X293.986 Y-85.665
G3 X293.084 Y-83.37 I-3.174 J0.078
G3 X290.812 Y-82.413 I-2.272 J-2.217
G1 X-34.769
G3 X-37.041 Y-83.37 I0 J-3.175
G3 X-37.943 Y-85.665 I2.272 J-2.217
G1 X-37.596 Y-99.871
G3 X-36.532 Y-102.165 I3.174 J0.078
G2 X-36.464 Y-103.33 I-0.548 J-0.616
G2 X-37.054 Y-103.606 I-0.616 J0.548
G2 X-37.661 Y-103.367 I-0.026 J0.825
G3 X-39.92 Y-102.446 I-2.237 J-2.254
G1 X-42.084 Y-102.461
G3 X-45.054 Y-103.731 I0.029 J-4.175
G3 X-46.229 Y-106.739 I2.999 J-2.905
G1 X-45.521 Y-135.712
G3 X-43.102 Y-138.718 I3.174 J0.078
G0 Z6.096
G0 X-32.457 Y-402.238
G1 Z-3.429 F508.
G1 Z-14.224
G3 X-29.611 Y-404.356 I2.995 J1.053
G1 X394.956 Y-424.448
G3 X398.277 Y-421.427 I0.15 J3.171
G1 X400.845 Y-367.171
G3 X399.945 Y-364.802 I-3.171 J0.15
G2 X399.959 Y-363.636 I0.59 J0.576
G2 X400.553 Y-363.401 I0.576 J-0.59
G2 X401.137 Y-363.661 I-0.018 J-0.825
G3 X403.303 Y-364.66 I2.315 J2.172
G1 X405.766 Y-364.776
G3 X410.133 Y-360.805 I0.198 J4.17
G1 X412.875 Y-302.881
G3 X411.794 Y-299.873 I-4.17 J0.199
G3 X408.901 Y-298.512 I-3.089 J-2.809
G1 X406.707 Y-298.408
G3 X404.34 Y-299.309 I-0.149 J-3.172
G2 X403.173 Y-299.295 I-0.577 J0.59
G2 X402.938 Y-298.7 I0.59 J0.577
G2 X403.198 Y-298.116 I0.825 J-0.018
G3 X404.197 Y-295.951 I-2.172 J2.315
G1 X407.245 Y-231.581
G1 X413.634 Y-167.455
G3 X412.962 Y-165.166 I-3.159 J0.315
G2 X413.096 Y-164.008 I0.646 J0.513
G2 X413.711 Y-163.835 I0.513 J-0.646
G2 X414.265 Y-164.154 I-0.103 J-0.818
G3 X416.476 Y-165.39 I2.526 J1.923
G1 X418.662 Y-165.608
G3 X421.721 Y-164.684 I0.414 J4.154
G3 X423.23 Y-161.868 I-2.645 J3.23
G1 X428.98 Y-104.165
G3 X428.056 Y-101.106 I-4.154 J0.414
G3 X425.24 Y-99.597 I-3.23 J-2.645
G1 X422.785 Y-99.352
G3 X420.497 Y-100.023 I-0.315 J-3.159
G2 X419.338 Y-99.89 I-0.512 J0.646
G2 X419.166 Y-99.274 I0.646 J0.512
G2 X419.485 Y-98.721 I0.818 J-0.103
G3 X420.721 Y-96.509 I-1.923 J2.526
G1 X426.107 Y-42.46
G3 X425.405 Y-40.133 I-3.159 J0.315
G3 X423.263 Y-38.985 I-2.457 J-2.011
G1 X0.315 Y3.159
G3 X-2.041 Y2.432 I-0.315 J-3.159
G3 X-3.166 Y0.239 I2.041 J-2.432
G1 X-5.725 Y-33.653
G3 X-2.97 Y-37.04 I3.166 J-0.239
G1 X352.429 Y-83.436
G2 X367.035 Y-101.431 I-2.179 J-16.694
G1 Y-101.443
G1 X348.456 Y-354.446
G1 X348.455 Y-354.459
G2 X331.375 Y-370.127 I-16.796 J1.165
G1 X-26.989 Y-364.107
G3 X-30.209 Y-367.056 I-0.053 J-3.175
G1 X-32.628 Y-400.959
G3 X-32.457 Y-402.238 I3.167 J-0.226
G1 Z-17.526
G3 X-29.611 Y-404.356 I2.995 J1.053
G1 X-23.903 Y-404.627
G1 Z-20.066
G1 X7.267 Y-406.102
G1 Z-17.526
G1 X18.684 Y-406.642
G1 Z-20.066
G1 X108.811 Y-410.907
G1 Z-17.526
G1 X120.229 Y-411.447
G1 Z-20.066
G1 X150.185 Y-412.865
G1 Z-17.526
G1 X161.603 Y-413.405
G1 Z-20.066
G1 X315.995 Y-420.712
G1 Z-17.526
G1 X327.413 Y-421.252
G1 Z-20.066
G1 X394.956 Y-424.448
G3 X398.277 Y-421.427 I0.15 J3.171
G1 X400.845 Y-367.171
G3 X399.945 Y-364.802 I-3.171 J0.15
G2 X399.959 Y-363.636 I0.59 J0.576
G2 X400.553 Y-363.401 I0.576 J-0.59
G2 X401.137 Y-363.661 I-0.018 J-0.825
G3 X403.303 Y-364.66 I2.315 J2.172
G1 X405.766 Y-364.776
G3 X410.133 Y-360.805 I0.198 J4.17
G1 X412.875 Y-302.881
G3 X411.794 Y-299.873 I-4.17 J0.199
G3 X408.901 Y-298.512 I-3.089 J-2.809
G1 X406.707 Y-298.408
G3 X404.34 Y-299.309 I-0.149 J-3.172
G2 X403.173 Y-299.295 I-0.577 J0.59
G2 X402.938 Y-298.7 I0.59 J0.577
G2 X403.198 Y-298.116 I0.825 J-0.018
G3 X404.197 Y-295.951 I-2.172 J2.315
G1 X406.97 Y-237.38
G1 Z-17.526
G1 X407.245 Y-231.581
G1 X407.803 Y-225.976
G1 Z-20.066
G1 X413.634 Y-167.455
G3 X412.962 Y-165.166 I-3.159 J0.315
G2 X413.096 Y-164.008 I0.646 J0.513
G2 X413.711 Y-163.835 I0.513 J-0.646
G2 X414.265 Y-164.154 I-0.103 J-0.818
G3 X416.476 Y-165.39 I2.526 J1.923
G1 X418.662 Y-165.608
G3 X421.721 Y-164.684 I0.414 J4.154
G3 X423.23 Y-161.868 I-2.645 J3.23
G1 X428.98 Y-104.165
G3 X428.056 Y-101.106 I-4.154 J0.414
G3 X425.24 Y-99.597 I-3.23 J-2.645
G1 X422.785 Y-99.352
G3 X420.497 Y-100.023 I-0.315 J-3.159
G2 X419.338 Y-99.89 I-0.512 J0.646
G2 X419.166 Y-99.274 I0.646 J0.512
G2 X419.485 Y-98.721 I0.818 J-0.103
G3 X420.721 Y-96.509 I-1.923 J2.526
G1 X426.107 Y-42.46
G3 X425.405 Y-40.133 I-3.159 J0.315
G3 X423.263 Y-38.985 I-2.457 J-2.011
G1 X210.511 Y-17.786
G1 Z-17.526
G1 X199.137 Y-16.652
G1 Z-20.066
G1 X198.026 Y-16.542
G1 Z-17.526
G1 X184.114 Y-15.155
G1 Z-20.066
G1 X6.002 Y2.593
G1 Z-17.526
G1 X0.315 Y3.159
G3 X-2.041 Y2.432 I-0.315 J-3.159
G3 X-3.166 Y0.239 I2.041 J-2.432
G1 X-3.399 Y-2.852
G1 Z-20.066
G1 X-5.725 Y-33.653
G3 X-2.97 Y-37.04 I3.166 J-0.239
G1 X260.279 Y-71.406
G1 Z-17.526
G1 X271.613 Y-72.886
G1 Z-20.066
G1 X352.429 Y-83.436
G2 X367.035 Y-101.431 I-2.179 J-16.694
G1 Y-101.443
G1 X357.626 Y-229.563
G1 Z-17.526
G1 X356.789 Y-240.962
G1 Z-20.066
G1 X348.456 Y-354.446
G1 X348.455 Y-354.459
G2 X331.375 Y-370.127 I-16.796 J1.165
G1 X-26.989 Y-364.107
G3 X-30.209 Y-367.056 I-0.053 J-3.175
G1 X-32.408 Y-397.867
G1 Z-17.526
G1 X-32.628 Y-400.959
G3 X-32.457 Y-402.238 I3.167 J-0.226
G0 Z6.096
G0 X-43.102 Y-138.718
G1 Z-11.049 F508.
G1 Z-20.066
G3 X-42.269 Y-138.808 I0.755 J3.084
G1 X-15.089 Y-138.144
G1 Z-17.526
G1 X-3.662 Y-137.865
G1 Z-20.066
G1 X11.324 Y-137.499
G3 X13.619 Y-136.435 I-0.078 J3.174
G2 X14.784 Y-136.367 I0.616 J-0.548
G2 X15.059 Y-136.943 I-0.548 J-0.616
G2 X14.841 Y-137.544 I-0.824 J-0.04
G3 X13.996 Y-139.779 I2.329 J-2.157
G1 X14.057 Y-142.259
G1 Y-142.26
G3 X18.332 Y-146.33 I4.174 J0.104
G1 X34.328 Y-145.939
G3 X38.399 Y-141.664 I-0.102 J4.174
G1 X38.345 Y-139.454
G3 X37.281 Y-137.16 I-3.174 J-0.078
G2 X37.213 Y-135.995 I0.548 J0.616
G2 X37.79 Y-135.719 I0.616 J-0.548
G2 X38.39 Y-135.938 I0.04 J-0.824
G3 X40.625 Y-136.783 I2.158 J2.329
G1 X128.022 Y-134.647
G1 X132.191 Y-134.749
G1 Z-17.526
G1 X143.618 Y-135.028
G1 Z-20.066
G1 X215.418 Y-136.783
G3 X217.653 Y-135.939 I0.078 J3.174
G2 X218.819 Y-135.983 I0.56 J-0.605
G2 X219.037 Y-136.584 I-0.605 J-0.56
G2 X218.762 Y-137.16 I-0.824 J0.04
G3 X217.698 Y-139.454 I2.11 J-2.372
G1 X217.644 Y-141.663
G1 Y-141.665
G3 X221.714 Y-145.939 I4.174 J-0.1
G1 X221.715
G1 X237.71 Y-146.33
G3 X241.987 Y-142.26 I0.103 J4.174
G1 Y-142.258
G1 X242.047 Y-139.778
G3 X241.203 Y-137.544 I-3.174 J0.077
G2 X241.247 Y-136.378 I0.605 J0.561
G2 X241.848 Y-136.159 I0.561 J-0.605
G2 X242.424 Y-136.435 I-0.04 J-0.824
G3 X244.719 Y-137.499 I2.373 J2.11
G1 X298.312 Y-138.808
G3 X301.564 Y-135.712 I0.078 J3.174
G1 X302.272 Y-106.74
G3 X301.098 Y-103.732 I-4.173 J0.104
G3 X298.129 Y-102.461 I-2.999 J-2.904
G1 X298.128
G1 X295.963 Y-102.446
G3 X293.704 Y-103.368 I-0.022 J-3.175
G2 X292.538 Y-103.363 I-0.581 J0.585
G2 X292.299 Y-102.756 I0.585 J0.581
G2 X292.575 Y-102.166 I0.825 J-0.026
G3 X293.639 Y-99.871 I-2.11 J2.373
G1 X293.986 Y-85.665
G3 X293.084 Y-83.37 I-3.174 J0.078
G3 X290.812 Y-82.413 I-2.272 J-2.217
G1 X190.024
G1 Z-17.526
G1 X178.594
G1 Z-20.066
G1 X55.783
G1 Z-17.526
G1 X44.353
G1 Z-20.066
G1 X-29.054
G1 Z-17.526
G1 X-34.769
G3 X-37.041 Y-83.37 I0 J-3.175
G3 X-37.943 Y-85.665 I2.272 J-2.217
G1 X-37.867 Y-88.763
G1 Z-20.066
G1 X-37.596 Y-99.871
G3 X-36.532 Y-102.165 I3.174 J0.078
G2 X-36.464 Y-103.33 I-0.548 J-0.616
G2 X-37.054 Y-103.606 I-0.616 J0.548
G2 X-37.661 Y-103.367 I-0.026 J0.825
G3 X-38.137 Y-102.979 I-2.237 J-2.254
G1 Z-17.526
G3 X-39.92 Y-102.446 I-1.761 J-2.642
G1 X-42.084 Y-102.461
G3 X-45.054 Y-103.731 I0.029 J-4.175
G3 X-46.229 Y-106.739 I2.999 J-2.905
G1 X-46.104 Y-111.84
G1 Z-20.066
G1 X-45.938 Y-118.647
G1 Z-17.526
G1 X-45.659 Y-130.074
G1 Z-20.066
G1 X-45.521 Y-135.712
G3 X-43.102 Y-138.718 I3.174 J0.078
G0 Z6.096

(2D POCKET1)
G0 Z11.176
G0 X308.886 Y-242.734
G0 Z6.096
G1 Z3.556 F508.
G1 X308.667 Y-242.747 Z3.548
G1 X308.447 Y-242.745 Z3.541
G1 X308.228 Y-242.727 Z3.533
G1 X308.012 Y-242.693 Z3.525
G1 X307.798 Y-242.643 Z3.518
G1 X307.588 Y-242.578 Z3.51
G1 X307.384 Y-242.498 Z3.502
G1 X307.186 Y-242.403 Z3.495
G1 X306.995 Y-242.294 Z3.487
G1 X306.813 Y-242.171 Z3.479
G1 X306.641 Y-242.036 Z3.472
G1 X306.478 Y-241.888 Z3.464
G1 X306.327 Y-241.729 Z3.456
G1 X306.188 Y-241.559 Z3.449
G1 X306.061 Y-241.38 Z3.441
G1 X305.948 Y-241.192 Z3.433
G1 X305.849 Y-240.996 Z3.426
G1 X305.765 Y-240.794 Z3.418
G1 X305.695 Y-240.585 Z3.41
G1 X305.64 Y-240.373 Z3.403
G1 X305.602 Y-240.157 Z3.395
G1 X305.579 Y-239.938 Z3.387
G1 X305.572 Y-239.719 Z3.38
G1 X305.581 Y-239.5 Z3.372
G1 X305.605 Y-239.282 Z3.364
G1 X305.646 Y-239.066 Z3.357
G1 X305.702 Y-238.854 Z3.349
G1 X305.774 Y-238.646 Z3.341
G1 X305.86 Y-238.445 Z3.334
G1 X305.961 Y-238.25 Z3.326
G1 X306.076 Y-238.063 Z3.318
G1 X306.204 Y-237.884 Z3.311
G1 X306.344 Y-237.716 Z3.303
G1 X306.497 Y-237.558 Z3.295
G1 X306.661 Y-237.412 Z3.288
G1 X306.834 Y-237.278 Z3.28
G1 X307.018 Y-237.157 Z3.272
G1 X307.209 Y-237.049 Z3.265
G1 X307.408 Y-236.956 Z3.257
G1 X307.613 Y-236.878 Z3.249
G1 X307.823 Y-236.814 Z3.242
G1 X308.037 Y-236.767 Z3.234
G1 X308.254 Y-236.734 Z3.226
G1 X308.473 Y-236.718 Z3.219
G1 X308.692 Z3.211
G1 X308.911 Y-236.733 Z3.203
G1 X309.129 Y-236.765 Z3.196
G1 X309.343 Y-236.812 Z3.188
G1 X309.553 Y-236.875 Z3.18
G1 X309.758 Y-236.952 Z3.173
G1 X309.958 Y-237.045 Z3.165
G1 X310.149 Y-237.151 Z3.157
G1 X310.333 Y-237.272 Z3.15
G1 X310.507 Y-237.405 Z3.142
G1 X310.671 Y-237.551 Z3.134
G1 X310.824 Y-237.708 Z3.127
G1 X310.966 Y-237.876 Z3.119
G1 X311.094 Y-238.054 Z3.111
G1 X311.21 Y-238.241 Z3.104
G1 X311.311 Y-238.435 Z3.096
G1 X311.398 Y-238.637 Z3.088
G1 X311.47 Y-238.844 Z3.081
G1 X311.527 Y-239.056 Z3.073
G1 X311.569 Y-239.272 Z3.065
G1 X311.594 Y-239.49 Z3.058
G1 X311.604 Y-239.709 Z3.05
G1 X311.598 Y-239.928 Z3.042
G1 X311.575 Y-240.147 Z3.035
G1 X311.537 Y-240.363 Z3.027
G1 X311.484 Y-240.576 Z3.019
G1 X311.415 Y-240.784 Z3.012
G1 X311.331 Y-240.987 Z3.004
G1 X311.232 Y-241.183 Z2.996
G1 X311.12 Y-241.371 Z2.989
G1 X310.994 Y-241.551 Z2.981
G1 X310.855 Y-241.721 Z2.973
G1 X310.705 Y-241.881 Z2.966
G1 X310.543 Y-242.029 Z2.958
G1 X310.371 Y-242.165 Z2.95
G1 X310.189 Y-242.288 Z2.943
G1 X309.999 Y-242.398 Z2.935
G1 X309.801 Y-242.494 Z2.927
G1 X309.597 Y-242.574 Z2.92
G1 X309.388 Y-242.64 Z2.912
G1 X309.174 Y-242.691 Z2.904
G1 X308.958 Y-242.726 Z2.897
G1 X308.739 Y-242.745 Z2.889
G1 X308.519 Y-242.748 Z2.881
G1 X308.3 Y-242.735 Z2.874
G1 X308.083 Y-242.706 Z2.866
G1 X307.868 Y-242.661 Z2.858
G1 X307.657 Y-242.601 Z2.851
G1 X307.451 Y-242.526 Z2.843
G1 X307.251 Y-242.436 Z2.835
G1 X307.057 Y-242.331 Z2.828
G1 X306.873 Y-242.213 Z2.82
G1 X306.697 Y-242.082 Z2.812
G1 X306.531 Y-241.938 Z2.805
G1 X306.376 Y-241.783 Z2.797
G1 X306.233 Y-241.616 Z2.789
G1 X306.102 Y-241.44 Z2.782
G1 X305.984 Y-241.255 Z2.774
G1 X305.88 Y-241.061 Z2.766
G1 X305.791 Y-240.861 Z2.759
G1 X305.716 Y-240.655 Z2.751
G1 X305.657 Y-240.443 Z2.743
G1 X305.613 Y-240.228 Z2.736
G1 X305.584 Y-240.011 Z2.728
G1 X305.572 Y-239.792 Z2.72
G1 X305.576 Y-239.572 Z2.713
G1 X305.595 Y-239.354 Z2.705
G1 X305.631 Y-239.137 Z2.697
G1 X305.682 Y-238.924 Z2.69
G1 X305.748 Y-238.714 Z2.682
G1 X305.83 Y-238.511 Z2.674
G1 X305.926 Y-238.313 Z2.667
G1 X306.036 Y-238.123 Z2.659
G1 X306.16 Y-237.942 Z2.651
G1 X306.297 Y-237.77 Z2.644
G1 X306.445 Y-237.609 Z2.636
G1 X306.605 Y-237.459 Z2.628
G1 X306.776 Y-237.321 Z2.621
G1 X306.956 Y-237.195 Z2.613
G1 X307.145 Y-237.083 Z2.605
G1 X307.341 Y-236.985 Z2.598
G1 X307.544 Y-236.902 Z2.59
G1 X307.753 Y-236.834 Z2.582
G1 X307.966 Y-236.781 Z2.575
G1 X308.182 Y-236.743 Z2.567
G1 X308.401 Y-236.722 Z2.559
G1 X308.62 Y-236.716 Z2.552
G1 X308.839 Y-236.726 Z2.544
G1 X309.057 Y-236.753 Z2.536
G1 X309.273 Y-236.795 Z2.529
G1 X309.484 Y-236.852 Z2.521
G1 X309.691 Y-236.925 Z2.513
G1 X309.893 Y-237.013 Z2.506
G1 X310.087 Y-237.115 Z2.498
G1 X310.273 Y-237.231 Z2.49
G1 X310.451 Y-237.36 Z2.483
G1 X310.618 Y-237.502 Z2.475
G1 X310.775 Y-237.655 Z2.467
G1 X310.92 Y-237.82 Z2.46
G1 X311.053 Y-237.994 Z2.452
G1 X311.173 Y-238.178 Z2.444
G1 X311.279 Y-238.37 Z2.437
G1 X311.371 Y-238.57 Z2.429
G1 X311.448 Y-238.775 Z2.421
G1 X311.51 Y-238.986 Z2.414
G1 X311.557 Y-239.2 Z2.406
G1 X311.588 Y-239.417 Z2.398
G1 X311.603 Y-239.636 Z2.391
G1 X311.602 Y-239.856 Z2.383
G1 X311.585 Y-240.075 Z2.375
G1 X311.552 Y-240.292 Z2.368
G1 X311.503 Y-240.506 Z2.36
G1 X311.439 Y-240.716 Z2.352
G1 X311.36 Y-240.92 Z2.345
G1 X311.266 Y-241.119 Z2.337
G1 X311.158 Y-241.31 Z2.329
G1 X311.037 Y-241.493 Z2.322
G1 X310.902 Y-241.666 Z2.314
G1 X310.756 Y-241.829 Z2.306
G1 X310.597 Y-241.981 Z2.299
G1 X310.429 Y-242.122 Z2.291
G1 X310.25 Y-242.249 Z2.283
G1 X310.062 Y-242.363 Z2.276
G1 X309.867 Y-242.464 Z2.268
G1 X309.665 Y-242.549 Z2.26
G1 X309.458 Y-242.62 Z2.253
G1 X309.245 Y-242.676 Z2.245
G1 X309.029 Y-242.716 Z2.237
G1 X308.811 Y-242.74 Z2.23
G1 X308.592 Y-242.748 Z2.222
G1 X308.373 Y-242.741 Z2.214
G1 X308.154 Y-242.717 Z2.207
G1 X307.938 Y-242.678 Z2.199
G1 X307.726 Y-242.623 Z2.191
G1 X307.518 Y-242.552 Z2.184
G1 X307.316 Y-242.467 Z2.176
G1 X307.12 Y-242.367 Z2.168
G1 X306.933 Y-242.254 Z2.161
G1 X306.754 Y-242.127 Z2.153
G1 X306.584 Y-241.987 Z2.145
G1 X306.426 Y-241.835 Z2.138
G1 X306.279 Y-241.672 Z2.13
G1 X306.144 Y-241.499 Z2.122
G1 X306.021 Y-241.317 Z2.115
G1 X305.913 Y-241.126 Z2.107
G1 X305.819 Y-240.928 Z2.099
G1 X305.739 Y-240.723 Z2.092
G1 X305.675 Y-240.514 Z2.084
G1 X305.625 Y-240.3 Z2.076
G1 X305.592 Y-240.083 Z2.069
G1 X305.574 Y-239.864 Z2.061
G1 X305.573 Y-239.645 Z2.053
G1 X305.587 Y-239.426 Z2.046
G1 X305.617 Y-239.208 Z2.038
G1 X305.663 Y-238.994 Z2.03
G1 X305.725 Y-238.783 Z2.023
G1 X305.801 Y-238.577 Z2.015
G1 X305.893 Y-238.378 Z2.007
G1 X305.998 Y-238.185 Z2
G1 X306.118 Y-238.001 Z1.992
G1 X306.25 Y-237.826 Z1.984
G1 X306.395 Y-237.661 Z1.977
G1 X306.551 Y-237.507 Z1.969
G1 X306.719 Y-237.365 Z1.961
G1 X306.896 Y-237.235 Z1.954
G1 X307.082 Y-237.119 Z1.946
G1 X307.276 Y-237.016 Z1.938
G1 X307.477 Y-236.928 Z1.931
G1 X307.684 Y-236.855 Z1.923
G1 X307.895 Y-236.796 Z1.915
G1 X308.11 Y-236.754 Z1.908
G1 X308.328 Y-236.727 Z1.9
G1 X308.547 Y-236.716 Z1.892
G1 X308.767 Y-236.721 Z1.885
G1 X308.985 Y-236.742 Z1.877
G1 X309.202 Y-236.779 Z1.869
G1 X309.415 Y-236.831 Z1.862
G1 X309.624 Y-236.899 Z1.854
G1 X309.827 Y-236.982 Z1.846
G1 X310.024 Y-237.079 Z1.839
G1 X310.213 Y-237.191 Z1.831
G1 X310.393 Y-237.316 Z1.823
G1 X310.564 Y-237.453 Z1.816
G1 X310.725 Y-237.603 Z1.808
G1 X310.874 Y-237.764 Z1.8
G1 X311.011 Y-237.936 Z1.793
G1 X311.135 Y-238.117 Z1.785
G1 X311.246 Y-238.306 Z1.777
G1 X311.342 Y-238.503 Z1.77
G1 X311.424 Y-238.707 Z1.762
G1 X311.491 Y-238.916 Z1.754
G1 X311.543 Y-239.129 Z1.747
G1 X311.579 Y-239.345 Z1.739
G1 X311.599 Y-239.564 Z1.731
G1 X311.604 Y-239.783 Z1.724
G1 X311.592 Y-240.003 Z1.716
G1 X311.564 Y-240.22 Z1.708
G1 X311.521 Y-240.435 Z1.701
G1 X311.462 Y-240.647 Z1.693
G1 X311.388 Y-240.853 Z1.685
G1 X311.299 Y-241.054 Z1.678
G1 X311.196 Y-241.248 Z1.67
G1 X311.079 Y-241.433 Z1.662
G1 X310.948 Y-241.61 Z1.655
G1 X310.805 Y-241.777 Z1.647
G1 X310.651 Y-241.932 Z1.64
G1 X310.485 Y-242.077 Z1.632
G1 X310.31 Y-242.208 Z1.624
G1 X310.125 Y-242.327 Z1.617
G1 X309.932 Y-242.432 Z1.609
G1 X309.733 Y-242.523 Z1.601
G1 X309.527 Y-242.599 Z1.594
G1 X309.316 Y-242.659 Z1.586
G1 X309.101 Y-242.704 Z1.578
G1 X308.883 Y-242.734 Z1.571
G1 X308.664 Y-242.747 Z1.563
G1 X308.445 Y-242.745 Z1.555
G1 X308.226 Y-242.727 Z1.548
G1 X308.009 Y-242.692 Z1.54
G1 X307.796 Y-242.642 Z1.532
G1 X307.586 Y-242.577 Z1.525
G1 X307.382 Y-242.497 Z1.517
G1 X307.184 Y-242.402 Z1.509
G1 X306.994 Y-242.293 Z1.502
G1 X306.812 Y-242.17 Z1.494
G1 X306.639 Y-242.034 Z1.486
G1 X306.477 Y-241.887 Z1.479
G1 X306.326 Y-241.727 Z1.471
G1 X306.187 Y-241.558 Z1.463
G1 X306.06 Y-241.378 Z1.456
G1 X305.947 Y-241.19 Z1.448
G1 X305.848 Y-240.994 Z1.44
G1 X305.764 Y-240.792 Z1.433
G1 X305.694 Y-240.583 Z1.425
G1 X305.64 Y-240.371 Z1.417
G1 X305.601 Y-240.155 Z1.41
G1 X305.579 Y-239.936 Z1.402
G1 X305.572 Y-239.717 Z1.394
G1 X305.581 Y-239.498 Z1.387
G1 X305.606 Y-239.28 Z1.379
G1 X305.646 Y-239.064 Z1.371
G1 X305.703 Y-238.852 Z1.364
G1 X305.774 Y-238.644 Z1.356
G1 X305.861 Y-238.443 Z1.348
G1 X305.962 Y-238.248 Z1.341
G1 X306.077 Y-238.061 Z1.333
G1 X306.205 Y-237.883 Z1.325
G1 X306.346 Y-237.714 Z1.318
G1 X306.498 Y-237.557 Z1.31
G1 X306.662 Y-237.41 Z1.302
G1 X306.836 Y-237.277 Z1.295
G1 X307.019 Y-237.156 Z1.287
G1 X307.211 Y-237.048 Z1.279
G1 X307.41 Y-236.955 Z1.272
G1 X307.615 Y-236.877 Z1.264
G1 X307.825 Y-236.814 Z1.256
G1 X308.039 Y-236.766 Z1.249
G1 X308.256 Y-236.734 Z1.241
G1 X308.475 Y-236.718 Z1.233
G1 X308.695 Z1.226
G1 X308.913 Y-236.733 Z1.218
G1 X309.131 Y-236.765 Z1.21
G1 X309.345 Y-236.812 Z1.203
G1 X309.555 Y-236.875 Z1.195
G1 X309.76 Y-236.953 Z1.187
G1 X309.959 Y-237.046 Z1.18
G1 X310.151 Y-237.153 Z1.172
G1 X310.335 Y-237.273 Z1.164
G1 X310.509 Y-237.407 Z1.157
G1 X310.673 Y-237.552 Z1.149
G1 X310.826 Y-237.71 Z1.141
G1 X310.967 Y-237.878 Z1.134
G1 X311.095 Y-238.056 Z1.126
G1 X311.211 Y-238.243 Z1.118
G1 X311.312 Y-238.437 Z1.111
G1 X311.399 Y-238.639 Z1.103
G1 X311.471 Y-238.846 Z1.095
G1 X311.528 Y-239.058 Z1.088
G1 X311.569 Y-239.274 Z1.08
G1 X311.594 Y-239.492 Z1.072
G1 X311.604 Y-239.711 Z1.065
G1 X311.598 Y-239.93 Z1.057
G1 X311.575 Y-240.149 Z1.049
G1 X311.537 Y-240.365 Z1.042
G1 X311.483 Y-240.578 Z1.034
G1 X311.414 Y-240.786 Z1.026
G1 X311.33 Y-240.989 Z1.019
G1 X311.231 Y-241.185 Z1.011
G1 X311.119 Y-241.373 Z1.003
G1 X310.993 Y-241.553 Z0.996
G1 X310.854 Y-241.723 Z0.988
G1 X310.703 Y-241.882 Z0.98
G1 X310.541 Y-242.03 Z0.973
G1 X310.369 Y-242.166 Z0.965
G1 X310.187 Y-242.289 Z0.957
G1 X309.997 Y-242.399 Z0.95
G1 X309.799 Y-242.494 Z0.942
G1 X309.595 Y-242.575 Z0.934
G1 X309.386 Y-242.641 Z0.927
G1 X309.172 Y-242.691 Z0.919
G1 X308.955 Y-242.726 Z0.911
G1 X308.737 Y-242.745 Z0.904
G1 X308.517 Y-242.748 Z0.896
G1 X308.298 Y-242.734 Z0.888
G1 X308.081 Y-242.705 Z0.881
G1 X307.866 Y-242.661 Z0.873
G1 X307.655 Y-242.6 Z0.865
G1 X307.449 Y-242.525 Z0.858
G1 X307.249 Y-242.435 Z0.85
G1 X307.056 Y-242.33 Z0.842
G1 X306.871 Y-242.212 Z0.835
G1 X306.695 Y-242.08 Z0.827
G1 X306.529 Y-241.937 Z0.819
G1 X306.374 Y-241.781 Z0.812
G1 X306.231 Y-241.615 Z0.804
G1 X306.101 Y-241.438 Z0.796
G1 X305.983 Y-241.253 Z0.789
G1 X305.879 Y-241.06 Z0.781
G1 X305.79 Y-240.859 Z0.773
G1 X305.715 Y-240.653 Z0.766
G1 X305.656 Y-240.441 Z0.758
G1 X305.612 Y-240.226 Z0.75
G1 X305.584 Y-240.009 Z0.743
G1 X305.572 Y-239.789 Z0.735
G1 X305.576 Y-239.57 Z0.727
G1 X305.596 Y-239.351 Z0.72
G1 X305.631 Y-239.135 Z0.712
G1 X305.683 Y-238.921 Z0.704
G1 X305.749 Y-238.712 Z0.697
G1 X305.831 Y-238.509 Z0.689
G1 X305.927 Y-238.311 Z0.681
G1 X306.037 Y-238.122 Z0.674
G1 X306.161 Y-237.941 Z0.666
G1 X306.298 Y-237.769 Z0.658
G1 X306.447 Y-237.607 Z0.651
G1 X306.607 Y-237.457 Z0.643
G1 X306.778 Y-237.319 Z0.635
G1 X306.958 Y-237.194 Z0.628
G1 X307.147 Y-237.082 Z0.62
G1 X307.343 Y-236.985 Z0.612
G1 X307.546 Y-236.901 Z0.605
G1 X307.755 Y-236.833 Z0.597
G1 X307.968 Y-236.78 Z0.589
G1 X308.184 Y-236.743 Z0.582
G1 X308.403 Y-236.722 Z0.574
G1 X308.622 Y-236.716 Z0.566
G1 X308.841 Y-236.727 Z0.559
G1 X309.059 Y-236.753 Z0.551
G1 X309.275 Y-236.795 Z0.543
G1 X309.486 Y-236.853 Z0.536
G1 X309.693 Y-236.926 Z0.528
G1 X309.894 Y-237.014 Z0.52
G1 X310.089 Y-237.116 Z0.513
G1 X310.275 Y-237.232 Z0.505
G1 X310.452 Y-237.361 Z0.497
G1 X310.62 Y-237.503 Z0.49
G1 X310.776 Y-237.657 Z0.482
G1 X310.922 Y-237.821 Z0.474
G1 X311.054 Y-237.996 Z0.467
G1 X311.174 Y-238.18 Z0.459
G1 X311.28 Y-238.372 Z0.451
G1 X311.372 Y-238.572 Z0.444
G1 X311.449 Y-238.777 Z0.436
G1 X311.511 Y-238.988 Z0.428
G1 X311.557 Y-239.202 Z0.421
G1 X311.588 Y-239.419 Z0.413
G1 X311.603 Y-239.638 Z0.405
G1 X311.601 Y-239.858 Z0.398
G1 X311.584 Y-240.077 Z0.39
G1 X311.551 Y-240.294 Z0.382
G1 X311.503 Y-240.508 Z0.375
G1 X311.439 Y-240.718 Z0.367
G1 X311.359 Y-240.922 Z0.359
G1 X311.265 Y-241.121 Z0.352
G1 X311.157 Y-241.312 Z0.344
G1 X311.036 Y-241.494 Z0.336
G1 X310.901 Y-241.668 Z0.329
G1 X310.754 Y-241.831 Z0.321
G1 X310.596 Y-241.983 Z0.313
G1 X310.427 Y-242.123 Z0.306
G1 X310.248 Y-242.25 Z0.298
G1 X310.061 Y-242.364 Z0.29
G1 X309.865 Y-242.464 Z0.283
G1 X309.663 Y-242.55 Z0.275
G1 X309.455 Y-242.621 Z0.267
G1 X309.243 Y-242.676 Z0.26
G1 X309.027 Y-242.716 Z0.252
G1 X308.809 Y-242.74 Z0.244
G1 X308.59 Y-242.748 Z0.237
G1 X308.37 Y-242.74 Z0.229
G1 X308.152 Y-242.717 Z0.221
G1 X307.936 Y-242.677 Z0.214
G1 X307.724 Y-242.622 Z0.206
G1 X307.516 Y-242.552 Z0.198
G1 X307.314 Y-242.466 Z0.191
G1 X307.119 Y-242.366 Z0.183
G1 X306.931 Y-242.252 Z0.175
G1 X306.752 Y-242.125 Z0.168
G1 X306.583 Y-241.985 Z0.16
G1 X306.424 Y-241.834 Z0.152
G1 X306.277 Y-241.671 Z0.145
G1 X306.142 Y-241.498 Z0.137
G1 X306.02 Y-241.315 Z0.129
G1 X305.912 Y-241.124 Z0.122
G1 X305.818 Y-240.926 Z0.114
G1 X305.738 Y-240.721 Z0.106
G1 X305.674 Y-240.512 Z0.099
G1 X305.625 Y-240.298 Z0.091
G1 X305.592 Y-240.081 Z0.083
G1 X305.574 Y-239.862 Z0.076
G1 X305.573 Y-239.642 Z0.068
G1 X305.587 Y-239.423 Z0.06
G1 X305.618 Y-239.206 Z0.053
G1 X305.664 Y-238.992 Z0.045
G1 X305.725 Y-238.781 Z0.037
G1 X305.802 Y-238.575 Z0.03
G1 X305.894 Y-238.376 Z0.022
G1 X306 Y-238.183 Z0.014
G1 X306.119 Y-237.999 Z0.007
G1 X306.252 Y-237.824 Z-0.001
G1 X306.396 Y-237.66 Z-0.009
G1 X306.553 Y-237.506 Z-0.016
G1 X306.72 Y-237.364 Z-0.024
G1 X306.897 Y-237.234 Z-0.032
G1 X307.084 Y-237.118 Z-0.039
G1 X307.278 Y-237.015 Z-0.047
G1 X307.479 Y-236.927 Z-0.055
G1 X307.686 Y-236.854 Z-0.062
G1 X307.897 Y-236.796 Z-0.07
G1 X308.113 Y-236.754 Z-0.078
G1 X308.33 Y-236.727 Z-0.085
G1 X308.55 Y-236.716 Z-0.093
G1 X308.769 Y-236.721 Z-0.101
G1 X308.987 Y-236.742 Z-0.108
G1 X309.204 Y-236.779 Z-0.116
G1 X309.417 Y-236.832 Z-0.124
G1 X309.626 Y-236.9 Z-0.131
G1 X309.829 Y-236.983 Z-0.139
G1 X310.025 Y-237.08 Z-0.147
G1 X310.214 Y-237.192 Z-0.154
G1 X310.395 Y-237.317 Z-0.162
G1 X310.566 Y-237.455 Z-0.17
G1 X310.726 Y-237.605 Z-0.177
G1 X310.875 Y-237.766 Z-0.185
G1 X311.012 Y-237.937 Z-0.193
G1 X311.136 Y-238.118 Z-0.2
G1 X311.247 Y-238.308 Z-0.208
G1 X311.343 Y-238.505 Z-0.216
G1 X311.425 Y-238.709 Z-0.223
G1 X311.492 Y-238.918 Z-0.231
G1 X311.544 Y-239.131 Z-0.239
G1 X311.579 Y-239.347 Z-0.246
G1 X311.6 Y-239.566 Z-0.254
G1 X311.604 Y-239.785 Z-0.262
G1 X311.592 Y-240.005 Z-0.269
G1 X311.564 Y-240.222 Z-0.277
G1 X311.52 Y-240.437 Z-0.285
G1 X311.461 Y-240.649 Z-0.292
G1 X311.387 Y-240.855 Z-0.3
G1 X311.298 Y-241.056 Z-0.308
G1 X311.195 Y-241.25 Z-0.315
G1 X311.077 Y-241.435 Z-0.323
G1 X310.947 Y-241.612 Z-0.331
G1 X310.804 Y-241.778 Z-0.338
G1 X310.649 Y-241.934 Z-0.346
G1 X310.484 Y-242.078 Z-0.354
G1 X310.308 Y-242.21 Z-0.361
G1 X310.123 Y-242.328 Z-0.369
G1 X309.931 Y-242.433 Z-0.377
G1 X309.731 Y-242.523 Z-0.384
G1 X309.525 Y-242.599 Z-0.392
G1 X309.314 Y-242.66 Z-0.4
G1 X309.099 Y-242.705 Z-0.407
G1 X308.881 Y-242.734 Z-0.415
G1 X308.662 Y-242.747 Z-0.423
G1 X308.443 Y-242.745 Z-0.43
G1 X308.224 Y-242.726 Z-0.438
G1 X308.007 Y-242.692 Z-0.446
G1 X307.794 Y-242.642 Z-0.453
G1 X307.584 Y-242.576 Z-0.461
G1 X307.38 Y-242.496 Z-0.469
G1 X307.182 Y-242.401 Z-0.476
G1 X306.992 Y-242.292 Z-0.484
G1 X306.81 Y-242.169 Z-0.492
G1 X306.638 Y-242.033 Z-0.499
G1 X306.475 Y-241.885 Z-0.507
G1 X306.324 Y-241.726 Z-0.515
G1 X306.185 Y-241.556 Z-0.522
G1 X306.059 Y-241.376 Z-0.53
G1 X305.946 Y-241.188 Z-0.538
G1 X305.847 Y-240.992 Z-0.545
G1 X305.763 Y-240.79 Z-0.553
G1 X305.694 Y-240.581 Z-0.561
G1 X305.64 Y-240.369 Z-0.568
G1 X305.601 Y-240.153 Z-0.576
G1 X305.578 Y-239.934 Z-0.584
G1 X305.572 Y-239.715 Z-0.591
G1 X305.581 Y-239.496 Z-0.599
G1 X305.606 Y-239.278 Z-0.607
G1 X305.647 Y-239.062 Z-0.614
G1 X305.703 Y-238.85 Z-0.622
G1 X305.775 Y-238.642 Z-0.63
G1 X305.862 Y-238.441 Z-0.637
G1 X305.963 Y-238.246 Z-0.645
G1 X306.078 Y-238.059 Z-0.653
G1 X306.206 Y-237.881 Z-0.66
G1 X306.347 Y-237.713 Z-0.668
G1 X306.5 Y-237.555 Z-0.676
G1 X306.664 Y-237.409 Z-0.683
G1 X306.838 Y-237.275 Z-0.691
G1 X307.021 Y-237.155 Z-0.699
G1 X307.213 Y-237.048 Z-0.706
G1 X307.412 Y-236.955 Z-0.714
G1 X307.617 Y-236.876 Z-0.722
G1 X307.827 Y-236.813 Z-0.729
G1 X308.041 Y-236.766 Z-0.737
G1 X308.258 Y-236.734 Z-0.745
G1 X308.477 Y-236.718 Z-0.752
G1 X308.697 Z-0.76
G1 X308.916 Y-236.734 Z-0.768
G1 X309.133 Y-236.765 Z-0.775
G1 X309.347 Y-236.813 Z-0.783
G1 X309.557 Y-236.876 Z-0.791
G1 X309.762 Y-236.954 Z-0.798
G1 X309.961 Y-237.047 Z-0.806
G1 X310.153 Y-237.154 Z-0.814
G1 X310.336 Y-237.274 Z-0.821
G1 X310.51 Y-237.408 Z-0.829
G1 X310.674 Y-237.554 Z-0.837
G1 X310.827 Y-237.711 Z-0.844
G1 X310.968 Y-237.88 Z-0.852
G1 X311.097 Y-238.058 Z-0.86
G1 X311.212 Y-238.244 Z-0.867
G1 X311.313 Y-238.439 Z-0.875
G1 X311.4 Y-238.641 Z-0.883
G1 X311.472 Y-238.848 Z-0.89
G1 X311.528 Y-239.06 Z-0.898
G1 X311.569 Y-239.276 Z-0.906
G1 X311.595 Y-239.494 Z-0.913
G1 X311.604 Y-239.713 Z-0.921
G1 X311.597 Y-239.932 Z-0.929
G1 X311.575 Y-240.151 Z-0.936
G1 X311.537 Y-240.367 Z-0.944
G1 X311.483 Y-240.58 Z-0.952
G1 X311.413 Y-240.788 Z-0.959
G1 X311.329 Y-240.99 Z-0.967
G1 X311.23 Y-241.186 Z-0.975
G1 X311.118 Y-241.375 Z-0.982
G1 X310.991 Y-241.554 Z-0.99
G1 X310.853 Y-241.724 Z-0.998
G1 X310.702 Y-241.884 Z-1.005
G1 X310.54 Y-242.032 Z-1.013
G1 X310.367 Y-242.168 Z-1.021
G1 X310.185 Y-242.291 Z-1.028
G1 X309.995 Y-242.4 Z-1.036
G1 X309.797 Y-242.495 Z-1.044
G1 X309.593 Y-242.576 Z-1.051
G1 X309.384 Y-242.641 Z-1.059
G1 X309.17 Y-242.692 Z-1.067
G1 X308.953 Y-242.726 Z-1.074
G1 X308.735 Y-242.745 Z-1.082
G1 X308.515 Y-242.747 Z-1.09
G1 X308.296 Y-242.734 Z-1.097
G1 X308.079 Y-242.705 Z-1.105
G1 X307.864 Y-242.66 Z-1.113
G1 X307.653 Y-242.6 Z-1.12
G1 X307.447 Y-242.524 Z-1.128
G1 X307.247 Y-242.434 Z-1.136
G1 X307.054 Y-242.329 Z-1.143
G1 X306.869 Y-242.211 Z-1.151
G1 X306.693 Y-242.079 Z-1.159
G1 X306.528 Y-241.935 Z-1.166
G1 X306.373 Y-241.78 Z-1.174
G1 X306.23 Y-241.613 Z-1.182
G1 X306.099 Y-241.437 Z-1.189
G1 X305.982 Y-241.251 Z-1.197
G1 X305.878 Y-241.058 Z-1.205
G1 X305.789 Y-240.857 Z-1.212
G1 X305.715 Y-240.651 Z-1.22
G1 X305.656 Y-240.439 Z-1.228
G1 X305.612 Y-240.224 Z-1.235
G1 X305.584 Y-240.007 Z-1.243
G1 X305.572 Y-239.787 Z-1.251
G1 X305.576 Y-239.568 Z-1.258
G1 X305.596 Y-239.349 Z-1.266
G1 X305.632 Y-239.133 Z-1.274
G1 X305.683 Y-238.919 Z-1.281
G1 X305.75 Y-238.71 Z-1.289
G1 X305.832 Y-238.507 Z-1.297
G1 X305.928 Y-238.31 Z-1.304
G1 X306.039 Y-238.12 Z-1.312
G1 X306.163 Y-237.939 Z-1.32
G1 X306.299 Y-237.767 Z-1.327
G1 X306.448 Y-237.606 Z-1.335
G1 X306.609 Y-237.456 Z-1.343
G1 X306.779 Y-237.318 Z-1.35
G1 X306.96 Y-237.193 Z-1.358
G1 X307.149 Y-237.081 Z-1.366
G1 X307.345 Y-236.984 Z-1.373
G1 X307.548 Y-236.901 Z-1.381
G1 X307.757 Y-236.833 Z-1.389
G1 X307.97 Y-236.78 Z-1.396
G1 X308.186 Y-236.743 Z-1.404
G1 X308.405 Y-236.721 Z-1.412
G1 X308.624 Y-236.716 Z-1.419
G1 X308.843 Y-236.727 Z-1.427
G1 X309.061 Y-236.753 Z-1.435
G1 X309.277 Y-236.796 Z-1.442
G1 X309.488 Y-236.853 Z-1.45
G1 X309.695 Y-236.926 Z-1.458
G1 X309.896 Y-237.014 Z-1.465
G1 X310.091 Y-237.117 Z-1.473
G1 X310.277 Y-237.233 Z-1.481
G1 X310.454 Y-237.362 Z-1.488
G1 X310.621 Y-237.504 Z-1.496
G1 X310.778 Y-237.658 Z-1.504
G1 X310.923 Y-237.823 Z-1.511
G1 X311.056 Y-237.998 Z-1.519
G1 X311.175 Y-238.182 Z-1.527
G1 X311.281 Y-238.374 Z-1.534
G1 X311.373 Y-238.573 Z-1.542
G1 X311.45 Y-238.779 Z-1.55
G1 X311.511 Y-238.99 Z-1.557
G1 X311.558 Y-239.204 Z-1.565
G1 X311.588 Y-239.422 Z-1.573
G1 X311.603 Y-239.641 Z-1.58
G1 X311.601 Y-239.86 Z-1.588
G1 X311.584 Y-240.079 Z-1.596
G1 X311.551 Y-240.296 Z-1.603
G1 X311.502 Y-240.51 Z-1.611
G1 X311.438 Y-240.72 Z-1.619
G1 X311.358 Y-240.924 Z-1.626
G1 X311.264 Y-241.123 Z-1.634
G1 X311.156 Y-241.314 Z-1.642
G1 X311.034 Y-241.496 Z-1.649
G1 X310.9 Y-241.669 Z-1.657
G1 X310.753 Y-241.832 Z-1.665
G1 X310.594 Y-241.984 Z-1.672
G1 X310.425 Y-242.124 Z-1.68
G1 X310.246 Y-242.251 Z-1.688
G1 X310.059 Y-242.365 Z-1.695
G1 X309.863 Y-242.465 Z-1.703
G1 X309.661 Y-242.551 Z-1.711
G1 X309.453 Y-242.621 Z-1.718
G1 X309.241 Y-242.677 Z-1.726
G1 X309.025 Y-242.716 Z-1.734
G1 X308.807 Y-242.74 Z-1.741
G1 X308.588 Y-242.748 Z-1.749
G1 X308.368 Y-242.74 Z-1.757
G1 X308.15 Y-242.716 Z-1.764
G1 X307.934 Y-242.677 Z-1.772
G1 X307.722 Y-242.621 Z-1.78
G1 X307.514 Y-242.551 Z-1.787
G1 X307.312 Y-242.465 Z-1.795
G1 X307.117 Y-242.365 Z-1.803
G1 X306.929 Y-242.251 Z-1.81
G1 X306.75 Y-242.124 Z-1.818
G1 X306.581 Y-241.984 Z-1.826
G1 X306.423 Y-241.832 Z-1.833
G1 X306.276 Y-241.669 Z-1.841
G1 X306.141 Y-241.496 Z-1.849
G1 X306.019 Y-241.313 Z-1.856
G1 X305.911 Y-241.122 Z-1.864
G1 X305.817 Y-240.924 Z-1.872
G1 X305.738 Y-240.719 Z-1.879
G1 X305.674 Y-240.51 Z-1.887
G1 X305.625 Y-240.296 Z-1.895
G1 X305.592 Y-240.079 Z-1.902
G1 X305.574 Y-239.86 Z-1.91
G1 X305.573 Y-239.64 Z-1.918
G1 X305.588 Y-239.421 Z-1.925
G1 X305.618 Y-239.204 Z-1.933
G1 X305.664 Y-238.989 Z-1.941
G1 X305.726 Y-238.779 Z-1.948
G1 X305.803 Y-238.573 Z-1.956
G1 X305.895 Y-238.374 Z-1.964
G1 X306.001 Y-238.182 Z-1.971
G1 X306.12 Y-237.998 Z-1.979
G1 X306.253 Y-237.823 Z-1.987
G1 X306.398 Y-237.658 Z-1.994
G1 X306.554 Y-237.504 Z-2.002
G1 X306.722 Y-237.362 Z-2.01
G1 X306.899 Y-237.233 Z-2.017
G1 X307.085 Y-237.117 Z-2.025
G1 X307.279 Y-237.014 Z-2.033
G1 X307.481 Y-236.926 Z-2.04
G1 X307.688 Y-236.853 Z-2.048
G1 X307.899 Y-236.795 Z-2.056
G1 X308.115 Y-236.753 Z-2.063
G1 X308.332 Y-236.727 Z-2.071
G1 X308.552 Y-236.716 Z-2.079
G1 X308.771 Y-236.721 Z-2.086
G1 X308.99 Y-236.743 Z-2.094
G1 X309.206 Y-236.78 Z-2.102
G1 X309.419 Y-236.833 Z-2.109
G1 X309.628 Y-236.901 Z-2.117
G1 X309.831 Y-236.984 Z-2.125
G1 X310.027 Y-237.081 Z-2.132
G1 X310.216 Y-237.193 Z-2.14
G1 X310.396 Y-237.318 Z-2.148
G1 X310.567 Y-237.456 Z-2.155
G1 X310.727 Y-237.606 Z-2.163
G1 X310.876 Y-237.767 Z-2.17
G1 X311.013 Y-237.939 Z-2.178
G1 X311.137 Y-238.12 Z-2.186
G1 X311.248 Y-238.31 Z-2.193
G1 X311.344 Y-238.507 Z-2.201
G1 X311.426 Y-238.711 Z-2.209
G1 X311.493 Y-238.92 Z-2.216
G1 X311.544 Y-239.133 Z-2.224
G1 X311.58 Y-239.35 Z-2.232
G1 X311.6 Y-239.568 Z-2.239
G1 X311.604 Y-239.788 Z-2.247
G1 X311.592 Y-240.007 Z-2.255
G1 X311.564 Y-240.224 Z-2.262
G1 X311.52 Y-240.44 Z-2.27
G1 X311.461 Y-240.651 Z-2.278
G1 X311.386 Y-240.857 Z-2.285
G1 X311.297 Y-241.058 Z-2.293
G1 X311.194 Y-241.251 Z-2.301
G1 X311.076 Y-241.437 Z-2.308
G1 X310.946 Y-241.613 Z-2.316
G1 X310.803 Y-241.78 Z-2.324
G1 X310.648 Y-241.935 Z-2.331
G1 X310.482 Y-242.079 Z-2.339
G1 X310.306 Y-242.211 Z-2.347
G1 X310.122 Y-242.329 Z-2.354
G1 X309.929 Y-242.434 Z-2.362
G1 X309.729 Y-242.524 Z-2.37
G1 X309.523 Y-242.6 Z-2.377
G1 X309.312 Y-242.66 Z-2.385
G1 X309.097 Y-242.705 Z-2.393
G1 X308.879 Y-242.734 Z-2.4
G1 X308.66 Y-242.747 Z-2.408
G1 X308.441 Y-242.745 Z-2.416
G1 X308.222 Y-242.726 Z-2.423
G1 X308.005 Y-242.692 Z-2.431
G1 X307.792 Y-242.641 Z-2.439
G1 X307.582 Y-242.576 Z-2.446
G1 X307.378 Y-242.495 Z-2.454
G1 X307.18 Y-242.4 Z-2.462
G1 X306.99 Y-242.29 Z-2.469
G1 X306.808 Y-242.167 Z-2.477
G1 X306.636 Y-242.032 Z-2.485
G1 X306.474 Y-241.884 Z-2.492
G1 X306.323 Y-241.724 Z-2.5
G1 X306.184 Y-241.554 Z-2.508
G1 X306.058 Y-241.375 Z-2.515
G1 X305.945 Y-241.186 Z-2.523
G1 X305.847 Y-240.99 Z-2.531
G1 X305.762 Y-240.788 Z-2.538
G1 X305.693 Y-240.579 Z-2.546
G1 X305.639 Y-240.367 Z-2.554
G1 X305.601 Y-240.151 Z-2.561
G1 X305.578 Y-239.932 Z-2.569
G1 X305.572 Y-239.713 Z-2.577
G1 X305.581 Y-239.494 Z-2.584
G1 X305.606 Y-239.276 Z-2.592
G1 X305.647 Y-239.06 Z-2.6
G1 X305.704 Y-238.848 Z-2.607
G1 X305.776 Y-238.641 Z-2.615
G1 X305.863 Y-238.439 Z-2.623
G1 X305.964 Y-238.244 Z-2.63
G1 X306.079 Y-238.057 Z-2.638
G1 X306.208 Y-237.879 Z-2.646
G1 X306.349 Y-237.711 Z-2.653
G1 X306.502 Y-237.554 Z-2.661
G1 X306.665 Y-237.408 Z-2.669
G1 X306.84 Y-237.274 Z-2.676
G1 X307.023 Y-237.154 Z-2.684
G1 X307.215 Y-237.047 Z-2.692
G1 X307.413 Y-236.954 Z-2.699
G1 X307.619 Y-236.876 Z-2.707
G1 X307.829 Y-236.813 Z-2.715
G1 X308.043 Y-236.765 Z-2.722
G1 X308.26 Y-236.734 Z-2.73
G1 X308.479 Y-236.718 Z-2.738
G1 X308.699 Z-2.745
G1 X308.918 Y-236.734 Z-2.753
G1 X309.135 Y-236.766 Z-2.761
G1 X309.349 Y-236.813 Z-2.768
G1 X309.559 Y-236.877 Z-2.776
G1 X309.764 Y-236.955 Z-2.784
G1 X309.963 Y-237.048 Z-2.791
G1 X310.155 Y-237.155 Z-2.799
G1 X310.338 Y-237.276 Z-2.807
G1 X310.512 Y-237.409 Z-2.814
G1 X310.676 Y-237.555 Z-2.822
G1 X310.829 Y-237.713 Z-2.83
G1 X310.969 Y-237.881 Z-2.837
G1 X311.098 Y-238.059 Z-2.845
G1 X311.213 Y-238.246 Z-2.853
G1 X311.314 Y-238.441 Z-2.86
G1 X311.4 Y-238.643 Z-2.868
G1 X311.472 Y-238.85 Z-2.876
G1 X311.529 Y-239.062 Z-2.883
G1 X311.57 Y-239.278 Z-2.891
G1 X311.595 Y-239.496 Z-2.899
G1 X311.604 Y-239.715 Z-2.906
G1 X311.597 Y-239.934 Z-2.914
G1 X311.575 Y-240.153 Z-2.922
G1 X311.536 Y-240.369 Z-2.929
G1 X311.482 Y-240.582 Z-2.937
G1 X311.413 Y-240.79 Z-2.945
G1 X311.328 Y-240.992 Z-2.952
G1 X311.229 Y-241.188 Z-2.96
G1 X311.116 Y-241.377 Z-2.968
G1 X310.99 Y-241.556 Z-2.975
G1 X310.851 Y-241.726 Z-2.983
G1 X310.7 Y-241.885 Z-2.991
G1 X310.538 Y-242.033 Z-2.998
G1 X310.365 Y-242.169 Z-3.006
G1 X310.184 Y-242.292 Z-3.014
G1 X309.993 Y-242.401 Z-3.021
G1 X309.795 Y-242.496 Z-3.029
G1 X309.591 Y-242.577 Z-3.037
G1 X309.382 Y-242.642 Z-3.044
G1 X309.168 Y-242.692 Z-3.052
G1 X308.951 Y-242.726 Z-3.06
G1 X308.733 Y-242.745 Z-3.067
G1 X308.513 Y-242.747 Z-3.075
G1 X308.294 Y-242.734 Z-3.083
G1 X308.077 Y-242.705 Z-3.09
G1 X307.862 Y-242.66 Z-3.098
G1 X307.651 Y-242.599 Z-3.106
G1 X307.445 Y-242.523 Z-3.113
G1 X307.245 Y-242.433 Z-3.121
G1 X307.052 Y-242.328 Z-3.129
G1 X306.867 Y-242.21 Z-3.136
G1 X306.692 Y-242.078 Z-3.144
G1 X306.526 Y-241.934 Z-3.152
G1 X306.372 Y-241.778 Z-3.159
G1 X306.229 Y-241.611 Z-3.167
G1 X306.098 Y-241.435 Z-3.175
G1 X305.981 Y-241.249 Z-3.182
G1 X305.878 Y-241.056 Z-3.19
G1 X305.788 Y-240.855 Z-3.198
G1 X305.714 Y-240.649 Z-3.205
G1 X305.655 Y-240.437 Z-3.213
G1 X305.612 Y-240.222 Z-3.221
G1 X305.584 Y-240.004 Z-3.228
G1 X305.572 Y-239.785 Z-3.236
G1 X305.576 Y-239.566 Z-3.244
G1 X305.596 Y-239.347 Z-3.251
G1 X305.632 Y-239.131 Z-3.259
G1 X305.684 Y-238.917 Z-3.267
G1 X305.751 Y-238.708 Z-3.274
G1 X305.833 Y-238.505 Z-3.282
G1 X305.929 Y-238.308 Z-3.29
G1 X306.04 Y-238.118 Z-3.297
G1 X306.164 Y-237.937 Z-3.305
G1 X306.301 Y-237.766 Z-3.313
G1 X306.45 Y-237.605 Z-3.32
G1 X306.61 Y-237.455 Z-3.328
G1 X306.781 Y-237.317 Z-3.336
G1 X306.961 Y-237.192 Z-3.343
G1 X307.15 Y-237.08 Z-3.351
G1 X307.347 Y-236.983 Z-3.359
G1 X307.55 Y-236.9 Z-3.366
G1 X307.759 Y-236.832 Z-3.374
G1 X307.972 Y-236.779 Z-3.382
G1 X308.188 Y-236.742 Z-3.389
G1 X308.407 Y-236.721 Z-3.397
G1 X308.626 Y-236.716 Z-3.405
G1 X308.845 Y-236.727 Z-3.412
G1 X309.063 Y-236.754 Z-3.42
G1 X309.279 Y-236.796 Z-3.428
G1 X309.49 Y-236.854 Z-3.435
G1 X309.697 Y-236.927 Z-3.443
G1 X309.898 Y-237.015 Z-3.451
G1 X310.092 Y-237.118 Z-3.458
G1 X310.278 Y-237.234 Z-3.466
G1 X310.456 Y-237.364 Z-3.474
G1 X310.623 Y-237.506 Z-3.481
G1 X310.779 Y-237.66 Z-3.489
G1 X310.924 Y-237.825 Z-3.497
G1 X311.057 Y-237.999 Z-3.504
G1 X311.176 Y-238.184 Z-3.512
G1 X311.282 Y-238.376 Z-3.52
G1 X311.373 Y-238.575 Z-3.527
G1 X311.45 Y-238.781 Z-3.535
G1 X311.512 Y-238.992 Z-3.543
G1 X311.558 Y-239.206 Z-3.55
G1 X311.588 Y-239.424 Z-3.558
G1 X311.603 Y-239.643 Z-3.566
G1 X311.601 Y-239.862 Z-3.573
G1 X311.584 Y-240.081 Z-3.581
G1 X311.551 Y-240.298 Z-3.589
G1 X311.502 Y-240.512 Z-3.596
G1 X311.437 Y-240.722 Z-3.604
G1 X311.358 Y-240.926 Z-3.612
G1 X311.263 Y-241.124 Z-3.619
G1 X311.155 Y-241.315 Z-3.627
G1 X311.033 Y-241.498 Z-3.635
G1 X310.898 Y-241.671 Z-3.642
G1 X310.751 Y-241.834 Z-3.65
G1 X310.593 Y-241.986 Z-3.658
G1 X310.424 Y-242.125 Z-3.665
G1 X310.245 Y-242.253 Z-3.673
G1 X310.057 Y-242.366 Z-3.681
G1 X309.862 Y-242.466 Z-3.688
G1 X309.659 Y-242.552 Z-3.696
G1 X309.451 Y-242.622 Z-3.704
G1 X309.239 Y-242.677 Z-3.711
G1 X309.023 Y-242.717 Z-3.719
G1 X308.805 Y-242.741 Z-3.727
G1 X308.586 Y-242.748 Z-3.734
G1 X308.366 Y-242.74 Z-3.742
G1 X308.148 Y-242.716 Z-3.75
G1 X307.932 Y-242.676 Z-3.757
G1 X307.72 Y-242.621 Z-3.765
G1 X307.512 Y-242.55 Z-3.773
G1 X307.31 Y-242.464 Z-3.78
G1 X307.115 Y-242.364 Z-3.788
G1 X306.927 Y-242.25 Z-3.796
G1 X306.749 Y-242.123 Z-3.803
G1 X306.58 Y-241.983 Z-3.811
G1 X306.421 Y-241.831 Z-3.819
G1 X306.274 Y-241.668 Z-3.826
G1 X306.14 Y-241.494 Z-3.834
G1 X306.018 Y-241.312 Z-3.842
G1 X305.91 Y-241.121 Z-3.849
G1 X305.816 Y-240.922 Z-3.857
G1 X305.737 Y-240.717 Z-3.865
G1 X305.673 Y-240.508 Z-3.872
G1 X305.624 Y-240.294 Z-3.88
G1 X305.591 Y-240.077 Z-3.888
G1 X305.574 Y-239.858 Z-3.895
G1 X305.573 Y-239.638 Z-3.903
G1 X305.588 Y-239.419 Z-3.911
G1 X305.619 Y-239.202 Z-3.918
G1 X305.665 Y-238.987 Z-3.926
G1 X305.727 Y-238.777 Z-3.934
G1 X305.804 Y-238.571 Z-3.941
G1 X305.896 Y-238.372 Z-3.949
G1 X306.002 Y-238.18 Z-3.957
G1 X306.121 Y-237.996 Z-3.964
G1 X306.254 Y-237.821 Z-3.972
G1 X306.399 Y-237.656 Z-3.98
G1 X306.556 Y-237.503 Z-3.987
G1 X306.724 Y-237.361 Z-3.995
G1 X306.901 Y-237.232 Z-4.003
G1 X307.087 Y-237.116 Z-4.01
G1 X307.281 Y-237.013 Z-4.018
G1 X307.483 Y-236.926 Z-4.026
G1 X307.69 Y-236.853 Z-4.033
G1 X307.901 Y-236.795 Z-4.041
G1 X308.117 Y-236.753 Z-4.049
G1 X308.335 Y-236.726 Z-4.056
G1 X308.554 Y-236.716 Z-4.064
G1 X308.593 Y-236.722
G1 X308.628 Y-236.739
G1 X308.656 Y-236.766
G1 X308.674 Y-236.801
G1 X308.68 Y-236.84
G1 X309.154 Y-278.795
G1 X309.147 Y-278.833
G1 X309.126 Y-278.865
G1 X309.094 Y-278.886
G1 X309.057 Y-278.894
G1 X309.002 Y-278.895
G1 X308.965 Y-278.888
G1 X308.933 Y-278.867
G1 X308.911 Y-278.835
G1 X308.903 Y-278.798
G1 X308.43 Y-236.843
G1 X308.436 Y-236.804
G1 X308.453 Y-236.769
G1 X308.481 Y-236.741
G1 X308.515 Y-236.723
G1 X308.554 Y-236.716
G3 X311.132 Y-235.433 I-0.037 J3.307
G2 X313.271 Y-235.16 I1.206 J-0.933
G2 X313.863 Y-236.349 I-0.933 J-1.206
G1 X314.379 Y-282.104
G3 X315.514 Y-284.721 I3.683 J0.042
G2 X315.523 Y-285.169 I-0.219 J-0.229
G2 X315.295 Y-285.266 I-0.229 J0.219
G2 X315.066 Y-285.17 I-0.001 J0.317
G3 X312.376 Y-284.045 I-2.649 J-2.558
G1 X305.802 Y-284.119
G3 X303.136 Y-285.305 I0.041 J-3.683
G2 X302.688 Y-285.323 I-0.233 J0.215
G2 X302.586 Y-285.096 I0.215 J0.233
G2 X302.678 Y-284.866 I0.317 J0.007
G3 X303.754 Y-282.223 I-2.607 J2.601
G1 X303.204 Y-233.469
G3 X302.069 Y-230.852 I-3.683 J-0.042
G2 X302.06 Y-230.404 I0.219 J0.229
G2 X302.285 Y-230.306 I0.229 J-0.219
G2 X302.513 Y-230.398 I0.004 J-0.317
G3 X305.155 Y-231.474 I2.601 J2.607
G1 X311.833 Y-231.399
G3 X314.451 Y-230.264 I-0.041 J3.683
G2 X314.899 Y-230.254 I0.229 J-0.219
G2 X314.997 Y-230.48 I-0.219 J-0.229
G2 X314.905 Y-230.707 I-0.317 J-0.004
G3 X313.829 Y-233.35 I2.607 J-2.601
G1 X313.863 Y-236.349
G0 Z6.096
G0 X305.89 Y-241.082
G1 Z-1.524 F508.
G1 X305.799 Y-240.882 Z-1.532
G1 X305.723 Y-240.676 Z-1.539
G1 X305.662 Y-240.465 Z-1.547
G1 X305.616 Y-240.25 Z-1.555
G1 X305.587 Y-240.033 Z-1.562
G1 X305.573 Y-239.814 Z-1.57
G1 X305.575 Y-239.594 Z-1.578
G1 X305.593 Y-239.375 Z-1.585
G1 X305.627 Y-239.158 Z-1.593
G1 X305.676 Y-238.944 Z-1.601
G1 X305.741 Y-238.735 Z-1.608
G1 X305.821 Y-238.53 Z-1.616
G1 X305.916 Y-238.332 Z-1.624
G1 X306.025 Y-238.142 Z-1.631
G1 X306.148 Y-237.959 Z-1.639
G1 X306.283 Y-237.786 Z-1.647
G1 X306.431 Y-237.624 Z-1.654
G1 X306.59 Y-237.473 Z-1.662
G1 X306.759 Y-237.333 Z-1.67
G1 X306.939 Y-237.207 Z-1.677
G1 X307.127 Y-237.093 Z-1.685
G1 X307.323 Y-236.994 Z-1.693
G1 X307.525 Y-236.909 Z-1.7
G1 X307.733 Y-236.839 Z-1.708
G1 X307.946 Y-236.785 Z-1.716
G1 X308.162 Y-236.746 Z-1.723
G1 X308.381 Y-236.723 Z-1.731
G1 X308.6 Y-236.716 Z-1.739
G1 X308.819 Y-236.725 Z-1.746
G1 X309.038 Y-236.75 Z-1.754
G1 X309.253 Y-236.79 Z-1.762
G1 X309.466 Y-236.846 Z-1.769
G1 X309.673 Y-236.918 Z-1.777
G1 X309.875 Y-237.004 Z-1.785
G1 X310.07 Y-237.105 Z-1.792
G1 X310.257 Y-237.22 Z-1.8
G1 X310.436 Y-237.348 Z-1.808
G1 X310.604 Y-237.489 Z-1.815
G1 X310.762 Y-237.641 Z-1.823
G1 X310.908 Y-237.805 Z-1.831
G1 X311.042 Y-237.979 Z-1.838
G1 X311.163 Y-238.162 Z-1.846
G1 X311.271 Y-238.354 Z-1.854
G1 X311.364 Y-238.553 Z-1.861
G1 X311.442 Y-238.758 Z-1.869
G1 X311.506 Y-238.968 Z-1.877
G1 X311.554 Y-239.182 Z-1.884
G1 X311.586 Y-239.4 Z-1.892
G1 X311.602 Y-239.618 Z-1.9
G1 Y-239.838 Z-1.907
G1 X311.587 Y-240.057 Z-1.915
G1 X311.555 Y-240.274 Z-1.923
G1 X311.508 Y-240.489 Z-1.93
G1 X311.445 Y-240.699 Z-1.938
G1 X311.367 Y-240.904 Z-1.946
G1 X311.274 Y-241.104 Z-1.953
G1 X311.167 Y-241.295 Z-1.961
G1 X311.047 Y-241.479 Z-1.969
G1 X310.913 Y-241.653 Z-1.976
G1 X310.767 Y-241.817 Z-1.984
G1 X310.61 Y-241.97 Z-1.992
G1 X310.442 Y-242.111 Z-2
G1 X310.264 Y-242.24 Z-2.007
G1 X310.077 Y-242.355 Z-2.015
G1 X309.882 Y-242.457 Z-2.023
G1 X309.68 Y-242.544 Z-2.03
G1 X309.473 Y-242.616 Z-2.038
G1 X309.261 Y-242.672 Z-2.046
G1 X309.045 Y-242.713 Z-2.053
G1 X308.827 Y-242.739 Z-2.061
G1 X308.608 Y-242.748 Z-2.069
G1 X308.388 Y-242.742 Z-2.076
G1 X308.17 Y-242.719 Z-2.084
G1 X307.954 Y-242.681 Z-2.092
G1 X307.741 Y-242.627 Z-2.099
G1 X307.532 Y-242.558 Z-2.107
G1 X307.33 Y-242.473 Z-2.115
G1 X307.134 Y-242.375 Z-2.122
G1 X306.945 Y-242.262 Z-2.13
G1 X306.765 Y-242.136 Z-2.138
G1 X306.595 Y-241.997 Z-2.145
G1 X306.436 Y-241.846 Z-2.153
G1 X306.288 Y-241.684 Z-2.161
G1 X306.152 Y-241.511 Z-2.168
G1 X306.029 Y-241.329 Z-2.176
G1 X305.92 Y-241.139 Z-2.184
G1 X305.824 Y-240.941 Z-2.191
G1 X305.744 Y-240.737 Z-2.199
G1 X305.678 Y-240.527 Z-2.207
G1 X305.628 Y-240.313 Z-2.214
G1 X305.594 Y-240.097 Z-2.222
G1 X305.575 Y-239.878 Z-2.23
G1 X305.572 Y-239.658 Z-2.237
G1 X305.586 Y-239.439 Z-2.245
G1 X305.615 Y-239.221 Z-2.253
G1 X305.66 Y-239.006 Z-2.26
G1 X305.721 Y-238.795 Z-2.268
G1 X305.796 Y-238.589 Z-2.276
G1 X305.887 Y-238.389 Z-2.283
G1 X305.992 Y-238.196 Z-2.291
G1 X306.11 Y-238.012 Z-2.299
G1 X306.242 Y-237.836 Z-2.306
G1 X306.386 Y-237.67 Z-2.314
G1 X306.542 Y-237.516 Z-2.322
G1 X306.709 Y-237.373 Z-2.329
G1 X306.885 Y-237.242 Z-2.337
G1 X307.071 Y-237.125 Z-2.345
G1 X307.265 Y-237.021 Z-2.352
G1 X307.465 Y-236.932 Z-2.36
G1 X307.672 Y-236.858 Z-2.368
G1 X307.884 Y-236.799 Z-2.375
G1 X308.099 Y-236.756 Z-2.383
G1 X308.317 Y-236.728 Z-2.391
G1 X308.536 Y-236.716 Z-2.398
G1 X308.755 Y-236.72 Z-2.406
G1 X308.974 Y-236.741 Z-2.414
G1 X309.191 Y-236.777 Z-2.421
G1 X309.404 Y-236.828 Z-2.429
G1 X309.613 Y-236.895 Z-2.437
G1 X309.817 Y-236.978 Z-2.444
G1 X310.014 Y-237.074 Z-2.452
G1 X310.204 Y-237.185 Z-2.46
G1 X310.385 Y-237.309 Z-2.467
G1 X310.556 Y-237.446 Z-2.475
G1 X310.717 Y-237.596 Z-2.483
G1 X310.867 Y-237.756 Z-2.49
G1 X311.005 Y-237.927 Z-2.498
G1 X311.129 Y-238.108 Z-2.506
G1 X311.241 Y-238.297 Z-2.513
G1 X311.338 Y-238.494 Z-2.521
G1 X311.421 Y-238.697 Z-2.529
G1 X311.489 Y-238.906 Z-2.536
G1 X311.541 Y-239.119 Z-2.544
G1 X311.578 Y-239.336 Z-2.552
G1 X311.599 Y-239.554 Z-2.559
G1 X311.604 Y-239.774 Z-2.567
G1 X311.593 Y-239.993 Z-2.575
G1 X311.566 Y-240.211 Z-2.582
G1 X311.523 Y-240.427 Z-2.59
G1 X311.465 Y-240.638 Z-2.598
G1 X311.391 Y-240.845 Z-2.605
G1 X311.303 Y-241.046 Z-2.613
G1 X311.2 Y-241.24 Z-2.621
G1 X311.083 Y-241.426 Z-2.628
G1 X310.954 Y-241.603 Z-2.636
G1 X310.811 Y-241.77 Z-2.644
G1 X310.657 Y-241.927 Z-2.651
G1 X310.492 Y-242.071 Z-2.659
G1 X310.317 Y-242.204 Z-2.667
G1 X310.132 Y-242.323 Z-2.674
G1 X309.94 Y-242.428 Z-2.682
G1 X309.74 Y-242.52 Z-2.69
G1 X309.534 Y-242.596 Z-2.697
G1 X309.323 Y-242.657 Z-2.705
G1 X309.108 Y-242.703 Z-2.713
G1 X308.891 Y-242.733 Z-2.72
G1 X308.672 Y-242.747 Z-2.728
G1 X308.452 Y-242.745 Z-2.736
G1 X308.233 Y-242.727 Z-2.743
G1 X308.016 Y-242.694 Z-2.751
G1 X307.802 Y-242.644 Z-2.759
G1 X307.593 Y-242.579 Z-2.766
G1 X307.388 Y-242.5 Z-2.774
G1 X307.19 Y-242.405 Z-2.782
G1 X306.999 Y-242.296 Z-2.789
G1 X306.817 Y-242.174 Z-2.797
G1 X306.644 Y-242.038 Z-2.805
G1 X306.481 Y-241.891 Z-2.812
G1 X306.33 Y-241.732 Z-2.82
G1 X306.19 Y-241.562 Z-2.828
G1 X306.064 Y-241.383 Z-2.835
G1 X305.95 Y-241.195 Z-2.843
G1 X305.851 Y-240.999 Z-2.851
G1 X305.766 Y-240.797 Z-2.858
G1 X305.696 Y-240.589 Z-2.866
G1 X305.641 Y-240.376 Z-2.874
G1 X305.602 Y-240.16 Z-2.881
G1 X305.579 Y-239.942 Z-2.889
G1 X305.572 Y-239.722 Z-2.897
G1 X305.58 Y-239.503 Z-2.904
G1 X305.605 Y-239.285 Z-2.912
G1 X305.645 Y-239.069 Z-2.92
G1 X305.701 Y-238.857 Z-2.927
G1 X305.773 Y-238.649 Z-2.935
G1 X305.859 Y-238.447 Z-2.943
G1 X305.96 Y-238.252 Z-2.951
G1 X306.074 Y-238.065 Z-2.958
G1 X306.202 Y-237.886 Z-2.966
G1 X306.343 Y-237.718 Z-2.974
G1 X306.496 Y-237.56 Z-2.981
G1 X306.659 Y-237.413 Z-2.989
G1 X306.833 Y-237.279 Z-2.997
G1 X307.016 Y-237.158 Z-3.004
G1 X307.207 Y-237.05 Z-3.012
G1 X307.406 Y-236.957 Z-3.02
G1 X307.611 Y-236.878 Z-3.027
G1 X307.821 Y-236.815 Z-3.035
G1 X308.036 Y-236.767 Z-3.043
G1 X308.253 Y-236.734 Z-3.05
G1 X308.472 Y-236.718 Z-3.058
G1 X308.691 Z-3.066
G1 X308.91 Y-236.733 Z-3.073
G1 X309.128 Y-236.765 Z-3.081
G1 X309.342 Y-236.812 Z-3.089
G1 X309.553 Y-236.874 Z-3.096
G1 X309.758 Y-236.952 Z-3.104
G1 X309.957 Y-237.045 Z-3.112
G1 X310.149 Y-237.151 Z-3.119
G1 X310.333 Y-237.272 Z-3.127
G1 X310.507 Y-237.405 Z-3.135
G1 X310.671 Y-237.551 Z-3.142
G1 X310.824 Y-237.708 Z-3.15
G1 X310.966 Y-237.876 Z-3.158
G1 X311.094 Y-238.054 Z-3.165
G1 X311.21 Y-238.241 Z-3.173
G1 X311.311 Y-238.436 Z-3.181
G1 X311.398 Y-238.637 Z-3.188
G1 X311.471 Y-238.845 Z-3.196
G1 X311.528 Y-239.057 Z-3.204
G1 X311.569 Y-239.272 Z-3.211
G1 X311.594 Y-239.491 Z-3.219
G1 X311.604 Y-239.71 Z-3.227
G1 X311.598 Y-239.929 Z-3.234
G1 X311.575 Y-240.148 Z-3.242
G1 X311.537 Y-240.364 Z-3.25
G1 X311.483 Y-240.577 Z-3.257
G1 X311.414 Y-240.785 Z-3.265
G1 X311.33 Y-240.988 Z-3.273
G1 X311.231 Y-241.184 Z-3.28
G1 X311.119 Y-241.373 Z-3.288
G1 X310.993 Y-241.553 Z-3.296
G1 X310.854 Y-241.723 Z-3.303
G1 X310.703 Y-241.882 Z-3.311
G1 X310.541 Y-242.03 Z-3.319
G1 X310.369 Y-242.166 Z-3.326
G1 X310.187 Y-242.29 Z-3.334
G1 X309.997 Y-242.399 Z-3.342
G1 X309.799 Y-242.495 Z-3.349
G1 X309.595 Y-242.575 Z-3.357
G1 X309.385 Y-242.641 Z-3.365
G1 X309.171 Y-242.691 Z-3.372
G1 X308.955 Y-242.726 Z-3.38
G1 X308.736 Y-242.745 Z-3.388
G1 X308.516 Y-242.747 Z-3.395
G1 X308.297 Y-242.734 Z-3.403
G1 X308.079 Y-242.705 Z-3.411
G1 X307.865 Y-242.66 Z-3.418
G1 X307.653 Y-242.6 Z-3.426
G1 X307.447 Y-242.524 Z-3.434
G1 X307.247 Y-242.434 Z-3.441
G1 X307.054 Y-242.329 Z-3.449
G1 X306.869 Y-242.211 Z-3.457
G1 X306.693 Y-242.079 Z-3.464
G1 X306.528 Y-241.935 Z-3.472
G1 X306.373 Y-241.78 Z-3.48
G1 X306.23 Y-241.613 Z-3.487
G1 X306.099 Y-241.436 Z-3.495
G1 X305.982 Y-241.251 Z-3.503
G1 X305.878 Y-241.057 Z-3.51
G1 X305.789 Y-240.857 Z-3.518
G1 X305.715 Y-240.65 Z-3.526
G1 X305.655 Y-240.439 Z-3.533
G1 X305.612 Y-240.223 Z-3.541
G1 X305.584 Y-240.006 Z-3.549
G1 X305.572 Y-239.786 Z-3.556
G1 X305.576 Y-239.567 Z-3.564
G1 X305.596 Y-239.348 Z-3.572
G1 X305.632 Y-239.132 Z-3.579
G1 X305.683 Y-238.918 Z-3.587
G1 X305.75 Y-238.709 Z-3.595
G1 X305.832 Y-238.505 Z-3.602
G1 X305.929 Y-238.308 Z-3.61
G1 X306.04 Y-238.118 Z-3.618
G1 X306.164 Y-237.937 Z-3.625
G1 X306.301 Y-237.766 Z-3.633
G1 X306.45 Y-237.604 Z-3.641
G1 X306.61 Y-237.455 Z-3.648
G1 X306.781 Y-237.317 Z-3.656
G1 X306.962 Y-237.192 Z-3.664
G1 X307.151 Y-237.08 Z-3.671
G1 X307.348 Y-236.983 Z-3.679
G1 X307.551 Y-236.9 Z-3.687
G1 X307.76 Y-236.832 Z-3.694
G1 X307.973 Y-236.779 Z-3.702
G1 X308.189 Y-236.742 Z-3.71
G1 X308.408 Y-236.721 Z-3.717
G1 X308.627 Y-236.716 Z-3.725
G1 X308.847 Y-236.727 Z-3.733
G1 X309.065 Y-236.754 Z-3.74
G1 X309.28 Y-236.796 Z-3.748
G1 X309.492 Y-236.854 Z-3.756
G1 X309.699 Y-236.928 Z-3.763
G1 X309.9 Y-237.016 Z-3.771
G1 X310.094 Y-237.119 Z-3.779
G1 X310.28 Y-237.235 Z-3.786
G1 X310.457 Y-237.365 Z-3.794
G1 X310.624 Y-237.507 Z-3.802
G1 X310.781 Y-237.661 Z-3.809
G1 X310.926 Y-237.826 Z-3.817
G1 X311.058 Y-238.001 Z-3.825
G1 X311.178 Y-238.186 Z-3.832
G1 X311.283 Y-238.378 Z-3.84
G1 X311.375 Y-238.578 Z-3.848
G1 X311.451 Y-238.784 Z-3.855
G1 X311.513 Y-238.994 Z-3.863
G1 X311.558 Y-239.209 Z-3.871
G1 X311.589 Y-239.427 Z-3.879
G1 X311.603 Y-239.646 Z-3.886
G1 X311.601 Y-239.865 Z-3.894
G1 X311.583 Y-240.084 Z-3.902
G1 X311.55 Y-240.301 Z-3.909
G1 X311.501 Y-240.515 Z-3.917
G1 X311.436 Y-240.725 Z-3.925
G1 X311.356 Y-240.93 Z-3.932
G1 X311.262 Y-241.128 Z-3.94
G1 X311.153 Y-241.319 Z-3.948
G1 X311.031 Y-241.501 Z-3.955
G1 X310.896 Y-241.674 Z-3.963
G1 X310.748 Y-241.837 Z-3.971
G1 X310.589 Y-241.988 Z-3.978
G1 X310.42 Y-242.128 Z-3.986
G1 X310.241 Y-242.255 Z-3.994
G1 X310.053 Y-242.369 Z-4.001
G1 X309.857 Y-242.468 Z-4.009
G1 X309.655 Y-242.553 Z-4.017
G1 X309.447 Y-242.623 Z-4.024
G1 X309.234 Y-242.678 Z-4.032
G1 X309.018 Y-242.717 Z-4.04
G1 X308.8 Y-242.741 Z-4.047
G1 X308.58 Y-242.748 Z-4.055
G1 X308.361 Y-242.74 Z-4.063
G1 X308.143 Y-242.715 Z-4.07
G1 X307.927 Y-242.675 Z-4.078
G1 X307.715 Y-242.619 Z-4.086
G1 X307.507 Y-242.548 Z-4.093
G1 X307.305 Y-242.462 Z-4.101
G1 X307.11 Y-242.361 Z-4.109
G1 X306.922 Y-242.247 Z-4.116
G1 X306.744 Y-242.119 Z-4.124
G1 X306.575 Y-241.978 Z-4.132
G1 X306.417 Y-241.826 Z-4.139
G1 X306.27 Y-241.663 Z-4.147
G1 X306.136 Y-241.489 Z-4.155
G1 X306.015 Y-241.306 Z-4.162
G1 X305.907 Y-241.115 Z-4.17
G1 X305.814 Y-240.916 Z-4.178
G1 X305.735 Y-240.711 Z-4.185
G1 X305.671 Y-240.501 Z-4.193
G1 X305.623 Y-240.287 Z-4.201
G1 X305.59 Y-240.069 Z-4.208
G1 X305.574 Y-239.85 Z-4.216
G1 X305.573 Y-239.631 Z-4.224
G1 X305.589 Y-239.412 Z-4.231
G1 X305.62 Y-239.194 Z-4.239
G1 X305.667 Y-238.98 Z-4.247
G1 X305.729 Y-238.769 Z-4.254
G1 X305.807 Y-238.564 Z-4.262
G1 X305.899 Y-238.365 Z-4.27
G1 X306.006 Y-238.173 Z-4.277
G1 X306.126 Y-237.989 Z-4.285
G1 X306.259 Y-237.815 Z-4.293
G1 X306.405 Y-237.65 Z-4.3
G1 X306.562 Y-237.497 Z-4.308
G1 X306.73 Y-237.356 Z-4.316
G1 X306.908 Y-237.227 Z-4.323
G1 X307.095 Y-237.111 Z-4.331
G1 X307.289 Y-237.01 Z-4.339
G1 X307.491 Y-236.922 Z-4.346
G1 X307.698 Y-236.85 Z-4.354
G1 X307.91 Y-236.793 Z-4.362
G1 X308.126 Y-236.751 Z-4.369
G1 X308.344 Y-236.726 Z-4.377
G1 X308.563 Y-236.716 Z-4.385
G1 X308.783 Y-236.722 Z-4.392
G1 X309.001 Y-236.744 Z-4.4
G1 X309.217 Y-236.782 Z-4.408
G1 X309.43 Y-236.836 Z-4.415
G1 X309.639 Y-236.905 Z-4.423
G1 X309.842 Y-236.989 Z-4.431
G1 X310.038 Y-237.087 Z-4.438
G1 X310.227 Y-237.2 Z-4.446
G1 X310.406 Y-237.326 Z-4.454
G1 X310.577 Y-237.464 Z-4.461
G1 X310.736 Y-237.615 Z-4.469
G1 X310.885 Y-237.777 Z-4.477
G1 X311.021 Y-237.949 Z-4.484
G1 X311.144 Y-238.131 Z-4.492
G1 X311.254 Y-238.321 Z-4.5
G1 X311.349 Y-238.519 Z-4.507
G1 X311.43 Y-238.723 Z-4.515
G1 X311.496 Y-238.932 Z-4.523
G1 X311.547 Y-239.146 Z-4.53
G1 X311.581 Y-239.363 Z-4.538
G1 X311.6 Y-239.582 Z-4.546
G1 X311.603 Y-239.801 Z-4.553
G1 X311.59 Y-240.02 Z-4.561
G1 X311.561 Y-240.238 Z-4.569
G1 X311.517 Y-240.453 Z-4.576
G1 X311.456 Y-240.664 Z-4.584
G1 X311.381 Y-240.87 Z-4.592
G1 X311.291 Y-241.071 Z-4.599
G1 X311.186 Y-241.264 Z-4.607
G1 X311.068 Y-241.449 Z-4.615
G1 X310.936 Y-241.625 Z-4.622
G1 X310.793 Y-241.79 Z-4.63
G1 X310.637 Y-241.945 Z-4.638
G1 X310.471 Y-242.089 Z-4.645
G1 X310.294 Y-242.219 Z-4.653
G1 X310.109 Y-242.337 Z-4.661
G1 X309.915 Y-242.441 Z-4.668
G1 X309.715 Y-242.53 Z-4.676
G1 X309.508 Y-242.605 Z-4.684
G1 X309.297 Y-242.664 Z-4.691
G1 X309.081 Y-242.708 Z-4.699
G1 X308.864 Y-242.736 Z-4.707
G1 X308.644 Y-242.748 Z-4.714
G1 X308.425 Y-242.744 Z-4.722
G1 X308.206 Y-242.724 Z-4.73
G1 X307.99 Y-242.688 Z-4.737
G1 X307.776 Y-242.637 Z-4.745
G1 X307.567 Y-242.57 Z-4.753
G1 X307.363 Y-242.489 Z-4.76
G1 X307.166 Y-242.392 Z-4.768
G1 X306.976 Y-242.282 Z-4.776
G1 X306.795 Y-242.158 Z-4.783
G1 X306.623 Y-242.021 Z-4.791
G1 X306.462 Y-241.872 Z-4.799
G1 X306.312 Y-241.711 Z-4.807
G1 X306.174 Y-241.541 Z-4.814
G1 X306.049 Y-241.36 Z-4.822
G1 X305.937 Y-241.171 Z-4.83
G1 X305.839 Y-240.975 Z-4.837
G1 X305.756 Y-240.771 Z-4.845
G1 X305.688 Y-240.563 Z-4.853
G1 X305.635 Y-240.349 Z-4.86
G1 X305.598 Y-240.133 Z-4.868
G1 X305.577 Y-239.914 Z-4.876
G1 X305.572 Y-239.695 Z-4.883
G1 X305.582 Y-239.476 Z-4.891
G1 X305.609 Y-239.258 Z-4.899
G1 X305.652 Y-239.042 Z-4.906
G1 X305.709 Y-238.83 Z-4.914
G1 X305.783 Y-238.623 Z-4.922
G1 X305.871 Y-238.422 Z-4.929
G1 X305.973 Y-238.228 Z-4.937
G1 X306.09 Y-238.042 Z-4.945
G1 X306.219 Y-237.865 Z-4.952
G1 X306.361 Y-237.697 Z-4.96
G1 X306.515 Y-237.541 Z-4.968
G1 X306.68 Y-237.396 Z-4.975
G1 X306.855 Y-237.263 Z-4.983
G1 X307.039 Y-237.144 Z-4.991
G1 X307.232 Y-237.038 Z-4.998
G1 X307.431 Y-236.946 Z-5.006
G1 X307.637 Y-236.87 Z-5.014
G1 X307.848 Y-236.808 Z-5.021
G1 X308.063 Y-236.762 Z-5.029
G1 X308.28 Y-236.732 Z-5.037
G1 X308.499 Y-236.717 Z-5.044
G1 X308.719 Y-236.719 Z-5.052
G1 X308.938 Y-236.736 Z-5.06
G1 X309.155 Y-236.77 Z-5.067
G1 X309.369 Y-236.819 Z-5.075
G1 X309.579 Y-236.883 Z-5.083
G1 X309.783 Y-236.963 Z-5.09
G1 X309.981 Y-237.057 Z-5.098
G1 X310.172 Y-237.166 Z-5.106
G1 X310.355 Y-237.288 Z-5.113
G1 X310.528 Y-237.423 Z-5.121
G1 X310.691 Y-237.57 Z-5.129
G1 X310.843 Y-237.729 Z-5.136
G1 X310.982 Y-237.898 Z-5.144
G1 X311.109 Y-238.077 Z-5.152
G1 X311.223 Y-238.265 Z-5.159
G1 X311.323 Y-238.461 Z-5.167
G1 X311.408 Y-238.663 Z-5.175
G1 X311.479 Y-238.871 Z-5.182
G1 X311.534 Y-239.083 Z-5.19
G1 X311.573 Y-239.299 Z-5.198
G1 X311.596 Y-239.518 Z-5.205
G1 X311.604 Y-239.737 Z-5.213
G1 X311.596 Y-239.957 Z-5.221
G1 X311.571 Y-240.175 Z-5.228
G1 X311.531 Y-240.391 Z-5.236
G1 X311.476 Y-240.603 Z-5.244
G1 X311.405 Y-240.811 Z-5.251
G1 X311.319 Y-241.013 Z-5.259
G1 X311.218 Y-241.208 Z-5.267
G1 X311.104 Y-241.396 Z-5.274
G1 X310.976 Y-241.574 Z-5.282
G1 X310.836 Y-241.743 Z-5.29
G1 X310.684 Y-241.901 Z-5.297
G1 X310.52 Y-242.048 Z-5.305
G1 X310.347 Y-242.183 Z-5.313
G1 X310.164 Y-242.304 Z-5.32
G1 X309.972 Y-242.412 Z-5.328
G1 X309.774 Y-242.505 Z-5.336
G1 X309.569 Y-242.584 Z-5.343
G1 X309.359 Y-242.648 Z-5.351
G1 X309.145 Y-242.697 Z-5.359
G1 X308.927 Y-242.729 Z-5.366
G1 X308.709 Y-242.746 Z-5.374
G1 X308.489 Y-242.747 Z-5.382
G1 X308.27 Y-242.732 Z-5.389
G1 X308.053 Y-242.7 Z-5.397
G1 X307.838 Y-242.654 Z-5.405
G1 X307.627 Y-242.591 Z-5.412
G1 X307.422 Y-242.514 Z-5.42
G1 X307.223 Y-242.422 Z-5.428
G1 X307.031 Y-242.315 Z-5.435
G1 X306.847 Y-242.195 Z-5.443
G1 X306.672 Y-242.062 Z-5.451
G1 X306.508 Y-241.916 Z-5.458
G1 X306.354 Y-241.759 Z-5.466
G1 X306.213 Y-241.592 Z-5.474
G1 X306.084 Y-241.414 Z-5.481
G1 X305.968 Y-241.227 Z-5.489
G1 X305.866 Y-241.033 Z-5.497
G1 X305.779 Y-240.831 Z-5.504
G1 X305.706 Y-240.624 Z-5.512
G1 X305.649 Y-240.412 Z-5.52
G1 X305.608 Y-240.196 Z-5.527
G1 X305.582 Y-239.978 Z-5.535
G1 X305.572 Y-239.759 Z-5.543
G1 X305.578 Y-239.54 Z-5.55
G1 X305.6 Y-239.321 Z-5.558
G1 X305.638 Y-239.105 Z-5.566
G1 X305.691 Y-238.892 Z-5.573
G1 X305.76 Y-238.683 Z-5.581
G1 X305.844 Y-238.48 Z-5.589
G1 X305.942 Y-238.284 Z-5.596
G1 X306.054 Y-238.095 Z-5.604
G1 X306.18 Y-237.915 Z-5.612
G1 X306.319 Y-237.745 Z-5.619
G1 X306.469 Y-237.585 Z-5.627
G1 X306.631 Y-237.437 Z-5.635
G1 X306.803 Y-237.3 Z-5.642
G1 X306.985 Y-237.177 Z-5.65
G1 X307.175 Y-237.067 Z-5.658
G1 X307.372 Y-236.972 Z-5.665
G1 X307.577 Y-236.89 Z-5.673
G1 X307.786 Y-236.824 Z-5.681
G1 X308 Y-236.774 Z-5.688
G1 X308.216 Y-236.739 Z-5.696
G1 X308.435 Y-236.72 Z-5.704
G1 X308.655 Y-236.717 Z-5.711
G1 X308.874 Y-236.729 Z-5.719
G1 X309.092 Y-236.758 Z-5.727
G1 X309.307 Y-236.803 Z-5.734
G1 X309.518 Y-236.863 Z-5.742
G1 X309.724 Y-236.938 Z-5.75
G1 X309.924 Y-237.028 Z-5.758
G1 X310.117 Y-237.132 Z-5.765
G1 X310.303 Y-237.251 Z-5.773
G1 X310.479 Y-237.382 Z-5.781
G1 X310.644 Y-237.526 Z-5.788
G1 X310.8 Y-237.681 Z-5.796
G1 X310.943 Y-237.848 Z-5.804
G1 X311.074 Y-238.024 Z-5.811
G1 X311.191 Y-238.209 Z-5.819
G1 X311.295 Y-238.403 Z-5.827
G1 X311.385 Y-238.603 Z-5.834
G1 X311.46 Y-238.81 Z-5.842
G1 X311.519 Y-239.021 Z-5.85
G1 X311.563 Y-239.236 Z-5.857
G1 X311.591 Y-239.454 Z-5.865
G1 X311.604 Y-239.673 Z-5.873
G1 X311.6 Y-239.893 Z-5.88
G1 X311.58 Y-240.111 Z-5.888
G1 X311.545 Y-240.328 Z-5.896
G1 X311.493 Y-240.542 Z-5.903
G1 X311.427 Y-240.751 Z-5.911
G1 X311.345 Y-240.955 Z-5.919
G1 X311.249 Y-241.152 Z-5.926
G1 X311.139 Y-241.342 Z-5.934
G1 X311.015 Y-241.523 Z-5.942
G1 X310.878 Y-241.695 Z-5.949
G1 X310.729 Y-241.856 Z-5.957
G1 X310.569 Y-242.006 Z-5.965
G1 X310.398 Y-242.145 Z-5.972
G1 X310.218 Y-242.27 Z-5.98
G1 X310.029 Y-242.382 Z-5.988
G1 X309.832 Y-242.48 Z-5.995
G1 X309.629 Y-242.563 Z-6.003
G1 X309.421 Y-242.631 Z-6.011
G1 X309.207 Y-242.684 Z-6.018
G1 X308.991 Y-242.721 Z-6.026
G1 X308.773 Y-242.743 Z-6.034
G1 X308.553 Y-242.748 Z-6.041
G1 X308.334 Y-242.738 Z-6.049
G1 X308.116 Y-242.711 Z-6.057
G1 X307.9 Y-242.669 Z-6.064
G1 X307.688 Y-242.611 Z-6.072
G1 X307.481 Y-242.538 Z-6.08
G1 X307.28 Y-242.45 Z-6.087
G1 X307.086 Y-242.348 Z-6.095
G1 X306.9 Y-242.232 Z-6.103
G1 X306.722 Y-242.102 Z-6.11
G1 X306.555 Y-241.96 Z-6.118
G1 X306.398 Y-241.806 Z-6.126
G1 X306.253 Y-241.642 Z-6.133
G1 X306.12 Y-241.467 Z-6.141
G1 X306.001 Y-241.283 Z-6.149
G1 X305.895 Y-241.09 Z-6.156
G1 X305.803 Y-240.891 Z-6.164
G1 X305.726 Y-240.685 Z-6.172
G1 X305.664 Y-240.474 Z-6.179
G1 X305.618 Y-240.26 Z-6.187
G1 X305.588 Y-240.042 Z-6.195
G1 X305.573 Y-239.823 Z-6.202
G1 X305.574 Y-239.604 Z-6.21
G1 X305.592 Y-239.385 Z-6.218
G1 X305.625 Y-239.168 Z-6.225
G1 X305.674 Y-238.954 Z-6.233
G1 X305.738 Y-238.744 Z-6.241
G1 X305.818 Y-238.539 Z-6.248
G1 X305.912 Y-238.341 Z-6.256
G1 X306.02 Y-238.15 Z-6.264
G1 X306.142 Y-237.967 Z-6.271
G1 X306.277 Y-237.794 Z-6.279
G1 X306.424 Y-237.631 Z-6.287
G1 X306.583 Y-237.479 Z-6.294
G1 X306.752 Y-237.339 Z-6.302
G1 X306.931 Y-237.212 Z-6.31
G1 X307.119 Y-237.098 Z-6.317
G1 X307.314 Y-236.998 Z-6.325
G1 X307.516 Y-236.913 Z-6.333
G1 X307.724 Y-236.842 Z-6.34
G1 X307.937 Y-236.787 Z-6.348
G1 X308.153 Y-236.747 Z-6.356
G1 X308.371 Y-236.724 Z-6.363
G1 X308.591 Y-236.716 Z-6.371
G1 X308.81 Y-236.724 Z-6.379
G1 X309.028 Y-236.748 Z-6.386
G1 X309.244 Y-236.788 Z-6.394
G1 X309.457 Y-236.844 Z-6.402
G1 X309.664 Y-236.915 Z-6.409
G1 X309.867 Y-237 Z-6.417
G1 X310.062 Y-237.101 Z-6.425
G1 X310.249 Y-237.215 Z-6.432
G1 X310.428 Y-237.342 Z-6.44
G1 X310.597 Y-237.483 Z-6.448
G1 X310.755 Y-237.635 Z-6.455
G1 X310.902 Y-237.798 Z-6.463
G1 X311.037 Y-237.971 Z-6.471
G1 X311.158 Y-238.154 Z-6.478
G1 X311.266 Y-238.345 Z-6.486
G1 X311.36 Y-238.544 Z-6.494
G1 X311.439 Y-238.749 Z-6.501
G1 X311.503 Y-238.959 Z-6.509
G1 X311.552 Y-239.173 Z-6.517
G1 X311.585 Y-239.39 Z-6.524
G1 X311.602 Y-239.609 Z-6.532
G1 X311.603 Y-239.829 Z-6.54
G1 X311.588 Y-240.048 Z-6.547
G1 X311.557 Y-240.265 Z-6.555
G1 X311.51 Y-240.48 Z-6.563
G1 X311.448 Y-240.69 Z-6.57
G1 X311.371 Y-240.896 Z-6.578
G1 X311.279 Y-241.095 Z-6.586
G1 X311.172 Y-241.287 Z-6.593
G1 X311.052 Y-241.471 Z-6.601
G1 X310.919 Y-241.646 Z-6.609
G1 X310.774 Y-241.81 Z-6.616
G1 X310.617 Y-241.964 Z-6.624
G1 X310.449 Y-242.106 Z-6.632
G1 X310.272 Y-242.235 Z-6.639
G1 X310.085 Y-242.351 Z-6.647
G1 X309.891 Y-242.453 Z-6.655
G1 X309.689 Y-242.54 Z-6.662
G1 X309.482 Y-242.613 Z-6.67
G1 X309.27 Y-242.67 Z-6.678
G1 X309.054 Y-242.712 Z-6.686
G1 X308.836 Y-242.738 Z-6.693
G1 X308.617 Y-242.748 Z-6.701
G1 X308.398 Y-242.742 Z-6.709
G1 X308.179 Y-242.721 Z-6.716
G1 X307.963 Y-242.683 Z-6.724
G1 X307.75 Y-242.63 Z-6.732
G1 X307.541 Y-242.561 Z-6.739
G1 X307.338 Y-242.477 Z-6.747
G1 X307.142 Y-242.379 Z-6.755
G1 X306.953 Y-242.267 Z-6.762
G1 X306.773 Y-242.141 Z-6.77
G1 X306.603 Y-242.003 Z-6.778
G1 X306.443 Y-241.852 Z-6.785
G1 X306.294 Y-241.691 Z-6.793
G1 X306.158 Y-241.519 Z-6.801
G1 X306.034 Y-241.337 Z-6.808
G1 X305.924 Y-241.147 Z-6.816
G1 X305.828 Y-240.95 Z-6.824
G1 X305.747 Y-240.746 Z-6.831
G1 X305.681 Y-240.536 Z-6.839
G1 X305.63 Y-240.323 Z-6.847
G1 X305.595 Y-240.106 Z-6.854
G1 X305.576 Y-239.887 Z-6.862
G1 X305.572 Y-239.668 Z-6.87
G1 X305.585 Y-239.448 Z-6.877
G1 X305.614 Y-239.231 Z-6.885
G1 X305.658 Y-239.016 Z-6.893
G1 X305.718 Y-238.804 Z-6.9
G1 X305.793 Y-238.598 Z-6.908
G1 X305.883 Y-238.398 Z-6.916
G1 X305.987 Y-238.204 Z-6.923
G1 X306.105 Y-238.019 Z-6.931
G1 X306.236 Y-237.843 Z-6.939
G1 X306.38 Y-237.677 Z-6.946
G1 X306.535 Y-237.522 Z-6.954
G1 X306.701 Y-237.379 Z-6.962
G1 X306.878 Y-237.248 Z-6.969
G1 X307.063 Y-237.13 Z-6.977
G1 X307.256 Y-237.026 Z-6.985
G1 X307.457 Y-236.936 Z-6.992
G1 X307.663 Y-236.861 Z-7
G1 X307.874 Y-236.801 Z-7.008
G1 X308.09 Y-236.757 Z-7.015
G1 X308.307 Y-236.729 Z-7.023
G1 X308.526 Y-236.716 Z-7.031
G1 X308.746 Y-236.72 Z-7.038
G1 X308.965 Y-236.739 Z-7.046
G1 X309.181 Y-236.775 Z-7.054
G1 X309.395 Y-236.826 Z-7.061
G1 X309.604 Y-236.892 Z-7.069
G1 X309.808 Y-236.974 Z-7.077
G1 X310.006 Y-237.07 Z-7.084
G1 X310.196 Y-237.18 Z-7.092
G1 X310.377 Y-237.304 Z-7.1
G1 X310.549 Y-237.44 Z-7.107
G1 X310.71 Y-237.589 Z-7.115
G1 X310.861 Y-237.749 Z-7.123
G1 X310.999 Y-237.92 Z-7.13
G1 X311.124 Y-238.1 Z-7.138
G1 X311.236 Y-238.289 Z-7.146
G1 X311.334 Y-238.485 Z-7.153
G1 X311.418 Y-238.688 Z-7.161
G1 X311.486 Y-238.897 Z-7.169
G1 X311.539 Y-239.11 Z-7.176
G1 X311.577 Y-239.327 Z-7.184
G1 X311.598 Y-239.545 Z-7.192
G1 X311.604 Y-239.765 Z-7.199
G1 X311.594 Y-239.984 Z-7.207
G1 X311.567 Y-240.202 Z-7.215
G1 X311.525 Y-240.417 Z-7.222
G1 X311.468 Y-240.629 Z-7.23
G1 X311.395 Y-240.836 Z-7.238
G1 X311.307 Y-241.038 Z-7.245
G1 X311.205 Y-241.232 Z-7.253
G1 X311.089 Y-241.418 Z-7.261
G1 X310.959 Y-241.596 Z-7.268
G1 X310.818 Y-241.763 Z-7.276
G1 X310.664 Y-241.92 Z-7.284
G1 X310.499 Y-242.065 Z-7.291
G1 X310.324 Y-242.198 Z-7.299
G1 X310.14 Y-242.318 Z-7.307
G1 X309.948 Y-242.424 Z-7.314
G1 X309.749 Y-242.516 Z-7.322
G1 X309.543 Y-242.593 Z-7.33
G1 X309.332 Y-242.655 Z-7.337
G1 X309.118 Y-242.701 Z-7.345
G1 X308.9 Y-242.732 Z-7.353
G1 X308.681 Y-242.747 Z-7.36
G1 X308.462 Y-242.746 Z-7.368
G1 X308.243 Y-242.729 Z-7.376
G1 X308.026 Y-242.695 Z-7.383
G1 X307.812 Y-242.647 Z-7.391
G1 X307.602 Y-242.583 Z-7.399
G1 X307.397 Y-242.503 Z-7.406
G1 X307.198 Y-242.409 Z-7.414
G1 X307.007 Y-242.301 Z-7.422
G1 X306.825 Y-242.179 Z-7.429
G1 X306.651 Y-242.045 Z-7.437
G1 X306.488 Y-241.898 Z-7.445
G1 X306.336 Y-241.739 Z-7.452
G1 X306.196 Y-241.57 Z-7.46
G1 X306.069 Y-241.391 Z-7.468
G1 X305.955 Y-241.203 Z-7.475
G1 X305.855 Y-241.008 Z-7.483
G1 X305.769 Y-240.806 Z-7.491
G1 X305.699 Y-240.598 Z-7.498
G1 X305.643 Y-240.385 Z-7.506
G1 X305.603 Y-240.169 Z-7.514
G1 X305.58 Y-239.951 Z-7.521
G1 X305.572 Y-239.732 Z-7.529
G1 X305.58 Y-239.512 Z-7.537
G1 X305.604 Y-239.294 Z-7.544
G1 X305.643 Y-239.078 Z-7.552
G1 X305.699 Y-238.866 Z-7.56
G1 X305.769 Y-238.658 Z-7.567
G1 X305.855 Y-238.456 Z-7.575
G1 X305.955 Y-238.26 Z-7.583
G1 X306.069 Y-238.072 Z-7.59
G1 X306.197 Y-237.894 Z-7.598
G1 X306.337 Y-237.725 Z-7.606
G1 X306.489 Y-237.566 Z-7.614
G1 X306.652 Y-237.419 Z-7.621
G1 X306.825 Y-237.284 Z-7.629
G1 X307.008 Y-237.163 Z-7.637
G1 X307.199 Y-237.055 Z-7.644
G1 X307.398 Y-236.961 Z-7.652
G1 X307.602 Y-236.881 Z-7.66
G1 X307.812 Y-236.817 Z-7.667
G1 X308.026 Y-236.769 Z-7.675
G1 X308.244 Y-236.736 Z-7.683
G1 X308.462 Y-236.718 Z-7.69
G1 X308.682 Y-236.717 Z-7.698
G1 X308.901 Y-236.732 Z-7.706
G1 X309.118 Y-236.763 Z-7.713
G1 X309.333 Y-236.809 Z-7.721
G1 X309.544 Y-236.871 Z-7.729
G1 X309.749 Y-236.948 Z-7.736
G1 X309.949 Y-237.04 Z-7.744
G1 X310.141 Y-237.146 Z-7.752
G1 X310.325 Y-237.266 Z-7.759
G1 X310.5 Y-237.399 Z-7.767
G1 X310.664 Y-237.544 Z-7.775
G1 X310.818 Y-237.701 Z-7.782
G1 X310.96 Y-237.869 Z-7.79
G1 X311.089 Y-238.046 Z-7.798
G1 X311.205 Y-238.233 Z-7.805
G1 X311.307 Y-238.427 Z-7.813
G1 X311.395 Y-238.629 Z-7.821
G1 X311.468 Y-238.836 Z-7.828
G1 X311.525 Y-239.048 Z-7.836
G1 X311.567 Y-239.263 Z-7.844
G1 X311.594 Y-239.481 Z-7.851
G1 X311.604 Y-239.7 Z-7.859
G1 X311.598 Y-239.92 Z-7.867
G1 X311.577 Y-240.138 Z-7.874
G1 X311.539 Y-240.355 Z-7.882
G1 X311.486 Y-240.568 Z-7.89
G1 X311.418 Y-240.776 Z-7.897
G1 X311.334 Y-240.98 Z-7.905
G1 X311.236 Y-241.176 Z-7.913
G1 X311.124 Y-241.365 Z-7.92
G1 X310.998 Y-241.545 Z-7.928
G1 X310.86 Y-241.716 Z-7.936
G1 X310.71 Y-241.876 Z-7.943
G1 X310.548 Y-242.024 Z-7.951
G1 X310.376 Y-242.161 Z-7.959
G1 X310.195 Y-242.285 Z-7.966
G1 X310.005 Y-242.395 Z-7.974
G1 X309.807 Y-242.491 Z-7.982
G1 X309.604 Y-242.572 Z-7.989
G1 X309.394 Y-242.639 Z-7.997
G1 X309.181 Y-242.689 Z-8.005
G1 X308.964 Y-242.725 Z-8.012
G1 X308.745 Y-242.744 Z-8.02
G1 X308.526 Y-242.748 Z-8.028
G1 X308.306 Y-242.735 Z-8.035
G1 X308.089 Y-242.707 Z-8.043
G1 X307.874 Y-242.663 Z-8.051
G1 X307.662 Y-242.603 Z-8.058
G1 X307.456 Y-242.528 Z-8.066
G1 X307.256 Y-242.438 Z-8.074
G1 X307.062 Y-242.334 Z-8.081
G1 X306.877 Y-242.216 Z-8.089
G1 X306.701 Y-242.085 Z-8.097
G1 X306.535 Y-241.942 Z-8.104
G1 X306.379 Y-241.786 Z-8.112
G1 X306.236 Y-241.62 Z-8.12
G1 X306.105 Y-241.444 Z-8.127
G1 X305.987 Y-241.259 Z-8.135
G1 X305.882 Y-241.066 Z-8.143
G1 X305.793 Y-240.865 Z-8.15
G1 X305.718 Y-240.659 Z-8.158
G1 X305.658 Y-240.448 Z-8.166
G1 X305.613 Y-240.233 Z-8.173
G1 X305.585 Y-240.015 Z-8.181
G1 X305.572 Y-239.796 Z-8.189
G1 X305.576 Y-239.576 Z-8.196
G1 X305.595 Y-239.358 Z-8.204
G1 X305.63 Y-239.141 Z-8.212
G1 X305.681 Y-238.927 Z-8.219
G1 X305.747 Y-238.718 Z-8.227
G1 X305.829 Y-238.514 Z-8.235
G1 X305.924 Y-238.316 Z-8.242
G1 X306.035 Y-238.126 Z-8.25
G1 X306.158 Y-237.945 Z-8.258
G1 X306.295 Y-237.773 Z-8.265
G1 X306.443 Y-237.611 Z-8.273
G1 X306.603 Y-237.461 Z-8.281
G1 X306.774 Y-237.322 Z-8.288
G1 X306.954 Y-237.197 Z-8.296
G1 X307.142 Y-237.085 Z-8.304
G1 X307.339 Y-236.987 Z-8.311
G1 X307.542 Y-236.903 Z-8.319
G1 X307.751 Y-236.834 Z-8.327
G1 X307.964 Y-236.781 Z-8.334
G1 X308.18 Y-236.744 Z-8.342
G1 X308.398 Y-236.722 Z-8.35
G1 X308.618 Y-236.716 Z-8.357
G1 X308.837 Y-236.726 Z-8.365
G1 X309.055 Y-236.752 Z-8.373
G1 X309.271 Y-236.794 Z-8.38
G1 X309.483 Y-236.852 Z-8.388
G1 X309.69 Y-236.924 Z-8.396
G1 X309.891 Y-237.012 Z-8.403
G1 X310.086 Y-237.114 Z-8.411
G1 X310.272 Y-237.23 Z-8.419
G1 X310.45 Y-237.359 Z-8.426
G1 X310.617 Y-237.501 Z-8.434
G1 X310.774 Y-237.654 Z-8.442
G1 X310.92 Y-237.819 Z-8.449
G1 X311.053 Y-237.994 Z-8.457
G1 X311.173 Y-238.178 Z-8.465
G1 X311.279 Y-238.37 Z-8.472
G1 X311.371 Y-238.569 Z-8.48
G1 X311.448 Y-238.775 Z-8.488
G1 X311.51 Y-238.985 Z-8.495
G1 X311.557 Y-239.2 Z-8.503
G1 X311.588 Y-239.417 Z-8.511
G1 X311.603 Y-239.636 Z-8.518
G1 X311.602 Y-239.856 Z-8.526
G1 X311.585 Y-240.075 Z-8.534
G1 X311.552 Y-240.292 Z-8.541
G1 X311.503 Y-240.506 Z-8.549
G1 X311.439 Y-240.716 Z-8.557
G1 X311.36 Y-240.921 Z-8.565
G1 X311.266 Y-241.119 Z-8.572
G1 X311.158 Y-241.311 Z-8.58
G1 X311.036 Y-241.493 Z-8.588
G1 X310.902 Y-241.667 Z-8.595
G1 X310.755 Y-241.83 Z-8.603
G1 X310.597 Y-241.982 Z-8.611
G1 X310.428 Y-242.122 Z-8.618
G1 X310.249 Y-242.25 Z-8.626
G1 X310.061 Y-242.364 Z-8.634
G1 X309.866 Y-242.464 Z-8.641
G1 X309.664 Y-242.55 Z-8.649
G1 X309.456 Y-242.621 Z-8.657
G1 X309.243 Y-242.676 Z-8.664
G1 X309.027 Y-242.716 Z-8.672
G1 X308.809 Y-242.74 Z-8.68
G1 X308.59 Y-242.748 Z-8.687
G1 X308.37 Y-242.74 Z-8.695
G1 X308.152 Y-242.717 Z-8.703
G1 X307.936 Y-242.677 Z-8.71
G1 X307.724 Y-242.622 Z-8.718
G1 X307.516 Y-242.551 Z-8.726
G1 X307.313 Y-242.466 Z-8.733
G1 X307.118 Y-242.366 Z-8.741
G1 X306.93 Y-242.252 Z-8.749
G1 X306.751 Y-242.125 Z-8.756
G1 X306.582 Y-241.985 Z-8.764
G1 X306.424 Y-241.833 Z-8.772
G1 X306.276 Y-241.67 Z-8.779
G1 X306.142 Y-241.497 Z-8.787
G1 X306.02 Y-241.314 Z-8.795
G1 X305.911 Y-241.123 Z-8.802
G1 X305.817 Y-240.925 Z-8.81
G1 X305.738 Y-240.72 Z-8.818
G1 X305.674 Y-240.51 Z-8.825
G1 X305.625 Y-240.296 Z-8.833
G1 X305.592 Y-240.079 Z-8.841
G1 X305.574 Y-239.86 Z-8.848
G1 X305.573 Y-239.64 Z-8.856
G1 X305.588 Y-239.421 Z-8.864
G1 X305.618 Y-239.204 Z-8.871
G1 X305.665 Y-238.989 Z-8.879
G1 X305.726 Y-238.778 Z-8.887
G1 X305.803 Y-238.573 Z-8.894
G1 X305.895 Y-238.373 Z-8.902
G1 X306.001 Y-238.181 Z-8.91
G1 X306.121 Y-237.997 Z-8.917
G1 X306.253 Y-237.822 Z-8.925
G1 X306.399 Y-237.657 Z-8.933
G1 X306.555 Y-237.503 Z-8.94
G1 X306.723 Y-237.362 Z-8.948
G1 X306.9 Y-237.232 Z-8.956
G1 X307.087 Y-237.116 Z-8.963
G1 X307.281 Y-237.014 Z-8.971
G1 X307.482 Y-236.926 Z-8.979
G1 X307.689 Y-236.853 Z-8.986
G1 X307.901 Y-236.795 Z-8.994
G1 X308.116 Y-236.753 Z-9.002
G1 X308.334 Y-236.727 Z-9.009
G1 X308.554 Y-236.716 Z-9.017
G1 X308.593 Y-236.722
G1 X308.628 Y-236.739
G1 X308.656 Y-236.766
G1 X308.674 Y-236.801
G1 X308.68 Y-236.84
G1 X309.154 Y-278.795
G1 X309.147 Y-278.833
G1 X309.126 Y-278.865
G1 X309.094 Y-278.886
G1 X309.057 Y-278.894
G1 X309.002 Y-278.895
G1 X308.965 Y-278.888
G1 X308.933 Y-278.867
G1 X308.911 Y-278.835
G1 X308.903 Y-278.798
G1 X308.43 Y-236.843
G1 X308.436 Y-236.804
G1 X308.453 Y-236.769
G1 X308.481 Y-236.741
G1 X308.515 Y-236.723
G1 X308.554 Y-236.716
G3 X311.132 Y-235.433 I-0.037 J3.307
G2 X313.271 Y-235.16 I1.206 J-0.933
G2 X313.863 Y-236.349 I-0.933 J-1.206
G1 X314.379 Y-282.104
G3 X315.514 Y-284.721 I3.683 J0.042
G2 X315.523 Y-285.169 I-0.219 J-0.229
G2 X315.295 Y-285.266 I-0.229 J0.219
G2 X315.066 Y-285.17 I-0.001 J0.317
G3 X312.376 Y-284.045 I-2.649 J-2.558
G1 X305.802 Y-284.119
G3 X303.136 Y-285.305 I0.041 J-3.683
G2 X302.688 Y-285.323 I-0.233 J0.215
G2 X302.586 Y-285.096 I0.215 J0.233
G2 X302.678 Y-284.866 I0.317 J0.007
G3 X303.754 Y-282.223 I-2.607 J2.601
G1 X303.204 Y-233.469
G3 X302.069 Y-230.852 I-3.683 J-0.042
G2 X302.06 Y-230.404 I0.219 J0.229
G2 X302.285 Y-230.306 I0.229 J-0.219
G2 X302.513 Y-230.398 I0.004 J-0.317
G3 X305.155 Y-231.474 I2.601 J2.607
G1 X311.833 Y-231.399
G3 X314.451 Y-230.264 I-0.041 J3.683
G2 X314.899 Y-230.254 I0.229 J-0.219
G2 X314.997 Y-230.48 I-0.219 J-0.229
G2 X314.905 Y-230.707 I-0.317 J-0.004
G3 X313.829 Y-233.35 I2.607 J-2.601
G1 X313.863 Y-236.349
G0 Z6.096
G0 X260.695 Y-329.641
G1 Z3.556 F508.
G1 X260.475 Y-329.653 Z3.548
G1 X260.256 Y-329.65 Z3.541
G1 X260.037 Y-329.631 Z3.533
G1 X259.821 Y-329.595 Z3.525
G1 X259.607 Y-329.544 Z3.518
G1 X259.398 Y-329.478 Z3.51
G1 X259.194 Y-329.397 Z3.502
G1 X258.997 Y-329.301 Z3.495
G1 X258.807 Y-329.191 Z3.487
G1 X258.626 Y-329.067 Z3.479
G1 X258.454 Y-328.931 Z3.472
G1 X258.292 Y-328.782 Z3.464
G1 X258.142 Y-328.622 Z3.456
G1 X258.003 Y-328.452 Z3.449
G1 X257.878 Y-328.272 Z3.441
G1 X257.766 Y-328.083 Z3.433
G1 X257.668 Y-327.887 Z3.426
G1 X257.584 Y-327.684 Z3.418
G1 X257.516 Y-327.475 Z3.41
G1 X257.463 Y-327.262 Z3.403
G1 X257.425 Y-327.046 Z3.395
G1 X257.403 Y-326.828 Z3.387
G1 X257.397 Y-326.608 Z3.38
G1 X257.407 Y-326.389 Z3.372
G1 X257.434 Y-326.171 Z3.364
G1 X257.475 Y-325.955 Z3.357
G1 X257.533 Y-325.744 Z3.349
G1 X257.605 Y-325.537 Z3.341
G1 X257.693 Y-325.335 Z3.334
G1 X257.795 Y-325.141 Z3.326
G1 X257.911 Y-324.954 Z3.318
G1 X258.04 Y-324.777 Z3.311
G1 X258.181 Y-324.609 Z3.303
G1 X258.335 Y-324.452 Z3.295
G1 X258.499 Y-324.307 Z3.288
G1 X258.674 Y-324.174 Z3.28
G1 X258.857 Y-324.054 Z3.272
G1 X259.049 Y-323.948 Z3.265
G1 X259.249 Y-323.856 Z3.257
G1 X259.454 Y-323.778 Z3.249
G1 X259.665 Y-323.716 Z3.242
G1 X259.879 Y-323.669 Z3.234
G1 X260.096 Y-323.638 Z3.226
G1 X260.315 Y-323.623 Z3.219
G1 X260.535 Y-323.624 Z3.211
G1 X260.754 Y-323.641 Z3.203
G1 X260.971 Y-323.673 Z3.196
G1 X261.185 Y-323.722 Z3.188
G1 X261.395 Y-323.786 Z3.18
G1 X261.6 Y-323.865 Z3.173
G1 X261.798 Y-323.958 Z3.165
G1 X261.989 Y-324.066 Z3.157
G1 X262.172 Y-324.187 Z3.15
G1 X262.346 Y-324.322 Z3.142
G1 X262.509 Y-324.468 Z3.134
G1 X262.661 Y-324.626 Z3.127
G1 X262.801 Y-324.795 Z3.119
G1 X262.929 Y-324.974 Z3.111
G1 X263.043 Y-325.161 Z3.104
G1 X263.144 Y-325.356 Z3.096
G1 X263.23 Y-325.558 Z3.088
G1 X263.301 Y-325.766 Z3.081
G1 X263.357 Y-325.978 Z3.073
G1 X263.397 Y-326.194 Z3.065
G1 X263.421 Y-326.412 Z3.058
G1 X263.43 Y-326.631 Z3.05
G1 X263.422 Y-326.851 Z3.042
G1 X263.399 Y-327.069 Z3.035
G1 X263.36 Y-327.285 Z3.027
G1 X263.305 Y-327.497 Z3.019
G1 X263.235 Y-327.705 Z3.012
G1 X263.149 Y-327.908 Z3.004
G1 X263.05 Y-328.103 Z2.996
G1 X262.936 Y-328.291 Z2.989
G1 X262.809 Y-328.47 Z2.981
G1 X262.67 Y-328.639 Z2.973
G1 X262.518 Y-328.798 Z2.966
G1 X262.356 Y-328.946 Z2.958
G1 X262.183 Y-329.081 Z2.95
G1 X262 Y-329.203 Z2.943
G1 X261.81 Y-329.311 Z2.935
G1 X261.612 Y-329.406 Z2.927
G1 X261.407 Y-329.486 Z2.92
G1 X261.197 Y-329.55 Z2.912
G1 X260.983 Y-329.6 Z2.904
G1 X260.767 Y-329.633 Z2.897
G1 X260.548 Y-329.651 Z2.889
G1 X260.328 Y-329.653 Z2.881
G1 X260.109 Y-329.639 Z2.874
G1 X259.892 Y-329.609 Z2.866
G1 X259.677 Y-329.563 Z2.858
G1 X259.467 Y-329.502 Z2.851
G1 X259.261 Y-329.425 Z2.843
G1 X259.061 Y-329.334 Z2.835
G1 X258.869 Y-329.228 Z2.828
G1 X258.684 Y-329.109 Z2.82
G1 X258.509 Y-328.977 Z2.812
G1 X258.344 Y-328.832 Z2.805
G1 X258.19 Y-328.676 Z2.797
G1 X258.048 Y-328.509 Z2.789
G1 X257.918 Y-328.332 Z2.782
G1 X257.801 Y-328.146 Z2.774
G1 X257.699 Y-327.952 Z2.766
G1 X257.61 Y-327.751 Z2.759
G1 X257.537 Y-327.544 Z2.751
G1 X257.478 Y-327.333 Z2.743
G1 X257.436 Y-327.118 Z2.736
G1 X257.409 Y-326.9 Z2.728
G1 X257.397 Y-326.681 Z2.72
G1 X257.402 Y-326.461 Z2.713
G1 X257.423 Y-326.243 Z2.705
G1 X257.46 Y-326.026 Z2.697
G1 X257.512 Y-325.813 Z2.69
G1 X257.58 Y-325.604 Z2.682
G1 X257.662 Y-325.401 Z2.674
G1 X257.76 Y-325.204 Z2.667
G1 X257.871 Y-325.015 Z2.659
G1 X257.996 Y-324.834 Z2.651
G1 X258.133 Y-324.663 Z2.644
G1 X258.283 Y-324.503 Z2.636
G1 X258.444 Y-324.354 Z2.628
G1 X258.615 Y-324.216 Z2.621
G1 X258.796 Y-324.092 Z2.613
G1 X258.985 Y-323.981 Z2.605
G1 X259.182 Y-323.884 Z2.598
G1 X259.386 Y-323.802 Z2.59
G1 X259.595 Y-323.735 Z2.582
G1 X259.808 Y-323.683 Z2.575
G1 X260.024 Y-323.647 Z2.567
G1 X260.243 Y-323.626 Z2.559
G1 X260.462 Y-323.622 Z2.552
G1 X260.681 Y-323.633 Z2.544
G1 X260.899 Y-323.661 Z2.536
G1 X261.114 Y-323.704 Z2.529
G1 X261.326 Y-323.763 Z2.521
G1 X261.533 Y-323.837 Z2.513
G1 X261.733 Y-323.926 Z2.506
G1 X261.927 Y-324.029 Z2.498
G1 X262.113 Y-324.146 Z2.49
G1 X262.289 Y-324.276 Z2.483
G1 X262.456 Y-324.419 Z2.475
G1 X262.612 Y-324.573 Z2.467
G1 X262.756 Y-324.738 Z2.46
G1 X262.888 Y-324.914 Z2.452
G1 X263.007 Y-325.098 Z2.444
G1 X263.112 Y-325.291 Z2.437
G1 X263.203 Y-325.491 Z2.429
G1 X263.279 Y-325.697 Z2.421
G1 X263.34 Y-325.908 Z2.414
G1 X263.385 Y-326.122 Z2.406
G1 X263.415 Y-326.34 Z2.398
G1 X263.429 Y-326.559 Z2.391
G1 X263.426 Y-326.778 Z2.383
G1 X263.408 Y-326.997 Z2.375
G1 X263.374 Y-327.214 Z2.368
G1 X263.324 Y-327.428 Z2.36
G1 X263.259 Y-327.637 Z2.352
G1 X263.179 Y-327.841 Z2.345
G1 X263.084 Y-328.039 Z2.337
G1 X262.975 Y-328.23 Z2.329
G1 X262.853 Y-328.412 Z2.322
G1 X262.717 Y-328.585 Z2.314
G1 X262.57 Y-328.747 Z2.306
G1 X262.411 Y-328.898 Z2.299
G1 X262.241 Y-329.037 Z2.291
G1 X262.062 Y-329.164 Z2.283
G1 X261.873 Y-329.277 Z2.276
G1 X261.678 Y-329.376 Z2.268
G1 X261.475 Y-329.461 Z2.26
G1 X261.267 Y-329.531 Z2.253
G1 X261.054 Y-329.585 Z2.245
G1 X260.838 Y-329.624 Z2.237
G1 X260.62 Y-329.647 Z2.23
G1 X260.401 Y-329.654 Z2.222
G1 X260.182 Y-329.645 Z2.214
G1 X259.963 Y-329.62 Z2.207
G1 X259.748 Y-329.58 Z2.199
G1 X259.536 Y-329.524 Z2.191
G1 X259.328 Y-329.452 Z2.184
G1 X259.126 Y-329.366 Z2.176
G1 X258.931 Y-329.265 Z2.168
G1 X258.744 Y-329.15 Z2.161
G1 X258.566 Y-329.022 Z2.153
G1 X258.398 Y-328.881 Z2.145
G1 X258.24 Y-328.729 Z2.138
G1 X258.093 Y-328.565 Z2.13
G1 X257.959 Y-328.391 Z2.122
G1 X257.838 Y-328.208 Z2.115
G1 X257.731 Y-328.017 Z2.107
G1 X257.638 Y-327.818 Z2.099
G1 X257.559 Y-327.613 Z2.092
G1 X257.496 Y-327.403 Z2.084
G1 X257.448 Y-327.189 Z2.076
G1 X257.416 Y-326.972 Z2.069
G1 X257.399 Y-326.753 Z2.061
G1 Y-326.534 Z2.053
G1 X257.415 Y-326.315 Z2.046
G1 X257.446 Y-326.097 Z2.038
G1 X257.493 Y-325.883 Z2.03
G1 X257.556 Y-325.673 Z2.023
G1 X257.634 Y-325.467 Z2.015
G1 X257.726 Y-325.268 Z2.007
G1 X257.833 Y-325.077 Z2
G1 X257.953 Y-324.893 Z1.992
G1 X258.086 Y-324.719 Z1.984
G1 X258.232 Y-324.555 Z1.977
G1 X258.389 Y-324.402 Z1.969
G1 X258.557 Y-324.26 Z1.961
G1 X258.735 Y-324.132 Z1.954
G1 X258.922 Y-324.016 Z1.946
G1 X259.116 Y-323.915 Z1.938
G1 X259.318 Y-323.828 Z1.931
G1 X259.525 Y-323.755 Z1.923
G1 X259.737 Y-323.698 Z1.915
G1 X259.953 Y-323.657 Z1.908
G1 X260.171 Y-323.631 Z1.9
G1 X260.39 Y-323.622 Z1.892
G1 X260.609 Y-323.628 Z1.885
G1 X260.828 Y-323.65 Z1.877
G1 X261.044 Y-323.688 Z1.869
G1 X261.257 Y-323.742 Z1.862
G1 X261.465 Y-323.811 Z1.854
G1 X261.668 Y-323.895 Z1.846
G1 X261.864 Y-323.993 Z1.839
G1 X262.052 Y-324.106 Z1.831
G1 X262.232 Y-324.232 Z1.823
G1 X262.402 Y-324.37 Z1.816
G1 X262.562 Y-324.521 Z1.808
G1 X262.71 Y-324.683 Z1.8
G1 X262.846 Y-324.855 Z1.793
G1 X262.969 Y-325.036 Z1.785
G1 X263.079 Y-325.227 Z1.777
G1 X263.175 Y-325.424 Z1.77
G1 X263.256 Y-325.628 Z1.762
G1 X263.322 Y-325.837 Z1.754
G1 X263.372 Y-326.051 Z1.747
G1 X263.407 Y-326.268 Z1.739
G1 X263.426 Y-326.486 Z1.731
G1 X263.429 Y-326.706 Z1.724
G1 X263.416 Y-326.925 Z1.716
G1 X263.387 Y-327.143 Z1.708
G1 X263.343 Y-327.357 Z1.701
G1 X263.283 Y-327.569 Z1.693
G1 X263.207 Y-327.775 Z1.685
G1 X263.117 Y-327.975 Z1.678
G1 X263.013 Y-328.168 Z1.67
G1 X262.895 Y-328.353 Z1.662
G1 X262.763 Y-328.529 Z1.655
G1 X262.62 Y-328.695 Z1.647
G1 X262.464 Y-328.85 Z1.64
G1 X262.298 Y-328.993 Z1.632
G1 X262.122 Y-329.124 Z1.624
G1 X261.936 Y-329.241 Z1.617
G1 X261.743 Y-329.345 Z1.609
G1 X261.543 Y-329.435 Z1.601
G1 X261.336 Y-329.509 Z1.594
G1 X261.125 Y-329.569 Z1.586
G1 X260.91 Y-329.613 Z1.578
G1 X260.692 Y-329.641 Z1.571
G1 X260.473 Y-329.653 Z1.563
G1 X260.254 Y-329.65 Z1.555
G1 X260.035 Y-329.63 Z1.548
G1 X259.819 Y-329.595 Z1.54
G1 X259.605 Y-329.544 Z1.532
G1 X259.396 Y-329.477 Z1.525
G1 X259.192 Y-329.396 Z1.517
G1 X258.995 Y-329.3 Z1.509
G1 X258.805 Y-329.189 Z1.502
G1 X258.624 Y-329.066 Z1.494
G1 X258.452 Y-328.929 Z1.486
G1 X258.291 Y-328.781 Z1.479
G1 X258.14 Y-328.62 Z1.471
G1 X258.002 Y-328.45 Z1.463
G1 X257.877 Y-328.27 Z1.456
G1 X257.765 Y-328.081 Z1.448
G1 X257.667 Y-327.885 Z1.44
G1 X257.584 Y-327.682 Z1.433
G1 X257.515 Y-327.473 Z1.425
G1 X257.462 Y-327.26 Z1.417
G1 X257.425 Y-327.044 Z1.41
G1 X257.403 Y-326.825 Z1.402
G1 X257.397 Y-326.606 Z1.394
G1 X257.408 Y-326.387 Z1.387
G1 X257.434 Y-326.169 Z1.379
G1 X257.476 Y-325.953 Z1.371
G1 X257.533 Y-325.742 Z1.364
G1 X257.606 Y-325.535 Z1.356
G1 X257.694 Y-325.333 Z1.348
G1 X257.796 Y-325.139 Z1.341
G1 X257.912 Y-324.953 Z1.333
G1 X258.041 Y-324.775 Z1.325
G1 X258.183 Y-324.608 Z1.318
G1 X258.336 Y-324.451 Z1.31
G1 X258.501 Y-324.306 Z1.302
G1 X258.675 Y-324.173 Z1.295
G1 X258.859 Y-324.053 Z1.287
G1 X259.051 Y-323.947 Z1.279
G1 X259.251 Y-323.855 Z1.272
G1 X259.456 Y-323.778 Z1.264
G1 X259.667 Y-323.715 Z1.256
G1 X259.881 Y-323.669 Z1.249
G1 X260.098 Y-323.638 Z1.241
G1 X260.317 Y-323.623 Z1.233
G1 X260.537 Y-323.624 Z1.226
G1 X260.756 Y-323.641 Z1.218
G1 X260.973 Y-323.674 Z1.21
G1 X261.187 Y-323.722 Z1.203
G1 X261.397 Y-323.786 Z1.195
G1 X261.601 Y-323.865 Z1.187
G1 X261.8 Y-323.959 Z1.18
G1 X261.991 Y-324.067 Z1.172
G1 X262.174 Y-324.189 Z1.164
G1 X262.347 Y-324.323 Z1.157
G1 X262.51 Y-324.47 Z1.149
G1 X262.663 Y-324.628 Z1.141
G1 X262.803 Y-324.797 Z1.134
G1 X262.93 Y-324.975 Z1.126
G1 X263.045 Y-325.163 Z1.118
G1 X263.145 Y-325.358 Z1.111
G1 X263.231 Y-325.56 Z1.103
G1 X263.302 Y-325.768 Z1.095
G1 X263.357 Y-325.98 Z1.088
G1 X263.397 Y-326.196 Z1.08
G1 X263.421 Y-326.414 Z1.072
G1 X263.43 Y-326.633 Z1.065
G1 X263.422 Y-326.853 Z1.057
G1 X263.398 Y-327.071 Z1.049
G1 X263.359 Y-327.287 Z1.042
G1 X263.304 Y-327.499 Z1.034
G1 X263.234 Y-327.707 Z1.026
G1 X263.149 Y-327.909 Z1.019
G1 X263.049 Y-328.105 Z1.011
G1 X262.935 Y-328.293 Z1.003
G1 X262.808 Y-328.472 Z0.996
G1 X262.668 Y-328.641 Z0.988
G1 X262.517 Y-328.8 Z0.98
G1 X262.354 Y-328.947 Z0.973
G1 X262.181 Y-329.082 Z0.965
G1 X261.999 Y-329.204 Z0.957
G1 X261.808 Y-329.312 Z0.95
G1 X261.61 Y-329.407 Z0.942
G1 X261.405 Y-329.486 Z0.934
G1 X261.195 Y-329.551 Z0.927
G1 X260.981 Y-329.6 Z0.919
G1 X260.764 Y-329.634 Z0.911
G1 X260.546 Y-329.651 Z0.904
G1 X260.326 Y-329.653 Z0.896
G1 X260.107 Y-329.638 Z0.888
G1 X259.89 Y-329.608 Z0.881
G1 X259.675 Y-329.562 Z0.873
G1 X259.465 Y-329.501 Z0.865
G1 X259.259 Y-329.424 Z0.858
G1 X259.059 Y-329.333 Z0.85
G1 X258.867 Y-329.227 Z0.842
G1 X258.683 Y-329.108 Z0.835
G1 X258.508 Y-328.976 Z0.827
G1 X258.343 Y-328.831 Z0.819
G1 X258.189 Y-328.675 Z0.812
G1 X258.046 Y-328.507 Z0.804
G1 X257.917 Y-328.33 Z0.796
G1 X257.8 Y-328.144 Z0.789
G1 X257.698 Y-327.95 Z0.781
G1 X257.609 Y-327.749 Z0.773
G1 X257.536 Y-327.542 Z0.766
G1 X257.478 Y-327.331 Z0.758
G1 X257.435 Y-327.116 Z0.75
G1 X257.408 Y-326.898 Z0.743
G1 X257.397 Y-326.678 Z0.735
G1 X257.402 Y-326.459 Z0.727
G1 X257.423 Y-326.241 Z0.72
G1 X257.46 Y-326.024 Z0.712
G1 X257.513 Y-325.811 Z0.704
G1 X257.58 Y-325.602 Z0.697
G1 X257.663 Y-325.399 Z0.689
G1 X257.761 Y-325.202 Z0.681
G1 X257.872 Y-325.013 Z0.674
G1 X257.997 Y-324.833 Z0.666
G1 X258.135 Y-324.662 Z0.658
G1 X258.284 Y-324.501 Z0.651
G1 X258.445 Y-324.352 Z0.643
G1 X258.617 Y-324.215 Z0.635
G1 X258.798 Y-324.091 Z0.628
G1 X258.987 Y-323.98 Z0.62
G1 X259.184 Y-323.883 Z0.612
G1 X259.388 Y-323.801 Z0.605
G1 X259.597 Y-323.734 Z0.597
G1 X259.81 Y-323.683 Z0.589
G1 X260.026 Y-323.646 Z0.582
G1 X260.245 Y-323.626 Z0.574
G1 X260.464 Y-323.622 Z0.566
G1 X260.684 Y-323.634 Z0.559
G1 X260.901 Y-323.661 Z0.551
G1 X261.116 Y-323.705 Z0.543
G1 X261.328 Y-323.764 Z0.536
G1 X261.535 Y-323.838 Z0.528
G1 X261.735 Y-323.927 Z0.52
G1 X261.929 Y-324.03 Z0.513
G1 X262.114 Y-324.147 Z0.505
G1 X262.291 Y-324.277 Z0.497
G1 X262.458 Y-324.42 Z0.49
G1 X262.614 Y-324.575 Z0.482
G1 X262.758 Y-324.74 Z0.474
G1 X262.89 Y-324.915 Z0.467
G1 X263.008 Y-325.1 Z0.459
G1 X263.113 Y-325.293 Z0.451
G1 X263.204 Y-325.493 Z0.444
G1 X263.28 Y-325.699 Z0.436
G1 X263.34 Y-325.91 Z0.428
G1 X263.386 Y-326.124 Z0.421
G1 X263.415 Y-326.342 Z0.413
G1 X263.429 Y-326.561 Z0.405
G1 X263.426 Y-326.78 Z0.398
G1 X263.408 Y-326.999 Z0.39
G1 X263.374 Y-327.216 Z0.382
G1 X263.324 Y-327.43 Z0.375
G1 X263.259 Y-327.639 Z0.367
G1 X263.178 Y-327.843 Z0.359
G1 X263.083 Y-328.041 Z0.352
G1 X262.974 Y-328.232 Z0.344
G1 X262.852 Y-328.414 Z0.336
G1 X262.716 Y-328.586 Z0.329
G1 X262.568 Y-328.749 Z0.321
G1 X262.409 Y-328.9 Z0.313
G1 X262.239 Y-329.039 Z0.306
G1 X262.06 Y-329.165 Z0.298
G1 X261.872 Y-329.278 Z0.29
G1 X261.676 Y-329.377 Z0.283
G1 X261.473 Y-329.462 Z0.275
G1 X261.265 Y-329.531 Z0.267
G1 X261.052 Y-329.586 Z0.26
G1 X260.836 Y-329.624 Z0.252
G1 X260.618 Y-329.647 Z0.244
G1 X260.399 Y-329.654 Z0.237
G1 X260.179 Y-329.645 Z0.229
G1 X259.961 Y-329.62 Z0.221
G1 X259.746 Y-329.579 Z0.214
G1 X259.534 Y-329.523 Z0.206
G1 X259.326 Y-329.451 Z0.198
G1 X259.124 Y-329.365 Z0.191
G1 X258.93 Y-329.264 Z0.183
G1 X258.743 Y-329.149 Z0.175
G1 X258.564 Y-329.021 Z0.168
G1 X258.396 Y-328.88 Z0.16
G1 X258.238 Y-328.727 Z0.152
G1 X258.092 Y-328.564 Z0.145
G1 X257.958 Y-328.39 Z0.137
G1 X257.837 Y-328.207 Z0.129
G1 X257.73 Y-328.015 Z0.122
G1 X257.637 Y-327.816 Z0.114
G1 X257.559 Y-327.611 Z0.106
G1 X257.495 Y-327.401 Z0.099
G1 X257.448 Y-327.187 Z0.091
G1 X257.416 Y-326.97 Z0.083
G1 X257.399 Y-326.751 Z0.076
G1 Y-326.531 Z0.068
G1 X257.415 Y-326.313 Z0.06
G1 X257.446 Y-326.095 Z0.053
G1 X257.494 Y-325.881 Z0.045
G1 X257.556 Y-325.671 Z0.037
G1 X257.634 Y-325.466 Z0.03
G1 X257.727 Y-325.267 Z0.022
G1 X257.834 Y-325.075 Z0.014
G1 X257.954 Y-324.891 Z0.007
G1 X258.088 Y-324.717 Z-0.001
G1 X258.234 Y-324.553 Z-0.009
G1 X258.391 Y-324.4 Z-0.016
G1 X258.559 Y-324.259 Z-0.024
G1 X258.737 Y-324.13 Z-0.032
G1 X258.924 Y-324.015 Z-0.039
G1 X259.118 Y-323.914 Z-0.047
G1 X259.32 Y-323.827 Z-0.055
G1 X259.527 Y-323.755 Z-0.062
G1 X259.739 Y-323.698 Z-0.07
G1 X259.955 Y-323.657 Z-0.078
G1 X260.173 Y-323.631 Z-0.085
G1 X260.392 Y-323.622 Z-0.093
G1 X260.611 Y-323.628 Z-0.101
G1 X260.83 Y-323.65 Z-0.108
G1 X261.046 Y-323.689 Z-0.116
G1 X261.259 Y-323.742 Z-0.124
G1 X261.467 Y-323.812 Z-0.131
G1 X261.67 Y-323.896 Z-0.139
G1 X261.866 Y-323.994 Z-0.147
G1 X262.054 Y-324.107 Z-0.154
G1 X262.234 Y-324.233 Z-0.162
G1 X262.404 Y-324.372 Z-0.17
G1 X262.563 Y-324.522 Z-0.177
G1 X262.712 Y-324.684 Z-0.185
G1 X262.848 Y-324.856 Z-0.193
G1 X262.971 Y-325.038 Z-0.2
G1 X263.08 Y-325.228 Z-0.208
G1 X263.176 Y-325.426 Z-0.216
G1 X263.256 Y-325.63 Z-0.223
G1 X263.322 Y-325.839 Z-0.231
G1 X263.372 Y-326.053 Z-0.239
G1 X263.407 Y-326.27 Z-0.246
G1 X263.426 Y-326.489 Z-0.254
G1 X263.429 Y-326.708 Z-0.262
G1 X263.416 Y-326.927 Z-0.269
G1 X263.387 Y-327.145 Z-0.277
G1 X263.342 Y-327.359 Z-0.285
G1 X263.282 Y-327.571 Z-0.292
G1 X263.206 Y-327.777 Z-0.3
G1 X263.116 Y-327.977 Z-0.308
G1 X263.012 Y-328.17 Z-0.315
G1 X262.893 Y-328.355 Z-0.323
G1 X262.762 Y-328.53 Z-0.331
G1 X262.618 Y-328.696 Z-0.338
G1 X262.463 Y-328.851 Z-0.346
G1 X262.296 Y-328.994 Z-0.354
G1 X262.12 Y-329.125 Z-0.361
G1 X261.935 Y-329.242 Z-0.369
G1 X261.741 Y-329.346 Z-0.377
G1 X261.541 Y-329.435 Z-0.384
G1 X261.334 Y-329.51 Z-0.392
G1 X261.123 Y-329.569 Z-0.4
G1 X260.908 Y-329.613 Z-0.407
G1 X260.69 Y-329.641 Z-0.415
G1 X260.471 Y-329.654 Z-0.423
G1 X260.252 Y-329.65 Z-0.43
G1 X260.033 Y-329.63 Z-0.438
G1 X259.817 Y-329.594 Z-0.446
G1 X259.603 Y-329.543 Z-0.453
G1 X259.394 Y-329.477 Z-0.461
G1 X259.19 Y-329.395 Z-0.469
G1 X258.993 Y-329.299 Z-0.476
G1 X258.803 Y-329.188 Z-0.484
G1 X258.622 Y-329.065 Z-0.492
G1 X258.45 Y-328.928 Z-0.499
G1 X258.289 Y-328.779 Z-0.507
G1 X258.139 Y-328.619 Z-0.515
G1 X258.001 Y-328.448 Z-0.522
G1 X257.876 Y-328.268 Z-0.53
G1 X257.764 Y-328.079 Z-0.538
G1 X257.666 Y-327.883 Z-0.545
G1 X257.583 Y-327.68 Z-0.553
G1 X257.515 Y-327.471 Z-0.561
G1 X257.462 Y-327.258 Z-0.568
G1 X257.424 Y-327.042 Z-0.576
G1 X257.403 Y-326.823 Z-0.584
G1 X257.397 Y-326.604 Z-0.591
G1 X257.408 Y-326.385 Z-0.599
G1 X257.434 Y-326.167 Z-0.607
G1 X257.476 Y-325.951 Z-0.614
G1 X257.534 Y-325.74 Z-0.622
G1 X257.607 Y-325.533 Z-0.63
G1 X257.695 Y-325.331 Z-0.637
G1 X257.797 Y-325.137 Z-0.645
G1 X257.913 Y-324.951 Z-0.653
G1 X258.042 Y-324.774 Z-0.66
G1 X258.184 Y-324.606 Z-0.668
G1 X258.338 Y-324.449 Z-0.676
G1 X258.502 Y-324.304 Z-0.683
G1 X258.677 Y-324.171 Z-0.691
G1 X258.861 Y-324.052 Z-0.699
G1 X259.053 Y-323.946 Z-0.706
G1 X259.253 Y-323.854 Z-0.714
G1 X259.458 Y-323.777 Z-0.722
G1 X259.669 Y-323.715 Z-0.729
G1 X259.883 Y-323.669 Z-0.737
G1 X260.101 Y-323.638 Z-0.745
G1 X260.32 Y-323.623 Z-0.752
G1 X260.539 Y-323.624 Z-0.76
G1 X260.758 Y-323.641 Z-0.768
G1 X260.975 Y-323.674 Z-0.775
G1 X261.189 Y-323.723 Z-0.783
G1 X261.399 Y-323.787 Z-0.791
G1 X261.603 Y-323.866 Z-0.798
G1 X261.802 Y-323.96 Z-0.806
G1 X261.993 Y-324.068 Z-0.814
G1 X262.176 Y-324.19 Z-0.821
G1 X262.349 Y-324.324 Z-0.829
G1 X262.512 Y-324.471 Z-0.837
G1 X262.664 Y-324.63 Z-0.844
G1 X262.804 Y-324.799 Z-0.852
G1 X262.931 Y-324.977 Z-0.86
G1 X263.046 Y-325.165 Z-0.867
G1 X263.146 Y-325.36 Z-0.875
G1 X263.231 Y-325.562 Z-0.883
G1 X263.302 Y-325.77 Z-0.89
G1 X263.358 Y-325.982 Z-0.898
G1 X263.397 Y-326.198 Z-0.906
G1 X263.422 Y-326.416 Z-0.913
G1 X263.43 Y-326.635 Z-0.921
G1 X263.422 Y-326.855 Z-0.929
G1 X263.398 Y-327.073 Z-0.936
G1 X263.359 Y-327.289 Z-0.944
G1 X263.303 Y-327.501 Z-0.952
G1 X263.233 Y-327.709 Z-0.959
G1 X263.148 Y-327.911 Z-0.967
G1 X263.048 Y-328.107 Z-0.975
G1 X262.934 Y-328.295 Z-0.982
G1 X262.807 Y-328.473 Z-0.99
G1 X262.667 Y-328.643 Z-0.998
G1 X262.515 Y-328.801 Z-1.005
G1 X262.352 Y-328.948 Z-1.013
G1 X262.179 Y-329.083 Z-1.021
G1 X261.997 Y-329.205 Z-1.028
G1 X261.806 Y-329.313 Z-1.036
G1 X261.608 Y-329.408 Z-1.044
G1 X261.403 Y-329.487 Z-1.051
G1 X261.193 Y-329.552 Z-1.059
G1 X260.979 Y-329.601 Z-1.067
G1 X260.762 Y-329.634 Z-1.074
G1 X260.544 Y-329.651 Z-1.082
G1 X260.324 Y-329.653 Z-1.09
G1 X260.105 Y-329.638 Z-1.097
G1 X259.888 Y-329.608 Z-1.105
G1 X259.673 Y-329.562 Z-1.113
G1 X259.463 Y-329.5 Z-1.12
G1 X259.257 Y-329.424 Z-1.128
G1 X259.057 Y-329.332 Z-1.136
G1 X258.865 Y-329.226 Z-1.143
G1 X258.681 Y-329.107 Z-1.151
G1 X258.506 Y-328.974 Z-1.159
G1 X258.341 Y-328.829 Z-1.166
G1 X258.187 Y-328.673 Z-1.174
G1 X258.045 Y-328.506 Z-1.182
G1 X257.916 Y-328.329 Z-1.189
G1 X257.799 Y-328.142 Z-1.197
G1 X257.697 Y-327.948 Z-1.205
G1 X257.609 Y-327.747 Z-1.212
G1 X257.535 Y-327.54 Z-1.22
G1 X257.477 Y-327.329 Z-1.228
G1 X257.435 Y-327.113 Z-1.235
G1 X257.408 Y-326.896 Z-1.243
G1 X257.397 Y-326.676 Z-1.251
G1 X257.403 Y-326.457 Z-1.258
G1 X257.424 Y-326.238 Z-1.266
G1 X257.461 Y-326.022 Z-1.274
G1 X257.513 Y-325.809 Z-1.281
G1 X257.581 Y-325.6 Z-1.289
G1 X257.664 Y-325.397 Z-1.297
G1 X257.762 Y-325.201 Z-1.304
G1 X257.873 Y-325.012 Z-1.312
G1 X257.998 Y-324.831 Z-1.32
G1 X258.136 Y-324.66 Z-1.327
G1 X258.286 Y-324.5 Z-1.335
G1 X258.447 Y-324.351 Z-1.343
G1 X258.618 Y-324.214 Z-1.35
G1 X258.799 Y-324.09 Z-1.358
G1 X258.989 Y-323.979 Z-1.366
G1 X259.186 Y-323.883 Z-1.373
G1 X259.39 Y-323.801 Z-1.381
G1 X259.599 Y-323.734 Z-1.389
G1 X259.812 Y-323.682 Z-1.396
G1 X260.029 Y-323.646 Z-1.404
G1 X260.247 Y-323.626 Z-1.412
G1 X260.467 Y-323.622 Z-1.419
G1 X260.686 Y-323.634 Z-1.427
G1 X260.903 Y-323.662 Z-1.435
G1 X261.119 Y-323.705 Z-1.442
G1 X261.33 Y-323.764 Z-1.45
G1 X261.536 Y-323.838 Z-1.458
G1 X261.737 Y-323.927 Z-1.465
G1 X261.931 Y-324.031 Z-1.473
G1 X262.116 Y-324.148 Z-1.481
G1 X262.293 Y-324.279 Z-1.488
G1 X262.459 Y-324.421 Z-1.496
G1 X262.615 Y-324.576 Z-1.504
G1 X262.759 Y-324.742 Z-1.511
G1 X262.891 Y-324.917 Z-1.519
G1 X263.009 Y-325.102 Z-1.527
G1 X263.114 Y-325.295 Z-1.534
G1 X263.205 Y-325.495 Z-1.542
G1 X263.28 Y-325.701 Z-1.55
G1 X263.341 Y-325.912 Z-1.557
G1 X263.386 Y-326.126 Z-1.565
G1 X263.415 Y-326.344 Z-1.573
G1 X263.429 Y-326.563 Z-1.58
G1 X263.426 Y-326.782 Z-1.588
G1 X263.408 Y-327.001 Z-1.596
G1 X263.373 Y-327.218 Z-1.603
G1 X263.323 Y-327.432 Z-1.611
G1 X263.258 Y-327.641 Z-1.619
G1 X263.177 Y-327.845 Z-1.626
G1 X263.082 Y-328.043 Z-1.634
G1 X262.973 Y-328.233 Z-1.642
G1 X262.85 Y-328.415 Z-1.649
G1 X262.715 Y-328.588 Z-1.657
G1 X262.567 Y-328.75 Z-1.665
G1 X262.407 Y-328.901 Z-1.672
G1 X262.238 Y-329.04 Z-1.68
G1 X262.058 Y-329.166 Z-1.688
G1 X261.87 Y-329.279 Z-1.695
G1 X261.674 Y-329.378 Z-1.703
G1 X261.471 Y-329.463 Z-1.711
G1 X261.263 Y-329.532 Z-1.718
G1 X261.05 Y-329.586 Z-1.726
G1 X260.834 Y-329.625 Z-1.734
G1 X260.616 Y-329.647 Z-1.741
G1 X260.397 Y-329.654 Z-1.749
G1 X260.177 Y-329.645 Z-1.757
G1 X259.959 Y-329.62 Z-1.764
G1 X259.744 Y-329.579 Z-1.772
G1 X259.532 Y-329.522 Z-1.78
G1 X259.324 Y-329.451 Z-1.787
G1 X259.123 Y-329.364 Z-1.795
G1 X258.928 Y-329.263 Z-1.803
G1 X258.741 Y-329.148 Z-1.81
G1 X258.563 Y-329.019 Z-1.818
G1 X258.394 Y-328.879 Z-1.826
G1 X258.237 Y-328.726 Z-1.833
G1 X258.091 Y-328.562 Z-1.841
G1 X257.957 Y-328.388 Z-1.849
G1 X257.836 Y-328.205 Z-1.856
G1 X257.729 Y-328.013 Z-1.864
G1 X257.636 Y-327.814 Z-1.872
G1 X257.558 Y-327.609 Z-1.879
G1 X257.495 Y-327.399 Z-1.887
G1 X257.447 Y-327.185 Z-1.895
G1 X257.415 Y-326.968 Z-1.902
G1 X257.399 Y-326.749 Z-1.91
G1 Y-326.529 Z-1.918
