%
(Made in : Autodesk CAM Post Processor)
(G Code optimized for OpenBuilds OX CNC 1000 x 750 with GRBL V0.9j controller)

(Program Name : 1001)
(1 Operation :)
(1 : 2D Contour2)
(  Tool : Flat End Mill 2 Flutes, Diam = 6.35mm, Len = 25.4mm)
(  Spindle : RPM = 5000, set router dial to 1)
(  Machining time : 20 min 13 sec)

G90 G94
G17
G21

(Operation 1 of 1 : 2D Contour2)

G53 G0 Z-10
G54
S5000 M3
G4 P1.0
X160.6874 Y-234.4847
Z6.096
G1 F508
Z4.191
Z-6.604
G3 X154.9652 Y-245.7142 I7.4473 J-10.8676
G1 X157.0402 Y-321.0923
G3 X170.289 Y-333.9049 I13.17 J0.3621
G1 X513.2869 Y-331.8609
G3 X526.3816 Y-318.8915 I-0.0784 J13.1744
G1 X527.5586 Y-243.4946
G3 X514.3059 Y-230.1151 I-13.1731 J0.205
G1 X168.0572 Y-232.1781
G3 X160.6874 Y-234.4847 I0.0775 J-13.1743
G1 Z-14.224
G3 X154.9652 Y-245.7142 I7.4473 J-10.8676
G1 X157.0402 Y-321.0923
G3 X170.289 Y-333.9049 I13.17 J0.3621
G1 X513.2869 Y-331.8609
G3 X526.3816 Y-318.8915 I-0.0784 J13.1744
G1 X527.5586 Y-243.4946
G3 X514.3059 Y-230.1151 I-13.1731 J0.205
G1 X168.0572 Y-232.1781
G3 X160.6874 Y-234.4847 I0.0775 J-13.1743
G1 Z-16.51
G3 X154.9615 Y-245.1666 I7.4473 J-10.8676
G1 Z-19.05
G3 X154.9652 Y-245.7142 I13.1732 J-0.1857
G1 X155.7187 Y-273.0865
Z-16.51
X156.0332 Y-284.5122
Z-19.05
X157.0402 Y-321.0923
G3 X159.4642 Y-328.3528 I13.17 J0.3621
G1 Z-16.51
G3 X169.4667 Y-333.8842 I10.746 J7.6226
G1 Z-19.05
G3 X170.289 Y-333.9049 I0.7435 J13.154
G1 X337.704 Y-332.9073
Z-16.51
X349.1338 Y-332.8392
Z-19.05
X513.2869 Y-331.8609
G3 X526.3816 Y-318.8915 I-0.0784 J13.1744
G1 X526.7684 Y-294.1138
Z-16.51
X526.9468 Y-282.6852
Z-19.05
X527.5586 Y-243.4946
G3 X514.475 Y-230.1151 I-13.1731 J0.205
G1 Z-16.51
X514.3059
X503.0452 Y-230.1821
Z-19.05
X353.224 Y-231.0748
Z-16.51
X341.7942 Y-231.1429
Z-19.05
X282.81 Y-231.4943
Z-16.51
X271.3802 Y-231.5624
Z-19.05
X209.22 Y-231.9328
Z-16.51
X197.7902 Y-232.0009
Z-19.05
X168.0572 Y-232.1781
G3 X161.1537 Y-234.1794 I0.0775 J-13.1743
G1 Z-16.51
G3 X160.6874 Y-234.4847 I6.981 J-11.1729
G0 Z6.096
X296.2459 Y80.9601
G1 Z4.191 F508
Z-6.604
X296.5174 Y84.077
G3 X305.4133 Y83.7816 I4.6347 J5.4775
X308.0509 Y91.5309 I-4.2607 J5.7737
G1 X319.6719 Y89.8976
G3 X319.7566 Y82.396 I6.1591 J-3.6818
X328.5828 Y79.5879 I6.0748 J3.8187
G1 X481.4886 Y58.0984
G3 X490.5158 Y57.6885 I4.7665 J5.3636
X493.1189 Y65.5551 I-4.2601 J5.7736
G1 X515.5012 Y62.4094
G3 X515.7319 Y54.2205 I6.0038 J-3.9286
X524.608 Y52.011 I5.7736 J4.2602
G1 X674.4615 Y30.9505
G3 X683.325 Y29.9782 I5.0447 J5.102
X686.2847 Y38.4074 I-3.8185 J6.0749
G1 X711.922 Y34.8043
X707.8109 Y5.5532
G3 X706.8386 Y-3.3106 I5.1021 J-5.045
X715.0314 Y-6.348 I6.0751 J3.8186
G1 X711.9139 Y-28.5298
G3 X704.5649 Y-28.702 I-3.5302 J-6.2463
X701.7568 Y-37.5275 I3.8188 J-6.0745
G1 X685.3058 Y-154.5816
G3 X683.2991 Y-158.6481 I5.1017 J-5.0459
X684.334 Y-163.4454 I7.1087 J-0.9768
X692.7273 Y-166.4167 I6.0746 J3.819
G1 X679.8404 Y-258.1103
G3 X672.3135 Y-258.1801 I-3.7068 J-6.1439
X669.5059 Y-267.0057 I3.8191 J-6.0744
G1 X653.847 Y-378.424
X254.5719
X257.5894 Y-343.93
X593.379
X593.3795
G3 X617.3411 Y-323.1033 J24.1974
G1 X661.3021 Y-10.6128
G3 X641.0669 Y16.7398 I-24.0334 J3.3816
G1 X295.4228 Y71.5108
X296.2459 Y80.9601
Z-14.224
X296.5174 Y84.077
G3 X305.4133 Y83.7816 I4.6347 J5.4775
X308.0509 Y91.5309 I-4.2607 J5.7737
G1 X319.6719 Y89.8976
G3 X319.7566 Y82.396 I6.1591 J-3.6818
X328.5828 Y79.5879 I6.0748 J3.8187
G1 X481.4886 Y58.0984
G3 X490.5158 Y57.6885 I4.7665 J5.3636
X493.1189 Y65.5551 I-4.2601 J5.7736
G1 X515.5012 Y62.4094
G3 X515.7319 Y54.2205 I6.0038 J-3.9286
X524.608 Y52.011 I5.7736 J4.2602
G1 X674.4615 Y30.9505
G3 X683.325 Y29.9782 I5.0447 J5.102
X686.2847 Y38.4074 I-3.8185 J6.0749
G1 X711.922 Y34.8043
X707.8109 Y5.5532
G3 X706.8386 Y-3.3106 I5.1021 J-5.045
X715.0314 Y-6.348 I6.0751 J3.8186
G1 X711.9139 Y-28.5298
G3 X704.5649 Y-28.702 I-3.5302 J-6.2463
X701.7568 Y-37.5275 I3.8188 J-6.0745
G1 X685.3058 Y-154.5816
G3 X683.2991 Y-158.6481 I5.1017 J-5.0459
X684.334 Y-163.4454 I7.1087 J-0.9768
X692.7273 Y-166.4167 I6.0746 J3.819
G1 X679.8404 Y-258.1103
G3 X672.3135 Y-258.1801 I-3.7068 J-6.1439
X669.5059 Y-267.0057 I3.8191 J-6.0744
G1 X653.847 Y-378.424
X254.5719
X257.5894 Y-343.93
X593.379
X593.3795
G3 X617.3411 Y-323.1033 J24.1974
G1 X661.3021 Y-10.6128
G3 X641.0669 Y16.7398 I-24.0334 J3.3816
G1 X295.4228 Y71.5108
X296.2459 Y80.9601
Z-19.05
X296.5174 Y84.077
G3 X305.4133 Y83.7816 I4.6347 J5.4775
X308.0509 Y91.5309 I-4.2607 J5.7737
G1 X319.6719 Y89.8976
G3 X319.7566 Y82.396 I6.1591 J-3.6818
X328.5828 Y79.5879 I6.0748 J3.8187
G1 X444.5717 Y63.2867
Z-16.51
X455.8905 Y61.696
Z-19.05
X481.4886 Y58.0984
G3 X490.5158 Y57.6885 I4.7665 J5.3636
X493.1189 Y65.5551 I-4.2601 J5.7736
G1 X515.5012 Y62.4094
G3 X515.7319 Y54.2205 I6.0038 J-3.9286
X524.608 Y52.011 I5.7736 J4.2602
G1 X556.4307 Y47.5386
Z-16.51
X567.7495 Y45.9478
Z-19.05
X636.3367 Y36.3086
Z-16.51
X647.6555 Y34.7178
Z-19.05
X674.4615 Y30.9505
G3 X683.325 Y29.9782 I5.0447 J5.102
X686.2847 Y38.4074 I-3.8185 J6.0749
G1 X688.3817 Y38.1127
Z-16.51
X699.7005 Y36.5219
Z-19.05
X708.1491 Y35.3345
Z-16.51
X711.922 Y34.8043
X711.5685 Y32.289
Z-19.05
X707.8109 Y5.5532
G3 X706.8386 Y-3.3106 I5.1021 J-5.045
X711.4294 Y-6.5124 I6.0751 J3.8186
G1 Z-16.51
G3 X715.0314 Y-6.348 I1.4842 J7.0204
G1 X714.4636 Y-10.3881
Z-19.05
X713.796 Y-15.1381
Z-16.51
X711.9139 Y-28.5298
G3 X708.4641 Y-27.6017 I-3.5302 J-6.2463
G1 Z-19.05
G3 X704.5649 Y-28.702 I-0.0804 J-7.1745
X701.7568 Y-37.5275 I3.8188 J-6.0745
G1 X697.2865 Y-69.3354
Z-16.51
X695.5455 Y-81.7232
Z-19.05
X694.5046 Y-89.1299
Z-16.51
X692.9138 Y-100.4486
Z-19.05
X685.3058 Y-154.5816
G3 X683.2991 Y-158.6481 I5.1017 J-5.0459
X684.334 Y-163.4454 I7.1087 J-0.9768
X689.1063 Y-166.6825 I6.0746 J3.819
G1 Z-16.51
G3 X692.7273 Y-166.4167 I1.3023 J7.0561
G1 X692.2349 Y-169.9202
Z-19.05
X690.4562 Y-182.5757
Z-16.51
X688.1629 Y-198.8936
Z-19.05
X680.882 Y-250.6989
Z-16.51
X679.8404 Y-258.1103
G3 X676.1372 Y-257.0787 I-3.7068 J-6.1439
G1 Z-19.05
G3 X672.3135 Y-258.1801 I-0.0036 J-7.1754
X669.5059 Y-267.0057 I3.8191 J-6.0744
G1 X661.8919 Y-321.1818
Z-16.51
X660.3011 Y-332.5006
Z-19.05
X654.3824 Y-374.614
Z-16.51
X653.847 Y-378.424
X650.892
Z-19.05
X608.095
Z-16.51
X596.665
Z-19.05
X363.753
Z-16.51
X352.323
Z-19.05
X344.332
Z-16.51
X332.902
Z-19.05
X254.5719
X257.5894 Y-343.93
X534.892
Z-16.51
X546.322
Z-19.05
X593.379
G3 X617.3411 Y-323.1033 I0.0005 J24.1974
G1 X642.2599 Y-145.9706
Z-16.51
X643.8523 Y-134.6521
Z-19.05
X645.6072 Y-122.1775
Z-16.51
X647.1995 Y-110.8589
Z-19.05
X661.3021 Y-10.6128
G3 X641.0669 Y16.7398 I-24.0334 J3.3816
G1 X523.1815 Y35.42
Z-16.51
X511.8923 Y37.2089
Z-19.05
X499.3805 Y39.1915
Z-16.51
X488.0913 Y40.9804
Z-19.05
X334.0685 Y65.387
Z-16.51
X322.7794 Y67.1759
Z-19.05
X316.1435 Y68.2274
Z-16.51
X304.8543 Y70.0163
Z-19.05
X299.1952 Y70.913
Z-16.51
X295.4228 Y71.5108
X295.662 Y74.2561
Z-19.05
X296.2459 Y80.9601
G0 Z6.096

G53 Z-10
M5
G4 P1.0
G53 X-10 Y-10
M30
%
