(1001)
(T1  D=6.35 CR=0 - ZMIN=-20.574 - FLAT END MILL)
G0 G40 G90 G17
G21

(2D CONTOUR2)
T1 M6
M3 S5000
G0 X-4.74 Y-19.671
G0 Z6.096
G1 Z4.191 F508.
G1 Z-6.604
G3 X-2.147 Y-22.078 I3.09 J0.729
G1 X346.421 Y-77.313
G2 X361.362 Y-97.509 I-2.805 J-17.7
G1 X317.4 Y-410
G2 X299.726 Y-425.361 I-17.674 J2.487
G1 X-38.972
G3 X-42.135 Y-428.259 I0 J-3.175
G1 X-45.709 Y-469.103
G3 X-44.887 Y-471.525 I3.163 J-0.277
G3 X-42.546 Y-472.555 I2.341 J2.145
G1 X362.954
G3 X366.098 Y-469.822 I0 J3.175
G1 X382.281 Y-354.674
G3 X381.79 Y-352.488 I-3.144 J0.442
G2 X382.027 Y-351.345 I0.69 J0.453
G2 X382.655 Y-351.228 I0.453 J-0.69
G2 X383.179 Y-351.596 I-0.175 J-0.807
G3 X385.425 Y-353.05 I2.688 J1.69
G1 X387.34 Y-353.319
G3 X392.055 Y-349.766 I0.581 J4.134
G1 X405.696 Y-252.709
G3 X404.897 Y-249.614 I-4.134 J0.583
G3 X402.142 Y-247.992 I-3.335 J-2.512
G1 X399.393 Y-247.606
G3 X397.208 Y-248.097 I-0.441 J-3.144
G2 X396.066 Y-247.86 I-0.453 J0.689
G2 X395.949 Y-247.232 I0.689 J0.453
G2 X396.316 Y-246.709 I0.806 J-0.175
G3 X397.77 Y-244.463 I-1.69 J2.688
G1 X414.532 Y-125.196
G3 X414.041 Y-123.01 I-3.144 J0.442
G2 X414.278 Y-121.867 I0.69 J0.453
G2 X414.906 Y-121.75 I0.453 J-0.69
G2 X415.43 Y-122.118 I-0.175 J-0.807
G3 X417.676 Y-123.572 I2.688 J1.69
G1 X419.403 Y-123.815
G1 X419.404
G3 X424.119 Y-120.264 I0.58 J4.135
G1 Y-120.262
G1 X428.014 Y-92.547
G1 Y-92.545
G3 X424.463 Y-87.831 I-4.135 J0.58
G1 X424.461
G1 X421.899 Y-87.471
G3 X419.714 Y-87.962 I-0.442 J-3.144
G2 X418.571 Y-87.725 I-0.453 J0.689
G2 X418.455 Y-87.097 I0.689 J0.453
G2 X418.822 Y-86.574 I0.806 J-0.175
G3 X420.276 Y-84.328 I-1.69 J2.688
G1 X425 Y-50.716
G3 X424.392 Y-48.363 I-3.144 J0.442
G3 X422.298 Y-47.13 I-2.536 J-1.911
G1 X391.159 Y-42.754
G3 X386.444 Y-46.307 I-0.581 J-4.134
G1 X386.053 Y-49.09
G3 X386.544 Y-51.275 I3.144 J-0.442
G2 X386.307 Y-52.418 I-0.69 J-0.453
G2 X385.679 Y-52.535 I-0.453 J0.69
G2 X385.155 Y-52.168 I0.175 J0.806
G3 X382.909 Y-50.713 I-2.688 J-1.689
G1 X230.734 Y-29.326
G3 X228.356 Y-29.954 I-0.442 J-3.144
G2 X227.199 Y-29.803 I-0.503 J0.654
G2 X227.036 Y-29.185 I0.654 J0.503
G2 X227.363 Y-28.636 I0.817 J-0.115
G3 X228.622 Y-26.523 I-1.885 J2.555
G1 X228.952 Y-24.173
G3 X228.152 Y-21.08 I-4.134 J0.581
G3 X225.399 Y-19.458 I-3.334 J-2.512
G1 X197.671 Y-15.561
G3 X192.956 Y-19.114 I-0.581 J-4.134
G1 X192.629 Y-21.437
G3 X193.257 Y-23.816 I3.144 J-0.442
G2 X193.106 Y-24.973 I-0.654 J-0.503
G2 X192.488 Y-25.136 I-0.503 J0.654
G2 X191.939 Y-24.809 I0.115 J0.817
G3 X189.826 Y-23.55 I-2.555 J-1.885
G1 X34.817 Y-1.764
G3 X32.631 Y-2.255 I-0.442 J-3.144
G2 X31.489 Y-2.019 I-0.453 J0.689
G2 X31.372 Y-1.391 I0.689 J0.453
G2 X31.739 Y-0.867 I0.806 J-0.175
G3 X33.193 Y1.379 I-1.69 J2.688
G1 X33.459 Y3.268
G3 X32.659 Y6.361 I-4.134 J0.581
G3 X29.906 Y7.983 I-3.334 J-2.513
G1 X12.553 Y10.422
G3 X9.459 Y9.622 I-0.581 J-4.134
G3 X7.837 Y6.869 I2.513 J-3.334
G1 X7.526 Y4.654
G3 X8.154 Y2.277 I3.144 J-0.442
G2 X8.003 Y1.12 I-0.654 J-0.503
G2 X7.385 Y0.957 I-0.503 J0.654
G2 X6.836 Y1.284 I0.115 J0.817
G3 X4.723 Y2.542 I-2.555 J-1.885
G1 X0.442 Y3.144
G3 X-1.977 Y2.484 I-0.442 J-3.144
G3 X-3.163 Y0.275 I1.977 J-2.484
G1 X-4.813 Y-18.667
G3 X-4.74 Y-19.671 I3.163 J-0.275
G1 Z-14.224
G3 X-2.147 Y-22.078 I3.09 J0.729
G1 X346.421 Y-77.313
G2 X361.362 Y-97.509 I-2.805 J-17.7
G1 X317.4 Y-410
G2 X299.726 Y-425.361 I-17.674 J2.487
G1 X-38.972
G3 X-42.135 Y-428.259 I0 J-3.175
G1 X-45.709 Y-469.103
G3 X-44.887 Y-471.525 I3.163 J-0.277
G3 X-42.546 Y-472.555 I2.341 J2.145
G1 X362.954
G3 X366.098 Y-469.822 I0 J3.175
G1 X382.281 Y-354.674
G3 X381.79 Y-352.488 I-3.144 J0.442
G2 X382.027 Y-351.345 I0.69 J0.453
G2 X382.655 Y-351.228 I0.453 J-0.69
G2 X383.179 Y-351.596 I-0.175 J-0.807
G3 X385.425 Y-353.05 I2.688 J1.69
G1 X387.34 Y-353.319
G3 X392.055 Y-349.766 I0.581 J4.134
G1 X405.696 Y-252.709
G3 X404.897 Y-249.614 I-4.134 J0.583
G3 X402.142 Y-247.992 I-3.335 J-2.512
G1 X399.393 Y-247.606
G3 X397.208 Y-248.097 I-0.441 J-3.144
G2 X396.066 Y-247.86 I-0.453 J0.689
G2 X395.949 Y-247.232 I0.689 J0.453
G2 X396.316 Y-246.709 I0.806 J-0.175
G3 X397.77 Y-244.463 I-1.69 J2.688
G1 X414.532 Y-125.196
G3 X414.041 Y-123.01 I-3.144 J0.442
G2 X414.278 Y-121.867 I0.69 J0.453
G2 X414.906 Y-121.75 I0.453 J-0.69
G2 X415.43 Y-122.118 I-0.175 J-0.807
G3 X417.676 Y-123.572 I2.688 J1.69
G1 X419.403 Y-123.815
G1 X419.404
G3 X424.119 Y-120.264 I0.58 J4.135
G1 Y-120.262
G1 X428.014 Y-92.547
G1 Y-92.545
G3 X424.463 Y-87.831 I-4.135 J0.58
G1 X424.461
G1 X421.899 Y-87.471
G3 X419.714 Y-87.962 I-0.442 J-3.144
G2 X418.571 Y-87.725 I-0.453 J0.689
G2 X418.455 Y-87.097 I0.689 J0.453
G2 X418.822 Y-86.574 I0.806 J-0.175
G3 X420.276 Y-84.328 I-1.69 J2.688
G1 X425 Y-50.716
G3 X424.392 Y-48.363 I-3.144 J0.442
G3 X422.298 Y-47.13 I-2.536 J-1.911
G1 X391.159 Y-42.754
G3 X386.444 Y-46.307 I-0.581 J-4.134
G1 X386.053 Y-49.09
G3 X386.544 Y-51.275 I3.144 J-0.442
G2 X386.307 Y-52.418 I-0.69 J-0.453
G2 X385.679 Y-52.535 I-0.453 J0.69
G2 X385.155 Y-52.168 I0.175 J0.806
G3 X382.909 Y-50.713 I-2.688 J-1.689
G1 X230.734 Y-29.326
G3 X228.356 Y-29.954 I-0.442 J-3.144
G2 X227.199 Y-29.803 I-0.503 J0.654
G2 X227.036 Y-29.185 I0.654 J0.503
G2 X227.363 Y-28.636 I0.817 J-0.115
G3 X228.622 Y-26.523 I-1.885 J2.555
G1 X228.952 Y-24.173
G3 X228.152 Y-21.08 I-4.134 J0.581
G3 X225.399 Y-19.458 I-3.334 J-2.512
G1 X197.671 Y-15.561
G3 X192.956 Y-19.114 I-0.581 J-4.134
G1 X192.629 Y-21.437
G3 X193.257 Y-23.816 I3.144 J-0.442
G2 X193.106 Y-24.973 I-0.654 J-0.503
G2 X192.488 Y-25.136 I-0.503 J0.654
G2 X191.939 Y-24.809 I0.115 J0.817
G3 X189.826 Y-23.55 I-2.555 J-1.885
G1 X34.817 Y-1.764
G3 X32.631 Y-2.255 I-0.442 J-3.144
G2 X31.489 Y-2.019 I-0.453 J0.689
G2 X31.372 Y-1.391 I0.689 J0.453
G2 X31.739 Y-0.867 I0.806 J-0.175
G3 X33.193 Y1.379 I-1.69 J2.688
G1 X33.459 Y3.268
G3 X32.659 Y6.361 I-4.134 J0.581
G3 X29.906 Y7.983 I-3.334 J-2.513
G1 X12.553 Y10.422
G3 X9.459 Y9.622 I-0.581 J-4.134
G3 X7.837 Y6.869 I2.513 J-3.334
G1 X7.526 Y4.654
G3 X8.154 Y2.277 I3.144 J-0.442
G2 X8.003 Y1.12 I-0.654 J-0.503
G2 X7.385 Y0.957 I-0.503 J0.654
G2 X6.836 Y1.284 I0.115 J0.817
G3 X4.723 Y2.542 I-2.555 J-1.885
G1 X0.442 Y3.144
G3 X-1.977 Y2.484 I-0.442 J-3.144
G3 X-3.163 Y0.275 I1.977 J-2.484
G1 X-4.813 Y-18.667
G3 X-4.74 Y-19.671 I3.163 J-0.275
G1 Z-18.034
G3 X-2.147 Y-22.078 I3.09 J0.729
G1 X3.498 Y-22.973
G1 Z-20.574
G1 X10.208 Y-24.036
G1 Z-18.034
G1 X21.497 Y-25.825
G1 Z-20.574
G1 X28.133 Y-26.877
G1 Z-18.034
G1 X39.422 Y-28.666
G1 Z-20.574
G1 X74.119 Y-34.164
G1 Z-18.034
G1 X86.983 Y-36.202
G1 Z-20.574
G1 X193.445 Y-53.072
G1 Z-18.034
G1 X204.734 Y-54.861
G1 Z-20.574
G1 X217.246 Y-56.843
G1 Z-18.034
G1 X228.535 Y-58.632
G1 Z-20.574
G1 X346.421 Y-77.313
G2 X361.362 Y-97.509 I-2.805 J-17.7
G1 X347.259 Y-197.754
G1 Z-18.034
G1 X345.667 Y-209.073
G1 Z-20.574
G1 X343.912 Y-221.548
G1 Z-18.034
G1 X342.319 Y-232.867
G1 Z-20.574
G1 X330.68 Y-315.602
G1 Z-18.034
G1 X329.088 Y-326.921
G1 Z-20.574
G1 X317.4 Y-410
G2 X299.726 Y-425.361 I-17.674 J2.487
G1 X252.67
G1 Z-18.034
G1 X241.24
G1 Z-20.574
G1 X235.746
G1 Z-18.034
G1 X224.316
G1 Z-20.574
G1 X59.591
G1 Z-18.034
G1 X44.033
G1 Z-20.574
G1 X-10.919
G1 Z-18.034
G1 X-22.349
G1 Z-20.574
G1 X-35.507
G1 Z-18.034
G1 X-38.972
G3 X-42.135 Y-428.259 I0 J-3.175
G1 X-42.633 Y-433.953
G1 Z-20.574
G1 X-45.455 Y-466.205
G1 Z-18.034
G1 X-45.709 Y-469.103
G3 X-44.887 Y-471.525 I3.163 J-0.277
G3 X-42.546 Y-472.555 I2.341 J2.145
G1 X-36.831
G1 Z-20.574
G1 X-0.763
G1 Z-18.034
G1 X10.667
G1 Z-20.574
G1 X39.25
G1 Z-18.034
G1 X50.68
G1 Z-20.574
G1 X58.67
G1 Z-18.034
G1 X70.1
G1 Z-20.574
G1 X78.547
G1 Z-18.034
G1 X89.977
G1 Z-20.574
G1 X303.012
G1 Z-18.034
G1 X314.442
G1 Z-20.574
G1 X359.302
G1 Z-18.034
G1 X362.954
G3 X366.098 Y-469.822 I0 J3.175
G1 X366.893 Y-464.163
G1 Z-20.574
G1 X372.936 Y-421.165
G1 Z-18.034
G1 X374.527 Y-409.846
G1 Z-20.574
G1 X382.281 Y-354.674
G3 X381.79 Y-352.488 I-3.144 J0.442
G2 X382.027 Y-351.345 I0.69 J0.453
G2 X382.655 Y-351.228 I0.453 J-0.69
G2 X383.179 Y-351.596 I-0.175 J-0.807
G3 X384.718 Y-352.866 I2.688 J1.69
G1 Z-18.034
G3 X385.425 Y-353.05 I1.149 J2.96
G1 X387.34 Y-353.319
G3 X392.055 Y-349.766 I0.581 J4.134
G1 X393.517 Y-339.363
G1 Z-20.574
G1 X400.798 Y-287.558
G1 Z-18.034
G1 X403.091 Y-271.24
G1 Z-20.574
G1 X404.95 Y-258.016
G1 Z-18.034
G1 X405.696 Y-252.709
G3 X404.897 Y-249.614 I-4.134 J0.583
G3 X402.142 Y-247.992 I-3.335 J-2.512
G1 X399.606 Y-247.636
G1 Z-20.574
G1 X399.393 Y-247.606
G3 X397.208 Y-248.097 I-0.441 J-3.144
G2 X396.066 Y-247.86 I-0.453 J0.689
G2 X395.949 Y-247.232 I0.689 J0.453
G2 X396.316 Y-246.709 I0.806 J-0.175
G3 X397.77 Y-244.463 I-1.69 J2.688
G1 X405.549 Y-189.113
G1 Z-18.034
G1 X407.14 Y-177.794
G1 Z-20.574
G1 X408.181 Y-170.387
G1 Z-18.034
G1 X409.922 Y-157.999
G1 Z-20.574
G1 X414.532 Y-125.196
G3 X414.041 Y-123.01 I-3.144 J0.442
G2 X414.278 Y-121.867 I0.69 J0.453
G2 X414.906 Y-121.75 I0.453 J-0.69
G2 X415.43 Y-122.118 I-0.175 J-0.807
G3 X416.931 Y-123.373 I2.688 J1.69
G1 Z-18.034
G3 X417.676 Y-123.572 I1.187 J2.945
G1 X419.403 Y-123.815
G1 X419.404
G3 X424.119 Y-120.264 I0.58 J4.135
G1 Y-120.262
G1 X426.432 Y-103.803
G1 Z-20.574
G1 X427.269 Y-97.849
G1 Z-18.034
G1 X428.014 Y-92.547
G1 Y-92.545
G3 X424.463 Y-87.831 I-4.135 J0.58
G1 X424.461
G1 X421.899 Y-87.471
G3 X421.05 Y-87.466 I-0.442 J-3.144
G1 Z-20.574
G3 X419.714 Y-87.962 I0.407 J-3.149
G2 X418.571 Y-87.725 I-0.453 J0.689
G2 X418.455 Y-87.097 I0.689 J0.453
G2 X418.822 Y-86.574 I0.806 J-0.175
G3 X420.276 Y-84.328 I-1.69 J2.688
G1 X424.558 Y-53.86
G1 Z-18.034
G1 X425 Y-50.716
G3 X424.392 Y-48.363 I-3.144 J0.442
G3 X422.298 Y-47.13 I-2.536 J-1.911
G1 X416.638 Y-46.335
G1 Z-20.574
G1 X406.932 Y-44.971
G1 Z-18.034
G1 X395.613 Y-43.38
G1 Z-20.574
G1 X391.159 Y-42.754
G3 X386.444 Y-46.307 I-0.581 J-4.134
G1 X386.053 Y-49.09
G3 X386.544 Y-51.275 I3.144 J-0.442
G2 X386.307 Y-52.418 I-0.69 J-0.453
G2 X385.679 Y-52.535 I-0.453 J0.69
G2 X385.155 Y-52.168 I0.175 J0.806
G3 X382.909 Y-50.713 I-2.688 J-1.689
G1 X354.887 Y-46.775
G1 Z-18.034
G1 X343.568 Y-45.184
G1 Z-20.574
G1 X274.981 Y-35.545
G1 Z-18.034
G1 X263.662 Y-33.954
G1 Z-20.574
G1 X230.734 Y-29.326
G3 X228.356 Y-29.954 I-0.442 J-3.144
G2 X227.199 Y-29.803 I-0.503 J0.654
G2 X227.036 Y-29.185 I0.654 J0.503
G2 X227.363 Y-28.636 I0.817 J-0.115
G3 X228.622 Y-26.523 I-1.885 J2.555
G1 X228.952 Y-24.173
G3 X228.152 Y-21.08 I-4.134 J0.581
G3 X225.399 Y-19.458 I-3.334 J-2.512
G1 X197.671 Y-15.561
G3 X192.956 Y-19.114 I-0.581 J-4.134
G1 X192.629 Y-21.437
G3 X193.257 Y-23.816 I3.144 J-0.442
G2 X193.106 Y-24.973 I-0.654 J-0.503
G2 X192.488 Y-25.136 I-0.503 J0.654
G2 X191.939 Y-24.809 I0.115 J0.817
G3 X189.826 Y-23.55 I-2.555 J-1.885
G1 X163.121 Y-19.797
G1 Z-18.034
G1 X151.802 Y-18.206
G1 Z-20.574
G1 X34.817 Y-1.764
G3 X32.631 Y-2.255 I-0.442 J-3.144
G2 X31.489 Y-2.019 I-0.453 J0.689
G2 X31.372 Y-1.391 I0.689 J0.453
G2 X31.739 Y-0.867 I0.806 J-0.175
G3 X33.193 Y1.379 I-1.69 J2.688
G1 X33.459 Y3.268
G3 X32.659 Y6.361 I-4.134 J0.581
G3 X29.906 Y7.983 I-3.334 J-2.513
G1 X12.553 Y10.422
G3 X9.459 Y9.622 I-0.581 J-4.134
G3 X7.837 Y6.869 I2.513 J-3.334
G1 X7.526 Y4.654
G3 X8.154 Y2.277 I3.144 J-0.442
G2 X8.003 Y1.12 I-0.654 J-0.503
G2 X7.385 Y0.957 I-0.503 J0.654
G2 X6.836 Y1.284 I0.115 J0.817
G3 X4.723 Y2.542 I-2.555 J-1.885
G1 X0.442 Y3.144
G3 X-1.977 Y2.484 I-0.442 J-3.144
G3 X-3.163 Y0.275 I1.977 J-2.484
G1 X-4.517 Y-15.274
G1 Z-18.034
G1 X-4.813 Y-18.667
G3 X-4.74 Y-19.671 I3.163 J-0.275
G0 Z6.096

(2D POCKET1)
G0 Z11.176
G0 X376.779 Y-381.118
G0 Z6.096
G1 Z3.556 F508.
G1 X376.561 Y-381.098 Z3.548
G1 X376.344 Y-381.063 Z3.541
G1 X376.131 Y-381.012 Z3.533
G1 X375.921 Y-380.945 Z3.525
G1 X375.718 Y-380.863 Z3.518
G1 X375.52 Y-380.767 Z3.51
G1 X375.331 Y-380.657 Z3.502
G1 X375.149 Y-380.533 Z3.495
G1 X374.978 Y-380.396 Z3.487
G1 X374.816 Y-380.248 Z3.479
G1 X374.666 Y-380.087 Z3.472
G1 X374.528 Y-379.917 Z3.464
G1 X374.403 Y-379.737 Z3.456
G1 X374.291 Y-379.548 Z3.449
G1 X374.193 Y-379.351 Z3.441
G1 X374.11 Y-379.148 Z3.433
G1 X374.042 Y-378.94 Z3.426
G1 X373.989 Y-378.727 Z3.418
G1 X373.952 Y-378.51 Z3.41
G1 X373.93 Y-378.292 Z3.403
G1 X373.925 Y-378.072 Z3.395
G1 X373.935 Y-377.853 Z3.387
G1 X373.961 Y-377.635 Z3.38
G1 X374.003 Y-377.42 Z3.372
G1 X374.061 Y-377.208 Z3.364
G1 X374.134 Y-377.001 Z3.357
G1 X374.222 Y-376.8 Z3.349
G1 X374.324 Y-376.606 Z3.341
G1 X374.44 Y-376.419 Z3.334
G1 X374.569 Y-376.242 Z3.326
G1 X374.711 Y-376.075 Z3.318
G1 X374.865 Y-375.918 Z3.311
G1 X375.029 Y-375.773 Z3.303
G1 X375.204 Y-375.64 Z3.295
G1 X375.388 Y-375.52 Z3.288
G1 X375.58 Y-375.414 Z3.28
G1 X375.779 Y-375.322 Z3.272
G1 X375.985 Y-375.245 Z3.265
G1 X376.196 Y-375.183 Z3.257
G1 X376.41 Y-375.137 Z3.249
G1 X376.627 Y-375.106 Z3.242
G1 X376.846 Y-375.091 Z3.234
G1 X377.066 Y-375.092 Z3.226
G1 X377.285 Y-375.11 Z3.219
G1 X377.502 Y-375.143 Z3.211
G1 X377.716 Y-375.191 Z3.203
G1 X377.926 Y-375.255 Z3.196
G1 X378.13 Y-375.334 Z3.188
G1 X378.329 Y-375.428 Z3.18
G1 X378.52 Y-375.536 Z3.173
G1 X378.702 Y-375.658 Z3.165
G1 X378.876 Y-375.793 Z3.157
G1 X379.039 Y-375.939 Z3.15
G1 X379.191 Y-376.098 Z3.142
G1 X379.331 Y-376.267 Z3.134
G1 X379.458 Y-376.445 Z3.127
G1 X379.572 Y-376.633 Z3.119
G1 X379.673 Y-376.828 Z3.111
G1 X379.758 Y-377.03 Z3.104
G1 X379.829 Y-377.238 Z3.096
G1 X379.885 Y-377.45 Z3.088
G1 X379.925 Y-377.666 Z3.081
G1 X379.949 Y-377.884 Z3.073
G1 X379.957 Y-378.104 Z3.065
G1 X379.949 Y-378.323 Z3.058
G1 X379.925 Y-378.541 Z3.05
G1 X379.886 Y-378.757 Z3.042
G1 X379.831 Y-378.969 Z3.035
G1 X379.76 Y-379.177 Z3.027
G1 X379.675 Y-379.379 Z3.019
G1 X379.575 Y-379.575 Z3.012
G1 X379.461 Y-379.763 Z3.004
G1 X379.334 Y-379.941 Z2.996
G1 X379.194 Y-380.111 Z2.989
G1 X379.043 Y-380.269 Z2.981
G1 X378.88 Y-380.416 Z2.973
G1 X378.707 Y-380.551 Z2.966
G1 X378.524 Y-380.673 Z2.958
G1 X378.333 Y-380.782 Z2.95
G1 X378.135 Y-380.876 Z2.943
G1 X377.93 Y-380.955 Z2.935
G1 X377.721 Y-381.02 Z2.927
G1 X377.507 Y-381.069 Z2.92
G1 X377.29 Y-381.102 Z2.912
G1 X377.071 Y-381.12 Z2.904
G1 X376.852 Y-381.121 Z2.897
G1 X376.633 Y-381.107 Z2.889
G1 X376.415 Y-381.076 Z2.881
G1 X376.201 Y-381.03 Z2.874
G1 X375.99 Y-380.969 Z2.866
G1 X375.784 Y-380.892 Z2.858
G1 X375.585 Y-380.8 Z2.851
G1 X375.392 Y-380.695 Z2.843
G1 X375.208 Y-380.575 Z2.835
G1 X375.033 Y-380.443 Z2.828
G1 X374.868 Y-380.298 Z2.82
G1 X374.715 Y-380.141 Z2.812
G1 X374.572 Y-379.974 Z2.805
G1 X374.443 Y-379.797 Z2.797
G1 X374.327 Y-379.611 Z2.789
G1 X374.224 Y-379.417 Z2.782
G1 X374.136 Y-379.216 Z2.774
G1 X374.063 Y-379.009 Z2.766
G1 X374.005 Y-378.797 Z2.759
G1 X373.962 Y-378.582 Z2.751
G1 X373.935 Y-378.364 Z2.743
G1 X373.925 Y-378.145 Z2.736
G1 X373.93 Y-377.926 Z2.728
G1 X373.951 Y-377.707 Z2.72
G1 X373.988 Y-377.491 Z2.713
G1 X374.04 Y-377.278 Z2.705
G1 X374.108 Y-377.069 Z2.697
G1 X374.191 Y-376.866 Z2.69
G1 X374.289 Y-376.669 Z2.682
G1 X374.4 Y-376.48 Z2.674
G1 X374.525 Y-376.3 Z2.667
G1 X374.663 Y-376.129 Z2.659
G1 X374.813 Y-375.968 Z2.651
G1 X374.974 Y-375.819 Z2.644
G1 X375.145 Y-375.682 Z2.636
G1 X375.326 Y-375.558 Z2.628
G1 X375.516 Y-375.448 Z2.621
G1 X375.713 Y-375.351 Z2.613
G1 X375.917 Y-375.269 Z2.605
G1 X376.126 Y-375.202 Z2.598
G1 X376.339 Y-375.151 Z2.59
G1 X376.555 Y-375.115 Z2.582
G1 X376.774 Y-375.094 Z2.575
G1 X376.993 Y-375.09 Z2.567
G1 X377.213 Y-375.102 Z2.559
G1 X377.43 Y-375.13 Z2.552
G1 X377.645 Y-375.173 Z2.544
G1 X377.857 Y-375.232 Z2.536
G1 X378.063 Y-375.307 Z2.529
G1 X378.264 Y-375.396 Z2.521
G1 X378.458 Y-375.499 Z2.513
G1 X378.643 Y-375.616 Z2.506
G1 X378.82 Y-375.747 Z2.498
G1 X378.986 Y-375.89 Z2.49
G1 X379.142 Y-376.044 Z2.483
G1 X379.286 Y-376.21 Z2.475
G1 X379.418 Y-376.385 Z2.467
G1 X379.536 Y-376.57 Z2.46
G1 X379.641 Y-376.763 Z2.452
G1 X379.732 Y-376.963 Z2.444
G1 X379.807 Y-377.169 Z2.437
G1 X379.868 Y-377.38 Z2.429
G1 X379.913 Y-377.594 Z2.421
G1 X379.942 Y-377.812 Z2.414
G1 X379.956 Y-378.031 Z2.406
G1 X379.953 Y-378.251 Z2.398
G1 X379.935 Y-378.469 Z2.391
G1 X379.901 Y-378.686 Z2.383
G1 X379.851 Y-378.9 Z2.375
G1 X379.785 Y-379.109 Z2.368
G1 X379.705 Y-379.313 Z2.36
G1 X379.61 Y-379.511 Z2.352
G1 X379.5 Y-379.702 Z2.345
G1 X379.378 Y-379.883 Z2.337
G1 X379.242 Y-380.056 Z2.329
G1 X379.094 Y-380.218 Z2.322
G1 X378.935 Y-380.369 Z2.314
G1 X378.765 Y-380.508 Z2.306
G1 X378.585 Y-380.634 Z2.299
G1 X378.397 Y-380.747 Z2.291
G1 X378.201 Y-380.846 Z2.283
G1 X377.999 Y-380.931 Z2.276
G1 X377.79 Y-381 Z2.268
G1 X377.578 Y-381.054 Z2.26
G1 X377.362 Y-381.093 Z2.253
G1 X377.143 Y-381.116 Z2.245
G1 X376.924 Y-381.122 Z2.237
G1 X376.705 Y-381.113 Z2.23
G1 X376.487 Y-381.088 Z2.222
G1 X376.271 Y-381.047 Z2.214
G1 X376.059 Y-380.991 Z2.207
G1 X375.852 Y-380.919 Z2.199
G1 X375.65 Y-380.832 Z2.191
G1 X375.455 Y-380.731 Z2.184
G1 X375.268 Y-380.616 Z2.176
G1 X375.09 Y-380.488 Z2.168
G1 X374.922 Y-380.347 Z2.161
G1 X374.764 Y-380.194 Z2.153
G1 X374.618 Y-380.031 Z2.145
G1 X374.484 Y-379.857 Z2.138
G1 X374.363 Y-379.673 Z2.13
G1 X374.256 Y-379.482 Z2.122
G1 X374.163 Y-379.283 Z2.115
G1 X374.085 Y-379.078 Z2.107
G1 X374.022 Y-378.868 Z2.099
G1 X373.974 Y-378.653 Z2.092
G1 X373.942 Y-378.436 Z2.084
G1 X373.926 Y-378.217 Z2.076
G1 Y-377.998 Z2.069
G1 X373.942 Y-377.779 Z2.061
G1 X373.974 Y-377.562 Z2.053
G1 X374.021 Y-377.348 Z2.046
G1 X374.084 Y-377.137 Z2.038
G1 X374.162 Y-376.932 Z2.03
G1 X374.255 Y-376.733 Z2.023
G1 X374.362 Y-376.542 Z2.015
G1 X374.482 Y-376.358 Z2.007
G1 X374.616 Y-376.184 Z2
G1 X374.762 Y-376.02 Z1.992
G1 X374.919 Y-375.867 Z1.984
G1 X375.088 Y-375.726 Z1.977
G1 X375.266 Y-375.598 Z1.969
G1 X375.452 Y-375.483 Z1.961
G1 X375.647 Y-375.381 Z1.954
G1 X375.849 Y-375.294 Z1.946
G1 X376.056 Y-375.223 Z1.938
G1 X376.268 Y-375.166 Z1.931
G1 X376.484 Y-375.125 Z1.923
G1 X376.702 Y-375.099 Z1.915
G1 X376.921 Y-375.09 Z1.908
G1 X377.14 Y-375.096 Z1.9
G1 X377.359 Y-375.119 Z1.892
G1 X377.575 Y-375.157 Z1.885
G1 X377.787 Y-375.211 Z1.877
G1 X377.996 Y-375.28 Z1.869
G1 X378.198 Y-375.365 Z1.862
G1 X378.394 Y-375.463 Z1.854
G1 X378.583 Y-375.576 Z1.846
G1 X378.762 Y-375.702 Z1.839
G1 X378.932 Y-375.841 Z1.831
G1 X379.092 Y-375.992 Z1.823
G1 X379.24 Y-376.154 Z1.816
G1 X379.376 Y-376.326 Z1.808
G1 X379.499 Y-376.508 Z1.8
G1 X379.608 Y-376.698 Z1.793
G1 X379.703 Y-376.896 Z1.785
G1 X379.784 Y-377.1 Z1.777
G1 X379.85 Y-377.31 Z1.77
G1 X379.9 Y-377.523 Z1.762
G1 X379.935 Y-377.74 Z1.754
G1 X379.953 Y-377.959 Z1.747
G1 X379.956 Y-378.178 Z1.739
G1 X379.943 Y-378.397 Z1.731
G1 X379.914 Y-378.615 Z1.724
G1 X379.869 Y-378.83 Z1.716
G1 X379.808 Y-379.041 Z1.708
G1 X379.733 Y-379.247 Z1.701
G1 X379.643 Y-379.447 Z1.693
G1 X379.538 Y-379.64 Z1.685
G1 X379.42 Y-379.824 Z1.678
G1 X379.288 Y-380 Z1.67
G1 X379.144 Y-380.166 Z1.662
G1 X378.988 Y-380.321 Z1.655
G1 X378.822 Y-380.464 Z1.647
G1 X378.646 Y-380.594 Z1.64
G1 X378.46 Y-380.712 Z1.632
G1 X378.267 Y-380.815 Z1.624
G1 X378.066 Y-380.904 Z1.617
G1 X377.86 Y-380.979 Z1.609
G1 X377.648 Y-381.038 Z1.601
G1 X377.433 Y-381.082 Z1.594
G1 X377.216 Y-381.11 Z1.586
G1 X376.996 Y-381.122 Z1.578
G1 X376.777 Y-381.118 Z1.571
G1 X376.558 Y-381.098 Z1.563
G1 X376.342 Y-381.062 Z1.555
G1 X376.129 Y-381.011 Z1.548
G1 X375.919 Y-380.944 Z1.54
G1 X375.716 Y-380.862 Z1.532
G1 X375.519 Y-380.766 Z1.525
G1 X375.329 Y-380.656 Z1.517
G1 X375.148 Y-380.532 Z1.509
G1 X374.976 Y-380.395 Z1.502
G1 X374.815 Y-380.246 Z1.494
G1 X374.665 Y-380.086 Z1.486
G1 X374.527 Y-379.915 Z1.479
G1 X374.402 Y-379.735 Z1.471
G1 X374.29 Y-379.546 Z1.463
G1 X374.192 Y-379.349 Z1.456
G1 X374.109 Y-379.146 Z1.448
G1 X374.041 Y-378.938 Z1.44
G1 X373.988 Y-378.725 Z1.433
G1 X373.951 Y-378.508 Z1.425
G1 X373.93 Y-378.29 Z1.417
G1 X373.925 Y-378.07 Z1.41
G1 X373.935 Y-377.851 Z1.402
G1 X373.962 Y-377.633 Z1.394
G1 X374.004 Y-377.418 Z1.387
G1 X374.062 Y-377.206 Z1.379
G1 X374.135 Y-376.999 Z1.371
G1 X374.223 Y-376.798 Z1.364
G1 X374.325 Y-376.604 Z1.356
G1 X374.441 Y-376.418 Z1.348
G1 X374.571 Y-376.24 Z1.341
G1 X374.712 Y-376.073 Z1.333
G1 X374.866 Y-375.916 Z1.325
G1 X375.031 Y-375.771 Z1.318
G1 X375.206 Y-375.639 Z1.31
G1 X375.39 Y-375.519 Z1.302
G1 X375.582 Y-375.413 Z1.295
G1 X375.781 Y-375.322 Z1.287
G1 X375.987 Y-375.245 Z1.279
G1 X376.198 Y-375.183 Z1.272
G1 X376.412 Y-375.137 Z1.264
G1 X376.629 Y-375.106 Z1.256
G1 X376.848 Y-375.091 Z1.249
G1 X377.068 Y-375.093 Z1.241
G1 X377.287 Y-375.11 Z1.233
G1 X377.504 Y-375.143 Z1.226
G1 X377.718 Y-375.192 Z1.218
G1 X377.928 Y-375.256 Z1.21
G1 X378.132 Y-375.335 Z1.203
G1 X378.331 Y-375.429 Z1.195
G1 X378.521 Y-375.537 Z1.187
G1 X378.704 Y-375.659 Z1.18
G1 X378.877 Y-375.794 Z1.172
G1 X379.04 Y-375.941 Z1.164
G1 X379.192 Y-376.099 Z1.157
G1 X379.332 Y-376.268 Z1.149
G1 X379.46 Y-376.447 Z1.141
G1 X379.574 Y-376.635 Z1.134
G1 X379.674 Y-376.83 Z1.126
G1 X379.759 Y-377.032 Z1.118
G1 X379.83 Y-377.24 Z1.111
G1 X379.885 Y-377.452 Z1.103
G1 X379.925 Y-377.668 Z1.095
G1 X379.949 Y-377.886 Z1.088
G1 X379.957 Y-378.106 Z1.08
G1 X379.949 Y-378.325 Z1.072
G1 X379.925 Y-378.543 Z1.065
G1 X379.885 Y-378.759 Z1.057
G1 X379.83 Y-378.971 Z1.049
G1 X379.759 Y-379.179 Z1.042
G1 X379.674 Y-379.381 Z1.034
G1 X379.574 Y-379.577 Z1.026
G1 X379.46 Y-379.764 Z1.019
G1 X379.333 Y-379.943 Z1.011
G1 X379.193 Y-380.112 Z1.003
G1 X379.041 Y-380.271 Z0.996
G1 X378.878 Y-380.418 Z0.988
G1 X378.705 Y-380.553 Z0.98
G1 X378.522 Y-380.674 Z0.973
G1 X378.331 Y-380.783 Z0.965
G1 X378.133 Y-380.877 Z0.957
G1 X377.928 Y-380.956 Z0.95
G1 X377.719 Y-381.02 Z0.942
G1 X377.505 Y-381.069 Z0.934
G1 X377.288 Y-381.102 Z0.927
G1 X377.069 Y-381.12 Z0.919
G1 X376.849 Y-381.121 Z0.911
G1 X376.63 Y-381.106 Z0.904
G1 X376.413 Y-381.076 Z0.896
G1 X376.199 Y-381.03 Z0.888
G1 X375.988 Y-380.968 Z0.881
G1 X375.782 Y-380.891 Z0.873
G1 X375.583 Y-380.8 Z0.865
G1 X375.391 Y-380.694 Z0.858
G1 X375.207 Y-380.574 Z0.85
G1 X375.032 Y-380.441 Z0.842
G1 X374.867 Y-380.296 Z0.835
G1 X374.713 Y-380.14 Z0.827
G1 X374.571 Y-379.973 Z0.819
G1 X374.442 Y-379.795 Z0.812
G1 X374.326 Y-379.609 Z0.804
G1 X374.223 Y-379.415 Z0.796
G1 X374.135 Y-379.214 Z0.789
G1 X374.062 Y-379.007 Z0.781
G1 X374.004 Y-378.795 Z0.773
G1 X373.962 Y-378.58 Z0.766
G1 X373.935 Y-378.362 Z0.758
G1 X373.925 Y-378.143 Z0.75
G1 X373.93 Y-377.923 Z0.743
G1 X373.951 Y-377.705 Z0.735
G1 X373.988 Y-377.489 Z0.727
G1 X374.041 Y-377.276 Z0.72
G1 X374.109 Y-377.067 Z0.712
G1 X374.192 Y-376.864 Z0.704
G1 X374.29 Y-376.667 Z0.697
G1 X374.401 Y-376.478 Z0.689
G1 X374.526 Y-376.298 Z0.681
G1 X374.664 Y-376.127 Z0.674
G1 X374.814 Y-375.967 Z0.666
G1 X374.975 Y-375.818 Z0.658
G1 X375.147 Y-375.681 Z0.651
G1 X375.328 Y-375.557 Z0.643
G1 X375.518 Y-375.447 Z0.635
G1 X375.715 Y-375.35 Z0.628
G1 X375.919 Y-375.268 Z0.62
G1 X376.128 Y-375.202 Z0.612
G1 X376.341 Y-375.15 Z0.605
G1 X376.557 Y-375.114 Z0.597
G1 X376.776 Y-375.094 Z0.589
G1 X376.995 Y-375.09 Z0.582
G1 X377.215 Y-375.102 Z0.574
G1 X377.432 Y-375.13 Z0.566
G1 X377.647 Y-375.174 Z0.559
G1 X377.859 Y-375.233 Z0.551
G1 X378.065 Y-375.307 Z0.543
G1 X378.266 Y-375.397 Z0.536
G1 X378.459 Y-375.5 Z0.528
G1 X378.645 Y-375.617 Z0.52
G1 X378.821 Y-375.748 Z0.513
G1 X378.988 Y-375.891 Z0.505
G1 X379.143 Y-376.046 Z0.497
G1 X379.287 Y-376.211 Z0.49
G1 X379.419 Y-376.387 Z0.482
G1 X379.537 Y-376.572 Z0.474
G1 X379.642 Y-376.765 Z0.467
G1 X379.733 Y-376.965 Z0.459
G1 X379.808 Y-377.171 Z0.451
G1 X379.869 Y-377.382 Z0.444
G1 X379.913 Y-377.597 Z0.436
G1 X379.943 Y-377.814 Z0.428
G1 X379.956 Y-378.033 Z0.421
G1 X379.953 Y-378.253 Z0.413
G1 X379.935 Y-378.471 Z0.405
G1 X379.9 Y-378.688 Z0.398
G1 X379.85 Y-378.902 Z0.39
G1 X379.784 Y-379.111 Z0.382
G1 X379.704 Y-379.315 Z0.375
G1 X379.609 Y-379.513 Z0.367
G1 X379.499 Y-379.703 Z0.359
G1 X379.376 Y-379.885 Z0.352
G1 X379.24 Y-380.058 Z0.344
G1 X379.092 Y-380.22 Z0.336
G1 X378.933 Y-380.371 Z0.329
G1 X378.763 Y-380.509 Z0.321
G1 X378.584 Y-380.636 Z0.313
G1 X378.395 Y-380.748 Z0.306
G1 X378.199 Y-380.847 Z0.298
G1 X377.997 Y-380.931 Z0.29
G1 X377.788 Y-381.001 Z0.283
G1 X377.576 Y-381.055 Z0.275
G1 X377.36 Y-381.093 Z0.267
G1 X377.141 Y-381.116 Z0.26
G1 X376.922 Y-381.122 Z0.252
G1 X376.703 Y-381.113 Z0.244
G1 X376.485 Y-381.088 Z0.237
G1 X376.269 Y-381.047 Z0.229
G1 X376.057 Y-380.99 Z0.221
G1 X375.85 Y-380.918 Z0.214
G1 X375.648 Y-380.831 Z0.206
G1 X375.453 Y-380.73 Z0.198
G1 X375.266 Y-380.615 Z0.191
G1 X375.088 Y-380.487 Z0.183
G1 X374.92 Y-380.346 Z0.175
G1 X374.763 Y-380.193 Z0.168
G1 X374.617 Y-380.029 Z0.16
G1 X374.483 Y-379.855 Z0.152
G1 X374.362 Y-379.672 Z0.145
G1 X374.255 Y-379.48 Z0.137
G1 X374.163 Y-379.281 Z0.129
G1 X374.084 Y-379.076 Z0.122
G1 X374.022 Y-378.866 Z0.114
G1 X373.974 Y-378.651 Z0.106
G1 X373.942 Y-378.434 Z0.099
G1 X373.926 Y-378.215 Z0.091
G1 Y-377.996 Z0.083
G1 X373.942 Y-377.777 Z0.076
G1 X373.974 Y-377.56 Z0.068
G1 X374.022 Y-377.346 Z0.06
G1 X374.085 Y-377.135 Z0.053
G1 X374.163 Y-376.93 Z0.045
G1 X374.256 Y-376.731 Z0.037
G1 X374.363 Y-376.54 Z0.03
G1 X374.484 Y-376.356 Z0.022
G1 X374.617 Y-376.182 Z0.014
G1 X374.763 Y-376.019 Z0.007
G1 X374.921 Y-375.866 Z-0.001
G1 X375.089 Y-375.725 Z-0.009
G1 X375.267 Y-375.597 Z-0.016
G1 X375.454 Y-375.482 Z-0.024
G1 X375.649 Y-375.38 Z-0.032
G1 X375.851 Y-375.294 Z-0.039
G1 X376.058 Y-375.222 Z-0.047
G1 X376.27 Y-375.165 Z-0.055
G1 X376.486 Y-375.124 Z-0.062
G1 X376.704 Y-375.099 Z-0.07
G1 X376.923 Y-375.09 Z-0.078
G1 X377.142 Y-375.097 Z-0.085
G1 X377.361 Y-375.119 Z-0.093
G1 X377.577 Y-375.158 Z-0.101
G1 X377.789 Y-375.212 Z-0.108
G1 X377.998 Y-375.281 Z-0.116
G1 X378.2 Y-375.366 Z-0.124
G1 X378.396 Y-375.464 Z-0.131
G1 X378.585 Y-375.577 Z-0.139
G1 X378.764 Y-375.703 Z-0.147
G1 X378.934 Y-375.842 Z-0.154
G1 X379.093 Y-375.993 Z-0.162
G1 X379.241 Y-376.156 Z-0.17
G1 X379.377 Y-376.328 Z-0.177
G1 X379.5 Y-376.51 Z-0.185
G1 X379.609 Y-376.7 Z-0.193
G1 X379.704 Y-376.898 Z-0.2
G1 X379.785 Y-377.102 Z-0.208
G1 X379.85 Y-377.312 Z-0.216
G1 X379.9 Y-377.525 Z-0.223
G1 X379.935 Y-377.742 Z-0.231
G1 X379.953 Y-377.961 Z-0.239
G1 X379.956 Y-378.18 Z-0.246
G1 X379.943 Y-378.399 Z-0.254
G1 X379.913 Y-378.617 Z-0.262
G1 X379.868 Y-378.832 Z-0.269
G1 X379.808 Y-379.043 Z-0.277
G1 X379.732 Y-379.249 Z-0.285
G1 X379.642 Y-379.449 Z-0.292
G1 X379.537 Y-379.641 Z-0.3
G1 X379.418 Y-379.826 Z-0.308
G1 X379.287 Y-380.002 Z-0.315
G1 X379.143 Y-380.167 Z-0.323
G1 X378.987 Y-380.322 Z-0.331
G1 X378.82 Y-380.465 Z-0.338
G1 X378.644 Y-380.595 Z-0.346
G1 X378.458 Y-380.713 Z-0.354
G1 X378.265 Y-380.816 Z-0.361
G1 X378.064 Y-380.905 Z-0.369
G1 X377.858 Y-380.98 Z-0.377
G1 X377.646 Y-381.039 Z-0.384
G1 X377.431 Y-381.082 Z-0.392
G1 X377.214 Y-381.11 Z-0.4
G1 X376.994 Y-381.122 Z-0.407
G1 X376.775 Y-381.118 Z-0.415
G1 X376.556 Y-381.098 Z-0.423
G1 X376.34 Y-381.062 Z-0.43
G1 X376.127 Y-381.01 Z-0.438
G1 X375.917 Y-380.944 Z-0.446
G1 X375.714 Y-380.862 Z-0.453
G1 X375.517 Y-380.765 Z-0.461
G1 X375.327 Y-380.655 Z-0.469
G1 X375.146 Y-380.53 Z-0.476
G1 X374.975 Y-380.394 Z-0.484
G1 X374.813 Y-380.245 Z-0.492
G1 X374.664 Y-380.084 Z-0.499
G1 X374.526 Y-379.913 Z-0.507
G1 X374.401 Y-379.733 Z-0.515
G1 X374.289 Y-379.544 Z-0.522
G1 X374.192 Y-379.347 Z-0.53
G1 X374.109 Y-379.144 Z-0.538
G1 X374.041 Y-378.936 Z-0.545
G1 X373.988 Y-378.722 Z-0.553
G1 X373.951 Y-378.506 Z-0.561
G1 X373.93 Y-378.288 Z-0.568
G1 X373.925 Y-378.068 Z-0.576
G1 X373.935 Y-377.849 Z-0.584
G1 X373.962 Y-377.631 Z-0.591
G1 X374.004 Y-377.416 Z-0.599
G1 X374.062 Y-377.204 Z-0.607
G1 X374.136 Y-376.997 Z-0.614
G1 X374.224 Y-376.796 Z-0.622
G1 X374.326 Y-376.602 Z-0.63
G1 X374.442 Y-376.416 Z-0.637
G1 X374.572 Y-376.239 Z-0.645
G1 X374.714 Y-376.072 Z-0.653
G1 X374.868 Y-375.915 Z-0.66
G1 X375.033 Y-375.77 Z-0.668
G1 X375.207 Y-375.637 Z-0.676
G1 X375.392 Y-375.518 Z-0.683
G1 X375.584 Y-375.412 Z-0.691
G1 X375.783 Y-375.321 Z-0.699
G1 X375.989 Y-375.244 Z-0.706
G1 X376.2 Y-375.182 Z-0.714
G1 X376.414 Y-375.136 Z-0.722
G1 X376.632 Y-375.106 Z-0.729
G1 X376.851 Y-375.091 Z-0.737
G1 X377.07 Y-375.093 Z-0.745
G1 X377.289 Y-375.11 Z-0.752
G1 X377.506 Y-375.143 Z-0.76
G1 X377.72 Y-375.192 Z-0.768
G1 X377.93 Y-375.257 Z-0.775
G1 X378.134 Y-375.336 Z-0.783
G1 X378.332 Y-375.43 Z-0.791
G1 X378.523 Y-375.538 Z-0.798
G1 X378.706 Y-375.66 Z-0.806
G1 X378.879 Y-375.795 Z-0.814
G1 X379.042 Y-375.942 Z-0.821
G1 X379.194 Y-376.101 Z-0.829
G1 X379.334 Y-376.27 Z-0.837
G1 X379.461 Y-376.449 Z-0.844
G1 X379.575 Y-376.636 Z-0.852
G1 X379.674 Y-376.832 Z-0.86
G1 X379.76 Y-377.034 Z-0.867
G1 X379.83 Y-377.242 Z-0.875
G1 X379.886 Y-377.454 Z-0.883
G1 X379.925 Y-377.67 Z-0.89
G1 X379.949 Y-377.888 Z-0.898
G1 X379.957 Y-378.108 Z-0.906
G1 X379.949 Y-378.327 Z-0.913
G1 X379.925 Y-378.545 Z-0.921
G1 X379.885 Y-378.761 Z-0.929
G1 X379.829 Y-378.973 Z-0.936
G1 X379.759 Y-379.181 Z-0.944
G1 X379.673 Y-379.383 Z-0.952
G1 X379.573 Y-379.579 Z-0.959
G1 X379.459 Y-379.766 Z-0.967
G1 X379.332 Y-379.945 Z-0.975
G1 X379.192 Y-380.114 Z-0.982
G1 X379.04 Y-380.272 Z-0.99
G1 X378.877 Y-380.419 Z-0.998
G1 X378.703 Y-380.554 Z-1.005
G1 X378.521 Y-380.675 Z-1.013
G1 X378.33 Y-380.784 Z-1.021
G1 X378.131 Y-380.877 Z-1.028
G1 X377.926 Y-380.957 Z-1.036
G1 X377.717 Y-381.021 Z-1.044
G1 X377.503 Y-381.07 Z-1.051
G1 X377.286 Y-381.103 Z-1.059
G1 X377.067 Y-381.12 Z-1.067
G1 X376.847 Y-381.121 Z-1.074
G1 X376.628 Y-381.106 Z-1.082
G1 X376.411 Y-381.076 Z-1.09
G1 X376.197 Y-381.029 Z-1.097
G1 X375.986 Y-380.967 Z-1.105
G1 X375.78 Y-380.89 Z-1.113
G1 X375.581 Y-380.799 Z-1.12
G1 X375.389 Y-380.693 Z-1.128
G1 X375.205 Y-380.573 Z-1.136
G1 X375.03 Y-380.44 Z-1.143
G1 X374.865 Y-380.295 Z-1.151
G1 X374.712 Y-380.138 Z-1.159
G1 X374.57 Y-379.971 Z-1.166
G1 X374.441 Y-379.794 Z-1.174
G1 X374.324 Y-379.607 Z-1.182
G1 X374.222 Y-379.413 Z-1.189
G1 X374.134 Y-379.212 Z-1.197
G1 X374.061 Y-379.005 Z-1.205
G1 X374.004 Y-378.793 Z-1.212
G1 X373.961 Y-378.578 Z-1.22
G1 X373.935 Y-378.36 Z-1.228
G1 X373.925 Y-378.141 Z-1.235
G1 X373.93 Y-377.921 Z-1.243
G1 X373.951 Y-377.703 Z-1.251
G1 X373.989 Y-377.487 Z-1.258
G1 X374.042 Y-377.274 Z-1.266
G1 X374.11 Y-377.065 Z-1.274
G1 X374.193 Y-376.862 Z-1.281
G1 X374.291 Y-376.665 Z-1.289
G1 X374.402 Y-376.477 Z-1.297
G1 X374.528 Y-376.296 Z-1.304
G1 X374.666 Y-376.126 Z-1.312
G1 X374.816 Y-375.965 Z-1.32
G1 X374.977 Y-375.817 Z-1.327
G1 X375.149 Y-375.68 Z-1.335
G1 X375.33 Y-375.556 Z-1.343
G1 X375.52 Y-375.446 Z-1.35
G1 X375.717 Y-375.349 Z-1.358
G1 X375.92 Y-375.268 Z-1.366
G1 X376.13 Y-375.201 Z-1.373
G1 X376.343 Y-375.15 Z-1.381
G1 X376.56 Y-375.114 Z-1.389
G1 X376.778 Y-375.094 Z-1.396
G1 X376.998 Y-375.09 Z-1.404
G1 X377.217 Y-375.103 Z-1.412
G1 X377.434 Y-375.131 Z-1.419
G1 X377.649 Y-375.174 Z-1.427
G1 X377.861 Y-375.234 Z-1.435
G1 X378.067 Y-375.308 Z-1.442
G1 X378.268 Y-375.398 Z-1.45
G1 X378.461 Y-375.501 Z-1.458
G1 X378.647 Y-375.619 Z-1.465
G1 X378.823 Y-375.749 Z-1.473
G1 X378.989 Y-375.892 Z-1.481
G1 X379.145 Y-376.047 Z-1.488
G1 X379.289 Y-376.213 Z-1.496
G1 X379.42 Y-376.389 Z-1.504
G1 X379.538 Y-376.574 Z-1.511
G1 X379.643 Y-376.767 Z-1.519
G1 X379.733 Y-376.967 Z-1.527
G1 X379.809 Y-377.173 Z-1.534
G1 X379.869 Y-377.384 Z-1.542
G1 X379.914 Y-377.599 Z-1.55
G1 X379.943 Y-377.816 Z-1.557
G1 X379.956 Y-378.035 Z-1.565
G1 X379.953 Y-378.255 Z-1.573
G1 X379.934 Y-378.473 Z-1.58
G1 X379.9 Y-378.69 Z-1.588
G1 X379.849 Y-378.904 Z-1.596
G1 X379.784 Y-379.113 Z-1.603
G1 X379.703 Y-379.317 Z-1.611
G1 X379.608 Y-379.515 Z-1.619
G1 X379.498 Y-379.705 Z-1.626
G1 X379.375 Y-379.887 Z-1.634
G1 X379.239 Y-380.059 Z-1.642
G1 X379.091 Y-380.221 Z-1.649
G1 X378.932 Y-380.372 Z-1.657
G1 X378.762 Y-380.511 Z-1.665
G1 X378.582 Y-380.637 Z-1.672
G1 X378.393 Y-380.749 Z-1.68
G1 X378.197 Y-380.848 Z-1.688
G1 X377.995 Y-380.932 Z-1.695
G1 X377.786 Y-381.001 Z-1.703
G1 X377.574 Y-381.055 Z-1.711
G1 X377.358 Y-381.093 Z-1.718
G1 X377.139 Y-381.116 Z-1.726
G1 X376.92 Y-381.122 Z-1.734
G1 X376.701 Y-381.113 Z-1.741
G1 X376.483 Y-381.087 Z-1.749
G1 X376.267 Y-381.046 Z-1.757
G1 X376.055 Y-380.989 Z-1.764
G1 X375.848 Y-380.917 Z-1.772
G1 X375.646 Y-380.83 Z-1.78
G1 X375.451 Y-380.729 Z-1.787
G1 X375.265 Y-380.614 Z-1.795
G1 X375.087 Y-380.485 Z-1.803
G1 X374.919 Y-380.344 Z-1.81
G1 X374.761 Y-380.191 Z-1.818
G1 X374.615 Y-380.027 Z-1.826
G1 X374.482 Y-379.853 Z-1.833
G1 X374.361 Y-379.67 Z-1.841
G1 X374.254 Y-379.478 Z-1.849
G1 X374.162 Y-379.279 Z-1.856
G1 X374.084 Y-379.074 Z-1.864
G1 X374.021 Y-378.864 Z-1.872
G1 X373.974 Y-378.649 Z-1.879
G1 X373.942 Y-378.432 Z-1.887
G1 X373.926 Y-378.213 Z-1.895
G1 Y-377.994 Z-1.902
G1 X373.943 Y-377.775 Z-1.91
G1 X373.975 Y-377.558 Z-1.918
G1 X374.022 Y-377.343 Z-1.925
G1 X374.086 Y-377.133 Z-1.933
G1 X374.164 Y-376.928 Z-1.941
G1 X374.257 Y-376.729 Z-1.948
G1 X374.364 Y-376.538 Z-1.956
G1 X374.485 Y-376.355 Z-1.964
G1 X374.619 Y-376.181 Z-1.971
G1 X374.765 Y-376.017 Z-1.979
G1 X374.923 Y-375.864 Z-1.987
G1 X375.091 Y-375.724 Z-1.994
G1 X375.269 Y-375.595 Z-2.002
G1 X375.456 Y-375.48 Z-2.01
G1 X375.651 Y-375.379 Z-2.017
G1 X375.853 Y-375.293 Z-2.025
G1 X376.06 Y-375.221 Z-2.033
G1 X376.272 Y-375.165 Z-2.04
G1 X376.488 Y-375.124 Z-2.048
G1 X376.706 Y-375.099 Z-2.056
G1 X376.925 Y-375.09 Z-2.063
G1 X377.144 Y-375.097 Z-2.071
G1 X377.363 Y-375.12 Z-2.079
G1 X377.579 Y-375.158 Z-2.086
G1 X377.792 Y-375.212 Z-2.094
G1 X378 Y-375.282 Z-2.102
G1 X378.202 Y-375.366 Z-2.109
G1 X378.398 Y-375.465 Z-2.117
G1 X378.586 Y-375.578 Z-2.125
G1 X378.766 Y-375.705 Z-2.132
G1 X378.936 Y-375.844 Z-2.14
G1 X379.095 Y-375.995 Z-2.148
G1 X379.243 Y-376.157 Z-2.155
G1 X379.378 Y-376.33 Z-2.163
G1 X379.501 Y-376.512 Z-2.17
G1 X379.61 Y-376.702 Z-2.178
G1 X379.705 Y-376.9 Z-2.186
G1 X379.786 Y-377.104 Z-2.193
G1 X379.851 Y-377.314 Z-2.201
G1 X379.901 Y-377.527 Z-2.209
G1 X379.935 Y-377.744 Z-2.216
G1 X379.953 Y-377.963 Z-2.224
G1 X379.956 Y-378.182 Z-2.232
G1 X379.942 Y-378.401 Z-2.239
G1 X379.913 Y-378.619 Z-2.247
G1 X379.868 Y-378.834 Z-2.255
G1 X379.807 Y-379.045 Z-2.262
G1 X379.731 Y-379.251 Z-2.27
G1 X379.641 Y-379.45 Z-2.278
G1 X379.536 Y-379.643 Z-2.285
G1 X379.417 Y-379.828 Z-2.293
G1 X379.285 Y-380.003 Z-2.301
G1 X379.141 Y-380.169 Z-2.308
G1 X378.985 Y-380.323 Z-2.316
G1 X378.819 Y-380.466 Z-2.324
G1 X378.642 Y-380.597 Z-2.331
G1 X378.457 Y-380.714 Z-2.339
G1 X378.263 Y-380.817 Z-2.347
G1 X378.062 Y-380.906 Z-2.354
G1 X377.856 Y-380.98 Z-2.362
G1 X377.644 Y-381.039 Z-2.37
G1 X377.429 Y-381.083 Z-2.377
G1 X377.211 Y-381.11 Z-2.385
G1 X376.992 Y-381.122 Z-2.393
G1 X376.773 Y-381.118 Z-2.4
G1 X376.554 Y-381.098 Z-2.408
G1 X376.338 Y-381.062 Z-2.416
G1 X376.124 Y-381.01 Z-2.423
G1 X375.915 Y-380.943 Z-2.431
G1 X375.712 Y-380.861 Z-2.439
G1 X375.515 Y-380.764 Z-2.446
G1 X375.325 Y-380.653 Z-2.454
G1 X375.144 Y-380.529 Z-2.462
G1 X374.973 Y-380.392 Z-2.469
G1 X374.812 Y-380.243 Z-2.477
G1 X374.662 Y-380.083 Z-2.485
G1 X374.524 Y-379.912 Z-2.492
G1 X374.4 Y-379.731 Z-2.5
G1 X374.288 Y-379.542 Z-2.508
G1 X374.191 Y-379.345 Z-2.515
G1 X374.108 Y-379.142 Z-2.523
G1 X374.04 Y-378.934 Z-2.531
G1 X373.988 Y-378.72 Z-2.538
G1 X373.951 Y-378.504 Z-2.546
G1 X373.93 Y-378.286 Z-2.554
G1 X373.925 Y-378.066 Z-2.561
G1 X373.935 Y-377.847 Z-2.569
G1 X373.962 Y-377.629 Z-2.577
G1 X374.005 Y-377.414 Z-2.584
G1 X374.063 Y-377.202 Z-2.592
G1 X374.136 Y-376.995 Z-2.6
G1 X374.225 Y-376.794 Z-2.607
G1 X374.327 Y-376.6 Z-2.615
G1 X374.444 Y-376.414 Z-2.623
G1 X374.573 Y-376.237 Z-2.63
G1 X374.715 Y-376.07 Z-2.638
G1 X374.869 Y-375.914 Z-2.646
G1 X375.034 Y-375.769 Z-2.653
G1 X375.209 Y-375.636 Z-2.661
G1 X375.393 Y-375.517 Z-2.669
G1 X375.586 Y-375.411 Z-2.676
G1 X375.785 Y-375.32 Z-2.684
G1 X375.991 Y-375.243 Z-2.692
G1 X376.202 Y-375.182 Z-2.699
G1 X376.416 Y-375.136 Z-2.707
G1 X376.634 Y-375.106 Z-2.715
G1 X376.853 Y-375.091 Z-2.722
G1 X377.072 Y-375.093 Z-2.73
G1 X377.291 Y-375.11 Z-2.738
G1 X377.508 Y-375.144 Z-2.745
G1 X377.722 Y-375.193 Z-2.753
G1 X377.932 Y-375.257 Z-2.761
G1 X378.136 Y-375.337 Z-2.768
G1 X378.334 Y-375.431 Z-2.776
G1 X378.525 Y-375.54 Z-2.784
G1 X378.708 Y-375.662 Z-2.791
G1 X378.881 Y-375.797 Z-2.799
G1 X379.043 Y-375.944 Z-2.807
G1 X379.195 Y-376.102 Z-2.814
G1 X379.335 Y-376.272 Z-2.822
G1 X379.462 Y-376.451 Z-2.83
G1 X379.576 Y-376.638 Z-2.837
G1 X379.675 Y-376.834 Z-2.845
G1 X379.761 Y-377.036 Z-2.853
G1 X379.831 Y-377.244 Z-2.86
G1 X379.886 Y-377.456 Z-2.868
G1 X379.925 Y-377.672 Z-2.876
G1 X379.949 Y-377.89 Z-2.883
G1 X379.957 Y-378.11 Z-2.891
G1 X379.949 Y-378.329 Z-2.899
G1 X379.924 Y-378.547 Z-2.906
G1 X379.884 Y-378.763 Z-2.914
G1 X379.829 Y-378.975 Z-2.922
G1 X379.758 Y-379.183 Z-2.929
G1 X379.672 Y-379.385 Z-2.937
G1 X379.572 Y-379.58 Z-2.945
G1 X379.458 Y-379.768 Z-2.952
G1 X379.33 Y-379.946 Z-2.96
G1 X379.19 Y-380.115 Z-2.968
G1 X379.038 Y-380.274 Z-2.975
G1 X378.875 Y-380.42 Z-2.983
G1 X378.702 Y-380.555 Z-2.991
G1 X378.519 Y-380.677 Z-2.998
G1 X378.328 Y-380.784 Z-3.006
G1 X378.129 Y-380.878 Z-3.014
G1 X377.925 Y-380.957 Z-3.021
G1 X377.715 Y-381.021 Z-3.029
G1 X377.501 Y-381.07 Z-3.037
G1 X377.284 Y-381.103 Z-3.044
G1 X377.065 Y-381.12 Z-3.052
G1 X376.845 Y-381.121 Z-3.06
G1 X376.626 Y-381.106 Z-3.067
G1 X376.409 Y-381.075 Z-3.075
G1 X376.194 Y-381.029 Z-3.083
G1 X375.984 Y-380.967 Z-3.09
G1 X375.778 Y-380.889 Z-3.098
G1 X375.579 Y-380.798 Z-3.106
G1 X375.387 Y-380.691 Z-3.113
G1 X375.203 Y-380.572 Z-3.121
G1 X375.028 Y-380.439 Z-3.129
G1 X374.864 Y-380.294 Z-3.136
G1 X374.71 Y-380.137 Z-3.144
G1 X374.569 Y-379.969 Z-3.152
G1 X374.439 Y-379.792 Z-3.159
G1 X374.323 Y-379.605 Z-3.167
G1 X374.221 Y-379.411 Z-3.175
G1 X374.134 Y-379.21 Z-3.182
G1 X374.061 Y-379.003 Z-3.19
G1 X374.003 Y-378.791 Z-3.198
G1 X373.961 Y-378.576 Z-3.205
G1 X373.935 Y-378.358 Z-3.213
G1 X373.925 Y-378.139 Z-3.221
G1 X373.93 Y-377.919 Z-3.228
G1 X373.952 Y-377.701 Z-3.236
G1 X373.989 Y-377.485 Z-3.244
G1 X374.042 Y-377.272 Z-3.251
G1 X374.11 Y-377.063 Z-3.259
G1 X374.194 Y-376.86 Z-3.267
G1 X374.292 Y-376.664 Z-3.274
G1 X374.404 Y-376.475 Z-3.282
G1 X374.529 Y-376.295 Z-3.29
G1 X374.667 Y-376.124 Z-3.297
G1 X374.817 Y-375.964 Z-3.305
G1 X374.979 Y-375.815 Z-3.313
G1 X375.15 Y-375.679 Z-3.32
G1 X375.332 Y-375.555 Z-3.328
G1 X375.521 Y-375.445 Z-3.336
G1 X375.719 Y-375.348 Z-3.343
G1 X375.922 Y-375.267 Z-3.351
G1 X376.132 Y-375.2 Z-3.359
G1 X376.345 Y-375.149 Z-3.366
G1 X376.562 Y-375.114 Z-3.374
G1 X376.78 Y-375.094 Z-3.382
G1 X377 Y-375.09 Z-3.389
G1 X377.219 Y-375.103 Z-3.397
G1 X377.436 Y-375.131 Z-3.405
G1 X377.652 Y-375.175 Z-3.412
G1 X377.863 Y-375.234 Z-3.42
G1 X378.069 Y-375.309 Z-3.428
G1 X378.27 Y-375.398 Z-3.435
G1 X378.463 Y-375.502 Z-3.443
G1 X378.648 Y-375.62 Z-3.451
G1 X378.825 Y-375.751 Z-3.458
G1 X378.991 Y-375.894 Z-3.466
G1 X379.146 Y-376.049 Z-3.474
G1 X379.29 Y-376.215 Z-3.481
G1 X379.421 Y-376.39 Z-3.489
G1 X379.54 Y-376.575 Z-3.497
G1 X379.644 Y-376.768 Z-3.504
G1 X379.734 Y-376.969 Z-3.512
G1 X379.809 Y-377.175 Z-3.52
G1 X379.87 Y-377.386 Z-3.527
G1 X379.914 Y-377.601 Z-3.535
G1 X379.943 Y-377.818 Z-3.543
G1 X379.956 Y-378.037 Z-3.55
G1 X379.953 Y-378.257 Z-3.558
G1 X379.934 Y-378.475 Z-3.566
G1 X379.899 Y-378.692 Z-3.573
G1 X379.849 Y-378.906 Z-3.581
G1 X379.783 Y-379.115 Z-3.589
G1 X379.702 Y-379.319 Z-3.596
G1 X379.607 Y-379.517 Z-3.604
G1 X379.497 Y-379.707 Z-3.612
G1 X379.374 Y-379.889 Z-3.619
G1 X379.238 Y-380.061 Z-3.627
G1 X379.09 Y-380.223 Z-3.635
G1 X378.93 Y-380.373 Z-3.642
G1 X378.76 Y-380.512 Z-3.65
G1 X378.58 Y-380.638 Z-3.658
G1 X378.392 Y-380.75 Z-3.665
G1 X378.196 Y-380.849 Z-3.673
G1 X377.993 Y-380.933 Z-3.681
G1 X377.784 Y-381.002 Z-3.688
G1 X377.572 Y-381.056 Z-3.696
G1 X377.355 Y-381.094 Z-3.704
G1 X377.137 Y-381.116 Z-3.711
G1 X376.918 Y-381.122 Z-3.719
G1 X376.698 Y-381.113 Z-3.727
G1 X376.48 Y-381.087 Z-3.734
G1 X376.265 Y-381.046 Z-3.742
G1 X376.053 Y-380.989 Z-3.75
G1 X375.846 Y-380.917 Z-3.757
G1 X375.644 Y-380.83 Z-3.765
G1 X375.45 Y-380.728 Z-3.773
G1 X375.263 Y-380.613 Z-3.78
G1 X375.085 Y-380.484 Z-3.788
G1 X374.917 Y-380.343 Z-3.796
G1 X374.76 Y-380.19 Z-3.803
G1 X374.614 Y-380.026 Z-3.811
G1 X374.481 Y-379.851 Z-3.819
G1 X374.36 Y-379.668 Z-3.826
G1 X374.253 Y-379.476 Z-3.834
G1 X374.161 Y-379.277 Z-3.842
G1 X374.083 Y-379.072 Z-3.849
G1 X374.02 Y-378.862 Z-3.857
G1 X373.973 Y-378.647 Z-3.865
G1 X373.942 Y-378.43 Z-3.872
G1 X373.926 Y-378.211 Z-3.88
G1 Y-377.992 Z-3.888
G1 X373.943 Y-377.773 Z-3.895
G1 X373.975 Y-377.556 Z-3.903
G1 X374.023 Y-377.341 Z-3.911
G1 X374.086 Y-377.131 Z-3.918
G1 X374.165 Y-376.926 Z-3.926
G1 X374.258 Y-376.728 Z-3.934
G1 X374.365 Y-376.536 Z-3.941
G1 X374.486 Y-376.353 Z-3.949
G1 X374.62 Y-376.179 Z-3.957
G1 X374.766 Y-376.016 Z-3.964
G1 X374.924 Y-375.863 Z-3.972
G1 X375.093 Y-375.722 Z-3.98
G1 X375.271 Y-375.594 Z-3.987
G1 X375.458 Y-375.479 Z-3.995
G1 X375.653 Y-375.379 Z-4.003
G1 X375.855 Y-375.292 Z-4.01
G1 X376.062 Y-375.221 Z-4.018
G1 X376.274 Y-375.164 Z-4.026
G1 X376.49 Y-375.124 Z-4.033
G1 X376.708 Y-375.099 Z-4.041
G1 X376.927 Y-375.09 Z-4.049
G1 X377.147 Y-375.097 Z-4.056
G1 X377.365 Y-375.12 Z-4.064
G1 X378.724 Y-375.313
G2 X379 Y-375.68 I-0.046 J-0.322
G1 X378.617 Y-378.405
G2 X378.491 Y-378.618 I-0.321 J0.045
G2 X378.251 Y-378.68 I-0.195 J0.259
G1 X353.244 Y-375.126
G2 X353.03 Y-375 I0.046 J0.321
G2 X352.968 Y-374.759 I0.259 J0.195
G1 X353.355 Y-372.036
G2 X353.722 Y-371.761 I0.321 J-0.046
G1 X377.365 Y-375.12
G3 X379.979 Y-374.064 I0.396 J2.784
G2 X382.026 Y-373.809 I1.151 J-0.896
G2 X382.574 Y-375.163 I-0.896 J-1.151
G1 X381.567 Y-382.332
G2 X381.443 Y-382.542 I-0.314 J0.044
G2 X381.208 Y-382.603 I-0.191 J0.254
G1 X351.373 Y-378.363
G3 X348.394 Y-379.269 I-0.518 J-3.646
G2 X347.946 Y-379.245 I-0.212 J0.236
G2 X347.865 Y-379.013 I0.236 J0.212
G2 X347.975 Y-378.793 I0.317 J-0.02
G3 X349.215 Y-376.522 I-2.406 J2.789
G1 X350.242 Y-369.298
G3 X349.683 Y-366.772 I-3.646 J0.518
G2 X349.776 Y-366.333 I0.266 J0.173
G2 X350.018 Y-366.289 I0.173 J-0.266
G2 X350.218 Y-366.431 I-0.069 J-0.31
G3 X352.827 Y-368.131 I3.127 J1.946
G1 X382.648 Y-372.368
G2 X382.917 Y-372.727 I-0.045 J-0.314
G1 X382.574 Y-375.163
G0 Z6.096
G0 X374.069 Y-379.031
G1 Z-1.524 F508.
G1 X374.01 Y-378.819 Z-1.532
G1 X373.966 Y-378.604 Z-1.539
G1 X373.937 Y-378.386 Z-1.547
G1 X373.925 Y-378.167 Z-1.555
G1 X373.928 Y-377.948 Z-1.562
G1 X373.948 Y-377.729 Z-1.57
G1 X373.983 Y-377.512 Z-1.578
G1 X374.034 Y-377.299 Z-1.585
G1 X374.101 Y-377.089 Z-1.593
G1 X374.182 Y-376.886 Z-1.601
G1 X374.278 Y-376.688 Z-1.608
G1 X374.389 Y-376.498 Z-1.616
G1 X374.512 Y-376.317 Z-1.624
G1 X374.649 Y-376.145 Z-1.631
G1 X374.798 Y-375.983 Z-1.639
G1 X374.958 Y-375.833 Z-1.647
G1 X375.128 Y-375.695 Z-1.654
G1 X375.309 Y-375.569 Z-1.662
G1 X375.498 Y-375.457 Z-1.67
G1 X375.694 Y-375.359 Z-1.677
G1 X375.897 Y-375.276 Z-1.685
G1 X376.106 Y-375.208 Z-1.693
G1 X376.319 Y-375.155 Z-1.7
G1 X376.535 Y-375.117 Z-1.708
G1 X376.754 Y-375.096 Z-1.716
G1 X376.973 Y-375.09 Z-1.723
G1 X377.193 Y-375.1 Z-1.731
G1 X377.411 Y-375.127 Z-1.739
G1 X377.626 Y-375.169 Z-1.746
G1 X377.838 Y-375.226 Z-1.754
G1 X378.045 Y-375.299 Z-1.762
G1 X378.246 Y-375.387 Z-1.769
G1 X378.441 Y-375.489 Z-1.777
G1 X378.627 Y-375.605 Z-1.785
G1 X378.805 Y-375.735 Z-1.792
G1 X378.972 Y-375.877 Z-1.8
G1 X379.129 Y-376.03 Z-1.808
G1 X379.274 Y-376.195 Z-1.815
G1 X379.407 Y-376.37 Z-1.823
G1 X379.527 Y-376.554 Z-1.831
G1 X379.633 Y-376.746 Z-1.838
G1 X379.725 Y-376.946 Z-1.846
G1 X379.802 Y-377.151 Z-1.854
G1 X379.864 Y-377.362 Z-1.861
G1 X379.91 Y-377.576 Z-1.869
G1 X379.941 Y-377.794 Z-1.877
G1 X379.955 Y-378.013 Z-1.884
G1 X379.954 Y-378.233 Z-1.892
G1 X379.937 Y-378.451 Z-1.9
G1 X379.904 Y-378.669 Z-1.907
G1 X379.855 Y-378.883 Z-1.915
G1 X379.791 Y-379.093 Z-1.923
G1 X379.712 Y-379.297 Z-1.93
G1 X379.618 Y-379.496 Z-1.938
G1 X379.509 Y-379.687 Z-1.946
G1 X379.388 Y-379.87 Z-1.953
G1 X379.253 Y-380.043 Z-1.961
G1 X379.106 Y-380.206 Z-1.969
G1 X378.947 Y-380.358 Z-1.976
G1 X378.778 Y-380.498 Z-1.984
G1 X378.599 Y-380.625 Z-1.992
G1 X378.412 Y-380.739 Z-2
G1 X378.216 Y-380.839 Z-2.007
G1 X378.014 Y-380.925 Z-2.015
G1 X377.806 Y-380.996 Z-2.023
G1 X377.594 Y-381.051 Z-2.03
G1 X377.378 Y-381.091 Z-2.038
G1 X377.159 Y-381.114 Z-2.046
G1 X376.94 Y-381.122 Z-2.053
G1 X376.721 Y-381.114 Z-2.061
G1 X376.502 Y-381.09 Z-2.069
G1 X376.286 Y-381.051 Z-2.076
G1 X376.074 Y-380.995 Z-2.084
G1 X375.866 Y-380.924 Z-2.092
G1 X375.664 Y-380.839 Z-2.099
G1 X375.468 Y-380.739 Z-2.107
G1 X375.281 Y-380.625 Z-2.115
G1 X375.102 Y-380.497 Z-2.122
G1 X374.933 Y-380.357 Z-2.13
G1 X374.774 Y-380.205 Z-2.138
G1 X374.627 Y-380.042 Z-2.145
G1 X374.493 Y-379.869 Z-2.153
G1 X374.371 Y-379.686 Z-2.161
G1 X374.263 Y-379.495 Z-2.168
G1 X374.169 Y-379.296 Z-2.176
G1 X374.09 Y-379.091 Z-2.184
G1 X374.026 Y-378.881 Z-2.191
G1 X373.977 Y-378.667 Z-2.199
G1 X373.944 Y-378.45 Z-2.207
G1 X373.927 Y-378.231 Z-2.214
G1 X373.926 Y-378.012 Z-2.222
G1 X373.941 Y-377.793 Z-2.23
G1 X373.971 Y-377.575 Z-2.237
G1 X374.018 Y-377.361 Z-2.245
G1 X374.08 Y-377.15 Z-2.253
G1 X374.157 Y-376.944 Z-2.26
G1 X374.249 Y-376.745 Z-2.268
G1 X374.355 Y-376.553 Z-2.276
G1 X374.475 Y-376.369 Z-2.283
G1 X374.608 Y-376.194 Z-2.291
G1 X374.753 Y-376.029 Z-2.299
G1 X374.91 Y-375.876 Z-2.306
G1 X375.078 Y-375.734 Z-2.314
G1 X375.255 Y-375.605 Z-2.322
G1 X375.442 Y-375.489 Z-2.329
G1 X375.636 Y-375.387 Z-2.337
G1 X375.837 Y-375.299 Z-2.345
G1 X376.044 Y-375.226 Z-2.352
G1 X376.256 Y-375.168 Z-2.36
G1 X376.472 Y-375.126 Z-2.368
G1 X376.69 Y-375.1 Z-2.375
G1 X376.909 Y-375.09 Z-2.383
G1 X377.129 Y-375.096 Z-2.391
G1 X377.347 Y-375.117 Z-2.398
G1 X377.564 Y-375.155 Z-2.406
G1 X377.777 Y-375.208 Z-2.414
G1 X377.985 Y-375.277 Z-2.421
G1 X378.188 Y-375.36 Z-2.429
G1 X378.385 Y-375.458 Z-2.437
G1 X378.574 Y-375.57 Z-2.444
G1 X378.754 Y-375.696 Z-2.452
G1 X378.924 Y-375.834 Z-2.46
G1 X379.084 Y-375.984 Z-2.467
G1 X379.233 Y-376.146 Z-2.475
G1 X379.37 Y-376.318 Z-2.483
G1 X379.493 Y-376.499 Z-2.49
G1 X379.603 Y-376.689 Z-2.498
G1 X379.699 Y-376.887 Z-2.506
G1 X379.781 Y-377.091 Z-2.513
G1 X379.847 Y-377.3 Z-2.521
G1 X379.898 Y-377.513 Z-2.529
G1 X379.933 Y-377.73 Z-2.536
G1 X379.953 Y-377.949 Z-2.544
G1 X379.956 Y-378.168 Z-2.552
G1 X379.944 Y-378.388 Z-2.559
G1 X379.915 Y-378.605 Z-2.567
G1 X379.871 Y-378.821 Z-2.575
G1 X379.811 Y-379.032 Z-2.582
G1 X379.736 Y-379.238 Z-2.59
G1 X379.647 Y-379.439 Z-2.598
G1 X379.542 Y-379.632 Z-2.605
G1 X379.425 Y-379.817 Z-2.613
G1 X379.294 Y-379.993 Z-2.621
G1 X379.15 Y-380.159 Z-2.628
G1 X378.995 Y-380.315 Z-2.636
G1 X378.829 Y-380.458 Z-2.644
G1 X378.653 Y-380.589 Z-2.651
G1 X378.467 Y-380.707 Z-2.659
G1 X378.274 Y-380.812 Z-2.667
G1 X378.074 Y-380.901 Z-2.674
G1 X377.867 Y-380.976 Z-2.682
G1 X377.656 Y-381.036 Z-2.69
G1 X377.441 Y-381.081 Z-2.697
G1 X377.223 Y-381.109 Z-2.705
G1 X377.004 Y-381.122 Z-2.713
G1 X376.784 Y-381.118 Z-2.72
G1 X376.566 Y-381.099 Z-2.728
G1 X376.349 Y-381.064 Z-2.736
G1 X376.135 Y-381.013 Z-2.743
G1 X375.926 Y-380.947 Z-2.751
G1 X375.722 Y-380.865 Z-2.759
G1 X375.525 Y-380.769 Z-2.766
G1 X375.335 Y-380.659 Z-2.774
G1 X375.153 Y-380.536 Z-2.782
G1 X374.981 Y-380.399 Z-2.789
G1 X374.82 Y-380.251 Z-2.797
G1 X374.669 Y-380.091 Z-2.805
G1 X374.531 Y-379.92 Z-2.812
G1 X374.405 Y-379.74 Z-2.82
G1 X374.293 Y-379.551 Z-2.828
G1 X374.195 Y-379.355 Z-2.835
G1 X374.111 Y-379.152 Z-2.843
G1 X374.043 Y-378.943 Z-2.851
G1 X373.99 Y-378.73 Z-2.858
G1 X373.952 Y-378.514 Z-2.866
G1 X373.93 Y-378.295 Z-2.874
G1 X373.924 Y-378.076 Z-2.881
G1 X373.935 Y-377.856 Z-2.889
G1 X373.961 Y-377.638 Z-2.897
G1 X374.003 Y-377.423 Z-2.904
G1 X374.06 Y-377.211 Z-2.912
G1 X374.133 Y-377.004 Z-2.92
G1 X374.221 Y-376.802 Z-2.927
G1 X374.323 Y-376.608 Z-2.935
G1 X374.439 Y-376.422 Z-2.943
G1 X374.568 Y-376.244 Z-2.951
G1 X374.709 Y-376.076 Z-2.958
G1 X374.863 Y-375.919 Z-2.966
G1 X375.028 Y-375.774 Z-2.974
G1 X375.202 Y-375.641 Z-2.981
G1 X375.386 Y-375.521 Z-2.989
G1 X375.578 Y-375.415 Z-2.997
G1 X375.778 Y-375.323 Z-3.004
G1 X375.983 Y-375.246 Z-3.012
G1 X376.194 Y-375.184 Z-3.02
G1 X376.409 Y-375.137 Z-3.027
G1 X376.626 Y-375.106 Z-3.035
G1 X376.845 Y-375.091 Z-3.043
G1 X377.065 Y-375.092 Z-3.05
G1 X377.284 Y-375.109 Z-3.058
G1 X377.501 Y-375.142 Z-3.066
G1 X377.715 Y-375.191 Z-3.073
G1 X377.925 Y-375.255 Z-3.081
G1 X378.13 Y-375.334 Z-3.089
G1 X378.328 Y-375.428 Z-3.096
G1 X378.519 Y-375.536 Z-3.104
G1 X378.702 Y-375.658 Z-3.112
G1 X378.876 Y-375.792 Z-3.119
G1 X379.039 Y-375.939 Z-3.127
G1 X379.191 Y-376.098 Z-3.135
G1 X379.331 Y-376.267 Z-3.142
G1 X379.458 Y-376.445 Z-3.15
G1 X379.573 Y-376.633 Z-3.158
G1 X379.673 Y-376.828 Z-3.165
G1 X379.759 Y-377.03 Z-3.173
G1 X379.829 Y-377.238 Z-3.181
G1 X379.885 Y-377.451 Z-3.188
G1 X379.925 Y-377.667 Z-3.196
G1 X379.949 Y-377.885 Z-3.204
G1 X379.957 Y-378.104 Z-3.211
G1 X379.949 Y-378.324 Z-3.219
G1 X379.925 Y-378.542 Z-3.227
G1 X379.886 Y-378.758 Z-3.234
G1 X379.83 Y-378.971 Z-3.242
G1 X379.76 Y-379.179 Z-3.25
G1 X379.674 Y-379.381 Z-3.257
G1 X379.574 Y-379.576 Z-3.265
G1 X379.46 Y-379.764 Z-3.273
G1 X379.333 Y-379.943 Z-3.28
G1 X379.193 Y-380.112 Z-3.288
G1 X379.041 Y-380.271 Z-3.296
G1 X378.878 Y-380.418 Z-3.303
G1 X378.705 Y-380.553 Z-3.311
G1 X378.522 Y-380.674 Z-3.319
G1 X378.331 Y-380.783 Z-3.326
G1 X378.133 Y-380.877 Z-3.334
G1 X377.928 Y-380.956 Z-3.342
G1 X377.718 Y-381.02 Z-3.349
G1 X377.504 Y-381.069 Z-3.357
G1 X377.287 Y-381.102 Z-3.365
G1 X377.068 Y-381.12 Z-3.372
G1 X376.849 Y-381.121 Z-3.38
G1 X376.629 Y-381.106 Z-3.388
G1 X376.412 Y-381.076 Z-3.395
G1 X376.197 Y-381.029 Z-3.403
G1 X375.987 Y-380.968 Z-3.411
G1 X375.781 Y-380.891 Z-3.418
G1 X375.582 Y-380.799 Z-3.426
G1 X375.389 Y-380.693 Z-3.434
G1 X375.205 Y-380.573 Z-3.441
G1 X375.03 Y-380.44 Z-3.449
G1 X374.866 Y-380.295 Z-3.457
G1 X374.712 Y-380.138 Z-3.464
G1 X374.57 Y-379.971 Z-3.472
G1 X374.44 Y-379.794 Z-3.48
G1 X374.324 Y-379.607 Z-3.487
G1 X374.222 Y-379.413 Z-3.495
G1 X374.134 Y-379.212 Z-3.503
G1 X374.061 Y-379.005 Z-3.51
G1 X374.004 Y-378.793 Z-3.518
G1 X373.961 Y-378.577 Z-3.526
G1 X373.935 Y-378.359 Z-3.533
G1 X373.925 Y-378.14 Z-3.541
G1 X373.93 Y-377.92 Z-3.549
G1 X373.952 Y-377.702 Z-3.556
G1 X373.989 Y-377.485 Z-3.564
G1 X374.042 Y-377.272 Z-3.572
G1 X374.11 Y-377.064 Z-3.579
G1 X374.194 Y-376.861 Z-3.587
G1 X374.291 Y-376.664 Z-3.595
G1 X374.403 Y-376.475 Z-3.602
G1 X374.529 Y-376.295 Z-3.61
G1 X374.667 Y-376.124 Z-3.618
G1 X374.817 Y-375.964 Z-3.625
G1 X374.979 Y-375.815 Z-3.633
G1 X375.15 Y-375.679 Z-3.641
G1 X375.332 Y-375.555 Z-3.648
G1 X375.522 Y-375.444 Z-3.656
G1 X375.719 Y-375.348 Z-3.664
G1 X375.923 Y-375.267 Z-3.671
G1 X376.132 Y-375.2 Z-3.679
G1 X376.346 Y-375.149 Z-3.687
G1 X376.562 Y-375.114 Z-3.694
G1 X376.781 Y-375.094 Z-3.702
G1 X377.001 Y-375.09 Z-3.71
G1 X377.22 Y-375.103 Z-3.717
G1 X377.438 Y-375.131 Z-3.725
G1 X377.653 Y-375.175 Z-3.733
G1 X377.864 Y-375.235 Z-3.74
G1 X378.07 Y-375.309 Z-3.748
G1 X378.271 Y-375.399 Z-3.756
G1 X378.464 Y-375.503 Z-3.763
G1 X378.65 Y-375.621 Z-3.771
G1 X378.826 Y-375.752 Z-3.779
G1 X378.992 Y-375.895 Z-3.786
G1 X379.148 Y-376.05 Z-3.794
G1 X379.291 Y-376.216 Z-3.802
G1 X379.423 Y-376.392 Z-3.809
G1 X379.541 Y-376.577 Z-3.817
G1 X379.645 Y-376.771 Z-3.825
G1 X379.735 Y-376.971 Z-3.832
G1 X379.81 Y-377.177 Z-3.84
G1 X379.87 Y-377.388 Z-3.848
G1 X379.915 Y-377.603 Z-3.855
G1 X379.943 Y-377.821 Z-3.863
G1 X379.956 Y-378.04 Z-3.871
G1 X379.953 Y-378.26 Z-3.879
G1 X379.934 Y-378.479 Z-3.886
G1 X379.899 Y-378.695 Z-3.894
G1 X379.848 Y-378.909 Z-3.902
G1 X379.782 Y-379.118 Z-3.909
G1 X379.701 Y-379.322 Z-3.917
G1 X379.605 Y-379.52 Z-3.925
G1 X379.495 Y-379.71 Z-3.932
G1 X379.372 Y-379.892 Z-3.94
G1 X379.235 Y-380.064 Z-3.948
G1 X379.087 Y-380.225 Z-3.955
G1 X378.927 Y-380.376 Z-3.963
G1 X378.756 Y-380.514 Z-3.971
G1 X378.576 Y-380.64 Z-3.978
G1 X378.388 Y-380.753 Z-3.986
G1 X378.191 Y-380.851 Z-3.994
G1 X377.988 Y-380.935 Z-4.001
G1 X377.78 Y-381.003 Z-4.009
G1 X377.567 Y-381.057 Z-4.017
G1 X377.351 Y-381.094 Z-4.024
G1 X377.132 Y-381.116 Z-4.032
G1 X376.913 Y-381.122 Z-4.04
G1 X376.693 Y-381.112 Z-4.047
G1 X376.475 Y-381.086 Z-4.055
G1 X376.26 Y-381.045 Z-4.063
G1 X376.048 Y-380.987 Z-4.07
G1 X375.84 Y-380.915 Z-4.078
G1 X375.639 Y-380.827 Z-4.086
G1 X375.445 Y-380.725 Z-4.093
G1 X375.258 Y-380.609 Z-4.101
G1 X375.08 Y-380.48 Z-4.109
G1 X374.913 Y-380.339 Z-4.116
G1 X374.755 Y-380.185 Z-4.124
G1 X374.61 Y-380.021 Z-4.132
G1 X374.477 Y-379.846 Z-4.139
G1 X374.357 Y-379.662 Z-4.147
G1 X374.25 Y-379.47 Z-4.155
G1 X374.158 Y-379.271 Z-4.162
G1 X374.081 Y-379.066 Z-4.17
G1 X374.019 Y-378.855 Z-4.178
G1 X373.972 Y-378.64 Z-4.185
G1 X373.941 Y-378.423 Z-4.193
G1 X373.926 Y-378.204 Z-4.201
G1 X373.927 Y-377.984 Z-4.208
G1 X373.944 Y-377.765 Z-4.216
G1 X373.976 Y-377.548 Z-4.224
G1 X374.025 Y-377.334 Z-4.231
G1 X374.089 Y-377.124 Z-4.239
G1 X374.168 Y-376.919 Z-4.247
G1 X374.261 Y-376.721 Z-4.254
G1 X374.369 Y-376.529 Z-4.262
G1 X374.491 Y-376.347 Z-4.27
G1 X374.625 Y-376.173 Z-4.277
G1 X374.772 Y-376.01 Z-4.285
G1 X374.93 Y-375.857 Z-4.293
G1 X375.099 Y-375.717 Z-4.3
G1 X375.278 Y-375.59 Z-4.308
G1 X375.465 Y-375.475 Z-4.316
G1 X375.661 Y-375.375 Z-4.323
G1 X375.863 Y-375.289 Z-4.331
G1 X376.071 Y-375.218 Z-4.339
G1 X376.283 Y-375.162 Z-4.346
G1 X376.499 Y-375.122 Z-4.354
G1 X376.717 Y-375.098 Z-4.362
G1 X376.936 Y-375.09 Z-4.369
G1 X377.156 Y-375.098 Z-4.377
G1 X377.374 Y-375.121 Z-4.385
G1 X377.59 Y-375.161 Z-4.392
G1 X377.803 Y-375.216 Z-4.4
G1 X378.011 Y-375.286 Z-4.408
G1 X378.213 Y-375.371 Z-4.415
G1 X378.409 Y-375.471 Z-4.423
G1 X378.596 Y-375.585 Z-4.431
G1 X378.775 Y-375.712 Z-4.438
G1 X378.945 Y-375.852 Z-4.446
G1 X379.103 Y-376.004 Z-4.454
G1 X379.251 Y-376.167 Z-4.461
G1 X379.386 Y-376.34 Z-4.469
G1 X379.508 Y-376.522 Z-4.477
G1 X379.616 Y-376.713 Z-4.484
G1 X379.71 Y-376.912 Z-4.492
G1 X379.79 Y-377.116 Z-4.5
G1 X379.854 Y-377.326 Z-4.507
G1 X379.903 Y-377.54 Z-4.515
G1 X379.937 Y-377.757 Z-4.523
G1 X379.954 Y-377.976 Z-4.53
G1 X379.956 Y-378.196 Z-4.538
G1 X379.941 Y-378.415 Z-4.546
G1 X379.911 Y-378.632 Z-4.553
G1 X379.864 Y-378.847 Z-4.561
G1 X379.803 Y-379.058 Z-4.569
G1 X379.726 Y-379.263 Z-4.576
G1 X379.634 Y-379.463 Z-4.584
G1 X379.529 Y-379.655 Z-4.592
G1 X379.409 Y-379.84 Z-4.599
G1 X379.276 Y-380.015 Z-4.607
G1 X379.131 Y-380.179 Z-4.615
G1 X378.975 Y-380.333 Z-4.622
G1 X378.807 Y-380.475 Z-4.63
G1 X378.63 Y-380.605 Z-4.638
G1 X378.444 Y-380.721 Z-4.645
G1 X378.249 Y-380.824 Z-4.653
G1 X378.048 Y-380.912 Z-4.661
G1 X377.841 Y-380.985 Z-4.668
G1 X377.629 Y-381.043 Z-4.676
G1 X377.414 Y-381.085 Z-4.684
G1 X377.196 Y-381.112 Z-4.691
G1 X376.977 Y-381.122 Z-4.699
G1 X376.757 Y-381.117 Z-4.707
G1 X376.539 Y-381.095 Z-4.714
G1 X376.322 Y-381.058 Z-4.722
G1 X376.109 Y-381.006 Z-4.73
G1 X375.9 Y-380.937 Z-4.737
G1 X375.697 Y-380.854 Z-4.745
G1 X375.501 Y-380.756 Z-4.753
G1 X375.312 Y-380.645 Z-4.76
G1 X375.131 Y-380.519 Z-4.768
G1 X374.96 Y-380.381 Z-4.776
G1 X374.8 Y-380.231 Z-4.783
G1 X374.651 Y-380.07 Z-4.791
G1 X374.514 Y-379.898 Z-4.799
G1 X374.39 Y-379.717 Z-4.807
G1 X374.28 Y-379.527 Z-4.814
G1 X374.184 Y-379.33 Z-4.822
G1 X374.102 Y-379.126 Z-4.83
G1 X374.035 Y-378.917 Z-4.837
G1 X373.984 Y-378.703 Z-4.845
G1 X373.948 Y-378.487 Z-4.853
G1 X373.929 Y-378.268 Z-4.86
G1 X373.925 Y-378.048 Z-4.868
G1 X373.937 Y-377.829 Z-4.876
G1 X373.965 Y-377.611 Z-4.883
G1 X374.009 Y-377.396 Z-4.891
G1 X374.068 Y-377.185 Z-4.899
G1 X374.143 Y-376.978 Z-4.906
G1 X374.233 Y-376.778 Z-4.914
G1 X374.336 Y-376.584 Z-4.922
G1 X374.454 Y-376.399 Z-4.929
G1 X374.585 Y-376.223 Z-4.937
G1 X374.728 Y-376.056 Z-4.945
G1 X374.883 Y-375.901 Z-4.952
G1 X375.049 Y-375.757 Z-4.96
G1 X375.225 Y-375.625 Z-4.968
G1 X375.41 Y-375.507 Z-4.975
G1 X375.603 Y-375.403 Z-4.983
G1 X375.803 Y-375.313 Z-4.991
G1 X376.009 Y-375.237 Z-4.998
G1 X376.221 Y-375.177 Z-5.006
G1 X376.436 Y-375.132 Z-5.014
G1 X376.653 Y-375.104 Z-5.021
G1 X376.872 Y-375.091 Z-5.029
G1 X377.092 Y-375.094 Z-5.037
G1 X377.311 Y-375.113 Z-5.044
G1 X377.527 Y-375.148 Z-5.052
G1 X377.741 Y-375.198 Z-5.06
G1 X377.951 Y-375.264 Z-5.067
G1 X378.155 Y-375.345 Z-5.075
G1 X378.352 Y-375.441 Z-5.083
G1 X378.543 Y-375.55 Z-5.09
G1 X378.724 Y-375.674 Z-5.098
G1 X378.896 Y-375.81 Z-5.106
G1 X379.058 Y-375.958 Z-5.113
G1 X379.209 Y-376.118 Z-5.121
G1 X379.348 Y-376.288 Z-5.129
G1 X379.473 Y-376.468 Z-5.136
G1 X379.586 Y-376.657 Z-5.144
G1 X379.684 Y-376.853 Z-5.152
G1 X379.768 Y-377.056 Z-5.159
G1 X379.837 Y-377.265 Z-5.167
G1 X379.891 Y-377.477 Z-5.175
G1 X379.929 Y-377.694 Z-5.182
G1 X379.951 Y-377.912 Z-5.19
G1 X379.957 Y-378.132 Z-5.198
G1 X379.947 Y-378.351 Z-5.205
G1 X379.921 Y-378.569 Z-5.213
G1 X379.88 Y-378.785 Z-5.221
G1 X379.822 Y-378.997 Z-5.228
G1 X379.75 Y-379.204 Z-5.236
G1 X379.663 Y-379.405 Z-5.244
G1 X379.561 Y-379.6 Z-5.251
G1 X379.445 Y-379.787 Z-5.259
G1 X379.316 Y-379.964 Z-5.267
G1 X379.175 Y-380.132 Z-5.274
G1 X379.022 Y-380.29 Z-5.282
G1 X378.857 Y-380.435 Z-5.29
G1 X378.683 Y-380.568 Z-5.297
G1 X378.499 Y-380.689 Z-5.305
G1 X378.307 Y-380.795 Z-5.313
G1 X378.108 Y-380.887 Z-5.32
G1 X377.902 Y-380.965 Z-5.328
G1 X377.692 Y-381.027 Z-5.336
G1 X377.477 Y-381.074 Z-5.343
G1 X377.26 Y-381.105 Z-5.351
G1 X377.041 Y-381.121 Z-5.359
G1 X376.821 Y-381.12 Z-5.366
G1 X376.602 Y-381.103 Z-5.374
G1 X376.385 Y-381.071 Z-5.382
G1 X376.171 Y-381.023 Z-5.389
G1 X375.961 Y-380.959 Z-5.397
G1 X375.756 Y-380.88 Z-5.405
G1 X375.557 Y-380.786 Z-5.412
G1 X375.366 Y-380.679 Z-5.42
G1 X375.183 Y-380.557 Z-5.428
G1 X375.009 Y-380.423 Z-5.435
G1 X374.846 Y-380.276 Z-5.443
G1 X374.693 Y-380.118 Z-5.451
G1 X374.553 Y-379.949 Z-5.458
G1 X374.425 Y-379.771 Z-5.466
G1 X374.311 Y-379.583 Z-5.474
G1 X374.21 Y-379.388 Z-5.481
G1 X374.124 Y-379.186 Z-5.489
G1 X374.053 Y-378.978 Z-5.497
G1 X373.997 Y-378.766 Z-5.504
G1 X373.957 Y-378.55 Z-5.512
G1 X373.933 Y-378.332 Z-5.52
G1 X373.924 Y-378.113 Z-5.527
G1 X373.932 Y-377.893 Z-5.535
G1 X373.955 Y-377.675 Z-5.543
G1 X373.995 Y-377.459 Z-5.55
G1 X374.05 Y-377.246 Z-5.558
G1 X374.12 Y-377.038 Z-5.566
G1 X374.205 Y-376.836 Z-5.573
G1 X374.305 Y-376.64 Z-5.581
G1 X374.418 Y-376.452 Z-5.589
G1 X374.545 Y-376.273 Z-5.596
G1 X374.685 Y-376.104 Z-5.604
G1 X374.837 Y-375.945 Z-5.612
G1 X374.999 Y-375.798 Z-5.619
G1 X375.172 Y-375.662 Z-5.627
G1 X375.355 Y-375.54 Z-5.635
G1 X375.546 Y-375.432 Z-5.642
G1 X375.744 Y-375.337 Z-5.65
G1 X375.949 Y-375.258 Z-5.658
G1 X376.158 Y-375.193 Z-5.665
G1 X376.372 Y-375.144 Z-5.673
G1 X376.589 Y-375.11 Z-5.681
G1 X376.808 Y-375.093 Z-5.688
G1 X377.028 Y-375.091 Z-5.696
G1 X377.247 Y-375.105 Z-5.704
G1 X377.464 Y-375.136 Z-5.711
G1 X377.679 Y-375.182 Z-5.719
G1 X377.89 Y-375.243 Z-5.727
G1 X378.096 Y-375.32 Z-5.734
G1 X378.295 Y-375.411 Z-5.742
G1 X378.488 Y-375.517 Z-5.75
G1 X378.672 Y-375.636 Z-5.758
G1 X378.847 Y-375.769 Z-5.765
G1 X379.012 Y-375.914 Z-5.773
G1 X379.166 Y-376.07 Z-5.781
G1 X379.308 Y-376.238 Z-5.788
G1 X379.438 Y-376.415 Z-5.796
G1 X379.554 Y-376.601 Z-5.804
G1 X379.657 Y-376.795 Z-5.811
G1 X379.745 Y-376.996 Z-5.819
G1 X379.819 Y-377.203 Z-5.827
G1 X379.877 Y-377.415 Z-5.834
G1 X379.919 Y-377.63 Z-5.842
G1 X379.946 Y-377.848 Z-5.85
G1 X379.957 Y-378.068 Z-5.857
G1 X379.951 Y-378.287 Z-5.865
G1 X379.93 Y-378.506 Z-5.873
G1 X379.893 Y-378.722 Z-5.88
G1 X379.841 Y-378.935 Z-5.888
G1 X379.773 Y-379.144 Z-5.896
G1 X379.69 Y-379.347 Z-5.903
G1 X379.592 Y-379.544 Z-5.911
G1 X379.48 Y-379.733 Z-5.919
G1 X379.355 Y-379.914 Z-5.926
G1 X379.217 Y-380.084 Z-5.934
G1 X379.067 Y-380.245 Z-5.942
G1 X378.906 Y-380.394 Z-5.949
G1 X378.735 Y-380.531 Z-5.957
G1 X378.553 Y-380.655 Z-5.965
G1 X378.364 Y-380.766 Z-5.972
G1 X378.167 Y-380.862 Z-5.98
G1 X377.963 Y-380.944 Z-5.988
G1 X377.754 Y-381.011 Z-5.995
G1 X377.54 Y-381.062 Z-6.003
G1 X377.324 Y-381.098 Z-6.011
G1 X377.105 Y-381.118 Z-6.018
G1 X376.885 Y-381.122 Z-6.026
G1 X376.666 Y-381.11 Z-6.034
G1 X376.448 Y-381.082 Z-6.041
G1 X376.233 Y-381.038 Z-6.049
G1 X376.022 Y-380.979 Z-6.057
G1 X375.815 Y-380.905 Z-6.064
G1 X375.614 Y-380.815 Z-6.072
G1 X375.421 Y-380.712 Z-6.08
G1 X375.235 Y-380.594 Z-6.087
G1 X375.059 Y-380.463 Z-6.095
G1 X374.892 Y-380.32 Z-6.103
G1 X374.737 Y-380.165 Z-6.11
G1 X374.593 Y-380 Z-6.118
G1 X374.461 Y-379.824 Z-6.126
G1 X374.343 Y-379.639 Z-6.133
G1 X374.238 Y-379.446 Z-6.141
G1 X374.148 Y-379.246 Z-6.149
G1 X374.072 Y-379.04 Z-6.156
G1 X374.012 Y-378.828 Z-6.164
G1 X373.967 Y-378.613 Z-6.172
G1 X373.938 Y-378.396 Z-6.179
G1 X373.925 Y-378.177 Z-6.187
G1 X373.928 Y-377.957 Z-6.195
G1 X373.947 Y-377.738 Z-6.202
G1 X373.982 Y-377.522 Z-6.21
G1 X374.032 Y-377.308 Z-6.218
G1 X374.098 Y-377.098 Z-6.225
G1 X374.179 Y-376.894 Z-6.233
G1 X374.274 Y-376.696 Z-6.241
G1 X374.384 Y-376.506 Z-6.248
G1 X374.507 Y-376.324 Z-6.256
G1 X374.643 Y-376.152 Z-6.264
G1 X374.791 Y-375.99 Z-6.271
G1 X374.951 Y-375.839 Z-6.279
G1 X375.121 Y-375.701 Z-6.287
G1 X375.301 Y-375.575 Z-6.294
G1 X375.489 Y-375.462 Z-6.302
G1 X375.685 Y-375.363 Z-6.31
G1 X375.888 Y-375.279 Z-6.317
G1 X376.097 Y-375.21 Z-6.325
G1 X376.31 Y-375.157 Z-6.333
G1 X376.526 Y-375.118 Z-6.34
G1 X376.744 Y-375.096 Z-6.348
G1 X376.964 Y-375.09 Z-6.356
G1 X377.183 Y-375.1 Z-6.363
G1 X377.401 Y-375.125 Z-6.371
G1 X377.617 Y-375.167 Z-6.379
G1 X377.829 Y-375.224 Z-6.386
G1 X378.036 Y-375.296 Z-6.394
G1 X378.238 Y-375.383 Z-6.402
G1 X378.432 Y-375.485 Z-6.409
G1 X378.619 Y-375.6 Z-6.417
G1 X378.797 Y-375.729 Z-6.425
G1 X378.965 Y-375.87 Z-6.432
G1 X379.122 Y-376.023 Z-6.44
G1 X379.268 Y-376.188 Z-6.448
G1 X379.402 Y-376.362 Z-6.455
G1 X379.522 Y-376.546 Z-6.463
G1 X379.629 Y-376.738 Z-6.471
G1 X379.721 Y-376.937 Z-6.478
G1 X379.799 Y-377.142 Z-6.486
G1 X379.861 Y-377.353 Z-6.494
G1 X379.908 Y-377.567 Z-6.501
G1 X379.94 Y-377.784 Z-6.509
G1 X379.955 Y-378.004 Z-6.517
G1 Y-378.223 Z-6.524
G1 X379.938 Y-378.442 Z-6.532
G1 X379.906 Y-378.659 Z-6.54
G1 X379.858 Y-378.873 Z-6.547
G1 X379.794 Y-379.084 Z-6.555
G1 X379.715 Y-379.289 Z-6.563
G1 X379.622 Y-379.487 Z-6.57
G1 X379.514 Y-379.679 Z-6.578
G1 X379.393 Y-379.862 Z-6.586
G1 X379.259 Y-380.036 Z-6.593
G1 X379.112 Y-380.199 Z-6.601
G1 X378.954 Y-380.352 Z-6.609
G1 X378.786 Y-380.492 Z-6.616
G1 X378.607 Y-380.62 Z-6.624
G1 X378.42 Y-380.735 Z-6.632
G1 X378.225 Y-380.835 Z-6.639
G1 X378.023 Y-380.922 Z-6.647
G1 X377.815 Y-380.993 Z-6.655
G1 X377.603 Y-381.049 Z-6.662
G1 X377.387 Y-381.089 Z-6.67
G1 X377.169 Y-381.114 Z-6.678
G1 X376.949 Y-381.122 Z-6.686
G1 X376.73 Y-381.115 Z-6.693
G1 X376.512 Y-381.092 Z-6.701
G1 X376.296 Y-381.053 Z-6.709
G1 X376.083 Y-380.998 Z-6.716
G1 X375.875 Y-380.928 Z-6.724
G1 X375.672 Y-380.843 Z-6.732
G1 X375.477 Y-380.743 Z-6.739
G1 X375.289 Y-380.63 Z-6.747
G1 X375.109 Y-380.503 Z-6.755
G1 X374.94 Y-380.363 Z-6.762
G1 X374.781 Y-380.212 Z-6.77
G1 X374.634 Y-380.049 Z-6.778
G1 X374.498 Y-379.876 Z-6.785
G1 X374.376 Y-379.694 Z-6.793
G1 X374.267 Y-379.503 Z-6.801
G1 X374.173 Y-379.305 Z-6.808
G1 X374.093 Y-379.1 Z-6.816
G1 X374.028 Y-378.891 Z-6.824
G1 X373.979 Y-378.677 Z-6.831
G1 X373.945 Y-378.46 Z-6.839
G1 X373.927 Y-378.241 Z-6.847
G1 X373.926 Y-378.021 Z-6.854
G1 X373.94 Y-377.802 Z-6.862
G1 X373.97 Y-377.585 Z-6.87
G1 X374.016 Y-377.37 Z-6.877
G1 X374.077 Y-377.159 Z-6.885
G1 X374.153 Y-376.953 Z-6.893
G1 X374.245 Y-376.753 Z-6.9
G1 X374.35 Y-376.561 Z-6.908
G1 X374.469 Y-376.377 Z-6.916
G1 X374.602 Y-376.201 Z-6.923
G1 X374.747 Y-376.036 Z-6.931
G1 X374.903 Y-375.882 Z-6.939
G1 X375.07 Y-375.74 Z-6.946
G1 X375.247 Y-375.61 Z-6.954
G1 X375.433 Y-375.493 Z-6.962
G1 X375.627 Y-375.391 Z-6.969
G1 X375.828 Y-375.302 Z-6.977
G1 X376.035 Y-375.229 Z-6.985
G1 X376.247 Y-375.171 Z-6.992
G1 X376.462 Y-375.128 Z-7
G1 X376.68 Y-375.101 Z-7.008
G1 X376.9 Y-375.09 Z-7.015
G1 X377.119 Y-375.095 Z-7.023
G1 X377.338 Y-375.116 Z-7.031
G1 X377.554 Y-375.153 Z-7.038
G1 X377.767 Y-375.205 Z-7.046
G1 X377.976 Y-375.273 Z-7.054
G1 X378.18 Y-375.356 Z-7.061
G1 X378.376 Y-375.454 Z-7.069
G1 X378.566 Y-375.565 Z-7.077
G1 X378.746 Y-375.69 Z-7.084
G1 X378.917 Y-375.828 Z-7.092
G1 X379.078 Y-375.978 Z-7.1
G1 X379.227 Y-376.139 Z-7.107
G1 X379.364 Y-376.31 Z-7.115
G1 X379.488 Y-376.491 Z-7.123
G1 X379.599 Y-376.681 Z-7.13
G1 X379.696 Y-376.878 Z-7.138
G1 X379.778 Y-377.082 Z-7.146
G1 X379.845 Y-377.291 Z-7.153
G1 X379.896 Y-377.504 Z-7.161
G1 X379.932 Y-377.721 Z-7.169
G1 X379.952 Y-377.939 Z-7.176
G1 X379.956 Y-378.159 Z-7.184
G1 X379.945 Y-378.378 Z-7.192
G1 X379.917 Y-378.596 Z-7.199
G1 X379.873 Y-378.811 Z-7.207
G1 X379.814 Y-379.023 Z-7.215
G1 X379.74 Y-379.229 Z-7.222
G1 X379.651 Y-379.43 Z-7.23
G1 X379.547 Y-379.624 Z-7.238
G1 X379.43 Y-379.809 Z-7.245
G1 X379.299 Y-379.986 Z-7.253
G1 X379.156 Y-380.153 Z-7.261
G1 X379.002 Y-380.308 Z-7.268
G1 X378.836 Y-380.452 Z-7.276
G1 X378.66 Y-380.584 Z-7.284
G1 X378.475 Y-380.703 Z-7.291
G1 X378.282 Y-380.807 Z-7.299
G1 X378.082 Y-380.898 Z-7.307
G1 X377.876 Y-380.974 Z-7.314
G1 X377.665 Y-381.034 Z-7.322
G1 X377.45 Y-381.079 Z-7.33
G1 X377.233 Y-381.108 Z-7.337
G1 X377.013 Y-381.121 Z-7.345
G1 X376.794 Y-381.119 Z-7.353
G1 X376.575 Y-381.1 Z-7.36
G1 X376.358 Y-381.066 Z-7.368
G1 X376.145 Y-381.015 Z-7.376
G1 X375.935 Y-380.95 Z-7.383
G1 X375.731 Y-380.869 Z-7.391
G1 X375.533 Y-380.774 Z-7.399
G1 X375.343 Y-380.664 Z-7.406
G1 X375.161 Y-380.541 Z-7.414
G1 X374.988 Y-380.405 Z-7.422
G1 X374.826 Y-380.257 Z-7.429
G1 X374.675 Y-380.098 Z-7.437
G1 X374.536 Y-379.928 Z-7.445
G1 X374.41 Y-379.748 Z-7.452
G1 X374.298 Y-379.56 Z-7.46
G1 X374.199 Y-379.363 Z-7.468
G1 X374.115 Y-379.161 Z-7.475
G1 X374.045 Y-378.952 Z-7.483
G1 X373.992 Y-378.739 Z-7.491
G1 X373.953 Y-378.523 Z-7.498
G1 X373.931 Y-378.305 Z-7.506
G1 X373.924 Y-378.085 Z-7.514
G1 X373.934 Y-377.866 Z-7.521
G1 X373.959 Y-377.648 Z-7.529
G1 X374.001 Y-377.432 Z-7.537
G1 X374.057 Y-377.22 Z-7.544
G1 X374.13 Y-377.013 Z-7.552
G1 X374.217 Y-376.811 Z-7.56
G1 X374.318 Y-376.616 Z-7.567
G1 X374.433 Y-376.429 Z-7.575
G1 X374.562 Y-376.251 Z-7.583
G1 X374.703 Y-376.083 Z-7.59
G1 X374.856 Y-375.926 Z-7.598
G1 X375.02 Y-375.78 Z-7.606
G1 X375.195 Y-375.647 Z-7.614
G1 X375.378 Y-375.526 Z-7.621
G1 X375.57 Y-375.419 Z-7.629
G1 X375.769 Y-375.327 Z-7.637
G1 X375.974 Y-375.249 Z-7.644
G1 X376.185 Y-375.186 Z-7.652
G1 X376.399 Y-375.139 Z-7.66
G1 X376.617 Y-375.107 Z-7.667
G1 X376.836 Y-375.092 Z-7.675
G1 X377.055 Z-7.683
G1 X377.274 Y-375.108 Z-7.69
G1 X377.491 Y-375.141 Z-7.698
G1 X377.706 Y-375.188 Z-7.706
G1 X377.916 Y-375.252 Z-7.713
G1 X378.121 Y-375.33 Z-7.721
G1 X378.32 Y-375.424 Z-7.729
G1 X378.511 Y-375.531 Z-7.736
G1 X378.694 Y-375.652 Z-7.744
G1 X378.868 Y-375.786 Z-7.752
G1 X379.032 Y-375.933 Z-7.759
G1 X379.185 Y-376.091 Z-7.767
G1 X379.325 Y-376.259 Z-7.775
G1 X379.453 Y-376.437 Z-7.782
G1 X379.568 Y-376.625 Z-7.79
G1 X379.669 Y-376.82 Z-7.798
G1 X379.755 Y-377.022 Z-7.805
G1 X379.827 Y-377.229 Z-7.813
G1 X379.883 Y-377.442 Z-7.821
G1 X379.923 Y-377.657 Z-7.828
G1 X379.948 Y-377.876 Z-7.836
G1 X379.957 Y-378.095 Z-7.844
G1 X379.95 Y-378.314 Z-7.851
G1 X379.927 Y-378.533 Z-7.859
G1 X379.888 Y-378.749 Z-7.867
G1 X379.833 Y-378.962 Z-7.874
G1 X379.763 Y-379.17 Z-7.882
G1 X379.678 Y-379.372 Z-7.89
G1 X379.579 Y-379.568 Z-7.897
G1 X379.466 Y-379.756 Z-7.905
G1 X379.339 Y-379.935 Z-7.913
G1 X379.199 Y-380.105 Z-7.92
G1 X379.048 Y-380.264 Z-7.928
G1 X378.885 Y-380.412 Z-7.936
G1 X378.713 Y-380.547 Z-7.943
G1 X378.53 Y-380.669 Z-7.951
G1 X378.34 Y-380.778 Z-7.959
G1 X378.141 Y-380.873 Z-7.966
G1 X377.937 Y-380.953 Z-7.974
G1 X377.727 Y-381.018 Z-7.982
G1 X377.513 Y-381.067 Z-7.989
G1 X377.296 Y-381.101 Z-7.997
G1 X377.078 Y-381.119 Z-8.005
G1 X376.858 Y-381.121 Z-8.012
G1 X376.639 Y-381.107 Z-8.02
G1 X376.421 Y-381.077 Z-8.028
G1 X376.207 Y-381.032 Z-8.035
G1 X375.996 Y-380.971 Z-8.043
G1 X375.79 Y-380.894 Z-8.051
G1 X375.59 Y-380.803 Z-8.058
G1 X375.397 Y-380.698 Z-8.066
G1 X375.213 Y-380.579 Z-8.074
G1 X375.038 Y-380.446 Z-8.081
G1 X374.872 Y-380.302 Z-8.089
G1 X374.718 Y-380.145 Z-8.097
G1 X374.576 Y-379.978 Z-8.104
G1 X374.446 Y-379.801 Z-8.112
G1 X374.329 Y-379.615 Z-8.12
G1 X374.226 Y-379.421 Z-8.127
G1 X374.138 Y-379.22 Z-8.135
G1 X374.064 Y-379.014 Z-8.143
G1 X374.006 Y-378.802 Z-8.15
G1 X373.963 Y-378.587 Z-8.158
G1 X373.936 Y-378.369 Z-8.166
G1 X373.925 Y-378.149 Z-8.173
G1 X373.929 Y-377.93 Z-8.181
G1 X373.95 Y-377.711 Z-8.189
G1 X373.987 Y-377.495 Z-8.196
G1 X374.039 Y-377.281 Z-8.204
G1 X374.107 Y-377.073 Z-8.212
G1 X374.19 Y-376.869 Z-8.219
G1 X374.287 Y-376.672 Z-8.227
G1 X374.398 Y-376.483 Z-8.235
G1 X374.523 Y-376.302 Z-8.242
G1 X374.661 Y-376.131 Z-8.25
G1 X374.81 Y-375.971 Z-8.258
G1 X374.971 Y-375.821 Z-8.265
G1 X375.143 Y-375.684 Z-8.273
G1 X375.324 Y-375.56 Z-8.281
G1 X375.513 Y-375.449 Z-8.288
G1 X375.71 Y-375.352 Z-8.296
G1 X375.914 Y-375.27 Z-8.304
G1 X376.123 Y-375.203 Z-8.311
G1 X376.336 Y-375.151 Z-8.319
G1 X376.553 Y-375.115 Z-8.327
G1 X376.772 Y-375.095 Z-8.334
G1 X376.991 Y-375.09 Z-8.342
G1 X377.21 Y-375.102 Z-8.35
G1 X377.428 Y-375.13 Z-8.357
G1 X377.643 Y-375.173 Z-8.365
G1 X377.855 Y-375.232 Z-8.373
G1 X378.062 Y-375.306 Z-8.38
G1 X378.262 Y-375.395 Z-8.388
G1 X378.456 Y-375.498 Z-8.396
G1 X378.642 Y-375.615 Z-8.403
G1 X378.819 Y-375.746 Z-8.411
G1 X378.985 Y-375.889 Z-8.419
G1 X379.141 Y-376.043 Z-8.426
G1 X379.285 Y-376.209 Z-8.434
G1 X379.417 Y-376.384 Z-8.442
G1 X379.536 Y-376.569 Z-8.449
G1 X379.641 Y-376.762 Z-8.457
G1 X379.731 Y-376.962 Z-8.465
G1 X379.807 Y-377.168 Z-8.472
G1 X379.868 Y-377.379 Z-8.48
G1 X379.913 Y-377.594 Z-8.488
G1 X379.942 Y-377.812 Z-8.495
G1 X379.956 Y-378.031 Z-8.503
G1 X379.953 Y-378.25 Z-8.511
G1 X379.935 Y-378.469 Z-8.518
G1 X379.901 Y-378.686 Z-8.526
G1 X379.851 Y-378.9 Z-8.534
G1 X379.785 Y-379.109 Z-8.541
G1 X379.705 Y-379.314 Z-8.549
G1 X379.609 Y-379.512 Z-8.557
G1 X379.5 Y-379.702 Z-8.565
G1 X379.377 Y-379.884 Z-8.572
G1 X379.241 Y-380.057 Z-8.58
G1 X379.093 Y-380.219 Z-8.588
G1 X378.934 Y-380.37 Z-8.595
G1 X378.764 Y-380.509 Z-8.603
G1 X378.584 Y-380.635 Z-8.611
G1 X378.396 Y-380.748 Z-8.618
G1 X378.2 Y-380.847 Z-8.626
G1 X377.997 Y-380.931 Z-8.634
G1 X377.789 Y-381.001 Z-8.641
G1 X377.576 Y-381.055 Z-8.649
G1 X377.36 Y-381.093 Z-8.657
G1 X377.142 Y-381.116 Z-8.664
G1 X376.922 Y-381.122 Z-8.672
G1 X376.703 Y-381.113 Z-8.68
G1 X376.485 Y-381.088 Z-8.687
G1 X376.269 Y-381.047 Z-8.695
G1 X376.057 Y-380.99 Z-8.703
G1 X375.849 Y-380.918 Z-8.71
G1 X375.648 Y-380.831 Z-8.718
G1 X375.453 Y-380.73 Z-8.726
G1 X375.266 Y-380.615 Z-8.733
G1 X375.088 Y-380.486 Z-8.741
G1 X374.92 Y-380.345 Z-8.749
G1 X374.762 Y-380.192 Z-8.756
G1 X374.616 Y-380.028 Z-8.764
G1 X374.482 Y-379.854 Z-8.772
G1 X374.362 Y-379.671 Z-8.779
G1 X374.255 Y-379.479 Z-8.787
G1 X374.162 Y-379.28 Z-8.795
G1 X374.084 Y-379.074 Z-8.802
G1 X374.021 Y-378.864 Z-8.81
G1 X373.974 Y-378.65 Z-8.818
G1 X373.942 Y-378.432 Z-8.825
G1 X373.926 Y-378.213 Z-8.833
G1 Y-377.994 Z-8.841
G1 X373.943 Y-377.775 Z-8.848
G1 X373.975 Y-377.558 Z-8.856
G1 X374.022 Y-377.343 Z-8.864
G1 X374.086 Y-377.133 Z-8.871
G1 X374.164 Y-376.928 Z-8.879
G1 X374.257 Y-376.729 Z-8.887
G1 X374.364 Y-376.537 Z-8.894
G1 X374.485 Y-376.354 Z-8.902
G1 X374.619 Y-376.18 Z-8.91
G1 X374.765 Y-376.016 Z-8.917
G1 X374.923 Y-375.864 Z-8.925
G1 X375.092 Y-375.723 Z-8.933
G1 X375.27 Y-375.595 Z-8.94
G1 X375.457 Y-375.48 Z-8.948
G1 X375.652 Y-375.379 Z-8.956
G1 X375.854 Y-375.292 Z-8.963
G1 X376.061 Y-375.221 Z-8.971
G1 X376.274 Y-375.164 Z-8.979
G1 X376.489 Y-375.124 Z-8.986
G1 X376.708 Y-375.099 Z-8.994
G1 X376.927 Y-375.09 Z-9.002
G1 X377.146 Y-375.097 Z-9.009
G1 X377.365 Y-375.12 Z-9.017
G1 X378.724 Y-375.313
G2 X379 Y-375.68 I-0.046 J-0.322
G1 X378.617 Y-378.405
G2 X378.491 Y-378.618 I-0.321 J0.045
G2 X378.251 Y-378.68 I-0.195 J0.259
G1 X353.244 Y-375.126
G2 X353.03 Y-375 I0.046 J0.321
G2 X352.968 Y-374.759 I0.259 J0.195
G1 X353.355 Y-372.036
G2 X353.722 Y-371.761 I0.321 J-0.046
G1 X377.365 Y-375.12
G3 X379.979 Y-374.064 I0.396 J2.784
G2 X382.026 Y-373.809 I1.151 J-0.896
G2 X382.574 Y-375.163 I-0.896 J-1.151
G1 X381.567 Y-382.332
G2 X381.443 Y-382.542 I-0.314 J0.044
G2 X381.208 Y-382.603 I-0.191 J0.254
G1 X351.373 Y-378.363
G3 X348.394 Y-379.269 I-0.518 J-3.646
G2 X347.946 Y-379.245 I-0.212 J0.236
G2 X347.865 Y-379.013 I0.236 J0.212
G2 X347.975 Y-378.793 I0.317 J-0.02
G3 X349.215 Y-376.522 I-2.406 J2.789
G1 X350.242 Y-369.298
G3 X349.683 Y-366.772 I-3.646 J0.518
G2 X349.776 Y-366.333 I0.266 J0.173
G2 X350.018 Y-366.289 I0.173 J-0.266
G2 X350.218 Y-366.431 I-0.069 J-0.31
G3 X352.827 Y-368.131 I3.127 J1.946
G1 X382.648 Y-372.368
G2 X382.917 Y-372.727 I-0.045 J-0.314
G1 X382.574 Y-375.163
G0 Z11.176

G0 Z11.176
M5
M30
