(1001)
(T1  D=6.35 CR=0 - ZMIN=-20.574 - FLAT END MILL)
G0 G40 G90 G17
G21

(2D CONTOUR2)
T1 M6
M3 S5000
G0 X96.245 Y9.582
G0 Z6.096
G1 Z4.191 F508.
G1 Z-6.604
G3 X85.015 Y15.304 I-10.868 J-7.448
G1 X9.637 Y13.23
G3 X-3.175 Y-0.019 I0.363 J-13.17
G1 X-1.131 Y-343.018
G3 X11.838 Y-356.113 I13.175 J0.079
G1 X87.234 Y-357.289
G3 X96.711 Y-353.476 I0.205 J13.173
G3 X100.615 Y-344.037 I-9.271 J9.361
G1 X98.552 Y2.213
G3 X96.245 Y9.582 I-13.175 J-0.078
G1 Z-14.224
G3 X85.015 Y15.304 I-10.868 J-7.448
G1 X9.637 Y13.23
G3 X-3.175 Y-0.019 I0.363 J-13.17
G1 X-1.131 Y-343.018
G3 X11.838 Y-356.113 I13.175 J0.079
G1 X87.234 Y-357.289
G3 X96.711 Y-353.476 I0.205 J13.173
G3 X100.615 Y-344.037 I-9.271 J9.361
G1 X98.552 Y2.213
G3 X96.245 Y9.582 I-13.175 J-0.078
G1 Z-18.034
G3 X85.563 Y15.308 I-10.868 J-7.448
G1 Z-20.574
G3 X85.015 Y15.304 I-0.186 J-13.174
G1 X57.643 Y14.551
G1 Z-18.034
G1 X46.218 Y14.236
G1 Z-20.574
G1 X9.637 Y13.23
G3 X2.377 Y10.806 I0.363 J-13.17
G1 Z-18.034
G3 X-3.154 Y0.803 I7.623 J-10.746
G1 Z-20.574
G3 X-3.175 Y-0.019 I13.154 J-0.744
G1 X-2.21 Y-161.933
G1 Z-18.034
G1 X-2.109 Y-178.865
G1 Z-20.574
G1 X-2.092 Y-181.763
G1 Z-18.034
G1 X-2.024 Y-193.193
G1 Z-20.574
G1 X-1.131 Y-343.018
G3 X-0.954 Y-345.095 I13.175 J0.079
G1 Z-18.034
G3 X11.838 Y-356.113 I12.997 J2.156
G1 X16.647 Y-356.188
G1 Z-20.574
G1 X26.662 Y-356.344
G1 Z-18.034
G1 X48.044 Y-356.677
G1 Z-20.574
G1 X81.645 Y-357.201
G1 Z-18.034
G1 X87.234 Y-357.289
G3 X96.711 Y-353.476 I0.205 J13.173
G3 X100.615 Y-344.037 I-9.271 J9.361
G1 X100.548 Y-332.775
G1 Z-20.574
G1 X100.474 Y-320.468
G1 Z-18.034
G1 X100.406 Y-309.038
G1 Z-20.574
G1 X100.28 Y-287.882
G1 Z-18.034
G1 X100.212 Y-276.452
G1 Z-20.574
G1 X99.655 Y-182.955
G1 Z-18.034
G1 X99.587 Y-171.525
G1 Z-20.574
G1 X99.457 Y-149.722
G1 Z-18.034
G1 X99.389 Y-138.292
G1 Z-20.574
G1 X99.384 Y-137.478
G1 Z-18.034
G1 X99.316 Y-126.048
G1 Z-20.574
G1 X99.236 Y-112.54
G1 Z-18.034
G1 X99.168 Y-101.11
G1 Z-20.574
G1 X98.797 Y-38.95
G1 Z-18.034
G1 X98.729 Y-27.52
G1 Z-20.574
G1 X98.691 Y-21.101
G1 Z-18.034
G1 X98.623 Y-9.671
G1 Z-20.574
G1 X98.552 Y2.213
G3 X96.55 Y9.116 I-13.175 J-0.078
G1 Z-18.034
G3 X96.245 Y9.582 I-11.173 J-6.981
G0 Z6.096

(2D POCKET1)
G0 Z11.176
G0 X66.531 Y-31.289
G0 Z6.096
G1 Z3.556 F508.
G1 X66.313 Y-31.306 Z3.548
G1 X66.093 Y-31.307 Z3.541
G1 X65.874 Y-31.293 Z3.533
G1 X65.657 Y-31.262 Z3.525
G1 X65.442 Y-31.216 Z3.518
G1 X65.232 Y-31.154 Z3.51
G1 X65.026 Y-31.077 Z3.502
G1 X64.827 Y-30.986 Z3.495
G1 X64.634 Y-30.88 Z3.487
G1 X64.45 Y-30.76 Z3.479
G1 X64.275 Y-30.628 Z3.472
G1 X64.111 Y-30.482 Z3.464
G1 X63.957 Y-30.326 Z3.456
G1 X63.815 Y-30.158 Z3.449
G1 X63.686 Y-29.981 Z3.441
G1 X63.569 Y-29.795 Z3.433
G1 X63.467 Y-29.601 Z3.426
G1 X63.379 Y-29.4 Z3.418
G1 X63.306 Y-29.193 Z3.41
G1 X63.248 Y-28.981 Z3.403
G1 X63.206 Y-28.766 Z3.395
G1 X63.179 Y-28.548 Z3.387
G1 X63.169 Y-28.329 Z3.38
G1 X63.174 Y-28.109 Z3.372
G1 X63.196 Y-27.891 Z3.364
G1 X63.233 Y-27.674 Z3.357
G1 X63.285 Y-27.461 Z3.349
G1 X63.354 Y-27.253 Z3.341
G1 X63.437 Y-27.05 Z3.334
G1 X63.534 Y-26.853 Z3.326
G1 X63.646 Y-26.664 Z3.318
G1 X63.771 Y-26.484 Z3.311
G1 X63.909 Y-26.313 Z3.303
G1 X64.059 Y-26.153 Z3.295
G1 X64.22 Y-26.004 Z3.288
G1 X64.392 Y-25.867 Z3.28
G1 X64.573 Y-25.743 Z3.272
G1 X64.763 Y-25.633 Z3.265
G1 X64.96 Y-25.536 Z3.257
G1 X65.164 Y-25.455 Z3.249
G1 X65.373 Y-25.388 Z3.242
G1 X65.586 Y-25.336 Z3.234
G1 X65.803 Y-25.301 Z3.226
G1 X66.021 Y-25.281 Z3.219
G1 X66.241 Y-25.277 Z3.211
G1 X66.46 Y-25.289 Z3.203
G1 X66.677 Y-25.317 Z3.196
G1 X66.892 Y-25.361 Z3.188
G1 X67.104 Y-25.42 Z3.18
G1 X67.31 Y-25.494 Z3.173
G1 X67.511 Y-25.583 Z3.165
G1 X67.704 Y-25.687 Z3.157
G1 X67.89 Y-25.804 Z3.15
G1 X68.066 Y-25.935 Z3.142
G1 X68.233 Y-26.078 Z3.134
G1 X68.388 Y-26.233 Z3.127
G1 X68.532 Y-26.398 Z3.119
G1 X68.664 Y-26.574 Z3.111
G1 X68.782 Y-26.759 Z3.104
G1 X68.887 Y-26.952 Z3.096
G1 X68.977 Y-27.152 Z3.088
G1 X69.053 Y-27.358 Z3.081
G1 X69.113 Y-27.569 Z3.073
G1 X69.158 Y-27.784 Z3.065
G1 X69.187 Y-28.001 Z3.058
G1 X69.2 Y-28.22 Z3.05
G1 X69.198 Y-28.44 Z3.042
G1 X69.179 Y-28.658 Z3.035
G1 X69.144 Y-28.875 Z3.027
G1 X69.094 Y-29.089 Z3.019
G1 X69.029 Y-29.298 Z3.012
G1 X68.948 Y-29.502 Z3.004
G1 X68.853 Y-29.7 Z2.996
G1 X68.743 Y-29.89 Z2.989
G1 X68.62 Y-30.072 Z2.981
G1 X68.484 Y-30.245 Z2.973
G1 X68.336 Y-30.407 Z2.966
G1 X68.177 Y-30.557 Z2.958
G1 X68.007 Y-30.696 Z2.95
G1 X67.827 Y-30.822 Z2.943
G1 X67.639 Y-30.935 Z2.935
G1 X67.443 Y-31.034 Z2.927
G1 X67.24 Y-31.118 Z2.92
G1 X67.032 Y-31.187 Z2.912
G1 X66.819 Y-31.241 Z2.904
G1 X66.603 Y-31.28 Z2.897
G1 X66.385 Y-31.302 Z2.889
G1 X66.166 Y-31.309 Z2.881
G1 X65.946 Y-31.299 Z2.874
G1 X65.728 Y-31.274 Z2.866
G1 X65.513 Y-31.233 Z2.858
G1 X65.301 Y-31.176 Z2.851
G1 X65.093 Y-31.104 Z2.843
G1 X64.892 Y-31.018 Z2.835
G1 X64.697 Y-30.916 Z2.828
G1 X64.51 Y-30.801 Z2.82
G1 X64.332 Y-30.673 Z2.812
G1 X64.164 Y-30.532 Z2.805
G1 X64.006 Y-30.379 Z2.797
G1 X63.861 Y-30.215 Z2.789
G1 X63.727 Y-30.041 Z2.782
G1 X63.606 Y-29.857 Z2.774
G1 X63.499 Y-29.666 Z2.766
G1 X63.407 Y-29.467 Z2.759
G1 X63.329 Y-29.262 Z2.751
G1 X63.266 Y-29.051 Z2.743
G1 X63.218 Y-28.837 Z2.736
G1 X63.186 Y-28.62 Z2.728
G1 X63.171 Y-28.401 Z2.72
G1 Y-28.182 Z2.713
G1 X63.187 Y-27.963 Z2.705
G1 X63.219 Y-27.746 Z2.697
G1 X63.266 Y-27.531 Z2.69
G1 X63.329 Y-27.321 Z2.682
G1 X63.408 Y-27.116 Z2.674
G1 X63.501 Y-26.917 Z2.667
G1 X63.608 Y-26.726 Z2.659
G1 X63.728 Y-26.542 Z2.651
G1 X63.862 Y-26.368 Z2.644
G1 X64.008 Y-26.205 Z2.636
G1 X64.166 Y-26.052 Z2.628
G1 X64.334 Y-25.911 Z2.621
G1 X64.512 Y-25.783 Z2.613
G1 X64.699 Y-25.668 Z2.605
G1 X64.894 Y-25.567 Z2.598
G1 X65.096 Y-25.48 Z2.59
G1 X65.303 Y-25.408 Z2.582
G1 X65.515 Y-25.352 Z2.575
G1 X65.731 Y-25.311 Z2.567
G1 X65.949 Y-25.286 Z2.559
G1 X66.168 Y-25.276 Z2.552
G1 X66.387 Y-25.283 Z2.544
G1 X66.606 Y-25.306 Z2.536
G1 X66.822 Y-25.344 Z2.529
G1 X67.035 Y-25.398 Z2.521
G1 X67.243 Y-25.468 Z2.513
G1 X67.445 Y-25.552 Z2.506
G1 X67.641 Y-25.651 Z2.498
G1 X67.829 Y-25.764 Z2.49
G1 X68.009 Y-25.89 Z2.483
G1 X68.179 Y-26.029 Z2.475
G1 X68.338 Y-26.18 Z2.467
G1 X68.486 Y-26.343 Z2.46
G1 X68.622 Y-26.515 Z2.452
G1 X68.745 Y-26.697 Z2.444
G1 X68.854 Y-26.887 Z2.437
G1 X68.949 Y-27.085 Z2.429
G1 X69.029 Y-27.289 Z2.421
G1 X69.095 Y-27.499 Z2.414
G1 X69.145 Y-27.712 Z2.406
G1 X69.179 Y-27.929 Z2.398
G1 X69.198 Y-28.148 Z2.391
G1 X69.2 Y-28.367 Z2.383
G1 X69.187 Y-28.586 Z2.375
G1 X69.157 Y-28.804 Z2.368
G1 X69.112 Y-29.019 Z2.36
G1 X69.052 Y-29.23 Z2.352
G1 X68.976 Y-29.436 Z2.345
G1 X68.886 Y-29.636 Z2.337
G1 X68.781 Y-29.828 Z2.329
G1 X68.662 Y-30.013 Z2.322
G1 X68.531 Y-30.189 Z2.314
G1 X68.386 Y-30.354 Z2.306
G1 X68.231 Y-30.509 Z2.299
G1 X68.064 Y-30.652 Z2.291
G1 X67.888 Y-30.782 Z2.283
G1 X67.702 Y-30.9 Z2.276
G1 X67.508 Y-31.003 Z2.268
G1 X67.308 Y-31.092 Z2.26
G1 X67.101 Y-31.166 Z2.253
G1 X66.89 Y-31.225 Z2.245
G1 X66.675 Y-31.269 Z2.237
G1 X66.457 Y-31.297 Z2.23
G1 X66.238 Y-31.308 Z2.222
G1 X66.019 Y-31.304 Z2.214
G1 X65.8 Y-31.284 Z2.207
G1 X65.583 Y-31.248 Z2.199
G1 X65.37 Y-31.197 Z2.191
G1 X65.161 Y-31.13 Z2.184
G1 X64.958 Y-31.048 Z2.176
G1 X64.76 Y-30.951 Z2.168
G1 X64.571 Y-30.841 Z2.161
G1 X64.39 Y-30.717 Z2.153
G1 X64.218 Y-30.58 Z2.145
G1 X64.057 Y-30.431 Z2.138
G1 X63.907 Y-30.27 Z2.13
G1 X63.77 Y-30.099 Z2.122
G1 X63.645 Y-29.919 Z2.115
G1 X63.533 Y-29.73 Z2.107
G1 X63.436 Y-29.533 Z2.099
G1 X63.353 Y-29.33 Z2.092
G1 X63.285 Y-29.121 Z2.084
G1 X63.232 Y-28.908 Z2.076
G1 X63.195 Y-28.692 Z2.069
G1 X63.174 Y-28.473 Z2.061
G1 X63.169 Y-28.254 Z2.053
G1 X63.18 Y-28.035 Z2.046
G1 X63.206 Y-27.817 Z2.038
G1 X63.249 Y-27.602 Z2.03
G1 X63.307 Y-27.39 Z2.023
G1 X63.38 Y-27.183 Z2.015
G1 X63.468 Y-26.982 Z2.007
G1 X63.571 Y-26.788 Z2
G1 X63.687 Y-26.602 Z1.992
G1 X63.817 Y-26.425 Z1.984
G1 X63.959 Y-26.257 Z1.977
G1 X64.113 Y-26.101 Z1.969
G1 X64.277 Y-25.956 Z1.961
G1 X64.452 Y-25.824 Z1.954
G1 X64.637 Y-25.704 Z1.946
G1 X64.829 Y-25.598 Z1.938
G1 X65.028 Y-25.507 Z1.931
G1 X65.234 Y-25.43 Z1.923
G1 X65.445 Y-25.369 Z1.915
G1 X65.659 Y-25.323 Z1.908
G1 X65.877 Y-25.292 Z1.9
G1 X66.096 Y-25.278 Z1.892
G1 X66.315 Y-25.279 Z1.885
G1 X66.534 Y-25.297 Z1.877
G1 X66.751 Y-25.33 Z1.869
G1 X66.965 Y-25.379 Z1.862
G1 X67.175 Y-25.443 Z1.854
G1 X67.379 Y-25.523 Z1.846
G1 X67.577 Y-25.617 Z1.839
G1 X67.768 Y-25.725 Z1.831
G1 X67.951 Y-25.847 Z1.823
G1 X68.124 Y-25.982 Z1.816
G1 X68.287 Y-26.129 Z1.808
G1 X68.438 Y-26.288 Z1.8
G1 X68.578 Y-26.457 Z1.793
G1 X68.705 Y-26.636 Z1.785
G1 X68.819 Y-26.824 Z1.777
G1 X68.919 Y-27.019 Z1.77
G1 X69.004 Y-27.221 Z1.762
G1 X69.075 Y-27.429 Z1.754
G1 X69.13 Y-27.642 Z1.747
G1 X69.17 Y-27.857 Z1.739
G1 X69.193 Y-28.076 Z1.731
G1 X69.201 Y-28.295 Z1.724
G1 X69.193 Y-28.514 Z1.716
G1 X69.169 Y-28.732 Z1.708
G1 X69.129 Y-28.948 Z1.701
G1 X69.074 Y-29.161 Z1.693
G1 X69.003 Y-29.368 Z1.685
G1 X68.917 Y-29.57 Z1.678
G1 X68.817 Y-29.766 Z1.67
G1 X68.703 Y-29.953 Z1.662
G1 X68.575 Y-30.132 Z1.655
G1 X68.435 Y-30.301 Z1.647
G1 X68.283 Y-30.459 Z1.64
G1 X68.12 Y-30.606 Z1.632
G1 X67.947 Y-30.741 Z1.624
G1 X67.764 Y-30.862 Z1.617
G1 X67.573 Y-30.97 Z1.609
G1 X67.375 Y-31.064 Z1.601
G1 X67.17 Y-31.143 Z1.594
G1 X66.96 Y-31.207 Z1.586
G1 X66.746 Y-31.256 Z1.578
G1 X66.529 Y-31.289 Z1.571
G1 X66.31 Y-31.306 Z1.563
G1 X66.091 Y-31.307 Z1.555
G1 X65.872 Y-31.293 Z1.548
G1 X65.655 Y-31.262 Z1.54
G1 X65.44 Y-31.215 Z1.532
G1 X65.23 Y-31.154 Z1.525
G1 X65.024 Y-31.077 Z1.517
G1 X64.825 Y-30.985 Z1.509
G1 X64.633 Y-30.879 Z1.502
G1 X64.449 Y-30.759 Z1.494
G1 X64.274 Y-30.626 Z1.486
G1 X64.109 Y-30.481 Z1.479
G1 X63.956 Y-30.324 Z1.471
G1 X63.814 Y-30.157 Z1.463
G1 X63.684 Y-29.979 Z1.456
G1 X63.568 Y-29.793 Z1.448
G1 X63.466 Y-29.599 Z1.44
G1 X63.378 Y-29.398 Z1.433
G1 X63.305 Y-29.191 Z1.425
G1 X63.248 Y-28.979 Z1.417
G1 X63.206 Y-28.764 Z1.41
G1 X63.179 Y-28.546 Z1.402
G1 X63.169 Y-28.327 Z1.394
G1 X63.174 Y-28.107 Z1.387
G1 X63.196 Y-27.889 Z1.379
G1 X63.233 Y-27.672 Z1.371
G1 X63.286 Y-27.459 Z1.364
G1 X63.354 Y-27.251 Z1.356
G1 X63.438 Y-27.048 Z1.348
G1 X63.535 Y-26.851 Z1.341
G1 X63.647 Y-26.662 Z1.333
G1 X63.772 Y-26.482 Z1.325
G1 X63.91 Y-26.312 Z1.318
G1 X64.061 Y-26.151 Z1.31
G1 X64.222 Y-26.003 Z1.302
G1 X64.394 Y-25.866 Z1.295
G1 X64.575 Y-25.742 Z1.287
G1 X64.765 Y-25.632 Z1.279
G1 X64.962 Y-25.535 Z1.272
G1 X65.165 Y-25.454 Z1.264
G1 X65.375 Y-25.387 Z1.256
G1 X65.588 Y-25.336 Z1.249
G1 X65.805 Y-25.3 Z1.241
G1 X66.023 Y-25.281 Z1.233
G1 X66.243 Y-25.277 Z1.226
G1 X66.462 Y-25.289 Z1.218
G1 X66.679 Y-25.317 Z1.21
G1 X66.895 Y-25.361 Z1.203
G1 X67.106 Y-25.42 Z1.195
G1 X67.312 Y-25.495 Z1.187
G1 X67.513 Y-25.584 Z1.18
G1 X67.706 Y-25.688 Z1.172
G1 X67.891 Y-25.806 Z1.164
G1 X68.068 Y-25.936 Z1.157
G1 X68.234 Y-26.079 Z1.149
G1 X68.39 Y-26.234 Z1.141
G1 X68.534 Y-26.4 Z1.134
G1 X68.665 Y-26.576 Z1.126
G1 X68.783 Y-26.761 Z1.118
G1 X68.888 Y-26.954 Z1.111
G1 X68.978 Y-27.154 Z1.103
G1 X69.053 Y-27.36 Z1.095
G1 X69.114 Y-27.571 Z1.088
G1 X69.158 Y-27.786 Z1.08
G1 X69.187 Y-28.003 Z1.072
G1 X69.2 Y-28.222 Z1.065
G1 X69.197 Y-28.442 Z1.057
G1 X69.179 Y-28.661 Z1.049
G1 X69.144 Y-28.877 Z1.042
G1 X69.094 Y-29.091 Z1.034
G1 X69.028 Y-29.3 Z1.026
G1 X68.947 Y-29.504 Z1.019
G1 X68.852 Y-29.702 Z1.011
G1 X68.742 Y-29.892 Z1.003
G1 X68.619 Y-30.074 Z0.996
G1 X68.483 Y-30.246 Z0.988
G1 X68.335 Y-30.408 Z0.98
G1 X68.175 Y-30.559 Z0.973
G1 X68.005 Y-30.698 Z0.965
G1 X67.826 Y-30.824 Z0.957
G1 X67.637 Y-30.936 Z0.95
G1 X67.441 Y-31.035 Z0.942
G1 X67.238 Y-31.119 Z0.934
G1 X67.03 Y-31.188 Z0.927
G1 X66.817 Y-31.242 Z0.919
G1 X66.601 Y-31.28 Z0.911
G1 X66.383 Y-31.302 Z0.904
G1 X66.163 Y-31.309 Z0.896
G1 X65.944 Y-31.299 Z0.888
G1 X65.726 Y-31.274 Z0.881
G1 X65.511 Y-31.233 Z0.873
G1 X65.299 Y-31.176 Z0.865
G1 X65.091 Y-31.104 Z0.858
G1 X64.89 Y-31.017 Z0.85
G1 X64.695 Y-30.915 Z0.842
G1 X64.508 Y-30.8 Z0.835
G1 X64.33 Y-30.671 Z0.827
G1 X64.162 Y-30.53 Z0.819
G1 X64.005 Y-30.377 Z0.812
G1 X63.859 Y-30.213 Z0.804
G1 X63.726 Y-30.039 Z0.796
G1 X63.605 Y-29.856 Z0.789
G1 X63.498 Y-29.664 Z0.781
G1 X63.406 Y-29.465 Z0.773
G1 X63.328 Y-29.26 Z0.766
G1 X63.265 Y-29.049 Z0.758
G1 X63.218 Y-28.835 Z0.75
G1 X63.186 Y-28.618 Z0.743
G1 X63.171 Y-28.399 Z0.735
G1 Y-28.179 Z0.727
G1 X63.187 Y-27.961 Z0.72
G1 X63.219 Y-27.743 Z0.712
G1 X63.267 Y-27.529 Z0.704
G1 X63.33 Y-27.319 Z0.697
G1 X63.408 Y-27.114 Z0.689
G1 X63.501 Y-26.915 Z0.681
G1 X63.609 Y-26.724 Z0.674
G1 X63.73 Y-26.541 Z0.666
G1 X63.864 Y-26.367 Z0.658
G1 X64.01 Y-26.203 Z0.651
G1 X64.167 Y-26.05 Z0.643
G1 X64.336 Y-25.91 Z0.635
G1 X64.514 Y-25.781 Z0.628
G1 X64.701 Y-25.667 Z0.62
G1 X64.896 Y-25.566 Z0.612
G1 X65.098 Y-25.479 Z0.605
G1 X65.305 Y-25.408 Z0.597
G1 X65.517 Y-25.351 Z0.589
G1 X65.733 Y-25.31 Z0.582
G1 X65.951 Y-25.285 Z0.574
G1 X66.17 Y-25.276 Z0.566
G1 X66.39 Y-25.283 Z0.559
G1 X66.608 Y-25.306 Z0.551
G1 X66.824 Y-25.345 Z0.543
G1 X67.037 Y-25.399 Z0.536
G1 X67.245 Y-25.469 Z0.528
G1 X67.447 Y-25.553 Z0.52
G1 X67.643 Y-25.652 Z0.513
G1 X67.831 Y-25.765 Z0.505
G1 X68.011 Y-25.892 Z0.497
G1 X68.18 Y-26.031 Z0.49
G1 X68.34 Y-26.182 Z0.482
G1 X68.487 Y-26.344 Z0.474
G1 X68.623 Y-26.517 Z0.467
G1 X68.746 Y-26.699 Z0.459
G1 X68.855 Y-26.889 Z0.451
G1 X68.95 Y-27.087 Z0.444
G1 X69.03 Y-27.291 Z0.436
G1 X69.095 Y-27.501 Z0.428
G1 X69.145 Y-27.715 Z0.421
G1 X69.179 Y-27.931 Z0.413
G1 X69.198 Y-28.15 Z0.405
G1 X69.2 Y-28.369 Z0.398
G1 X69.187 Y-28.589 Z0.39
G1 X69.157 Y-28.806 Z0.382
G1 X69.112 Y-29.021 Z0.375
G1 X69.051 Y-29.232 Z0.367
G1 X68.975 Y-29.438 Z0.359
G1 X68.885 Y-29.638 Z0.352
G1 X68.78 Y-29.83 Z0.344
G1 X68.661 Y-30.015 Z0.336
G1 X68.529 Y-30.19 Z0.329
G1 X68.385 Y-30.356 Z0.321
G1 X68.229 Y-30.51 Z0.313
G1 X68.063 Y-30.653 Z0.306
G1 X67.886 Y-30.783 Z0.298
G1 X67.7 Y-30.901 Z0.29
G1 X67.507 Y-31.004 Z0.283
G1 X67.306 Y-31.093 Z0.275
G1 X67.099 Y-31.167 Z0.267
G1 X66.888 Y-31.226 Z0.26
G1 X66.673 Y-31.269 Z0.252
G1 X66.455 Y-31.297 Z0.244
G1 X66.236 Y-31.308 Z0.237
G1 X66.016 Y-31.304 Z0.229
G1 X65.798 Y-31.284 Z0.221
G1 X65.581 Y-31.248 Z0.214
G1 X65.368 Y-31.196 Z0.206
G1 X65.159 Y-31.129 Z0.198
G1 X64.956 Y-31.047 Z0.191
G1 X64.759 Y-30.95 Z0.183
G1 X64.569 Y-30.84 Z0.175
G1 X64.388 Y-30.715 Z0.168
G1 X64.217 Y-30.578 Z0.16
G1 X64.056 Y-30.429 Z0.152
G1 X63.906 Y-30.269 Z0.145
G1 X63.768 Y-30.098 Z0.137
G1 X63.644 Y-29.917 Z0.129
G1 X63.532 Y-29.728 Z0.122
G1 X63.435 Y-29.531 Z0.114
G1 X63.352 Y-29.328 Z0.106
G1 X63.284 Y-29.119 Z0.099
G1 X63.232 Y-28.906 Z0.091
G1 X63.195 Y-28.69 Z0.083
G1 X63.174 Y-28.471 Z0.076
G1 X63.169 Y-28.252 Z0.068
G1 X63.18 Y-28.033 Z0.06
G1 X63.207 Y-27.815 Z0.053
G1 X63.249 Y-27.6 Z0.045
G1 X63.308 Y-27.388 Z0.037
G1 X63.381 Y-27.181 Z0.03
G1 X63.469 Y-26.98 Z0.022
G1 X63.572 Y-26.786 Z0.014
G1 X63.688 Y-26.6 Z0.007
G1 X63.818 Y-26.423 Z-0.001
G1 X63.96 Y-26.256 Z-0.009
G1 X64.114 Y-26.1 Z-0.016
G1 X64.279 Y-25.955 Z-0.024
G1 X64.454 Y-25.822 Z-0.032
G1 X64.638 Y-25.703 Z-0.039
G1 X64.831 Y-25.597 Z-0.047
G1 X65.03 Y-25.506 Z-0.055
G1 X65.236 Y-25.43 Z-0.062
G1 X65.447 Y-25.368 Z-0.07
G1 X65.661 Y-25.322 Z-0.078
G1 X65.879 Y-25.292 Z-0.085
G1 X66.098 Y-25.278 Z-0.093
G1 X66.317 Y-25.279 Z-0.101
G1 X66.536 Y-25.297 Z-0.108
G1 X66.753 Y-25.33 Z-0.116
G1 X66.967 Y-25.379 Z-0.124
G1 X67.177 Y-25.444 Z-0.131
G1 X67.381 Y-25.524 Z-0.139
G1 X67.579 Y-25.618 Z-0.147
G1 X67.77 Y-25.726 Z-0.154
G1 X67.952 Y-25.849 Z-0.162
G1 X68.125 Y-25.983 Z-0.17
G1 X68.288 Y-26.131 Z-0.177
G1 X68.44 Y-26.289 Z-0.185
G1 X68.58 Y-26.459 Z-0.193
G1 X68.707 Y-26.638 Z-0.2
G1 X68.82 Y-26.825 Z-0.208
G1 X68.92 Y-27.021 Z-0.216
G1 X69.005 Y-27.223 Z-0.223
G1 X69.076 Y-27.431 Z-0.231
G1 X69.131 Y-27.644 Z-0.239
G1 X69.17 Y-27.859 Z-0.246
G1 X69.193 Y-28.078 Z-0.254
G1 X69.201 Y-28.297 Z-0.262
G1 X69.193 Y-28.516 Z-0.269
G1 X69.169 Y-28.734 Z-0.277
G1 X69.129 Y-28.95 Z-0.285
G1 X69.073 Y-29.163 Z-0.292
G1 X69.002 Y-29.37 Z-0.3
G1 X68.916 Y-29.572 Z-0.308
G1 X68.816 Y-29.768 Z-0.315
G1 X68.702 Y-29.955 Z-0.323
G1 X68.574 Y-30.134 Z-0.331
G1 X68.434 Y-30.302 Z-0.338
G1 X68.282 Y-30.461 Z-0.346
G1 X68.119 Y-30.607 Z-0.354
G1 X67.945 Y-30.742 Z-0.361
G1 X67.762 Y-30.863 Z-0.369
G1 X67.571 Y-30.971 Z-0.377
G1 X67.373 Y-31.065 Z-0.384
G1 X67.168 Y-31.144 Z-0.392
G1 X66.958 Y-31.208 Z-0.4
G1 X66.744 Y-31.257 Z-0.407
G1 X66.527 Y-31.289 Z-0.415
G1 X66.308 Y-31.306 Z-0.423
G1 X66.089 Y-31.307 Z-0.43
G1 X65.87 Y-31.292 Z-0.438
G1 X65.653 Y-31.262 Z-0.446
G1 X65.438 Y-31.215 Z-0.453
G1 X65.228 Y-31.153 Z-0.461
G1 X65.022 Y-31.076 Z-0.469
G1 X64.823 Y-30.984 Z-0.476
G1 X64.631 Y-30.878 Z-0.484
G1 X64.447 Y-30.758 Z-0.492
G1 X64.272 Y-30.625 Z-0.499
G1 X64.108 Y-30.48 Z-0.507
G1 X63.954 Y-30.323 Z-0.515
G1 X63.812 Y-30.155 Z-0.522
G1 X63.683 Y-29.978 Z-0.53
G1 X63.567 Y-29.791 Z-0.538
G1 X63.465 Y-29.597 Z-0.545
G1 X63.378 Y-29.396 Z-0.553
G1 X63.305 Y-29.189 Z-0.561
G1 X63.247 Y-28.977 Z-0.568
G1 X63.205 Y-28.762 Z-0.576
G1 X63.179 Y-28.544 Z-0.584
G1 X63.169 Y-28.324 Z-0.591
G1 X63.174 Y-28.105 Z-0.599
G1 X63.196 Y-27.887 Z-0.607
G1 X63.234 Y-27.67 Z-0.614
G1 X63.287 Y-27.457 Z-0.622
G1 X63.355 Y-27.249 Z-0.63
G1 X63.438 Y-27.046 Z-0.637
G1 X63.536 Y-26.849 Z-0.645
G1 X63.648 Y-26.661 Z-0.653
G1 X63.774 Y-26.48 Z-0.66
G1 X63.912 Y-26.31 Z-0.668
G1 X64.062 Y-26.15 Z-0.676
G1 X64.223 Y-26.001 Z-0.683
G1 X64.395 Y-25.865 Z-0.691
G1 X64.577 Y-25.741 Z-0.699
G1 X64.766 Y-25.631 Z-0.706
G1 X64.964 Y-25.535 Z-0.714
G1 X65.167 Y-25.453 Z-0.722
G1 X65.377 Y-25.387 Z-0.729
G1 X65.59 Y-25.336 Z-0.737
G1 X65.807 Y-25.3 Z-0.745
G1 X66.025 Y-25.281 Z-0.752
G1 X66.245 Y-25.277 Z-0.76
G1 X66.464 Y-25.289 Z-0.768
G1 X66.682 Y-25.318 Z-0.775
G1 X66.897 Y-25.362 Z-0.783
G1 X67.108 Y-25.421 Z-0.791
G1 X67.314 Y-25.496 Z-0.798
G1 X67.515 Y-25.585 Z-0.806
G1 X67.708 Y-25.689 Z-0.814
G1 X67.893 Y-25.807 Z-0.821
G1 X68.069 Y-25.938 Z-0.829
G1 X68.236 Y-26.081 Z-0.837
G1 X68.391 Y-26.236 Z-0.844
G1 X68.535 Y-26.402 Z-0.852
G1 X68.666 Y-26.578 Z-0.86
G1 X68.784 Y-26.763 Z-0.867
G1 X68.889 Y-26.956 Z-0.875
G1 X68.979 Y-27.156 Z-0.883
G1 X69.054 Y-27.362 Z-0.89
G1 X69.114 Y-27.573 Z-0.898
G1 X69.159 Y-27.788 Z-0.906
G1 X69.187 Y-28.005 Z-0.913
G1 X69.2 Y-28.225 Z-0.921
G1 X69.197 Y-28.444 Z-0.929
G1 X69.178 Y-28.663 Z-0.936
G1 X69.144 Y-28.879 Z-0.944
G1 X69.093 Y-29.093 Z-0.952
G1 X69.027 Y-29.302 Z-0.959
G1 X68.946 Y-29.506 Z-0.967
G1 X68.851 Y-29.704 Z-0.975
G1 X68.741 Y-29.894 Z-0.982
G1 X68.618 Y-30.076 Z-0.99
G1 X68.482 Y-30.248 Z-0.998
G1 X68.333 Y-30.41 Z-1.005
G1 X68.174 Y-30.56 Z-1.013
G1 X68.004 Y-30.699 Z-1.021
G1 X67.824 Y-30.825 Z-1.028
G1 X67.635 Y-30.937 Z-1.036
G1 X67.439 Y-31.036 Z-1.044
G1 X67.236 Y-31.12 Z-1.051
G1 X67.028 Y-31.189 Z-1.059
G1 X66.815 Y-31.242 Z-1.067
G1 X66.599 Y-31.28 Z-1.074
G1 X66.381 Y-31.302 Z-1.082
G1 X66.161 Y-31.309 Z-1.09
G1 X65.942 Y-31.299 Z-1.097
G1 X65.724 Y-31.273 Z-1.105
G1 X65.509 Y-31.232 Z-1.113
G1 X65.297 Y-31.175 Z-1.12
G1 X65.089 Y-31.103 Z-1.128
G1 X64.888 Y-31.016 Z-1.136
G1 X64.693 Y-30.914 Z-1.143
G1 X64.507 Y-30.799 Z-1.151
G1 X64.329 Y-30.67 Z-1.159
G1 X64.161 Y-30.529 Z-1.166
G1 X64.004 Y-30.376 Z-1.174
G1 X63.858 Y-30.212 Z-1.182
G1 X63.724 Y-30.037 Z-1.189
G1 X63.604 Y-29.854 Z-1.197
G1 X63.497 Y-29.662 Z-1.205
G1 X63.405 Y-29.463 Z-1.212
G1 X63.327 Y-29.258 Z-1.22
G1 X63.265 Y-29.047 Z-1.228
G1 X63.217 Y-28.833 Z-1.235
G1 X63.186 Y-28.616 Z-1.243
G1 X63.17 Y-28.397 Z-1.251
G1 X63.171 Y-28.177 Z-1.258
G1 X63.187 Y-27.959 Z-1.266
G1 X63.219 Y-27.741 Z-1.274
G1 X63.267 Y-27.527 Z-1.281
G1 X63.331 Y-27.317 Z-1.289
G1 X63.409 Y-27.112 Z-1.297
G1 X63.502 Y-26.913 Z-1.304
G1 X63.61 Y-26.722 Z-1.312
G1 X63.731 Y-26.539 Z-1.32
G1 X63.865 Y-26.365 Z-1.327
G1 X64.011 Y-26.202 Z-1.335
G1 X64.169 Y-26.049 Z-1.343
G1 X64.337 Y-25.908 Z-1.35
G1 X64.516 Y-25.78 Z-1.358
G1 X64.703 Y-25.666 Z-1.366
G1 X64.898 Y-25.565 Z-1.373
G1 X65.1 Y-25.478 Z-1.381
G1 X65.307 Y-25.407 Z-1.389
G1 X65.519 Y-25.351 Z-1.396
G1 X65.735 Y-25.31 Z-1.404
G1 X65.953 Y-25.285 Z-1.412
G1 X66.172 Y-25.276 Z-1.419
G1 X66.392 Y-25.283 Z-1.427
G1 X66.61 Y-25.306 Z-1.435
G1 X66.826 Y-25.345 Z-1.442
G1 X67.039 Y-25.4 Z-1.45
G1 X67.247 Y-25.469 Z-1.458
G1 X67.449 Y-25.554 Z-1.465
G1 X67.645 Y-25.653 Z-1.473
G1 X67.833 Y-25.766 Z-1.481
G1 X68.012 Y-25.893 Z-1.488
G1 X68.182 Y-26.032 Z-1.496
G1 X68.341 Y-26.183 Z-1.504
G1 X68.489 Y-26.346 Z-1.511
G1 X68.624 Y-26.518 Z-1.519
G1 X68.747 Y-26.701 Z-1.527
G1 X68.856 Y-26.891 Z-1.534
G1 X68.951 Y-27.089 Z-1.542
G1 X69.031 Y-27.293 Z-1.55
G1 X69.096 Y-27.503 Z-1.557
G1 X69.146 Y-27.717 Z-1.565
G1 X69.18 Y-27.933 Z-1.573
G1 X69.198 Y-28.152 Z-1.58
G1 X69.2 Y-28.372 Z-1.588
G1 X69.186 Y-28.591 Z-1.596
G1 X69.157 Y-28.808 Z-1.603
G1 X69.111 Y-29.023 Z-1.611
G1 X69.051 Y-29.234 Z-1.619
G1 X68.975 Y-29.44 Z-1.626
G1 X68.884 Y-29.639 Z-1.634
G1 X68.779 Y-29.832 Z-1.642
G1 X68.66 Y-30.017 Z-1.649
G1 X68.528 Y-30.192 Z-1.657
G1 X68.384 Y-30.357 Z-1.665
G1 X68.228 Y-30.512 Z-1.672
G1 X68.061 Y-30.654 Z-1.68
G1 X67.884 Y-30.785 Z-1.688
G1 X67.698 Y-30.902 Z-1.695
G1 X67.505 Y-31.005 Z-1.703
G1 X67.304 Y-31.094 Z-1.711
G1 X67.097 Y-31.168 Z-1.718
G1 X66.886 Y-31.226 Z-1.726
G1 X66.671 Y-31.269 Z-1.734
G1 X66.453 Y-31.297 Z-1.741
G1 X66.234 Y-31.308 Z-1.749
G1 X66.014 Y-31.304 Z-1.757
G1 X65.796 Y-31.284 Z-1.764
G1 X65.579 Y-31.247 Z-1.772
G1 X65.366 Y-31.196 Z-1.78
G1 X65.157 Y-31.128 Z-1.787
G1 X64.954 Y-31.046 Z-1.795
G1 X64.757 Y-30.949 Z-1.803
G1 X64.567 Y-30.838 Z-1.81
G1 X64.386 Y-30.714 Z-1.818
G1 X64.215 Y-30.577 Z-1.826
G1 X64.054 Y-30.428 Z-1.833
G1 X63.905 Y-30.267 Z-1.841
G1 X63.767 Y-30.096 Z-1.849
G1 X63.642 Y-29.915 Z-1.856
G1 X63.531 Y-29.726 Z-1.864
G1 X63.434 Y-29.529 Z-1.872
G1 X63.351 Y-29.326 Z-1.879
G1 X63.284 Y-29.117 Z-1.887
G1 X63.231 Y-28.904 Z-1.895
G1 X63.195 Y-28.688 Z-1.902
G1 X63.174 Y-28.469 Z-1.91
G1 X63.169 Y-28.25 Z-1.918
G1 X63.18 Y-28.031 Z-1.925
G1 X63.207 Y-27.813 Z-1.933
G1 X63.25 Y-27.598 Z-1.941
G1 X63.308 Y-27.386 Z-1.948
G1 X63.382 Y-27.179 Z-1.956
G1 X63.47 Y-26.978 Z-1.964
G1 X63.573 Y-26.784 Z-1.971
G1 X63.689 Y-26.598 Z-1.979
G1 X63.819 Y-26.421 Z-1.987
G1 X63.962 Y-26.254 Z-1.994
G1 X64.116 Y-26.098 Z-2.002
G1 X64.281 Y-25.953 Z-2.01
G1 X64.456 Y-25.821 Z-2.017
G1 X64.64 Y-25.702 Z-2.025
G1 X64.833 Y-25.596 Z-2.033
G1 X65.032 Y-25.505 Z-2.04
G1 X65.238 Y-25.429 Z-2.048
G1 X65.449 Y-25.368 Z-2.056
G1 X65.663 Y-25.322 Z-2.063
G1 X65.881 Y-25.292 Z-2.071
G1 X66.1 Y-25.278 Z-2.079
G1 X66.319 Y-25.279 Z-2.086
G1 X66.538 Y-25.297 Z-2.094
G1 X66.755 Y-25.331 Z-2.102
G1 X66.969 Y-25.38 Z-2.109
G1 X67.179 Y-25.445 Z-2.117
G1 X67.383 Y-25.524 Z-2.125
G1 X67.581 Y-25.619 Z-2.132
G1 X67.772 Y-25.728 Z-2.14
G1 X67.954 Y-25.85 Z-2.148
G1 X68.127 Y-25.985 Z-2.155
G1 X68.29 Y-26.132 Z-2.163
G1 X68.441 Y-26.291 Z-2.17
G1 X68.581 Y-26.46 Z-2.178
G1 X68.708 Y-26.639 Z-2.186
G1 X68.821 Y-26.827 Z-2.193
G1 X68.921 Y-27.023 Z-2.201
G1 X69.006 Y-27.225 Z-2.209
G1 X69.076 Y-27.433 Z-2.216
G1 X69.131 Y-27.646 Z-2.224
G1 X69.17 Y-27.862 Z-2.232
G1 X69.194 Y-28.08 Z-2.239
G1 X69.201 Y-28.299 Z-2.247
G1 X69.193 Y-28.518 Z-2.255
G1 X69.168 Y-28.737 Z-2.262
G1 X69.128 Y-28.952 Z-2.27
G1 X69.072 Y-29.165 Z-2.278
G1 X69.001 Y-29.372 Z-2.285
G1 X68.915 Y-29.574 Z-2.293
G1 X68.815 Y-29.769 Z-2.301
G1 X68.701 Y-29.957 Z-2.308
G1 X68.573 Y-30.135 Z-2.316
G1 X68.433 Y-30.304 Z-2.324
G1 X68.28 Y-30.462 Z-2.331
G1 X68.117 Y-30.609 Z-2.339
G1 X67.944 Y-30.743 Z-2.347
G1 X67.761 Y-30.865 Z-2.354
G1 X67.569 Y-30.972 Z-2.362
G1 X67.371 Y-31.066 Z-2.37
G1 X67.166 Y-31.145 Z-2.377
G1 X66.956 Y-31.209 Z-2.385
G1 X66.742 Y-31.257 Z-2.393
G1 X66.525 Y-31.29 Z-2.4
G1 X66.306 Y-31.306 Z-2.408
G1 X66.087 Y-31.307 Z-2.416
G1 X65.868 Y-31.292 Z-2.423
G1 X65.651 Y-31.261 Z-2.431
G1 X65.436 Y-31.214 Z-2.439
G1 X65.226 Y-31.152 Z-2.446
G1 X65.02 Y-31.075 Z-2.454
G1 X64.821 Y-30.983 Z-2.462
G1 X64.629 Y-30.877 Z-2.469
G1 X64.445 Y-30.757 Z-2.477
G1 X64.271 Y-30.624 Z-2.485
G1 X64.106 Y-30.478 Z-2.492
G1 X63.953 Y-30.321 Z-2.5
G1 X63.811 Y-30.154 Z-2.508
G1 X63.682 Y-29.976 Z-2.515
G1 X63.566 Y-29.79 Z-2.523
G1 X63.464 Y-29.595 Z-2.531
G1 X63.377 Y-29.394 Z-2.538
G1 X63.304 Y-29.187 Z-2.546
G1 X63.247 Y-28.975 Z-2.554
G1 X63.205 Y-28.759 Z-2.561
G1 X63.179 Y-28.542 Z-2.569
G1 X63.169 Y-28.322 Z-2.577
G1 X63.175 Y-28.103 Z-2.584
G1 X63.196 Y-27.884 Z-2.592
G1 X63.234 Y-27.668 Z-2.6
G1 X63.287 Y-27.455 Z-2.607
G1 X63.356 Y-27.247 Z-2.615
G1 X63.439 Y-27.044 Z-2.623
G1 X63.537 Y-26.848 Z-2.63
G1 X63.649 Y-26.659 Z-2.638
G1 X63.775 Y-26.479 Z-2.646
G1 X63.913 Y-26.308 Z-2.653
G1 X64.064 Y-26.148 Z-2.661
G1 X64.225 Y-26 Z-2.669
G1 X64.397 Y-25.863 Z-2.676
G1 X64.578 Y-25.74 Z-2.684
G1 X64.768 Y-25.63 Z-2.692
G1 X64.966 Y-25.534 Z-2.699
G1 X65.169 Y-25.452 Z-2.707
G1 X65.379 Y-25.386 Z-2.715
G1 X65.592 Y-25.335 Z-2.722
G1 X65.809 Y-25.3 Z-2.73
G1 X66.027 Y-25.28 Z-2.738
G1 X66.247 Y-25.277 Z-2.745
G1 X66.466 Y-25.289 Z-2.753
G1 X66.684 Y-25.318 Z-2.761
G1 X66.899 Y-25.362 Z-2.768
G1 X67.11 Y-25.422 Z-2.776
G1 X67.316 Y-25.497 Z-2.784
G1 X67.516 Y-25.586 Z-2.791
G1 X67.71 Y-25.69 Z-2.799
G1 X67.895 Y-25.808 Z-2.807
G1 X68.071 Y-25.939 Z-2.814
G1 X68.237 Y-26.082 Z-2.822
G1 X68.393 Y-26.237 Z-2.83
G1 X68.536 Y-26.403 Z-2.837
G1 X68.667 Y-26.579 Z-2.845
G1 X68.785 Y-26.764 Z-2.853
G1 X68.89 Y-26.957 Z-2.86
G1 X68.979 Y-27.158 Z-2.868
G1 X69.055 Y-27.364 Z-2.876
G1 X69.115 Y-27.575 Z-2.883
G1 X69.159 Y-27.79 Z-2.891
G1 X69.188 Y-28.008 Z-2.899
G1 X69.2 Y-28.227 Z-2.906
G1 X69.197 Y-28.446 Z-2.914
G1 X69.178 Y-28.665 Z-2.922
G1 X69.143 Y-28.881 Z-2.929
G1 X69.092 Y-29.095 Z-2.937
G1 X69.026 Y-29.304 Z-2.945
G1 X68.945 Y-29.508 Z-2.952
G1 X68.85 Y-29.706 Z-2.96
G1 X68.74 Y-29.896 Z-2.968
G1 X68.616 Y-30.077 Z-2.975
G1 X68.48 Y-30.249 Z-2.983
G1 X68.332 Y-30.411 Z-2.991
G1 X68.172 Y-30.562 Z-2.998
G1 X68.002 Y-30.7 Z-3.006
G1 X67.822 Y-30.826 Z-3.014
G1 X67.633 Y-30.938 Z-3.021
G1 X67.437 Y-31.037 Z-3.029
G1 X67.234 Y-31.12 Z-3.037
G1 X67.026 Y-31.189 Z-3.044
G1 X66.813 Y-31.243 Z-3.052
G1 X66.597 Y-31.281 Z-3.06
G1 X66.379 Y-31.303 Z-3.067
G1 X66.159 Y-31.309 Z-3.075
G1 X65.94 Y-31.299 Z-3.083
G1 X65.722 Y-31.273 Z-3.09
G1 X65.506 Y-31.232 Z-3.098
G1 X65.295 Y-31.174 Z-3.106
G1 X65.087 Y-31.102 Z-3.113
G1 X64.886 Y-31.015 Z-3.121
G1 X64.691 Y-30.913 Z-3.129
G1 X64.505 Y-30.798 Z-3.136
G1 X64.327 Y-30.669 Z-3.144
G1 X64.159 Y-30.527 Z-3.152
G1 X64.002 Y-30.374 Z-3.159
G1 X63.857 Y-30.21 Z-3.167
G1 X63.723 Y-30.036 Z-3.175
G1 X63.603 Y-29.852 Z-3.182
G1 X63.496 Y-29.66 Z-3.19
G1 X63.404 Y-29.461 Z-3.198
G1 X63.327 Y-29.256 Z-3.205
G1 X63.264 Y-29.045 Z-3.213
G1 X63.217 Y-28.831 Z-3.221
G1 X63.186 Y-28.614 Z-3.228
G1 X63.17 Y-28.395 Z-3.236
G1 X63.171 Y-28.175 Z-3.244
G1 X63.187 Y-27.956 Z-3.251
G1 X63.22 Y-27.739 Z-3.259
G1 X63.268 Y-27.525 Z-3.267
G1 X63.331 Y-27.315 Z-3.274
G1 X63.41 Y-27.11 Z-3.282
G1 X63.503 Y-26.912 Z-3.29
G1 X63.611 Y-26.72 Z-3.297
G1 X63.732 Y-26.537 Z-3.305
G1 X63.866 Y-26.364 Z-3.313
G1 X64.013 Y-26.2 Z-3.32
G1 X64.171 Y-26.048 Z-3.328
G1 X64.339 Y-25.907 Z-3.336
G1 X64.517 Y-25.779 Z-3.343
G1 X64.705 Y-25.665 Z-3.351
G1 X64.9 Y-25.564 Z-3.359
G1 X65.102 Y-25.478 Z-3.366
G1 X65.309 Y-25.406 Z-3.374
G1 X65.521 Y-25.35 Z-3.382
G1 X65.737 Y-25.31 Z-3.389
G1 X65.955 Y-25.285 Z-3.397
G1 X66.174 Y-25.276 Z-3.405
G1 X66.394 Y-25.284 Z-3.412
G1 X66.612 Y-25.307 Z-3.42
G1 X66.828 Y-25.346 Z-3.428
G1 X67.041 Y-25.4 Z-3.435
G1 X67.249 Y-25.47 Z-3.443
G1 X67.451 Y-25.555 Z-3.451
G1 X67.647 Y-25.654 Z-3.458
G1 X67.835 Y-25.768 Z-3.466
G1 X68.014 Y-25.894 Z-3.474
G1 X68.184 Y-26.034 Z-3.481
G1 X68.343 Y-26.185 Z-3.489
G1 X68.49 Y-26.347 Z-3.497
G1 X68.625 Y-26.52 Z-3.504
G1 X68.748 Y-26.702 Z-3.512
G1 X68.857 Y-26.893 Z-3.52
G1 X68.951 Y-27.091 Z-3.527
G1 X69.031 Y-27.295 Z-3.535
G1 X69.096 Y-27.505 Z-3.543
G1 X69.146 Y-27.719 Z-3.55
G1 X69.18 Y-27.936 Z-3.558
G1 X69.198 Y-28.154 Z-3.566
G1 X69.2 Y-28.374 Z-3.573
G1 X69.186 Y-28.593 Z-3.581
G1 X69.156 Y-28.81 Z-3.589
G1 X69.111 Y-29.025 Z-3.596
G1 X69.05 Y-29.236 Z-3.604
G1 X68.974 Y-29.442 Z-3.612
G1 X68.883 Y-29.641 Z-3.619
G1 X68.778 Y-29.834 Z-3.627
G1 X68.659 Y-30.018 Z-3.635
G1 X68.527 Y-30.194 Z-3.642
G1 X68.382 Y-30.359 Z-3.65
G1 X68.226 Y-30.513 Z-3.658
G1 X68.059 Y-30.656 Z-3.665
G1 X67.882 Y-30.786 Z-3.673
G1 X67.697 Y-30.903 Z-3.681
G1 X67.503 Y-31.006 Z-3.688
G1 X67.302 Y-31.094 Z-3.696
G1 X67.095 Y-31.168 Z-3.704
G1 X66.884 Y-31.227 Z-3.711
G1 X66.669 Y-31.27 Z-3.719
G1 X66.451 Y-31.297 Z-3.727
G1 X66.232 Y-31.308 Z-3.734
G1 X66.012 Y-31.304 Z-3.742
G1 X65.794 Y-31.283 Z-3.75
G1 X65.577 Y-31.247 Z-3.757
G1 X65.364 Y-31.195 Z-3.765
G1 X65.155 Y-31.128 Z-3.773
G1 X64.952 Y-31.045 Z-3.78
G1 X64.755 Y-30.948 Z-3.788
G1 X64.566 Y-30.837 Z-3.796
G1 X64.385 Y-30.713 Z-3.803
G1 X64.214 Y-30.575 Z-3.811
G1 X64.053 Y-30.426 Z-3.819
G1 X63.903 Y-30.265 Z-3.826
G1 X63.766 Y-30.094 Z-3.834
G1 X63.641 Y-29.914 Z-3.842
G1 X63.53 Y-29.724 Z-3.849
G1 X63.433 Y-29.527 Z-3.857
G1 X63.351 Y-29.324 Z-3.865
G1 X63.283 Y-29.115 Z-3.872
G1 X63.231 Y-28.902 Z-3.88
G1 X63.194 Y-28.686 Z-3.888
G1 X63.174 Y-28.467 Z-3.895
G1 X63.169 Y-28.248 Z-3.903
G1 X63.18 Y-28.029 Z-3.911
G1 X63.207 Y-27.811 Z-3.918
G1 X63.25 Y-27.595 Z-3.926
G1 X63.309 Y-27.384 Z-3.934
G1 X63.382 Y-27.177 Z-3.941
G1 X63.471 Y-26.976 Z-3.949
G1 X63.574 Y-26.783 Z-3.957
G1 X63.691 Y-26.597 Z-3.964
G1 X63.821 Y-26.42 Z-3.972
G1 X63.963 Y-26.253 Z-3.98
G1 X64.117 Y-26.097 Z-3.987
G1 X64.282 Y-25.952 Z-3.995
G1 X64.458 Y-25.82 Z-4.003
G1 X64.642 Y-25.701 Z-4.01
G1 X64.835 Y-25.596 Z-4.018
G1 X65.034 Y-25.504 Z-4.026
G1 X65.24 Y-25.428 Z-4.033
G1 X65.451 Y-25.367 Z-4.041
G1 X65.665 Y-25.321 Z-4.049
G1 X65.883 Y-25.292 Z-4.056
G1 X66.102 Y-25.277 Z-4.064
G1 X66.256 Y-25.273
G2 X66.59 Y-25.589 I0.009 J-0.324
G1 X66.598 Y-25.898
G2 X66.509 Y-26.129 I-0.324 J-0.009
G2 X66.283 Y-26.231 I-0.236 J0.223
G1 X34.686 Y-27.1
G2 X34.454 Y-27.012 I-0.009 J0.324
G2 X34.352 Y-26.785 I0.223 J0.236
G1 X34.344 Y-26.476
G2 X34.659 Y-26.143 I0.324 J0.009
G1 X66.102 Y-25.277
G3 X68.805 Y-23.81 I-0.093 J3.395
G2 X71.055 Y-23.395 I1.332 J-0.918
G2 X71.755 Y-24.683 I-0.918 J-1.332
G1 X71.882 Y-29.314
G3 X73.043 Y-31.897 I3.682 J0.101
G2 X73.057 Y-32.345 I-0.217 J-0.231
G2 X72.833 Y-32.445 I-0.231 J0.217
G2 X72.605 Y-32.356 I-0.008 J0.317
G3 X69.941 Y-31.32 I-2.562 J-2.646
G1 X31.313 Y-32.383
G3 X28.71 Y-33.564 I0.101 J-3.682
G2 X28.262 Y-33.582 I-0.233 J0.215
G2 X28.16 Y-33.359 I0.215 J0.233
G2 X28.248 Y-33.13 I0.317 J0.01
G3 X29.264 Y-30.487 I-2.665 J2.542
G1 X29.057 Y-22.936
G3 X28.065 Y-20.522 I-3.682 J-0.101
G2 X28.08 Y-20.074 I0.232 J0.217
G2 X28.512 Y-20.073 I0.217 J-0.232
G3 X31.114 Y-21.051 I2.501 J2.704
G1 X69.516 Y-19.994
G3 X72.061 Y-18.874 I-0.101 J3.682
G2 X72.509 Y-18.867 I0.228 J-0.221
G2 X72.531 Y-19.298 I-0.221 J-0.228
G3 X71.674 Y-21.763 I2.825 J-2.364
G1 X71.755 Y-24.683
G0 Z6.096
G0 X63.51 Y-29.686
G1 Z-1.524 F508.
G1 X63.415 Y-29.488 Z-1.532
G1 X63.336 Y-29.283 Z-1.539
G1 X63.271 Y-29.073 Z-1.547
G1 X63.222 Y-28.859 Z-1.555
G1 X63.189 Y-28.642 Z-1.562
G1 X63.171 Y-28.423 Z-1.57
G1 X63.17 Y-28.204 Z-1.578
G1 X63.184 Y-27.984 Z-1.585
G1 X63.215 Y-27.767 Z-1.593
G1 X63.261 Y-27.552 Z-1.601
G1 X63.323 Y-27.342 Z-1.608
G1 X63.399 Y-27.136 Z-1.616
G1 X63.491 Y-26.936 Z-1.624
G1 X63.597 Y-26.744 Z-1.631
G1 X63.716 Y-26.56 Z-1.639
G1 X63.849 Y-26.385 Z-1.647
G1 X63.994 Y-26.22 Z-1.654
G1 X64.15 Y-26.066 Z-1.662
G1 X64.318 Y-25.924 Z-1.67
G1 X64.495 Y-25.794 Z-1.677
G1 X64.681 Y-25.678 Z-1.685
G1 X64.875 Y-25.575 Z-1.693
G1 X65.077 Y-25.487 Z-1.7
G1 X65.284 Y-25.414 Z-1.708
G1 X65.495 Y-25.356 Z-1.716
G1 X65.711 Y-25.314 Z-1.723
G1 X65.929 Y-25.287 Z-1.731
G1 X66.148 Y-25.277 Z-1.739
G1 X66.368 Y-25.282 Z-1.746
G1 X66.586 Y-25.303 Z-1.754
G1 X66.803 Y-25.34 Z-1.762
G1 X67.016 Y-25.393 Z-1.769
G1 X67.224 Y-25.461 Z-1.777
G1 X67.428 Y-25.544 Z-1.785
G1 X67.624 Y-25.642 Z-1.792
G1 X67.813 Y-25.754 Z-1.8
G1 X67.994 Y-25.879 Z-1.808
G1 X68.165 Y-26.017 Z-1.815
G1 X68.325 Y-26.167 Z-1.823
G1 X68.474 Y-26.328 Z-1.831
G1 X68.611 Y-26.5 Z-1.838
G1 X68.735 Y-26.681 Z-1.846
G1 X68.845 Y-26.871 Z-1.854
G1 X68.941 Y-27.068 Z-1.861
G1 X69.023 Y-27.272 Z-1.869
G1 X69.09 Y-27.481 Z-1.877
G1 X69.141 Y-27.695 Z-1.884
G1 X69.177 Y-27.911 Z-1.892
G1 X69.197 Y-28.13 Z-1.9
G1 X69.201 Y-28.35 Z-1.907
G1 X69.188 Y-28.569 Z-1.915
G1 X69.16 Y-28.787 Z-1.923
G1 X69.117 Y-29.002 Z-1.93
G1 X69.057 Y-29.213 Z-1.938
G1 X68.983 Y-29.42 Z-1.946
G1 X68.893 Y-29.62 Z-1.953
G1 X68.789 Y-29.814 Z-1.961
G1 X68.672 Y-29.999 Z-1.969
G1 X68.541 Y-30.176 Z-1.976
G1 X68.398 Y-30.342 Z-1.984
G1 X68.243 Y-30.498 Z-1.992
G1 X68.077 Y-30.641 Z-2
G1 X67.901 Y-30.773 Z-2.007
G1 X67.716 Y-30.891 Z-2.015
G1 X67.523 Y-30.996 Z-2.023
G1 X67.323 Y-31.086 Z-2.03
G1 X67.117 Y-31.161 Z-2.038
G1 X66.906 Y-31.221 Z-2.046
G1 X66.691 Y-31.266 Z-2.053
G1 X66.473 Y-31.295 Z-2.061
G1 X66.254 Y-31.308 Z-2.069
G1 X66.034 Y-31.305 Z-2.076
G1 X65.815 Y-31.286 Z-2.084
G1 X65.599 Y-31.251 Z-2.092
G1 X65.385 Y-31.201 Z-2.099
G1 X65.175 Y-31.135 Z-2.107
G1 X64.971 Y-31.054 Z-2.115
G1 X64.774 Y-30.958 Z-2.122
G1 X64.584 Y-30.849 Z-2.13
G1 X64.402 Y-30.725 Z-2.138
G1 X64.23 Y-30.589 Z-2.145
G1 X64.068 Y-30.441 Z-2.153
G1 X63.917 Y-30.281 Z-2.161
G1 X63.778 Y-30.111 Z-2.168
G1 X63.652 Y-29.931 Z-2.176
G1 X63.54 Y-29.742 Z-2.184
G1 X63.441 Y-29.546 Z-2.191
G1 X63.358 Y-29.343 Z-2.199
G1 X63.289 Y-29.135 Z-2.207
G1 X63.235 Y-28.922 Z-2.214
G1 X63.197 Y-28.706 Z-2.222
G1 X63.175 Y-28.487 Z-2.23
G1 X63.169 Y-28.268 Z-2.237
G1 X63.179 Y-28.048 Z-2.245
G1 X63.204 Y-27.83 Z-2.253
G1 X63.246 Y-27.615 Z-2.26
G1 X63.303 Y-27.403 Z-2.268
G1 X63.375 Y-27.195 Z-2.276
G1 X63.463 Y-26.994 Z-2.283
G1 X63.564 Y-26.799 Z-2.291
G1 X63.68 Y-26.613 Z-2.299
G1 X63.809 Y-26.435 Z-2.306
G1 X63.95 Y-26.267 Z-2.314
G1 X64.104 Y-26.11 Z-2.322
G1 X64.268 Y-25.964 Z-2.329
G1 X64.442 Y-25.831 Z-2.337
G1 X64.626 Y-25.71 Z-2.345
G1 X64.818 Y-25.604 Z-2.352
G1 X65.017 Y-25.512 Z-2.36
G1 X65.223 Y-25.434 Z-2.368
G1 X65.433 Y-25.372 Z-2.375
G1 X65.648 Y-25.325 Z-2.383
G1 X65.865 Y-25.293 Z-2.391
G1 X66.084 Y-25.278 Z-2.398
G1 X66.304 Y-25.279 Z-2.406
G1 X66.523 Y-25.295 Z-2.414
G1 X66.74 Y-25.328 Z-2.421
G1 X66.954 Y-25.376 Z-2.429
G1 X67.164 Y-25.44 Z-2.437
G1 X67.369 Y-25.519 Z-2.444
G1 X67.568 Y-25.612 Z-2.452
G1 X67.759 Y-25.72 Z-2.46
G1 X67.942 Y-25.841 Z-2.467
G1 X68.116 Y-25.975 Z-2.475
G1 X68.279 Y-26.122 Z-2.483
G1 X68.432 Y-26.28 Z-2.49
G1 X68.572 Y-26.449 Z-2.498
G1 X68.7 Y-26.627 Z-2.506
G1 X68.814 Y-26.815 Z-2.513
G1 X68.915 Y-27.01 Z-2.521
G1 X69.001 Y-27.212 Z-2.529
G1 X69.072 Y-27.42 Z-2.536
G1 X69.128 Y-27.632 Z-2.544
G1 X69.168 Y-27.848 Z-2.552
G1 X69.193 Y-28.066 Z-2.559
G1 X69.201 Y-28.286 Z-2.567
G1 X69.194 Y-28.505 Z-2.575
G1 X69.17 Y-28.723 Z-2.582
G1 X69.131 Y-28.939 Z-2.59
G1 X69.076 Y-29.152 Z-2.598
G1 X69.006 Y-29.36 Z-2.605
G1 X68.921 Y-29.562 Z-2.613
G1 X68.821 Y-29.758 Z-2.621
G1 X68.708 Y-29.946 Z-2.628
G1 X68.581 Y-30.125 Z-2.636
G1 X68.441 Y-30.295 Z-2.644
G1 X68.289 Y-30.453 Z-2.651
G1 X68.127 Y-30.601 Z-2.659
G1 X67.954 Y-30.736 Z-2.667
G1 X67.771 Y-30.858 Z-2.674
G1 X67.58 Y-30.967 Z-2.682
G1 X67.382 Y-31.061 Z-2.69
G1 X67.177 Y-31.141 Z-2.697
G1 X66.968 Y-31.206 Z-2.705
G1 X66.754 Y-31.255 Z-2.713
G1 X66.537 Y-31.288 Z-2.72
G1 X66.318 Y-31.306 Z-2.728
G1 X66.098 Y-31.308 Z-2.736
G1 X65.879 Y-31.293 Z-2.743
G1 X65.662 Y-31.263 Z-2.751
G1 X65.447 Y-31.217 Z-2.759
G1 X65.236 Y-31.156 Z-2.766
G1 X65.03 Y-31.079 Z-2.774
G1 X64.831 Y-30.988 Z-2.782
G1 X64.638 Y-30.882 Z-2.789
G1 X64.454 Y-30.763 Z-2.797
G1 X64.279 Y-30.63 Z-2.805
G1 X64.114 Y-30.485 Z-2.812
G1 X63.96 Y-30.329 Z-2.82
G1 X63.818 Y-30.162 Z-2.828
G1 X63.688 Y-29.984 Z-2.835
G1 X63.571 Y-29.798 Z-2.843
G1 X63.469 Y-29.604 Z-2.851
G1 X63.381 Y-29.403 Z-2.858
G1 X63.307 Y-29.196 Z-2.866
G1 X63.249 Y-28.984 Z-2.874
G1 X63.207 Y-28.769 Z-2.881
G1 X63.18 Y-28.551 Z-2.889
G1 X63.169 Y-28.332 Z-2.897
G1 X63.174 Y-28.112 Z-2.904
G1 X63.195 Y-27.894 Z-2.912
G1 X63.232 Y-27.677 Z-2.92
G1 X63.285 Y-27.464 Z-2.927
G1 X63.353 Y-27.255 Z-2.935
G1 X63.436 Y-27.052 Z-2.943
G1 X63.533 Y-26.855 Z-2.951
G1 X63.645 Y-26.666 Z-2.958
G1 X63.77 Y-26.486 Z-2.966
G1 X63.908 Y-26.315 Z-2.974
G1 X64.058 Y-26.154 Z-2.981
G1 X64.219 Y-26.005 Z-2.989
G1 X64.39 Y-25.868 Z-2.997
G1 X64.572 Y-25.744 Z-3.004
G1 X64.761 Y-25.633 Z-3.012
G1 X64.958 Y-25.537 Z-3.02
G1 X65.162 Y-25.455 Z-3.027
G1 X65.371 Y-25.388 Z-3.035
G1 X65.585 Y-25.337 Z-3.043
G1 X65.801 Y-25.301 Z-3.05
G1 X66.02 Y-25.281 Z-3.058
G1 X66.24 Y-25.277 Z-3.066
G1 X66.459 Y-25.289 Z-3.073
G1 X66.677 Y-25.317 Z-3.081
G1 X66.892 Y-25.36 Z-3.089
G1 X67.103 Y-25.42 Z-3.096
G1 X67.31 Y-25.494 Z-3.104
G1 X67.51 Y-25.583 Z-3.112
G1 X67.704 Y-25.687 Z-3.119
G1 X67.89 Y-25.804 Z-3.127
G1 X68.066 Y-25.935 Z-3.135
G1 X68.233 Y-26.078 Z-3.142
G1 X68.388 Y-26.233 Z-3.15
G1 X68.532 Y-26.399 Z-3.158
G1 X68.664 Y-26.574 Z-3.165
G1 X68.782 Y-26.759 Z-3.173
G1 X68.887 Y-26.952 Z-3.181
G1 X68.977 Y-27.152 Z-3.188
G1 X69.053 Y-27.359 Z-3.196
G1 X69.113 Y-27.57 Z-3.204
G1 X69.158 Y-27.785 Z-3.211
G1 X69.187 Y-28.002 Z-3.219
G1 X69.2 Y-28.221 Z-3.227
G1 X69.198 Y-28.441 Z-3.234
G1 X69.179 Y-28.66 Z-3.242
G1 X69.144 Y-28.877 Z-3.25
G1 X69.094 Y-29.09 Z-3.257
G1 X69.028 Y-29.3 Z-3.265
G1 X68.947 Y-29.504 Z-3.273
G1 X68.852 Y-29.702 Z-3.28
G1 X68.742 Y-29.892 Z-3.288
G1 X68.619 Y-30.074 Z-3.296
G1 X68.483 Y-30.246 Z-3.303
G1 X68.335 Y-30.408 Z-3.311
G1 X68.175 Y-30.559 Z-3.319
G1 X68.005 Y-30.698 Z-3.326
G1 X67.825 Y-30.824 Z-3.334
G1 X67.637 Y-30.936 Z-3.342
G1 X67.441 Y-31.035 Z-3.349
G1 X67.238 Y-31.119 Z-3.357
G1 X67.029 Y-31.188 Z-3.365
G1 X66.816 Y-31.242 Z-3.372
G1 X66.6 Y-31.28 Z-3.38
G1 X66.382 Y-31.302 Z-3.388
G1 X66.162 Y-31.309 Z-3.395
G1 X65.943 Y-31.299 Z-3.403
G1 X65.725 Y-31.274 Z-3.411
G1 X65.509 Y-31.232 Z-3.418
G1 X65.297 Y-31.175 Z-3.426
G1 X65.09 Y-31.103 Z-3.434
G1 X64.888 Y-31.016 Z-3.441
G1 X64.694 Y-30.914 Z-3.449
G1 X64.507 Y-30.799 Z-3.457
G1 X64.329 Y-30.67 Z-3.464
G1 X64.161 Y-30.529 Z-3.472
G1 X64.004 Y-30.376 Z-3.48
G1 X63.858 Y-30.211 Z-3.487
G1 X63.724 Y-30.037 Z-3.495
G1 X63.604 Y-29.853 Z-3.503
G1 X63.497 Y-29.662 Z-3.51
G1 X63.405 Y-29.462 Z-3.518
G1 X63.327 Y-29.257 Z-3.526
G1 X63.264 Y-29.047 Z-3.533
G1 X63.217 Y-28.832 Z-3.541
G1 X63.186 Y-28.615 Z-3.549
G1 X63.17 Y-28.396 Z-3.556
G1 X63.171 Y-28.176 Z-3.564
G1 X63.187 Y-27.957 Z-3.572
G1 X63.22 Y-27.74 Z-3.579
G1 X63.268 Y-27.526 Z-3.587
G1 X63.331 Y-27.316 Z-3.595
G1 X63.41 Y-27.111 Z-3.602
G1 X63.503 Y-26.912 Z-3.61
G1 X63.611 Y-26.72 Z-3.618
G1 X63.732 Y-26.537 Z-3.625
G1 X63.866 Y-26.364 Z-3.633
G1 X64.013 Y-26.2 Z-3.641
G1 X64.171 Y-26.048 Z-3.648
G1 X64.339 Y-25.907 Z-3.656
G1 X64.518 Y-25.779 Z-3.664
G1 X64.705 Y-25.664 Z-3.671
G1 X64.9 Y-25.564 Z-3.679
G1 X65.102 Y-25.477 Z-3.687
G1 X65.31 Y-25.406 Z-3.694
G1 X65.522 Y-25.35 Z-3.702
G1 X65.738 Y-25.31 Z-3.71
G1 X65.956 Y-25.285 Z-3.717
G1 X66.175 Y-25.276 Z-3.725
G1 X66.395 Y-25.284 Z-3.733
G1 X66.613 Y-25.307 Z-3.74
G1 X66.829 Y-25.346 Z-3.748
G1 X67.042 Y-25.401 Z-3.756
G1 X67.25 Y-25.471 Z-3.763
G1 X67.453 Y-25.556 Z-3.771
G1 X67.648 Y-25.655 Z-3.779
G1 X67.836 Y-25.769 Z-3.786
G1 X68.016 Y-25.895 Z-3.794
G1 X68.185 Y-26.035 Z-3.802
G1 X68.344 Y-26.186 Z-3.809
G1 X68.492 Y-26.349 Z-3.817
G1 X68.627 Y-26.522 Z-3.825
G1 X68.749 Y-26.704 Z-3.832
G1 X68.858 Y-26.895 Z-3.84
G1 X68.952 Y-27.093 Z-3.848
G1 X69.032 Y-27.298 Z-3.855
G1 X69.097 Y-27.508 Z-3.863
G1 X69.147 Y-27.722 Z-3.871
G1 X69.18 Y-27.939 Z-3.879
G1 X69.198 Y-28.157 Z-3.886
G1 X69.2 Y-28.377 Z-3.894
G1 X69.186 Y-28.596 Z-3.902
G1 X69.156 Y-28.814 Z-3.909
G1 X69.11 Y-29.028 Z-3.917
G1 X69.049 Y-29.239 Z-3.925
G1 X68.972 Y-29.445 Z-3.932
G1 X68.881 Y-29.645 Z-3.94
G1 X68.776 Y-29.837 Z-3.948
G1 X68.656 Y-30.022 Z-3.955
G1 X68.524 Y-30.197 Z-3.963
G1 X68.379 Y-30.362 Z-3.971
G1 X68.223 Y-30.516 Z-3.978
G1 X68.056 Y-30.659 Z-3.986
G1 X67.879 Y-30.788 Z-3.994
G1 X67.693 Y-30.905 Z-4.001
G1 X67.499 Y-31.008 Z-4.009
G1 X67.298 Y-31.096 Z-4.017
G1 X67.091 Y-31.17 Z-4.024
G1 X66.879 Y-31.228 Z-4.032
G1 X66.664 Y-31.271 Z-4.04
G1 X66.446 Y-31.298 Z-4.047
G1 X66.226 Y-31.309 Z-4.055
G1 X66.007 Y-31.304 Z-4.063
G1 X65.788 Y-31.283 Z-4.07
G1 X65.572 Y-31.246 Z-4.078
G1 X65.359 Y-31.193 Z-4.086
G1 X65.15 Y-31.126 Z-4.093
G1 X64.946 Y-31.043 Z-4.101
G1 X64.75 Y-30.945 Z-4.109
G1 X64.56 Y-30.834 Z-4.116
G1 X64.38 Y-30.709 Z-4.124
G1 X64.209 Y-30.571 Z-4.132
G1 X64.048 Y-30.422 Z-4.139
G1 X63.899 Y-30.261 Z-4.147
G1 X63.762 Y-30.089 Z-4.155
G1 X63.638 Y-29.908 Z-4.162
G1 X63.527 Y-29.718 Z-4.17
G1 X63.43 Y-29.521 Z-4.178
G1 X63.348 Y-29.318 Z-4.185
G1 X63.281 Y-29.109 Z-4.193
G1 X63.229 Y-28.895 Z-4.201
G1 X63.193 Y-28.678 Z-4.208
G1 X63.173 Y-28.46 Z-4.216
G1 X63.169 Y-28.24 Z-4.224
G1 X63.181 Y-28.021 Z-4.231
G1 X63.209 Y-27.803 Z-4.239
G1 X63.252 Y-27.588 Z-4.247
G1 X63.311 Y-27.377 Z-4.254
G1 X63.385 Y-27.17 Z-4.262
G1 X63.474 Y-26.969 Z-4.27
G1 X63.578 Y-26.776 Z-4.277
G1 X63.695 Y-26.59 Z-4.285
G1 X63.826 Y-26.413 Z-4.293
G1 X63.969 Y-26.247 Z-4.3
G1 X64.123 Y-26.091 Z-4.308
G1 X64.289 Y-25.947 Z-4.316
G1 X64.465 Y-25.815 Z-4.323
G1 X64.649 Y-25.696 Z-4.331
G1 X64.842 Y-25.592 Z-4.339
G1 X65.042 Y-25.501 Z-4.346
G1 X65.249 Y-25.425 Z-4.354
G1 X65.46 Y-25.365 Z-4.362
G1 X65.675 Y-25.32 Z-4.369
G1 X65.892 Y-25.291 Z-4.377
G1 X66.111 Y-25.277 Z-4.385
G1 X66.331 Y-25.28 Z-4.392
G1 X66.55 Y-25.298 Z-4.4
G1 X66.767 Y-25.333 Z-4.408
G1 X66.98 Y-25.383 Z-4.415
G1 X67.19 Y-25.449 Z-4.423
G1 X67.394 Y-25.529 Z-4.431
G1 X67.592 Y-25.625 Z-4.438
G1 X67.782 Y-25.734 Z-4.446
G1 X67.964 Y-25.857 Z-4.454
G1 X68.137 Y-25.993 Z-4.461
G1 X68.299 Y-26.141 Z-4.469
G1 X68.45 Y-26.301 Z-4.477
G1 X68.589 Y-26.471 Z-4.484
G1 X68.715 Y-26.65 Z-4.492
G1 X68.828 Y-26.839 Z-4.5
G1 X68.926 Y-27.035 Z-4.507
G1 X69.011 Y-27.238 Z-4.515
G1 X69.08 Y-27.446 Z-4.523
G1 X69.134 Y-27.659 Z-4.53
G1 X69.172 Y-27.875 Z-4.538
G1 X69.195 Y-28.093 Z-4.546
G1 X69.201 Y-28.313 Z-4.553
G1 X69.192 Y-28.532 Z-4.561
G1 X69.166 Y-28.75 Z-4.569
G1 X69.125 Y-28.966 Z-4.576
G1 X69.068 Y-29.178 Z-4.584
G1 X68.996 Y-29.386 Z-4.592
G1 X68.909 Y-29.587 Z-4.599
G1 X68.808 Y-29.782 Z-4.607
G1 X68.693 Y-29.969 Z-4.615
G1 X68.564 Y-30.147 Z-4.622
G1 X68.423 Y-30.315 Z-4.63
G1 X68.27 Y-30.472 Z-4.638
G1 X68.106 Y-30.618 Z-4.645
G1 X67.931 Y-30.752 Z-4.653
G1 X67.748 Y-30.872 Z-4.661
G1 X67.556 Y-30.979 Z-4.668
G1 X67.357 Y-31.072 Z-4.676
G1 X67.152 Y-31.15 Z-4.684
G1 X66.941 Y-31.212 Z-4.691
G1 X66.727 Y-31.26 Z-4.699
G1 X66.509 Y-31.291 Z-4.707
G1 X66.29 Y-31.307 Z-4.714
G1 X66.071 Z-4.722
G1 X65.852 Y-31.29 Z-4.73
G1 X65.635 Y-31.258 Z-4.737
G1 X65.42 Y-31.21 Z-4.745
G1 X65.21 Y-31.147 Z-4.753
G1 X65.005 Y-31.069 Z-4.76
G1 X64.806 Y-30.975 Z-4.768
G1 X64.615 Y-30.868 Z-4.776
G1 X64.432 Y-30.747 Z-4.783
G1 X64.258 Y-30.613 Z-4.791
G1 X64.094 Y-30.467 Z-4.799
G1 X63.941 Y-30.309 Z-4.807
G1 X63.801 Y-30.14 Z-4.814
G1 X63.673 Y-29.962 Z-4.822
G1 X63.558 Y-29.775 Z-4.83
G1 X63.457 Y-29.58 Z-4.837
G1 X63.371 Y-29.378 Z-4.845
G1 X63.299 Y-29.17 Z-4.853
G1 X63.243 Y-28.958 Z-4.86
G1 X63.202 Y-28.742 Z-4.868
G1 X63.178 Y-28.524 Z-4.876
G1 X63.169 Y-28.304 Z-4.883
G1 X63.176 Y-28.085 Z-4.891
G1 X63.199 Y-27.867 Z-4.899
G1 X63.238 Y-27.65 Z-4.906
G1 X63.292 Y-27.438 Z-4.914
G1 X63.362 Y-27.23 Z-4.922
G1 X63.447 Y-27.027 Z-4.929
G1 X63.546 Y-26.831 Z-4.937
G1 X63.66 Y-26.643 Z-4.945
G1 X63.786 Y-26.464 Z-4.952
G1 X63.926 Y-26.294 Z-4.96
G1 X64.077 Y-26.135 Z-4.968
G1 X64.24 Y-25.987 Z-4.975
G1 X64.412 Y-25.852 Z-4.983
G1 X64.595 Y-25.73 Z-4.991
G1 X64.785 Y-25.621 Z-4.998
G1 X64.983 Y-25.526 Z-5.006
G1 X65.188 Y-25.446 Z-5.014
G1 X65.398 Y-25.381 Z-5.021
G1 X65.612 Y-25.331 Z-5.029
G1 X65.828 Y-25.297 Z-5.037
G1 X66.047 Y-25.279 Z-5.044
G1 X66.267 Y-25.277 Z-5.052
G1 X66.486 Y-25.291 Z-5.06
G1 X66.704 Y-25.321 Z-5.067
G1 X66.918 Y-25.367 Z-5.075
G1 X67.129 Y-25.428 Z-5.083
G1 X67.335 Y-25.504 Z-5.09
G1 X67.535 Y-25.595 Z-5.098
G1 X67.728 Y-25.701 Z-5.106
G1 X67.912 Y-25.82 Z-5.113
G1 X68.087 Y-25.952 Z-5.121
G1 X68.253 Y-26.097 Z-5.129
G1 X68.407 Y-26.253 Z-5.136
G1 X68.549 Y-26.42 Z-5.144
G1 X68.679 Y-26.597 Z-5.152
G1 X68.796 Y-26.783 Z-5.159
G1 X68.899 Y-26.977 Z-5.167
G1 X68.988 Y-27.178 Z-5.175
G1 X69.061 Y-27.385 Z-5.182
G1 X69.12 Y-27.596 Z-5.19
G1 X69.163 Y-27.812 Z-5.198
G1 X69.19 Y-28.029 Z-5.205
G1 X69.201 Y-28.249 Z-5.213
G1 X69.196 Y-28.468 Z-5.221
G1 X69.175 Y-28.687 Z-5.228
G1 X69.139 Y-28.903 Z-5.236
G1 X69.086 Y-29.117 Z-5.244
G1 X69.019 Y-29.326 Z-5.251
G1 X68.936 Y-29.529 Z-5.259
G1 X68.839 Y-29.726 Z-5.267
G1 X68.728 Y-29.915 Z-5.274
G1 X68.603 Y-30.096 Z-5.282
G1 X68.465 Y-30.267 Z-5.29
G1 X68.316 Y-30.428 Z-5.297
G1 X68.155 Y-30.577 Z-5.305
G1 X67.983 Y-30.714 Z-5.313
G1 X67.802 Y-30.839 Z-5.32
G1 X67.613 Y-30.949 Z-5.328
G1 X67.416 Y-31.046 Z-5.336
G1 X67.212 Y-31.129 Z-5.343
G1 X67.003 Y-31.196 Z-5.351
G1 X66.79 Y-31.248 Z-5.359
G1 X66.573 Y-31.284 Z-5.366
G1 X66.355 Y-31.304 Z-5.374
G1 X66.135 Y-31.308 Z-5.382
G1 X65.916 Y-31.297 Z-5.389
G1 X65.698 Y-31.269 Z-5.397
G1 X65.483 Y-31.226 Z-5.405
G1 X65.271 Y-31.167 Z-5.412
G1 X65.064 Y-31.093 Z-5.42
G1 X64.864 Y-31.004 Z-5.428
G1 X64.67 Y-30.901 Z-5.435
G1 X64.484 Y-30.784 Z-5.443
G1 X64.307 Y-30.653 Z-5.451
G1 X64.141 Y-30.51 Z-5.458
G1 X63.985 Y-30.356 Z-5.466
G1 X63.84 Y-30.19 Z-5.474
G1 X63.709 Y-30.015 Z-5.481
G1 X63.59 Y-29.83 Z-5.489
G1 X63.485 Y-29.637 Z-5.497
G1 X63.394 Y-29.437 Z-5.504
G1 X63.318 Y-29.231 Z-5.512
G1 X63.258 Y-29.02 Z-5.52
G1 X63.213 Y-28.805 Z-5.527
G1 X63.183 Y-28.588 Z-5.535
G1 X63.17 Y-28.368 Z-5.543
G1 X63.172 Y-28.149 Z-5.55
G1 X63.191 Y-27.93 Z-5.558
G1 X63.225 Y-27.713 Z-5.566
G1 X63.275 Y-27.499 Z-5.573
G1 X63.34 Y-27.29 Z-5.581
G1 X63.421 Y-27.086 Z-5.589
G1 X63.516 Y-26.888 Z-5.596
G1 X63.625 Y-26.697 Z-5.604
G1 X63.748 Y-26.515 Z-5.612
G1 X63.884 Y-26.343 Z-5.619
G1 X64.032 Y-26.18 Z-5.627
G1 X64.191 Y-26.029 Z-5.635
G1 X64.361 Y-25.89 Z-5.642
G1 X64.541 Y-25.764 Z-5.65
G1 X64.729 Y-25.651 Z-5.658
G1 X64.925 Y-25.552 Z-5.665
G1 X65.128 Y-25.468 Z-5.673
G1 X65.336 Y-25.398 Z-5.681
G1 X65.549 Y-25.344 Z-5.688
G1 X65.765 Y-25.306 Z-5.696
G1 X65.983 Y-25.283 Z-5.704
G1 X66.203 Y-25.276 Z-5.711
G1 X66.422 Y-25.286 Z-5.719
G1 X66.64 Y-25.311 Z-5.727
G1 X66.856 Y-25.352 Z-5.734
G1 X67.068 Y-25.409 Z-5.742
G1 X67.276 Y-25.48 Z-5.75
G1 X67.477 Y-25.567 Z-5.758
G1 X67.672 Y-25.668 Z-5.765
G1 X67.859 Y-25.784 Z-5.773
G1 X68.037 Y-25.912 Z-5.781
G1 X68.205 Y-26.053 Z-5.788
G1 X68.363 Y-26.206 Z-5.796
G1 X68.509 Y-26.37 Z-5.804
G1 X68.643 Y-26.544 Z-5.811
G1 X68.763 Y-26.728 Z-5.819
G1 X68.87 Y-26.919 Z-5.827
G1 X68.963 Y-27.118 Z-5.834
G1 X69.041 Y-27.324 Z-5.842
G1 X69.104 Y-27.534 Z-5.85
G1 X69.152 Y-27.748 Z-5.857
G1 X69.183 Y-27.966 Z-5.865
G1 X69.199 Y-28.185 Z-5.873
G1 Y-28.404 Z-5.88
G1 X69.183 Y-28.623 Z-5.888
G1 X69.151 Y-28.84 Z-5.896
G1 X69.103 Y-29.055 Z-5.903
G1 X69.04 Y-29.265 Z-5.911
G1 X68.962 Y-29.47 Z-5.919
G1 X68.869 Y-29.669 Z-5.926
G1 X68.762 Y-29.861 Z-5.934
G1 X68.641 Y-30.044 Z-5.942
G1 X68.507 Y-30.218 Z-5.949
G1 X68.36 Y-30.382 Z-5.957
G1 X68.203 Y-30.535 Z-5.965
G1 X68.034 Y-30.675 Z-5.972
G1 X67.856 Y-30.804 Z-5.98
G1 X67.669 Y-30.919 Z-5.988
G1 X67.474 Y-31.02 Z-5.995
G1 X67.272 Y-31.106 Z-6.003
G1 X67.065 Y-31.178 Z-6.011
G1 X66.852 Y-31.234 Z-6.018
G1 X66.637 Y-31.275 Z-6.026
G1 X66.418 Y-31.3 Z-6.034
G1 X66.199 Y-31.309 Z-6.041
G1 X65.98 Y-31.302 Z-6.049
G1 X65.761 Y-31.279 Z-6.057
G1 X65.545 Y-31.24 Z-6.064
G1 X65.332 Y-31.186 Z-6.072
G1 X65.124 Y-31.116 Z-6.08
G1 X64.922 Y-31.032 Z-6.087
G1 X64.726 Y-30.932 Z-6.095
G1 X64.537 Y-30.819 Z-6.103
G1 X64.358 Y-30.693 Z-6.11
G1 X64.188 Y-30.553 Z-6.118
G1 X64.029 Y-30.402 Z-6.126
G1 X63.881 Y-30.24 Z-6.133
G1 X63.746 Y-30.067 Z-6.141
G1 X63.623 Y-29.885 Z-6.149
G1 X63.514 Y-29.694 Z-6.156
G1 X63.419 Y-29.496 Z-6.164
G1 X63.339 Y-29.292 Z-6.172
G1 X63.274 Y-29.082 Z-6.179
G1 X63.224 Y-28.868 Z-6.187
G1 X63.19 Y-28.651 Z-6.195
G1 X63.172 Y-28.433 Z-6.202
G1 X63.17 Y-28.213 Z-6.21
G1 X63.183 Y-27.994 Z-6.218
G1 X63.213 Y-27.776 Z-6.225
G1 X63.259 Y-27.561 Z-6.233
G1 X63.32 Y-27.351 Z-6.241
G1 X63.396 Y-27.145 Z-6.248
G1 X63.487 Y-26.945 Z-6.256
G1 X63.592 Y-26.752 Z-6.264
G1 X63.711 Y-26.567 Z-6.271
G1 X63.843 Y-26.392 Z-6.279
G1 X63.987 Y-26.227 Z-6.287
G1 X64.143 Y-26.072 Z-6.294
G1 X64.31 Y-25.93 Z-6.302
G1 X64.487 Y-25.799 Z-6.31
G1 X64.673 Y-25.683 Z-6.317
G1 X64.867 Y-25.58 Z-6.325
G1 X65.068 Y-25.491 Z-6.333
G1 X65.275 Y-25.417 Z-6.34
G1 X65.486 Y-25.358 Z-6.348
G1 X65.702 Y-25.315 Z-6.356
G1 X65.919 Y-25.288 Z-6.363
G1 X66.139 Y-25.277 Z-6.371
G1 X66.358 Y-25.281 Z-6.379
G1 X66.577 Y-25.302 Z-6.386
G1 X66.793 Y-25.338 Z-6.394
G1 X67.007 Y-25.39 Z-6.402
G1 X67.216 Y-25.458 Z-6.409
G1 X67.419 Y-25.54 Z-6.417
G1 X67.616 Y-25.637 Z-6.425
G1 X67.805 Y-25.749 Z-6.432
G1 X67.986 Y-25.873 Z-6.44
G1 X68.157 Y-26.011 Z-6.448
G1 X68.318 Y-26.16 Z-6.455
G1 X68.468 Y-26.321 Z-6.463
G1 X68.605 Y-26.492 Z-6.471
G1 X68.73 Y-26.673 Z-6.478
G1 X68.841 Y-26.863 Z-6.486
G1 X68.938 Y-27.06 Z-6.494
G1 X69.02 Y-27.263 Z-6.501
G1 X69.087 Y-27.472 Z-6.509
G1 X69.139 Y-27.685 Z-6.517
G1 X69.176 Y-27.902 Z-6.524
G1 X69.196 Y-28.121 Z-6.532
G1 X69.201 Y-28.34 Z-6.54
G1 X69.189 Y-28.559 Z-6.547
G1 X69.162 Y-28.777 Z-6.555
G1 X69.119 Y-28.993 Z-6.563
G1 X69.06 Y-29.204 Z-6.57
G1 X68.986 Y-29.411 Z-6.578
G1 X68.897 Y-29.612 Z-6.586
G1 X68.794 Y-29.806 Z-6.593
G1 X68.677 Y-29.991 Z-6.601
G1 X68.547 Y-30.168 Z-6.609
G1 X68.404 Y-30.335 Z-6.616
G1 X68.25 Y-30.491 Z-6.624
G1 X68.084 Y-30.636 Z-6.632
G1 X67.909 Y-30.768 Z-6.639
G1 X67.724 Y-30.886 Z-6.647
G1 X67.532 Y-30.992 Z-6.655
G1 X67.332 Y-31.082 Z-6.662
G1 X67.126 Y-31.158 Z-6.67
G1 X66.915 Y-31.219 Z-6.678
G1 X66.7 Y-31.265 Z-6.686
G1 X66.482 Y-31.294 Z-6.693
G1 X66.263 Y-31.308 Z-6.701
G1 X66.044 Y-31.306 Z-6.709
G1 X65.825 Y-31.287 Z-6.716
G1 X65.608 Y-31.253 Z-6.724
G1 X65.394 Y-31.203 Z-6.732
G1 X65.184 Y-31.138 Z-6.739
G1 X64.98 Y-31.058 Z-6.747
G1 X64.782 Y-30.963 Z-6.755
G1 X64.592 Y-30.854 Z-6.762
G1 X64.409 Y-30.731 Z-6.77
G1 X64.237 Y-30.595 Z-6.778
G1 X64.074 Y-30.447 Z-6.785
G1 X63.923 Y-30.288 Z-6.793
G1 X63.784 Y-30.118 Z-6.801
G1 X63.658 Y-29.939 Z-6.808
G1 X63.545 Y-29.751 Z-6.816
G1 X63.445 Y-29.555 Z-6.824
G1 X63.361 Y-29.352 Z-6.831
G1 X63.291 Y-29.144 Z-6.839
G1 X63.237 Y-28.931 Z-6.847
G1 X63.198 Y-28.715 Z-6.854
G1 X63.176 Y-28.497 Z-6.862
G1 X63.169 Y-28.277 Z-6.87
G1 X63.178 Y-28.058 Z-6.877
G1 X63.203 Y-27.84 Z-6.885
G1 X63.244 Y-27.624 Z-6.893
G1 X63.3 Y-27.412 Z-6.9
G1 X63.372 Y-27.204 Z-6.908
G1 X63.459 Y-27.002 Z-6.916
G1 X63.56 Y-26.807 Z-6.923
G1 X63.675 Y-26.62 Z-6.931
G1 X63.803 Y-26.442 Z-6.939
G1 X63.944 Y-26.274 Z-6.946
G1 X64.097 Y-26.116 Z-6.954
G1 X64.261 Y-25.97 Z-6.962
G1 X64.435 Y-25.836 Z-6.969
G1 X64.618 Y-25.715 Z-6.977
G1 X64.81 Y-25.608 Z-6.985
G1 X65.009 Y-25.515 Z-6.992
G1 X65.214 Y-25.437 Z-7
G1 X65.424 Y-25.374 Z-7.008
G1 X65.638 Y-25.326 Z-7.015
G1 X65.856 Y-25.294 Z-7.023
G1 X66.075 Y-25.278 Z-7.031
G1 X66.294 Z-7.038
G1 X66.513 Y-25.294 Z-7.046
G1 X66.73 Y-25.326 Z-7.054
G1 X66.945 Y-25.374 Z-7.061
G1 X67.155 Y-25.437 Z-7.069
G1 X67.36 Y-25.515 Z-7.077
G1 X67.559 Y-25.608 Z-7.084
G1 X67.751 Y-25.715 Z-7.092
G1 X67.934 Y-25.836 Z-7.1
G1 X68.108 Y-25.969 Z-7.107
G1 X68.272 Y-26.115 Z-7.115
G1 X68.425 Y-26.273 Z-7.123
G1 X68.566 Y-26.441 Z-7.13
G1 X68.695 Y-26.62 Z-7.138
G1 X68.81 Y-26.807 Z-7.146
G1 X68.911 Y-27.001 Z-7.153
G1 X68.998 Y-27.203 Z-7.161
G1 X69.069 Y-27.411 Z-7.169
G1 X69.126 Y-27.623 Z-7.176
G1 X69.167 Y-27.839 Z-7.184
G1 X69.192 Y-28.057 Z-7.192
G1 X69.201 Y-28.276 Z-7.199
G1 X69.194 Y-28.496 Z-7.207
G1 X69.172 Y-28.714 Z-7.215
G1 X69.133 Y-28.93 Z-7.222
G1 X69.079 Y-29.143 Z-7.23
G1 X69.009 Y-29.351 Z-7.238
G1 X68.925 Y-29.554 Z-7.245
G1 X68.826 Y-29.75 Z-7.253
G1 X68.713 Y-29.938 Z-7.261
G1 X68.586 Y-30.118 Z-7.268
G1 X68.447 Y-30.287 Z-7.276
G1 X68.296 Y-30.447 Z-7.284
G1 X68.134 Y-30.595 Z-7.291
G1 X67.961 Y-30.73 Z-7.299
G1 X67.779 Y-30.853 Z-7.307
G1 X67.589 Y-30.962 Z-7.314
G1 X67.391 Y-31.057 Z-7.322
G1 X67.186 Y-31.138 Z-7.33
G1 X66.977 Y-31.203 Z-7.337
G1 X66.763 Y-31.253 Z-7.345
G1 X66.546 Y-31.287 Z-7.353
G1 X66.327 Y-31.305 Z-7.36
G1 X66.108 Y-31.308 Z-7.368
G1 X65.889 Y-31.294 Z-7.376
G1 X65.671 Y-31.265 Z-7.383
G1 X65.456 Y-31.219 Z-7.391
G1 X65.245 Y-31.159 Z-7.399
G1 X65.039 Y-31.083 Z-7.406
G1 X64.839 Y-30.992 Z-7.414
G1 X64.646 Y-30.887 Z-7.422
G1 X64.462 Y-30.768 Z-7.429
G1 X64.286 Y-30.636 Z-7.437
G1 X64.121 Y-30.492 Z-7.445
G1 X63.966 Y-30.336 Z-7.452
G1 X63.823 Y-30.169 Z-7.46
G1 X63.693 Y-29.992 Z-7.468
G1 X63.576 Y-29.806 Z-7.475
G1 X63.473 Y-29.613 Z-7.483
G1 X63.384 Y-29.412 Z-7.491
G1 X63.31 Y-29.205 Z-7.498
G1 X63.251 Y-28.994 Z-7.506
G1 X63.208 Y-28.778 Z-7.514
G1 X63.181 Y-28.56 Z-7.521
G1 X63.169 Y-28.341 Z-7.529
G1 X63.174 Y-28.122 Z-7.537
G1 X63.194 Y-27.903 Z-7.544
G1 X63.23 Y-27.686 Z-7.552
G1 X63.282 Y-27.473 Z-7.56
G1 X63.349 Y-27.264 Z-7.567
G1 X63.432 Y-27.061 Z-7.575
G1 X63.529 Y-26.864 Z-7.583
G1 X63.64 Y-26.674 Z-7.59
G1 X63.764 Y-26.493 Z-7.598
G1 X63.901 Y-26.322 Z-7.606
G1 X64.051 Y-26.161 Z-7.614
G1 X64.212 Y-26.011 Z-7.621
G1 X64.383 Y-25.874 Z-7.629
G1 X64.564 Y-25.749 Z-7.637
G1 X64.753 Y-25.638 Z-7.644
G1 X64.95 Y-25.541 Z-7.652
G1 X65.153 Y-25.458 Z-7.66
G1 X65.362 Y-25.391 Z-7.667
G1 X65.575 Y-25.339 Z-7.675
G1 X65.792 Y-25.302 Z-7.683
G1 X66.011 Y-25.281 Z-7.69
G1 X66.23 Y-25.277 Z-7.698
G1 X66.449 Y-25.288 Z-7.706
G1 X66.667 Y-25.315 Z-7.713
G1 X66.883 Y-25.358 Z-7.721
G1 X67.094 Y-25.417 Z-7.729
G1 X67.301 Y-25.49 Z-7.736
G1 X67.502 Y-25.579 Z-7.744
G1 X67.696 Y-25.682 Z-7.752
G1 X67.882 Y-25.799 Z-7.759
G1 X68.059 Y-25.929 Z-7.767
G1 X68.226 Y-26.072 Z-7.775
G1 X68.382 Y-26.226 Z-7.782
G1 X68.526 Y-26.391 Z-7.79
G1 X68.658 Y-26.567 Z-7.798
G1 X68.777 Y-26.751 Z-7.805
G1 X68.883 Y-26.944 Z-7.813
G1 X68.974 Y-27.144 Z-7.821
G1 X69.05 Y-27.35 Z-7.828
G1 X69.111 Y-27.56 Z-7.836
G1 X69.156 Y-27.775 Z-7.844
G1 X69.186 Y-27.993 Z-7.851
G1 X69.2 Y-28.212 Z-7.859
G1 X69.198 Y-28.432 Z-7.867
G1 X69.18 Y-28.65 Z-7.874
G1 X69.146 Y-28.867 Z-7.882
G1 X69.096 Y-29.081 Z-7.89
G1 X69.031 Y-29.291 Z-7.897
G1 X68.951 Y-29.495 Z-7.905
G1 X68.856 Y-29.693 Z-7.913
G1 X68.747 Y-29.884 Z-7.92
G1 X68.625 Y-30.066 Z-7.928
G1 X68.489 Y-30.239 Z-7.936
G1 X68.341 Y-30.401 Z-7.943
G1 X68.182 Y-30.553 Z-7.951
G1 X68.013 Y-30.692 Z-7.959
G1 X67.833 Y-30.819 Z-7.966
G1 X67.645 Y-30.932 Z-7.974
G1 X67.449 Y-31.031 Z-7.982
G1 X67.247 Y-31.116 Z-7.989
G1 X67.038 Y-31.186 Z-7.997
G1 X66.826 Y-31.24 Z-8.005
G1 X66.61 Y-31.279 Z-8.012
G1 X66.391 Y-31.302 Z-8.02
G1 X66.172 Y-31.309 Z-8.028
G1 X65.952 Y-31.3 Z-8.035
G1 X65.734 Y-31.275 Z-8.043
G1 X65.518 Y-31.234 Z-8.051
G1 X65.306 Y-31.178 Z-8.058
G1 X65.099 Y-31.106 Z-8.066
G1 X64.897 Y-31.02 Z-8.074
G1 X64.702 Y-30.919 Z-8.081
G1 X64.515 Y-30.804 Z-8.089
G1 X64.336 Y-30.676 Z-8.097
G1 X64.168 Y-30.535 Z-8.104
G1 X64.01 Y-30.383 Z-8.112
G1 X63.864 Y-30.219 Z-8.12
G1 X63.73 Y-30.045 Z-8.127
G1 X63.609 Y-29.862 Z-8.135
G1 X63.502 Y-29.67 Z-8.143
G1 X63.408 Y-29.471 Z-8.15
G1 X63.33 Y-29.266 Z-8.158
G1 X63.267 Y-29.056 Z-8.166
G1 X63.219 Y-28.841 Z-8.173
G1 X63.187 Y-28.624 Z-8.181
G1 X63.171 Y-28.405 Z-8.189
G1 Y-28.186 Z-8.196
G1 X63.186 Y-27.967 Z-8.204
G1 X63.218 Y-27.749 Z-8.212
G1 X63.265 Y-27.535 Z-8.219
G1 X63.328 Y-27.325 Z-8.227
G1 X63.406 Y-27.119 Z-8.235
G1 X63.499 Y-26.92 Z-8.242
G1 X63.606 Y-26.729 Z-8.25
G1 X63.726 Y-26.545 Z-8.258
G1 X63.86 Y-26.371 Z-8.265
G1 X64.006 Y-26.207 Z-8.273
G1 X64.164 Y-26.054 Z-8.281
G1 X64.332 Y-25.913 Z-8.288
G1 X64.51 Y-25.784 Z-8.296
G1 X64.697 Y-25.669 Z-8.304
G1 X64.892 Y-25.568 Z-8.311
G1 X65.093 Y-25.481 Z-8.319
G1 X65.301 Y-25.409 Z-8.327
G1 X65.513 Y-25.352 Z-8.334
G1 X65.729 Y-25.311 Z-8.342
G1 X65.947 Y-25.286 Z-8.35
G1 X66.166 Y-25.276 Z-8.357
G1 X66.385 Y-25.283 Z-8.365
G1 X66.604 Y-25.306 Z-8.373
G1 X66.82 Y-25.344 Z-8.38
G1 X67.033 Y-25.398 Z-8.388
G1 X67.241 Y-25.467 Z-8.396
G1 X67.444 Y-25.552 Z-8.403
G1 X67.64 Y-25.651 Z-8.411
G1 X67.828 Y-25.763 Z-8.419
G1 X68.008 Y-25.89 Z-8.426
G1 X68.178 Y-26.029 Z-8.434
G1 X68.337 Y-26.18 Z-8.442
G1 X68.485 Y-26.342 Z-8.449
G1 X68.621 Y-26.514 Z-8.457
G1 X68.744 Y-26.696 Z-8.465
G1 X68.853 Y-26.887 Z-8.472
G1 X68.949 Y-27.085 Z-8.48
G1 X69.029 Y-27.289 Z-8.488
G1 X69.095 Y-27.498 Z-8.495
G1 X69.145 Y-27.712 Z-8.503
G1 X69.179 Y-27.929 Z-8.511
G1 X69.198 Y-28.148 Z-8.518
G1 X69.2 Y-28.367 Z-8.526
G1 X69.187 Y-28.587 Z-8.534
G1 X69.157 Y-28.804 Z-8.541
G1 X69.112 Y-29.019 Z-8.549
G1 X69.052 Y-29.23 Z-8.557
G1 X68.976 Y-29.436 Z-8.565
G1 X68.885 Y-29.636 Z-8.572
G1 X68.78 Y-29.829 Z-8.58
G1 X68.662 Y-30.014 Z-8.588
G1 X68.53 Y-30.19 Z-8.595
G1 X68.386 Y-30.355 Z-8.603
G1 X68.23 Y-30.51 Z-8.611
G1 X68.063 Y-30.653 Z-8.618
G1 X67.887 Y-30.783 Z-8.626
G1 X67.701 Y-30.9 Z-8.634
G1 X67.507 Y-31.004 Z-8.641
G1 X67.306 Y-31.093 Z-8.649
G1 X67.1 Y-31.167 Z-8.657
G1 X66.888 Y-31.226 Z-8.664
G1 X66.673 Y-31.269 Z-8.672
G1 X66.455 Y-31.297 Z-8.68
G1 X66.236 Y-31.308 Z-8.687
G1 X66.016 Y-31.304 Z-8.695
G1 X65.798 Y-31.284 Z-8.703
G1 X65.581 Y-31.248 Z-8.71
G1 X65.368 Y-31.196 Z-8.718
G1 X65.159 Y-31.129 Z-8.726
G1 X64.955 Y-31.047 Z-8.733
G1 X64.758 Y-30.95 Z-8.741
G1 X64.568 Y-30.839 Z-8.749
G1 X64.387 Y-30.715 Z-8.756
G1 X64.216 Y-30.578 Z-8.764
G1 X64.055 Y-30.428 Z-8.772
G1 X63.905 Y-30.268 Z-8.779
G1 X63.768 Y-30.097 Z-8.787
G1 X63.643 Y-29.916 Z-8.795
G1 X63.531 Y-29.727 Z-8.802
G1 X63.434 Y-29.53 Z-8.81
G1 X63.351 Y-29.326 Z-8.818
G1 X63.284 Y-29.118 Z-8.825
G1 X63.231 Y-28.904 Z-8.833
G1 X63.195 Y-28.688 Z-8.841
G1 X63.174 Y-28.469 Z-8.848
G1 X63.169 Y-28.25 Z-8.856
G1 X63.18 Y-28.03 Z-8.864
G1 X63.207 Y-27.813 Z-8.871
G1 X63.25 Y-27.597 Z-8.879
G1 X63.308 Y-27.386 Z-8.887
G1 X63.382 Y-27.179 Z-8.894
G1 X63.47 Y-26.978 Z-8.902
G1 X63.573 Y-26.784 Z-8.91
G1 X63.69 Y-26.598 Z-8.917
G1 X63.82 Y-26.421 Z-8.925
G1 X63.962 Y-26.254 Z-8.933
G1 X64.116 Y-26.097 Z-8.94
G1 X64.282 Y-25.953 Z-8.948
G1 X64.457 Y-25.82 Z-8.956
G1 X64.641 Y-25.701 Z-8.963
G1 X64.834 Y-25.596 Z-8.971
G1 X65.034 Y-25.505 Z-8.979
G1 X65.24 Y-25.428 Z-8.986
G1 X65.45 Y-25.367 Z-8.994
G1 X65.665 Y-25.321 Z-9.002
G1 X65.883 Y-25.292 Z-9.009
G1 X66.102 Y-25.277 Z-9.017
G1 X66.256 Y-25.273
G2 X66.59 Y-25.589 I0.009 J-0.324
G1 X66.598 Y-25.898
G2 X66.509 Y-26.129 I-0.324 J-0.009
G2 X66.283 Y-26.231 I-0.236 J0.223
G1 X34.686 Y-27.1
G2 X34.454 Y-27.012 I-0.009 J0.324
G2 X34.352 Y-26.785 I0.223 J0.236
G1 X34.344 Y-26.476
G2 X34.659 Y-26.143 I0.324 J0.009
G1 X66.102 Y-25.277
G3 X68.805 Y-23.81 I-0.093 J3.395
G2 X71.055 Y-23.395 I1.332 J-0.918
G2 X71.755 Y-24.683 I-0.918 J-1.332
G1 X71.882 Y-29.314
G3 X73.043 Y-31.897 I3.682 J0.101
G2 X73.057 Y-32.345 I-0.217 J-0.231
G2 X72.833 Y-32.445 I-0.231 J0.217
G2 X72.605 Y-32.356 I-0.008 J0.317
G3 X69.941 Y-31.32 I-2.562 J-2.646
G1 X31.313 Y-32.383
G3 X28.71 Y-33.564 I0.101 J-3.682
G2 X28.262 Y-33.582 I-0.233 J0.215
G2 X28.16 Y-33.359 I0.215 J0.233
G2 X28.248 Y-33.13 I0.317 J0.01
G3 X29.264 Y-30.487 I-2.665 J2.542
G1 X29.057 Y-22.936
G3 X28.065 Y-20.522 I-3.682 J-0.101
G2 X28.08 Y-20.074 I0.232 J0.217
G2 X28.512 Y-20.073 I0.217 J-0.232
G3 X31.114 Y-21.051 I2.501 J2.704
G1 X69.516 Y-19.994
G3 X72.061 Y-18.874 I-0.101 J3.682
G2 X72.509 Y-18.867 I0.228 J-0.221
G2 X72.531 Y-19.298 I-0.221 J-0.228
G3 X71.674 Y-21.763 I2.825 J-2.364
G1 X71.755 Y-24.683
G0 Z6.096
G0 X67.67 Y-310.911
G1 Z3.556 F508.
G1 X67.889 Y-310.903 Z3.548
G1 X68.108 Y-310.912 Z3.541
G1 X68.327 Y-310.936 Z3.533
G1 X68.542 Y-310.975 Z3.525
G1 X68.755 Y-311.031 Z3.518
G1 X68.962 Y-311.102 Z3.51
G1 X69.165 Y-311.187 Z3.502
G1 X69.36 Y-311.288 Z3.495
G1 X69.547 Y-311.402 Z3.487
G1 X69.726 Y-311.529 Z3.479
G1 X69.895 Y-311.669 Z3.472
G1 X70.053 Y-311.821 Z3.464
G1 X70.2 Y-311.984 Z3.456
G1 X70.335 Y-312.158 Z3.449
G1 X70.456 Y-312.34 Z3.441
G1 X70.564 Y-312.531 Z3.433
G1 X70.658 Y-312.73 Z3.426
G1 X70.737 Y-312.934 Z3.418
G1 X70.802 Y-313.144 Z3.41
G1 X70.85 Y-313.358 Z3.403
G1 X70.883 Y-313.575 Z3.395
G1 X70.9 Y-313.794 Z3.387
G1 X70.901 Y-314.014 Z3.38
G1 X70.887 Y-314.233 Z3.372
G1 X70.856 Y-314.45 Z3.364
G1 X70.809 Y-314.664 Z3.357
G1 X70.748 Y-314.875 Z3.349
G1 X70.67 Y-315.081 Z3.341
G1 X70.579 Y-315.28 Z3.334
G1 X70.473 Y-315.472 Z3.326
G1 X70.353 Y-315.656 Z3.318
G1 X70.22 Y-315.831 Z3.311
G1 X70.075 Y-315.995 Z3.303
G1 X69.918 Y-316.149 Z3.295
G1 X69.751 Y-316.291 Z3.288
G1 X69.573 Y-316.42 Z3.28
G1 X69.387 Y-316.536 Z3.272
G1 X69.193 Y-316.638 Z3.265
G1 X68.992 Y-316.726 Z3.257
G1 X68.785 Y-316.799 Z3.249
G1 X68.573 Y-316.857 Z3.242
G1 X68.358 Y-316.899 Z3.234
G1 X68.14 Y-316.925 Z3.226
G1 X67.92 Y-316.936 Z3.219
G1 X67.701 Y-316.93 Z3.211
G1 X67.483 Y-316.909 Z3.203
G1 X67.266 Y-316.871 Z3.196
G1 X67.053 Y-316.818 Z3.188
G1 X66.845 Y-316.75 Z3.18
G1 X66.642 Y-316.667 Z3.173
G1 X66.445 Y-316.569 Z3.165
G1 X66.256 Y-316.457 Z3.157
G1 X66.076 Y-316.332 Z3.15
G1 X65.905 Y-316.194 Z3.142
G1 X65.745 Y-316.044 Z3.134
G1 X65.597 Y-315.883 Z3.127
G1 X65.46 Y-315.711 Z3.119
G1 X65.336 Y-315.53 Z3.111
G1 X65.226 Y-315.34 Z3.104
G1 X65.129 Y-315.143 Z3.096
G1 X65.048 Y-314.939 Z3.088
G1 X64.981 Y-314.73 Z3.081
G1 X64.93 Y-314.516 Z3.073
G1 X64.894 Y-314.3 Z3.065
G1 X64.875 Y-314.081 Z3.058
G1 X64.871 Y-313.862 Z3.05
G1 X64.883 Y-313.643 Z3.042
G1 X64.911 Y-313.425 Z3.035
G1 X64.955 Y-313.21 Z3.027
G1 X65.014 Y-312.999 Z3.019
G1 X65.089 Y-312.792 Z3.012
G1 X65.178 Y-312.592 Z3.004
G1 X65.282 Y-312.398 Z2.996
G1 X65.4 Y-312.213 Z2.989
G1 X65.53 Y-312.037 Z2.981
G1 X65.674 Y-311.87 Z2.973
G1 X65.828 Y-311.715 Z2.966
G1 X65.994 Y-311.571 Z2.958
G1 X66.17 Y-311.44 Z2.95
G1 X66.355 Y-311.321 Z2.943
G1 X66.548 Y-311.217 Z2.935
G1 X66.748 Y-311.127 Z2.927
G1 X66.954 Y-311.051 Z2.92
G1 X67.165 Y-310.991 Z2.912
G1 X67.38 Y-310.946 Z2.904
G1 X67.598 Y-310.917 Z2.897
G1 X67.817 Y-310.904 Z2.889
G1 X68.036 Y-310.907 Z2.881
G1 X68.255 Y-310.926 Z2.874
G1 X68.471 Y-310.961 Z2.866
G1 X68.685 Y-311.011 Z2.858
G1 X68.894 Y-311.077 Z2.851
G1 X69.099 Y-311.158 Z2.843
G1 X69.296 Y-311.253 Z2.835
G1 X69.486 Y-311.363 Z2.828
G1 X69.668 Y-311.486 Z2.82
G1 X69.84 Y-311.622 Z2.812
G1 X70.002 Y-311.77 Z2.805
G1 X70.153 Y-311.929 Z2.797
G1 X70.292 Y-312.099 Z2.789
G1 X70.418 Y-312.279 Z2.782
G1 X70.53 Y-312.467 Z2.774
G1 X70.629 Y-312.664 Z2.766
G1 X70.713 Y-312.866 Z2.759
G1 X70.782 Y-313.075 Z2.751
G1 X70.836 Y-313.287 Z2.743
G1 X70.874 Y-313.503 Z2.736
G1 X70.896 Y-313.722 Z2.728
G1 X70.903 Y-313.941 Z2.72
G1 X70.893 Y-314.16 Z2.713
G1 X70.868 Y-314.378 Z2.705
G1 X70.826 Y-314.594 Z2.697
G1 X70.77 Y-314.806 Z2.69
G1 X70.698 Y-315.013 Z2.682
G1 X70.611 Y-315.215 Z2.674
G1 X70.509 Y-315.409 Z2.667
G1 X70.394 Y-315.596 Z2.659
G1 X70.265 Y-315.774 Z2.651
G1 X70.124 Y-315.942 Z2.644
G1 X69.971 Y-316.1 Z2.636
G1 X69.807 Y-316.245 Z2.628
G1 X69.633 Y-316.379 Z2.621
G1 X69.45 Y-316.499 Z2.613
G1 X69.258 Y-316.606 Z2.605
G1 X69.059 Y-316.699 Z2.598
G1 X68.854 Y-316.777 Z2.59
G1 X68.643 Y-316.839 Z2.582
G1 X68.429 Y-316.887 Z2.575
G1 X68.212 Y-316.918 Z2.567
G1 X67.993 Y-316.934 Z2.559
G1 X67.773 Z2.552
G1 X67.555 Y-316.917 Z2.544
G1 X67.337 Y-316.885 Z2.536
G1 X67.123 Y-316.838 Z2.529
G1 X66.913 Y-316.774 Z2.521
G1 X66.708 Y-316.696 Z2.513
G1 X66.509 Y-316.603 Z2.506
G1 X66.318 Y-316.496 Z2.498
G1 X66.135 Y-316.375 Z2.49
G1 X65.961 Y-316.241 Z2.483
G1 X65.797 Y-316.095 Z2.475
G1 X65.644 Y-315.937 Z2.467
G1 X65.504 Y-315.769 Z2.46
G1 X65.375 Y-315.59 Z2.452
G1 X65.261 Y-315.403 Z2.444
G1 X65.16 Y-315.208 Z2.437
G1 X65.073 Y-315.007 Z2.429
G1 X65.002 Y-314.799 Z2.421
G1 X64.945 Y-314.587 Z2.414
G1 X64.904 Y-314.372 Z2.406
G1 X64.879 Y-314.153 Z2.398
G1 X64.87 Y-313.934 Z2.391
G1 X64.877 Y-313.715 Z2.383
G1 X64.9 Y-313.497 Z2.375
G1 X64.939 Y-313.281 Z2.368
G1 X64.993 Y-313.068 Z2.36
G1 X65.063 Y-312.86 Z2.352
G1 X65.147 Y-312.657 Z2.345
G1 X65.246 Y-312.461 Z2.337
G1 X65.359 Y-312.273 Z2.329
G1 X65.486 Y-312.094 Z2.322
G1 X65.625 Y-311.924 Z2.314
G1 X65.776 Y-311.765 Z2.306
G1 X65.938 Y-311.617 Z2.299
G1 X66.111 Y-311.481 Z2.291
G1 X66.293 Y-311.359 Z2.283
G1 X66.483 Y-311.25 Z2.276
G1 X66.681 Y-311.155 Z2.268
G1 X66.885 Y-311.074 Z2.26
G1 X67.095 Y-311.009 Z2.253
G1 X67.309 Y-310.959 Z2.245
G1 X67.525 Y-310.925 Z2.237
G1 X67.744 Y-310.907 Z2.23
G1 X67.964 Y-310.904 Z2.222
G1 X68.183 Y-310.918 Z2.214
G1 X68.4 Y-310.947 Z2.207
G1 X68.615 Y-310.993 Z2.199
G1 X68.826 Y-311.053 Z2.191
G1 X69.032 Y-311.129 Z2.184
G1 X69.232 Y-311.22 Z2.176
G1 X69.424 Y-311.325 Z2.168
G1 X69.609 Y-311.444 Z2.161
G1 X69.785 Y-311.575 Z2.153
G1 X69.95 Y-311.72 Z2.145
G1 X70.105 Y-311.875 Z2.138
G1 X70.247 Y-312.042 Z2.13
G1 X70.378 Y-312.219 Z2.122
G1 X70.495 Y-312.404 Z2.115
G1 X70.598 Y-312.598 Z2.107
G1 X70.687 Y-312.799 Z2.099
G1 X70.761 Y-313.005 Z2.092
G1 X70.82 Y-313.217 Z2.084
G1 X70.863 Y-313.432 Z2.076
G1 X70.891 Y-313.65 Z2.069
G1 X70.902 Y-313.869 Z2.061
G1 X70.898 Y-314.088 Z2.053
G1 X70.878 Y-314.307 Z2.046
G1 X70.842 Y-314.523 Z2.038
G1 X70.79 Y-314.736 Z2.03
G1 X70.723 Y-314.945 Z2.023
G1 X70.641 Y-315.149 Z2.015
G1 X70.544 Y-315.346 Z2.007
G1 X70.433 Y-315.536 Z2
G1 X70.309 Y-315.716 Z1.992
G1 X70.172 Y-315.888 Z1.984
G1 X70.023 Y-316.049 Z1.977
G1 X69.862 Y-316.199 Z1.969
G1 X69.692 Y-316.336 Z1.961
G1 X69.511 Y-316.461 Z1.954
G1 X69.322 Y-316.572 Z1.946
G1 X69.125 Y-316.67 Z1.938
G1 X68.922 Y-316.753 Z1.931
G1 X68.713 Y-316.82 Z1.923
G1 X68.5 Y-316.873 Z1.915
G1 X68.284 Y-316.91 Z1.908
G1 X68.065 Y-316.931 Z1.9
G1 X67.846 Y-316.936 Z1.892
G1 X67.627 Y-316.925 Z1.885
G1 X67.409 Y-316.898 Z1.877
G1 X67.194 Y-316.855 Z1.869
G1 X66.982 Y-316.797 Z1.862
G1 X66.775 Y-316.724 Z1.854
G1 X66.574 Y-316.635 Z1.846
G1 X66.38 Y-316.533 Z1.839
G1 X66.194 Y-316.416 Z1.831
G1 X66.017 Y-316.286 Z1.823
G1 X65.85 Y-316.144 Z1.816
G1 X65.693 Y-315.99 Z1.808
G1 X65.549 Y-315.825 Z1.8
G1 X65.416 Y-315.65 Z1.793
G1 X65.297 Y-315.466 Z1.785
G1 X65.191 Y-315.274 Z1.777
G1 X65.1 Y-315.074 Z1.77
G1 X65.024 Y-314.868 Z1.762
G1 X64.962 Y-314.658 Z1.754
G1 X64.916 Y-314.443 Z1.747
G1 X64.886 Y-314.226 Z1.739
G1 X64.872 Y-314.007 Z1.731
G1 X64.873 Y-313.787 Z1.724
G1 X64.891 Y-313.568 Z1.716
G1 X64.924 Y-313.352 Z1.708
G1 X64.974 Y-313.138 Z1.701
G1 X65.038 Y-312.928 Z1.693
G1 X65.118 Y-312.723 Z1.685
G1 X65.212 Y-312.525 Z1.678
G1 X65.321 Y-312.334 Z1.67
G1 X65.443 Y-312.152 Z1.662
G1 X65.578 Y-311.979 Z1.655
G1 X65.725 Y-311.816 Z1.647
G1 X65.884 Y-311.665 Z1.64
G1 X66.053 Y-311.525 Z1.632
G1 X66.232 Y-311.398 Z1.624
G1 X66.42 Y-311.284 Z1.617
G1 X66.615 Y-311.184 Z1.609
G1 X66.817 Y-311.099 Z1.601
G1 X67.025 Y-311.029 Z1.594
G1 X67.238 Y-310.974 Z1.586
G1 X67.454 Y-310.935 Z1.578
G1 X67.672 Y-310.911 Z1.571
G1 X67.891 Y-310.903 Z1.563
G1 X68.11 Y-310.912 Z1.555
G1 X68.329 Y-310.936 Z1.548
G1 X68.544 Y-310.976 Z1.54
G1 X68.757 Y-311.032 Z1.532
G1 X68.964 Y-311.102 Z1.525
G1 X69.166 Y-311.188 Z1.517
G1 X69.362 Y-311.289 Z1.509
G1 X69.549 Y-311.403 Z1.502
G1 X69.728 Y-311.53 Z1.494
G1 X69.897 Y-311.671 Z1.486
G1 X70.055 Y-311.823 Z1.479
G1 X70.201 Y-311.986 Z1.471
G1 X70.336 Y-312.159 Z1.463
G1 X70.457 Y-312.342 Z1.456
G1 X70.565 Y-312.533 Z1.448
G1 X70.659 Y-312.732 Z1.44
G1 X70.738 Y-312.936 Z1.433
G1 X70.802 Y-313.146 Z1.425
G1 X70.851 Y-313.36 Z1.417
G1 X70.883 Y-313.577 Z1.41
G1 X70.9 Y-313.796 Z1.402
G1 X70.901 Y-314.016 Z1.394
G1 X70.886 Y-314.235 Z1.387
G1 X70.856 Y-314.452 Z1.379
G1 X70.809 Y-314.667 Z1.371
G1 X70.747 Y-314.877 Z1.364
G1 X70.67 Y-315.082 Z1.356
G1 X70.578 Y-315.282 Z1.348
G1 X70.472 Y-315.474 Z1.341
G1 X70.352 Y-315.658 Z1.333
G1 X70.219 Y-315.832 Z1.325
G1 X70.074 Y-315.997 Z1.318
G1 X69.917 Y-316.15 Z1.31
G1 X69.749 Y-316.292 Z1.302
G1 X69.572 Y-316.421 Z1.295
G1 X69.385 Y-316.537 Z1.287
G1 X69.191 Y-316.639 Z1.279
G1 X68.99 Y-316.727 Z1.272
G1 X68.783 Y-316.8 Z1.264
G1 X68.571 Y-316.857 Z1.256
G1 X68.355 Y-316.899 Z1.249
G1 X68.138 Y-316.925 Z1.241
G1 X67.918 Y-316.936 Z1.233
G1 X67.699 Y-316.93 Z1.226
G1 X67.48 Y-316.908 Z1.218
G1 X67.264 Y-316.871 Z1.21
G1 X67.051 Y-316.818 Z1.203
G1 X66.843 Y-316.749 Z1.195
G1 X66.64 Y-316.666 Z1.187
G1 X66.443 Y-316.568 Z1.18
G1 X66.255 Y-316.456 Z1.172
G1 X66.074 Y-316.331 Z1.164
G1 X65.904 Y-316.193 Z1.157
G1 X65.744 Y-316.042 Z1.149
G1 X65.595 Y-315.881 Z1.141
G1 X65.459 Y-315.709 Z1.134
G1 X65.335 Y-315.528 Z1.126
G1 X65.225 Y-315.338 Z1.118
G1 X65.129 Y-315.141 Z1.111
G1 X65.047 Y-314.937 Z1.103
G1 X64.981 Y-314.728 Z1.095
G1 X64.93 Y-314.514 Z1.088
G1 X64.894 Y-314.298 Z1.08
G1 X64.875 Y-314.079 Z1.072
G1 X64.871 Y-313.86 Z1.065
G1 X64.883 Y-313.641 Z1.057
G1 X64.912 Y-313.423 Z1.049
G1 X64.956 Y-313.208 Z1.042
G1 X65.015 Y-312.997 Z1.034
G1 X65.09 Y-312.79 Z1.026
G1 X65.179 Y-312.59 Z1.019
G1 X65.283 Y-312.396 Z1.011
G1 X65.401 Y-312.211 Z1.003
G1 X65.532 Y-312.035 Z0.996
G1 X65.675 Y-311.869 Z0.988
G1 X65.83 Y-311.713 Z0.98
G1 X65.996 Y-311.57 Z0.973
G1 X66.172 Y-311.438 Z0.965
G1 X66.357 Y-311.32 Z0.957
G1 X66.55 Y-311.216 Z0.95
G1 X66.75 Y-311.126 Z0.942
G1 X66.956 Y-311.05 Z0.934
G1 X67.167 Y-310.99 Z0.927
G1 X67.382 Y-310.946 Z0.919
G1 X67.6 Y-310.917 Z0.911
G1 X67.819 Y-310.904 Z0.904
G1 X68.038 Y-310.907 Z0.896
G1 X68.257 Y-310.926 Z0.888
G1 X68.474 Y-310.961 Z0.881
G1 X68.687 Y-311.011 Z0.873
G1 X68.896 Y-311.077 Z0.865
G1 X69.1 Y-311.158 Z0.858
G1 X69.298 Y-311.254 Z0.85
G1 X69.488 Y-311.364 Z0.842
G1 X69.67 Y-311.487 Z0.835
G1 X69.842 Y-311.623 Z0.827
G1 X70.004 Y-311.771 Z0.819
G1 X70.154 Y-311.931 Z0.812
G1 X70.293 Y-312.101 Z0.804
G1 X70.419 Y-312.281 Z0.796
G1 X70.531 Y-312.469 Z0.789
G1 X70.63 Y-312.665 Z0.781
G1 X70.714 Y-312.868 Z0.773
G1 X70.783 Y-313.077 Z0.766
G1 X70.836 Y-313.289 Z0.758
G1 X70.874 Y-313.506 Z0.75
G1 X70.897 Y-313.724 Z0.743
G1 X70.903 Y-313.943 Z0.735
G1 X70.893 Y-314.163 Z0.727
G1 X70.867 Y-314.381 Z0.72
G1 X70.826 Y-314.596 Z0.712
G1 X70.769 Y-314.808 Z0.704
G1 X70.697 Y-315.015 Z0.697
G1 X70.61 Y-315.217 Z0.689
G1 X70.508 Y-315.411 Z0.681
G1 X70.393 Y-315.598 Z0.674
G1 X70.264 Y-315.776 Z0.666
G1 X70.123 Y-315.944 Z0.658
G1 X69.97 Y-316.101 Z0.651
G1 X69.806 Y-316.247 Z0.643
G1 X69.631 Y-316.38 Z0.635
G1 X69.448 Y-316.5 Z0.628
G1 X69.256 Y-316.607 Z0.62
G1 X69.057 Y-316.7 Z0.612
G1 X68.852 Y-316.777 Z0.605
G1 X68.641 Y-316.84 Z0.597
G1 X68.427 Y-316.887 Z0.589
G1 X68.21 Y-316.918 Z0.582
G1 X67.991 Y-316.934 Z0.574
G1 X67.771 Z0.566
G1 X67.552 Y-316.917 Z0.559
G1 X67.335 Y-316.885 Z0.551
G1 X67.121 Y-316.837 Z0.543
G1 X66.911 Y-316.774 Z0.536
G1 X66.706 Y-316.695 Z0.528
G1 X66.507 Y-316.602 Z0.52
G1 X66.316 Y-316.495 Z0.513
G1 X66.133 Y-316.374 Z0.505
G1 X65.959 Y-316.24 Z0.497
G1 X65.795 Y-316.093 Z0.49
G1 X65.643 Y-315.935 Z0.482
G1 X65.502 Y-315.767 Z0.474
G1 X65.374 Y-315.589 Z0.467
G1 X65.26 Y-315.402 Z0.459
G1 X65.159 Y-315.207 Z0.451
G1 X65.072 Y-315.005 Z0.444
G1 X65.001 Y-314.797 Z0.436
G1 X64.945 Y-314.585 Z0.428
G1 X64.904 Y-314.369 Z0.421
G1 X64.879 Y-314.151 Z0.413
G1 X64.87 Y-313.932 Z0.405
G1 X64.877 Y-313.713 Z0.398
G1 X64.9 Y-313.494 Z0.39
G1 X64.939 Y-313.278 Z0.382
G1 X64.994 Y-313.066 Z0.375
G1 X65.063 Y-312.858 Z0.367
G1 X65.148 Y-312.655 Z0.359
G1 X65.247 Y-312.459 Z0.352
G1 X65.361 Y-312.271 Z0.344
G1 X65.487 Y-312.092 Z0.336
G1 X65.626 Y-311.922 Z0.329
G1 X65.778 Y-311.763 Z0.321
G1 X65.94 Y-311.616 Z0.313
G1 X66.113 Y-311.48 Z0.306
G1 X66.295 Y-311.358 Z0.298
G1 X66.485 Y-311.249 Z0.29
G1 X66.683 Y-311.154 Z0.283
G1 X66.887 Y-311.074 Z0.275
G1 X67.097 Y-311.009 Z0.267
G1 X67.311 Y-310.959 Z0.26
G1 X67.528 Y-310.925 Z0.252
G1 X67.746 Y-310.907 Z0.244
G1 X67.966 Y-310.904 Z0.237
G1 X68.185 Y-310.918 Z0.229
G1 X68.402 Y-310.948 Z0.221
G1 X68.617 Y-310.993 Z0.214
G1 X68.828 Y-311.054 Z0.206
G1 X69.034 Y-311.13 Z0.198
G1 X69.234 Y-311.221 Z0.191
G1 X69.426 Y-311.326 Z0.183
G1 X69.611 Y-311.445 Z0.175
G1 X69.786 Y-311.577 Z0.168
G1 X69.952 Y-311.721 Z0.16
G1 X70.106 Y-311.877 Z0.152
G1 X70.249 Y-312.044 Z0.145
G1 X70.379 Y-312.22 Z0.137
G1 X70.496 Y-312.406 Z0.129
G1 X70.599 Y-312.6 Z0.122
G1 X70.688 Y-312.801 Z0.114
G1 X70.762 Y-313.007 Z0.106
G1 X70.82 Y-313.219 Z0.099
G1 X70.864 Y-313.434 Z0.091
G1 X70.891 Y-313.652 Z0.083
G1 X70.902 Y-313.871 Z0.076
G1 X70.898 Y-314.09 Z0.068
G1 X70.878 Y-314.309 Z0.06
G1 X70.841 Y-314.525 Z0.053
G1 X70.79 Y-314.739 Z0.045
G1 X70.722 Y-314.947 Z0.037
G1 X70.64 Y-315.151 Z0.03
G1 X70.543 Y-315.348 Z0.022
G1 X70.432 Y-315.537 Z0.014
G1 X70.308 Y-315.718 Z0.007
G1 X70.171 Y-315.889 Z-0.001
G1 X70.022 Y-316.05 Z-0.009
G1 X69.861 Y-316.2 Z-0.016
G1 X69.69 Y-316.337 Z-0.024
G1 X69.509 Y-316.462 Z-0.032
G1 X69.32 Y-316.573 Z-0.039
G1 X69.123 Y-316.671 Z-0.047
G1 X68.92 Y-316.753 Z-0.055
G1 X68.711 Y-316.821 Z-0.062
G1 X68.498 Y-316.873 Z-0.07
G1 X68.282 Y-316.91 Z-0.078
G1 X68.063 Y-316.931 Z-0.085
G1 X67.844 Y-316.936 Z-0.093
G1 X67.625 Y-316.924 Z-0.101
G1 X67.407 Y-316.897 Z-0.108
G1 X67.191 Y-316.855 Z-0.116
G1 X66.98 Y-316.796 Z-0.124
G1 X66.773 Y-316.723 Z-0.131
G1 X66.572 Y-316.634 Z-0.139
G1 X66.378 Y-316.532 Z-0.147
G1 X66.192 Y-316.415 Z-0.154
G1 X66.015 Y-316.285 Z-0.162
G1 X65.848 Y-316.143 Z-0.17
G1 X65.692 Y-315.989 Z-0.177
G1 X65.547 Y-315.824 Z-0.185
G1 X65.415 Y-315.649 Z-0.193
G1 X65.296 Y-315.464 Z-0.2
G1 X65.19 Y-315.272 Z-0.208
G1 X65.099 Y-315.072 Z-0.216
G1 X65.023 Y-314.866 Z-0.223
G1 X64.962 Y-314.656 Z-0.231
G1 X64.916 Y-314.441 Z-0.239
G1 X64.886 Y-314.224 Z-0.246
G1 X64.872 Y-314.005 Z-0.254
G1 X64.873 Y-313.785 Z-0.262
G1 X64.891 Y-313.566 Z-0.269
G1 X64.925 Y-313.349 Z-0.277
G1 X64.974 Y-313.136 Z-0.285
G1 X65.039 Y-312.926 Z-0.292
G1 X65.119 Y-312.721 Z-0.3
G1 X65.213 Y-312.523 Z-0.308
G1 X65.322 Y-312.333 Z-0.315
G1 X65.444 Y-312.15 Z-0.323
G1 X65.579 Y-311.977 Z-0.331
G1 X65.726 Y-311.815 Z-0.338
G1 X65.885 Y-311.663 Z-0.346
G1 X66.054 Y-311.524 Z-0.354
G1 X66.234 Y-311.397 Z-0.361
G1 X66.421 Y-311.283 Z-0.369
G1 X66.617 Y-311.184 Z-0.377
G1 X66.819 Y-311.098 Z-0.384
G1 X67.027 Y-311.028 Z-0.392
G1 X67.24 Y-310.974 Z-0.4
G1 X67.456 Y-310.934 Z-0.407
G1 X67.674 Y-310.911 Z-0.415
G1 X67.893 Y-310.903 Z-0.423
G1 X68.113 Y-310.912 Z-0.43
G1 X68.331 Y-310.936 Z-0.438
G1 X68.546 Y-310.976 Z-0.446
G1 X68.759 Y-311.032 Z-0.453
G1 X68.966 Y-311.103 Z-0.461
G1 X69.168 Y-311.189 Z-0.469
G1 X69.363 Y-311.29 Z-0.476
G1 X69.551 Y-311.404 Z-0.484
G1 X69.729 Y-311.532 Z-0.492
G1 X69.898 Y-311.672 Z-0.499
G1 X70.056 Y-311.824 Z-0.507
G1 X70.203 Y-311.988 Z-0.515
G1 X70.337 Y-312.161 Z-0.522
G1 X70.459 Y-312.344 Z-0.53
G1 X70.566 Y-312.535 Z-0.538
G1 X70.66 Y-312.734 Z-0.545
G1 X70.739 Y-312.938 Z-0.553
G1 X70.803 Y-313.148 Z-0.561
G1 X70.851 Y-313.363 Z-0.568
G1 X70.884 Y-313.58 Z-0.576
G1 X70.9 Y-313.798 Z-0.584
G1 X70.901 Y-314.018 Z-0.591
G1 X70.886 Y-314.237 Z-0.599
G1 X70.855 Y-314.454 Z-0.607
G1 X70.808 Y-314.669 Z-0.614
G1 X70.746 Y-314.879 Z-0.622
G1 X70.669 Y-315.084 Z-0.63
G1 X70.577 Y-315.284 Z-0.637
G1 X70.47 Y-315.476 Z-0.645
G1 X70.351 Y-315.659 Z-0.653
G1 X70.217 Y-315.834 Z-0.66
G1 X70.072 Y-315.998 Z-0.668
G1 X69.915 Y-316.152 Z-0.676
G1 X69.747 Y-316.293 Z-0.683
G1 X69.57 Y-316.422 Z-0.691
G1 X69.383 Y-316.538 Z-0.699
G1 X69.189 Y-316.64 Z-0.706
G1 X68.988 Y-316.728 Z-0.714
G1 X68.781 Y-316.8 Z-0.722
G1 X68.569 Y-316.858 Z-0.729
G1 X68.353 Y-316.9 Z-0.737
G1 X68.135 Y-316.926 Z-0.745
G1 X67.916 Y-316.936 Z-0.752
G1 X67.697 Y-316.93 Z-0.76
G1 X67.478 Y-316.908 Z-0.768
G1 X67.262 Y-316.87 Z-0.775
G1 X67.049 Y-316.817 Z-0.783
G1 X66.841 Y-316.749 Z-0.791
G1 X66.638 Y-316.665 Z-0.798
G1 X66.441 Y-316.567 Z-0.806
G1 X66.253 Y-316.455 Z-0.814
G1 X66.073 Y-316.329 Z-0.821
G1 X65.902 Y-316.191 Z-0.829
G1 X65.742 Y-316.041 Z-0.837
G1 X65.594 Y-315.879 Z-0.844
G1 X65.457 Y-315.707 Z-0.852
G1 X65.334 Y-315.526 Z-0.86
G1 X65.224 Y-315.336 Z-0.867
G1 X65.128 Y-315.139 Z-0.875
G1 X65.046 Y-314.935 Z-0.883
G1 X64.98 Y-314.726 Z-0.89
G1 X64.929 Y-314.512 Z-0.898
G1 X64.894 Y-314.296 Z-0.906
G1 X64.874 Y-314.077 Z-0.913
G1 X64.871 Y-313.858 Z-0.921
G1 X64.884 Y-313.638 Z-0.929
G1 X64.912 Y-313.421 Z-0.936
G1 X64.956 Y-313.206 Z-0.944
G1 X65.016 Y-312.995 Z-0.952
G1 X65.091 Y-312.788 Z-0.959
G1 X65.18 Y-312.588 Z-0.967
G1 X65.284 Y-312.395 Z-0.975
G1 X65.402 Y-312.209 Z-0.982
G1 X65.533 Y-312.033 Z-0.99
G1 X65.676 Y-311.867 Z-0.998
G1 X65.831 Y-311.712 Z-1.005
G1 X65.997 Y-311.568 Z-1.013
G1 X66.173 Y-311.437 Z-1.021
G1 X66.358 Y-311.319 Z-1.028
G1 X66.552 Y-311.215 Z-1.036
G1 X66.752 Y-311.125 Z-1.044
G1 X66.958 Y-311.05 Z-1.051
G1 X67.169 Y-310.99 Z-1.059
G1 X67.384 Y-310.945 Z-1.067
G1 X67.602 Y-310.917 Z-1.074
G1 X67.821 Y-310.904 Z-1.082
G1 X68.04 Y-310.907 Z-1.09
G1 X68.259 Y-310.926 Z-1.097
G1 X68.476 Y-310.961 Z-1.105
G1 X68.689 Y-311.012 Z-1.113
G1 X68.898 Y-311.078 Z-1.12
G1 X69.102 Y-311.159 Z-1.128
G1 X69.3 Y-311.255 Z-1.136
G1 X69.49 Y-311.365 Z-1.143
G1 X69.671 Y-311.488 Z-1.151
G1 X69.844 Y-311.624 Z-1.159
G1 X70.005 Y-311.773 Z-1.166
G1 X70.156 Y-311.932 Z-1.174
G1 X70.294 Y-312.103 Z-1.182
G1 X70.42 Y-312.283 Z-1.189
G1 X70.532 Y-312.471 Z-1.197
G1 X70.631 Y-312.667 Z-1.205
G1 X70.714 Y-312.87 Z-1.212
G1 X70.783 Y-313.079 Z-1.22
G1 X70.837 Y-313.291 Z-1.228
G1 X70.875 Y-313.508 Z-1.235
G1 X70.897 Y-313.726 Z-1.243
G1 X70.903 Y-313.945 Z-1.251
G1 X70.893 Y-314.165 Z-1.258
G1 X70.867 Y-314.383 Z-1.266
G1 X70.826 Y-314.598 Z-1.274
G1 X70.768 Y-314.81 Z-1.281
G1 X70.696 Y-315.017 Z-1.289
G1 X70.609 Y-315.219 Z-1.297
G1 X70.507 Y-315.413 Z-1.304
G1 X70.392 Y-315.6 Z-1.312
G1 X70.263 Y-315.777 Z-1.32
G1 X70.121 Y-315.945 Z-1.327
G1 X69.968 Y-316.102 Z-1.335
G1 X69.804 Y-316.248 Z-1.343
G1 X69.63 Y-316.381 Z-1.35
G1 X69.446 Y-316.502 Z-1.358
G1 X69.254 Y-316.608 Z-1.366
G1 X69.055 Y-316.7 Z-1.373
G1 X68.85 Y-316.778 Z-1.381
G1 X68.639 Y-316.84 Z-1.389
G1 X68.425 Y-316.887 Z-1.396
G1 X68.208 Y-316.919 Z-1.404
G1 X67.989 Y-316.934 Z-1.412
G1 X67.769 Z-1.419
G1 X67.55 Y-316.917 Z-1.427
G1 X67.333 Y-316.885 Z-1.435
G1 X67.119 Y-316.837 Z-1.442
G1 X66.909 Y-316.773 Z-1.45
G1 X66.704 Y-316.694 Z-1.458
G1 X66.505 Y-316.601 Z-1.465
G1 X66.314 Y-316.494 Z-1.473
G1 X66.131 Y-316.372 Z-1.481
G1 X65.957 Y-316.238 Z-1.488
G1 X65.794 Y-316.092 Z-1.496
G1 X65.642 Y-315.934 Z-1.504
G1 X65.501 Y-315.765 Z-1.511
G1 X65.373 Y-315.587 Z-1.519
G1 X65.259 Y-315.4 Z-1.527
G1 X65.158 Y-315.205 Z-1.534
G1 X65.072 Y-315.003 Z-1.542
G1 X65 Y-314.795 Z-1.55
G1 X64.944 Y-314.583 Z-1.557
G1 X64.904 Y-314.367 Z-1.565
G1 X64.879 Y-314.149 Z-1.573
G1 X64.87 Y-313.93 Z-1.58
G1 X64.878 Y-313.711 Z-1.588
G1 X64.901 Y-313.492 Z-1.596
G1 X64.94 Y-313.276 Z-1.603
G1 X64.994 Y-313.064 Z-1.611
G1 X65.064 Y-312.856 Z-1.619
G1 X65.149 Y-312.653 Z-1.626
G1 X65.248 Y-312.458 Z-1.634
G1 X65.362 Y-312.27 Z-1.642
G1 X65.488 Y-312.09 Z-1.649
G1 X65.628 Y-311.921 Z-1.657
G1 X65.779 Y-311.762 Z-1.665
G1 X65.941 Y-311.614 Z-1.672
G1 X66.114 Y-311.479 Z-1.68
G1 X66.296 Y-311.357 Z-1.688
G1 X66.487 Y-311.248 Z-1.695
G1 X66.685 Y-311.153 Z-1.703
G1 X66.889 Y-311.073 Z-1.711
G1 X67.099 Y-311.008 Z-1.718
G1 X67.313 Y-310.958 Z-1.726
G1 X67.53 Y-310.925 Z-1.734
G1 X67.748 Y-310.906 Z-1.741
G1 X67.968 Y-310.904 Z-1.749
G1 X68.187 Y-310.918 Z-1.757
G1 X68.404 Y-310.948 Z-1.764
G1 X68.619 Y-310.994 Z-1.772
G1 X68.83 Y-311.055 Z-1.78
G1 X69.036 Y-311.131 Z-1.787
G1 X69.235 Y-311.222 Z-1.795
G1 X69.428 Y-311.327 Z-1.803
G1 X69.613 Y-311.446 Z-1.81
G1 X69.788 Y-311.578 Z-1.818
G1 X69.953 Y-311.722 Z-1.826
G1 X70.107 Y-311.878 Z-1.833
G1 X70.25 Y-312.045 Z-1.841
G1 X70.38 Y-312.222 Z-1.849
G1 X70.497 Y-312.408 Z-1.856
G1 X70.6 Y-312.602 Z-1.864
G1 X70.688 Y-312.803 Z-1.872
G1 X70.762 Y-313.009 Z-1.879
G1 X70.821 Y-313.221 Z-1.887
G1 X70.864 Y-313.436 Z-1.895
G1 X70.891 Y-313.654 Z-1.902
G1 X70.903 Y-313.873 Z-1.91
G1 X70.898 Y-314.092 Z-1.918
G1 X70.877 Y-314.311 Z-1.925
G1 X70.841 Y-314.527 Z-1.933
G1 X70.789 Y-314.741 Z-1.941
G1 X70.722 Y-314.949 Z-1.948
G1 X70.639 Y-315.153 Z-1.956
G1 X70.542 Y-315.35 Z-1.964
G1 X70.431 Y-315.539 Z-1.971
G1 X70.307 Y-315.72 Z-1.979
G1 X70.169 Y-315.891 Z-1.987
G1 X70.02 Y-316.052 Z-1.994
G1 X69.859 Y-316.201 Z-2.002
G1 X69.688 Y-316.339 Z-2.01
G1 X69.508 Y-316.463 Z-2.017
G1 X69.318 Y-316.574 Z-2.025
G1 X69.121 Y-316.672 Z-2.033
G1 X68.918 Y-316.754 Z-2.04
G1 X68.709 Y-316.822 Z-2.048
G1 X68.496 Y-316.874 Z-2.056
G1 X68.28 Y-316.91 Z-2.063
G1 X68.061 Y-316.931 Z-2.071
G1 X67.842 Y-316.936 Z-2.079
G1 X67.622 Y-316.924 Z-2.086
G1 X67.405 Y-316.897 Z-2.094
G1 X67.189 Y-316.854 Z-2.102
G1 X66.978 Y-316.796 Z-2.109
G1 X66.771 Y-316.722 Z-2.117
G1 X66.57 Y-316.633 Z-2.125
G1 X66.376 Y-316.531 Z-2.132
G1 X66.191 Y-316.414 Z-2.14
G1 X66.014 Y-316.284 Z-2.148
G1 X65.847 Y-316.141 Z-2.155
G1 X65.691 Y-315.987 Z-2.163
G1 X65.546 Y-315.822 Z-2.17
G1 X65.414 Y-315.647 Z-2.178
G1 X65.295 Y-315.462 Z-2.186
G1 X65.189 Y-315.27 Z-2.193
G1 X65.098 Y-315.07 Z-2.201
G1 X65.022 Y-314.864 Z-2.209
G1 X64.961 Y-314.654 Z-2.216
G1 X64.915 Y-314.439 Z-2.224
G1 X64.886 Y-314.221 Z-2.232
G1 X64.872 Y-314.002 Z-2.239
G1 X64.873 Y-313.783 Z-2.247
G1 X64.891 Y-313.564 Z-2.255
G1 X64.925 Y-313.347 Z-2.262
G1 X64.975 Y-313.134 Z-2.27
G1 X65.039 Y-312.924 Z-2.278
G1 X65.119 Y-312.719 Z-2.285
G1 X65.214 Y-312.521 Z-2.293
G1 X65.323 Y-312.331 Z-2.301
G1 X65.445 Y-312.149 Z-2.308
G1 X65.58 Y-311.976 Z-2.316
G1 X65.728 Y-311.813 Z-2.324
G1 X65.887 Y-311.662 Z-2.331
G1 X66.056 Y-311.522 Z-2.339
G1 X66.235 Y-311.396 Z-2.347
G1 X66.423 Y-311.282 Z-2.354
G1 X66.619 Y-311.183 Z-2.362
G1 X66.821 Y-311.098 Z-2.37
G1 X67.029 Y-311.028 Z-2.377
G1 X67.242 Y-310.973 Z-2.385
G1 X67.458 Y-310.934 Z-2.393
G1 X67.676 Y-310.911 Z-2.4
G1 X67.895 Y-310.903 Z-2.408
G1 X68.115 Y-310.912 Z-2.416
G1 X68.333 Y-310.937 Z-2.423
G1 X68.549 Y-310.977 Z-2.431
G1 X68.761 Y-311.033 Z-2.439
G1 X68.968 Y-311.104 Z-2.446
G1 X69.17 Y-311.19 Z-2.454
G1 X69.365 Y-311.291 Z-2.462
G1 X69.553 Y-311.405 Z-2.469
G1 X69.731 Y-311.533 Z-2.477
G1 X69.9 Y-311.673 Z-2.485
G1 X70.058 Y-311.826 Z-2.492
G1 X70.204 Y-311.989 Z-2.5
G1 X70.338 Y-312.163 Z-2.508
G1 X70.46 Y-312.346 Z-2.515
G1 X70.567 Y-312.537 Z-2.523
G1 X70.661 Y-312.736 Z-2.531
G1 X70.74 Y-312.94 Z-2.538
G1 X70.803 Y-313.15 Z-2.546
G1 X70.851 Y-313.365 Z-2.554
G1 X70.884 Y-313.582 Z-2.561
G1 X70.901 Y-313.8 Z-2.569
G1 Y-314.02 Z-2.577
G1 X70.886 Y-314.239 Z-2.584
G1 X70.855 Y-314.456 Z-2.592
G1 X70.808 Y-314.671 Z-2.6
G1 X70.746 Y-314.881 Z-2.607
G1 X70.668 Y-315.086 Z-2.615
G1 X70.576 Y-315.286 Z-2.623
G1 X70.469 Y-315.477 Z-2.63
G1 X70.349 Y-315.661 Z-2.638
G1 X70.216 Y-315.836 Z-2.646
G1 X70.071 Y-316 Z-2.653
G1 X69.914 Y-316.153 Z-2.661
G1 X69.746 Y-316.295 Z-2.669
G1 X69.568 Y-316.424 Z-2.676
G1 X69.382 Y-316.539 Z-2.684
G1 X69.187 Y-316.641 Z-2.692
G1 X68.986 Y-316.728 Z-2.699
G1 X68.779 Y-316.801 Z-2.707
G1 X68.567 Y-316.858 Z-2.715
G1 X68.351 Y-316.9 Z-2.722
G1 X68.133 Y-316.926 Z-2.73
G1 X67.914 Y-316.936 Z-2.738
G1 X67.695 Y-316.93 Z-2.745
G1 X67.476 Y-316.908 Z-2.753
G1 X67.26 Y-316.87 Z-2.761
G1 X67.047 Y-316.817 Z-2.768
G1 X66.839 Y-316.748 Z-2.776
G1 X66.636 Y-316.664 Z-2.784
G1 X66.44 Y-316.566 Z-2.791
G1 X66.251 Y-316.454 Z-2.799
G1 X66.071 Y-316.328 Z-2.807
G1 X65.901 Y-316.19 Z-2.814
G1 X65.741 Y-316.039 Z-2.822
G1 X65.592 Y-315.878 Z-2.83
G1 X65.456 Y-315.706 Z-2.837
G1 X65.333 Y-315.524 Z-2.845
G1 X65.223 Y-315.334 Z-2.853
G1 X65.127 Y-315.137 Z-2.86
G1 X65.046 Y-314.933 Z-2.868
G1 X64.98 Y-314.724 Z-2.876
G1 X64.929 Y-314.51 Z-2.883
G1 X64.894 Y-314.294 Z-2.891
G1 X64.874 Y-314.075 Z-2.899
G1 X64.871 Y-313.855 Z-2.906
G1 X64.884 Y-313.636 Z-2.914
G1 X64.912 Y-313.419 Z-2.922
G1 X64.957 Y-313.204 Z-2.929
G1 X65.016 Y-312.993 Z-2.937
G1 X65.091 Y-312.786 Z-2.945
G1 X65.181 Y-312.586 Z-2.952
G1 X65.285 Y-312.393 Z-2.96
G1 X65.403 Y-312.208 Z-2.968
G1 X65.534 Y-312.032 Z-2.975
G1 X65.678 Y-311.866 Z-2.983
G1 X65.833 Y-311.71 Z-2.991
G1 X65.999 Y-311.567 Z-2.998
G1 X66.175 Y-311.436 Z-3.006
G1 X66.36 Y-311.318 Z-3.014
G1 X66.553 Y-311.214 Z-3.021
G1 X66.754 Y-311.124 Z-3.029
G1 X66.96 Y-311.049 Z-3.037
G1 X67.171 Y-310.989 Z-3.044
G1 X67.386 Y-310.945 Z-3.052
G1 X67.604 Y-310.917 Z-3.06
G1 X67.823 Y-310.904 Z-3.067
G1 X68.042 Y-310.907 Z-3.075
G1 X68.261 Y-310.927 Z-3.083
G1 X68.478 Y-310.962 Z-3.09
G1 X68.691 Y-311.013 Z-3.098
G1 X68.9 Y-311.079 Z-3.106
G1 X69.104 Y-311.16 Z-3.113
G1 X69.302 Y-311.256 Z-3.121
G1 X69.492 Y-311.366 Z-3.129
G1 X69.673 Y-311.489 Z-3.136
G1 X69.845 Y-311.626 Z-3.144
G1 X70.007 Y-311.774 Z-3.152
G1 X70.157 Y-311.934 Z-3.159
G1 X70.296 Y-312.104 Z-3.167
G1 X70.421 Y-312.284 Z-3.175
G1 X70.533 Y-312.473 Z-3.182
G1 X70.632 Y-312.669 Z-3.19
G1 X70.715 Y-312.872 Z-3.198
G1 X70.784 Y-313.081 Z-3.205
G1 X70.837 Y-313.294 Z-3.213
G1 X70.875 Y-313.51 Z-3.221
G1 X70.897 Y-313.728 Z-3.228
G1 X70.903 Y-313.948 Z-3.236
G1 X70.893 Y-314.167 Z-3.244
G1 X70.867 Y-314.385 Z-3.251
G1 X70.825 Y-314.6 Z-3.259
G1 X70.768 Y-314.812 Z-3.267
G1 X70.695 Y-315.019 Z-3.274
G1 X70.608 Y-315.221 Z-3.282
G1 X70.506 Y-315.415 Z-3.29
G1 X70.39 Y-315.601 Z-3.297
G1 X70.261 Y-315.779 Z-3.305
G1 X70.12 Y-315.947 Z-3.313
G1 X69.967 Y-316.104 Z-3.32
G1 X69.802 Y-316.249 Z-3.328
G1 X69.628 Y-316.383 Z-3.336
G1 X69.444 Y-316.503 Z-3.343
G1 X69.252 Y-316.609 Z-3.351
G1 X69.053 Y-316.701 Z-3.359
G1 X68.848 Y-316.779 Z-3.366
G1 X68.637 Y-316.841 Z-3.374
G1 X68.423 Y-316.888 Z-3.382
G1 X68.206 Y-316.919 Z-3.389
G1 X67.987 Y-316.934 Z-3.397
G1 X67.767 Y-316.933 Z-3.405
G1 X67.548 Y-316.917 Z-3.412
G1 X67.331 Y-316.884 Z-3.42
G1 X67.117 Y-316.836 Z-3.428
G1 X66.907 Y-316.772 Z-3.435
G1 X66.702 Y-316.694 Z-3.443
G1 X66.504 Y-316.6 Z-3.451
G1 X66.312 Y-316.492 Z-3.458
G1 X66.129 Y-316.371 Z-3.466
G1 X65.956 Y-316.237 Z-3.474
G1 X65.792 Y-316.09 Z-3.481
G1 X65.64 Y-315.932 Z-3.489
G1 X65.5 Y-315.764 Z-3.497
G1 X65.372 Y-315.585 Z-3.504
G1 X65.257 Y-315.398 Z-3.512
G1 X65.157 Y-315.203 Z-3.52
G1 X65.071 Y-315.001 Z-3.527
G1 X65 Y-314.793 Z-3.535
G1 X64.944 Y-314.581 Z-3.543
G1 X64.903 Y-314.365 Z-3.55
G1 X64.879 Y-314.147 Z-3.558
G1 X64.87 Y-313.928 Z-3.566
G1 X64.878 Y-313.709 Z-3.573
G1 X64.901 Y-313.49 Z-3.581
G1 X64.94 Y-313.274 Z-3.589
G1 X64.995 Y-313.062 Z-3.596
G1 X65.065 Y-312.854 Z-3.604
G1 X65.15 Y-312.651 Z-3.612
G1 X65.249 Y-312.456 Z-3.619
G1 X65.363 Y-312.268 Z-3.627
G1 X65.49 Y-312.089 Z-3.635
G1 X65.629 Y-311.919 Z-3.642
G1 X65.781 Y-311.76 Z-3.65
G1 X65.943 Y-311.613 Z-3.658
G1 X66.116 Y-311.478 Z-3.665
G1 X66.298 Y-311.355 Z-3.673
G1 X66.489 Y-311.247 Z-3.681
G1 X66.687 Y-311.152 Z-3.688
G1 X66.891 Y-311.072 Z-3.696
G1 X67.101 Y-311.007 Z-3.704
G1 X67.315 Y-310.958 Z-3.711
G1 X67.532 Y-310.924 Z-3.719
G1 X67.75 Y-310.906 Z-3.727
G1 X67.97 Y-310.904 Z-3.734
G1 X68.189 Y-310.919 Z-3.742
G1 X68.406 Y-310.948 Z-3.75
G1 X68.621 Y-310.994 Z-3.757
G1 X68.832 Y-311.055 Z-3.765
G1 X69.038 Y-311.132 Z-3.773
G1 X69.237 Y-311.223 Z-3.78
G1 X69.43 Y-311.328 Z-3.788
G1 X69.614 Y-311.447 Z-3.796
G1 X69.789 Y-311.579 Z-3.803
G1 X69.955 Y-311.724 Z-3.811
G1 X70.109 Y-311.88 Z-3.819
G1 X70.251 Y-312.047 Z-3.826
G1 X70.381 Y-312.224 Z-3.834
G1 X70.498 Y-312.41 Z-3.842
G1 X70.601 Y-312.604 Z-3.849
G1 X70.689 Y-312.805 Z-3.857
G1 X70.763 Y-313.011 Z-3.865
G1 X70.821 Y-313.223 Z-3.872
G1 X70.864 Y-313.438 Z-3.88
G1 X70.891 Y-313.656 Z-3.888
G1 X70.903 Y-313.875 Z-3.895
G1 X70.898 Y-314.094 Z-3.903
G1 X70.877 Y-314.313 Z-3.911
G1 X70.841 Y-314.529 Z-3.918
G1 X70.788 Y-314.743 Z-3.926
G1 X70.721 Y-314.951 Z-3.934
G1 X70.638 Y-315.155 Z-3.941
G1 X70.541 Y-315.352 Z-3.949
G1 X70.43 Y-315.541 Z-3.957
G1 X70.305 Y-315.722 Z-3.964
G1 X70.168 Y-315.893 Z-3.972
G1 X70.019 Y-316.053 Z-3.98
G1 X69.858 Y-316.203 Z-3.987
G1 X69.687 Y-316.34 Z-3.995
G1 X69.506 Y-316.464 Z-4.003
G1 X69.316 Y-316.575 Z-4.01
G1 X69.119 Y-316.672 Z-4.018
G1 X68.916 Y-316.755 Z-4.026
G1 X68.707 Y-316.822 Z-4.033
G1 X68.494 Y-316.874 Z-4.041
G1 X68.277 Y-316.91 Z-4.049
G1 X68.059 Y-316.931 Z-4.056
G1 X67.84 Y-316.935 Z-4.064
G1 X36.389 Y-316.444
G2 X36.161 Y-316.346 I0.005 J0.324
G2 X36.07 Y-316.115 I0.233 J0.226
G1 X36.074 Y-315.806
G2 X36.404 Y-315.487 I0.324 J-0.005
G1 X68.009 Y-315.98
G2 X68.328 Y-316.31 I-0.005 J-0.324
G1 X68.324 Y-316.619
G2 X67.994 Y-316.938 I-0.324 J0.005
G1 X67.84 Y-316.935
G3 X63.908 Y-319.468 I-0.066 J-4.215
G2 X59.977 Y-322.001 I-3.865 J1.682
G1 X32.904 Y-321.578
G3 X30.314 Y-322.587 I-0.058 J-3.683
G2 X29.866 Y-322.575 I-0.218 J0.23
G2 X29.862 Y-322.143 I0.23 J0.218
G3 X30.825 Y-319.717 I-2.72 J2.483
G1 X30.942 Y-312.165
G3 X29.894 Y-309.534 I-3.683 J0.057
G2 X29.899 Y-309.086 I0.227 J0.222
G2 X30.127 Y-308.995 I0.222 J-0.227
G2 X30.351 Y-309.094 I-0.006 J-0.317
G3 X32.968 Y-310.245 I2.674 J2.532
G1 X71.607 Y-310.848
G3 X74.258 Y-309.78 I0.057 J3.683
G2 X74.706 Y-309.782 I0.223 J-0.225
G2 X74.798 Y-310.009 I-0.225 J-0.223
G2 X74.701 Y-310.233 I-0.317 J0.004
G3 X73.571 Y-312.831 I2.553 J-2.655
G1 X73.453 Y-320.383
G3 X74.34 Y-322.837 I3.683 J-0.057
G2 X74.306 Y-323.285 I-0.241 J-0.206
G2 X73.874 Y-323.267 I-0.206 J0.241
G3 X71.317 Y-322.178 I-2.615 J-2.594
G1 X59.977 Y-322.001
G0 Z6.096
G0 X70.619 Y-312.643
G1 Z-1.524 F508.
G1 X70.705 Y-312.845 Z-1.532
G1 X70.776 Y-313.053 Z-1.539
G1 X70.831 Y-313.266 Z-1.547
G1 X70.871 Y-313.481 Z-1.555
G1 X70.895 Y-313.7 Z-1.562
G1 X70.903 Y-313.919 Z-1.57
G1 X70.895 Y-314.139 Z-1.578
G1 X70.871 Y-314.357 Z-1.585
G1 X70.831 Y-314.573 Z-1.593
G1 X70.776 Y-314.785 Z-1.601
G1 X70.705 Y-314.993 Z-1.608
G1 X70.62 Y-315.195 Z-1.616
G1 X70.52 Y-315.391 Z-1.624
G1 X70.406 Y-315.579 Z-1.631
G1 X70.278 Y-315.757 Z-1.639
G1 X70.138 Y-315.927 Z-1.647
G1 X69.986 Y-316.085 Z-1.654
G1 X69.823 Y-316.232 Z-1.662
G1 X69.65 Y-316.367 Z-1.67
G1 X69.467 Y-316.489 Z-1.677
G1 X69.276 Y-316.597 Z-1.685
G1 X69.078 Y-316.691 Z-1.693
G1 X68.873 Y-316.77 Z-1.7
G1 X68.663 Y-316.834 Z-1.708
G1 X68.449 Y-316.883 Z-1.716
G1 X68.232 Y-316.916 Z-1.723
G1 X68.013 Y-316.933 Z-1.731
G1 X67.793 Y-316.934 Z-1.739
G1 X67.574 Y-316.92 Z-1.746
G1 X67.357 Y-316.889 Z-1.754
G1 X67.142 Y-316.843 Z-1.762
G1 X66.932 Y-316.781 Z-1.769
G1 X66.726 Y-316.704 Z-1.777
G1 X66.526 Y-316.612 Z-1.785
G1 X66.334 Y-316.506 Z-1.792
G1 X66.15 Y-316.386 Z-1.8
G1 X65.975 Y-316.253 Z-1.808
G1 X65.811 Y-316.108 Z-1.815
G1 X65.657 Y-315.951 Z-1.823
G1 X65.515 Y-315.783 Z-1.831
G1 X65.386 Y-315.606 Z-1.838
G1 X65.27 Y-315.42 Z-1.846
G1 X65.168 Y-315.225 Z-1.854
G1 X65.08 Y-315.024 Z-1.861
G1 X65.007 Y-314.817 Z-1.869
G1 X64.949 Y-314.605 Z-1.877
G1 X64.907 Y-314.389 Z-1.884
G1 X64.881 Y-314.171 Z-1.892
G1 X64.871 Y-313.952 Z-1.9
G1 X64.876 Y-313.733 Z-1.907
G1 X64.898 Y-313.514 Z-1.915
G1 X64.935 Y-313.298 Z-1.923
G1 X64.988 Y-313.085 Z-1.93
G1 X65.057 Y-312.876 Z-1.938
G1 X65.14 Y-312.673 Z-1.946
G1 X65.238 Y-312.476 Z-1.953
G1 X65.35 Y-312.288 Z-1.961
G1 X65.476 Y-312.107 Z-1.969
G1 X65.614 Y-311.937 Z-1.976
G1 X65.764 Y-311.777 Z-1.984
G1 X65.926 Y-311.628 Z-1.992
G1 X66.097 Y-311.491 Z-2
G1 X66.279 Y-311.368 Z-2.007
G1 X66.469 Y-311.257 Z-2.015
G1 X66.666 Y-311.161 Z-2.023
G1 X66.87 Y-311.08 Z-2.03
G1 X67.079 Y-311.013 Z-2.038
G1 X67.293 Y-310.962 Z-2.046
G1 X67.51 Y-310.927 Z-2.053
G1 X67.728 Y-310.907 Z-2.061
G1 X67.948 Y-310.904 Z-2.069
G1 X68.167 Y-310.916 Z-2.076
G1 X68.385 Y-310.945 Z-2.084
G1 X68.6 Y-310.989 Z-2.092
G1 X68.811 Y-311.049 Z-2.099
G1 X69.018 Y-311.123 Z-2.107
G1 X69.218 Y-311.213 Z-2.115
G1 X69.411 Y-311.317 Z-2.122
G1 X69.597 Y-311.435 Z-2.13
G1 X69.773 Y-311.566 Z-2.138
G1 X69.939 Y-311.709 Z-2.145
G1 X70.095 Y-311.865 Z-2.153
G1 X70.238 Y-312.031 Z-2.161
G1 X70.369 Y-312.207 Z-2.168
G1 X70.487 Y-312.392 Z-2.176
G1 X70.592 Y-312.585 Z-2.184
G1 X70.682 Y-312.786 Z-2.191
G1 X70.757 Y-312.992 Z-2.199
G1 X70.817 Y-313.203 Z-2.207
G1 X70.861 Y-313.418 Z-2.214
G1 X70.89 Y-313.636 Z-2.222
G1 X70.902 Y-313.855 Z-2.23
G1 X70.899 Y-314.075 Z-2.237
G1 X70.88 Y-314.293 Z-2.245
G1 X70.845 Y-314.51 Z-2.253
G1 X70.794 Y-314.724 Z-2.26
G1 X70.728 Y-314.933 Z-2.268
G1 X70.646 Y-315.137 Z-2.276
G1 X70.55 Y-315.335 Z-2.283
G1 X70.44 Y-315.525 Z-2.291
G1 X70.317 Y-315.706 Z-2.299
G1 X70.18 Y-315.878 Z-2.306
G1 X70.032 Y-316.04 Z-2.314
G1 X69.872 Y-316.19 Z-2.322
G1 X69.701 Y-316.329 Z-2.329
G1 X69.521 Y-316.454 Z-2.337
G1 X69.333 Y-316.567 Z-2.345
G1 X69.136 Y-316.665 Z-2.352
G1 X68.933 Y-316.748 Z-2.36
G1 X68.725 Y-316.817 Z-2.368
G1 X68.512 Y-316.87 Z-2.375
G1 X68.295 Y-316.908 Z-2.383
G1 X68.077 Y-316.93 Z-2.391
G1 X67.857 Y-316.936 Z-2.398
G1 X67.638 Y-316.926 Z-2.406
G1 X67.42 Y-316.9 Z-2.414
G1 X67.204 Y-316.858 Z-2.421
G1 X66.993 Y-316.8 Z-2.429
G1 X66.785 Y-316.728 Z-2.437
G1 X66.584 Y-316.64 Z-2.444
G1 X66.39 Y-316.538 Z-2.452
G1 X66.203 Y-316.422 Z-2.46
G1 X66.025 Y-316.293 Z-2.467
G1 X65.858 Y-316.151 Z-2.475
G1 X65.701 Y-315.998 Z-2.483
G1 X65.555 Y-315.833 Z-2.49
G1 X65.422 Y-315.659 Z-2.498
G1 X65.302 Y-315.475 Z-2.506
G1 X65.196 Y-315.283 Z-2.513
G1 X65.104 Y-315.083 Z-2.521
G1 X65.027 Y-314.878 Z-2.529
G1 X64.964 Y-314.667 Z-2.536
G1 X64.918 Y-314.453 Z-2.544
G1 X64.887 Y-314.235 Z-2.552
G1 X64.872 Y-314.016 Z-2.559
G1 X64.873 Y-313.797 Z-2.567
G1 X64.89 Y-313.578 Z-2.575
G1 X64.923 Y-313.361 Z-2.582
G1 X64.971 Y-313.146 Z-2.59
G1 X65.035 Y-312.936 Z-2.598
G1 X65.114 Y-312.732 Z-2.605
G1 X65.208 Y-312.533 Z-2.613
G1 X65.316 Y-312.342 Z-2.621
G1 X65.438 Y-312.159 Z-2.628
G1 X65.572 Y-311.985 Z-2.636
G1 X65.719 Y-311.822 Z-2.644
G1 X65.877 Y-311.67 Z-2.651
G1 X66.046 Y-311.53 Z-2.659
G1 X66.225 Y-311.402 Z-2.667
G1 X66.413 Y-311.288 Z-2.674
G1 X66.608 Y-311.188 Z-2.682
G1 X66.81 Y-311.102 Z-2.69
G1 X67.018 Y-311.031 Z-2.697
G1 X67.23 Y-310.976 Z-2.705
G1 X67.446 Y-310.936 Z-2.713
G1 X67.664 Y-310.912 Z-2.72
G1 X67.884 Y-310.903 Z-2.728
G1 X68.103 Y-310.911 Z-2.736
G1 X68.322 Y-310.935 Z-2.743
G1 X68.538 Y-310.974 Z-2.751
G1 X68.75 Y-311.03 Z-2.759
G1 X68.958 Y-311.1 Z-2.766
G1 X69.16 Y-311.185 Z-2.774
G1 X69.356 Y-311.285 Z-2.782
G1 X69.544 Y-311.399 Z-2.789
G1 X69.723 Y-311.526 Z-2.797
G1 X69.892 Y-311.666 Z-2.805
G1 X70.05 Y-311.818 Z-2.812
G1 X70.198 Y-311.981 Z-2.82
G1 X70.332 Y-312.154 Z-2.828
G1 X70.454 Y-312.337 Z-2.835
G1 X70.563 Y-312.528 Z-2.843
G1 X70.657 Y-312.726 Z-2.851
G1 X70.736 Y-312.931 Z-2.858
G1 X70.801 Y-313.141 Z-2.866
G1 X70.85 Y-313.355 Z-2.874
G1 X70.883 Y-313.572 Z-2.881
G1 X70.9 Y-313.791 Z-2.889
G1 X70.902 Y-314.011 Z-2.897
G1 X70.887 Y-314.23 Z-2.904
G1 X70.856 Y-314.447 Z-2.912
G1 X70.81 Y-314.662 Z-2.92
G1 X70.748 Y-314.872 Z-2.927
G1 X70.672 Y-315.078 Z-2.935
G1 X70.58 Y-315.278 Z-2.943
G1 X70.474 Y-315.47 Z-2.951
G1 X70.354 Y-315.654 Z-2.958
G1 X70.222 Y-315.829 Z-2.966
G1 X70.076 Y-315.994 Z-2.974
G1 X69.92 Y-316.148 Z-2.981
G1 X69.752 Y-316.29 Z-2.989
G1 X69.575 Y-316.419 Z-2.997
G1 X69.389 Y-316.535 Z-3.004
G1 X69.194 Y-316.638 Z-3.012
G1 X68.993 Y-316.726 Z-3.02
G1 X68.786 Y-316.799 Z-3.027
G1 X68.574 Y-316.856 Z-3.035
G1 X68.359 Y-316.899 Z-3.043
G1 X68.141 Y-316.925 Z-3.05
G1 X67.921 Y-316.936 Z-3.058
G1 X67.702 Y-316.93 Z-3.066
G1 X67.483 Y-316.909 Z-3.073
G1 X67.267 Y-316.872 Z-3.081
G1 X67.054 Y-316.819 Z-3.089
G1 X66.845 Y-316.75 Z-3.096
G1 X66.642 Y-316.667 Z-3.104
G1 X66.445 Y-316.569 Z-3.112
G1 X66.257 Y-316.457 Z-3.119
G1 X66.076 Y-316.332 Z-3.127
G1 X65.906 Y-316.194 Z-3.135
G1 X65.745 Y-316.044 Z-3.142
G1 X65.596 Y-315.882 Z-3.15
G1 X65.46 Y-315.711 Z-3.158
G1 X65.336 Y-315.529 Z-3.165
G1 X65.226 Y-315.34 Z-3.173
G1 X65.129 Y-315.142 Z-3.181
G1 X65.048 Y-314.938 Z-3.188
G1 X64.981 Y-314.729 Z-3.196
G1 X64.93 Y-314.516 Z-3.204
G1 X64.894 Y-314.299 Z-3.211
G1 X64.875 Y-314.08 Z-3.219
G1 X64.871 Y-313.861 Z-3.227
G1 X64.883 Y-313.641 Z-3.234
G1 X64.911 Y-313.424 Z-3.242
G1 X64.955 Y-313.209 Z-3.25
G1 X65.015 Y-312.997 Z-3.257
G1 X65.09 Y-312.791 Z-3.265
G1 X65.179 Y-312.59 Z-3.273
G1 X65.283 Y-312.397 Z-3.28
G1 X65.401 Y-312.211 Z-3.288
G1 X65.532 Y-312.035 Z-3.296
G1 X65.675 Y-311.869 Z-3.303
G1 X65.83 Y-311.713 Z-3.311
G1 X65.996 Y-311.569 Z-3.319
G1 X66.172 Y-311.438 Z-3.326
G1 X66.357 Y-311.32 Z-3.334
G1 X66.55 Y-311.216 Z-3.342
G1 X66.75 Y-311.126 Z-3.349
G1 X66.957 Y-311.05 Z-3.357
G1 X67.168 Y-310.99 Z-3.365
G1 X67.383 Y-310.946 Z-3.372
G1 X67.601 Y-310.917 Z-3.38
G1 X67.82 Y-310.904 Z-3.388
G1 X68.039 Y-310.907 Z-3.395
G1 X68.258 Y-310.926 Z-3.403
G1 X68.475 Y-310.961 Z-3.411
G1 X68.688 Y-311.012 Z-3.418
G1 X68.898 Y-311.078 Z-3.426
G1 X69.102 Y-311.159 Z-3.434
G1 X69.3 Y-311.255 Z-3.441
G1 X69.49 Y-311.365 Z-3.449
G1 X69.671 Y-311.488 Z-3.457
G1 X69.843 Y-311.624 Z-3.464
G1 X70.005 Y-311.773 Z-3.472
G1 X70.156 Y-311.932 Z-3.48
G1 X70.294 Y-312.103 Z-3.487
G1 X70.42 Y-312.283 Z-3.495
G1 X70.533 Y-312.471 Z-3.503
G1 X70.631 Y-312.668 Z-3.51
G1 X70.715 Y-312.871 Z-3.518
G1 X70.783 Y-313.079 Z-3.526
G1 X70.837 Y-313.292 Z-3.533
G1 X70.875 Y-313.509 Z-3.541
G1 X70.897 Y-313.727 Z-3.549
G1 X70.903 Y-313.946 Z-3.556
G1 X70.893 Y-314.166 Z-3.564
G1 X70.867 Y-314.384 Z-3.572
G1 X70.825 Y-314.599 Z-3.579
G1 X70.768 Y-314.811 Z-3.587
G1 X70.696 Y-315.019 Z-3.595
G1 X70.608 Y-315.22 Z-3.602
G1 X70.506 Y-315.415 Z-3.61
G1 X70.391 Y-315.601 Z-3.618
G1 X70.262 Y-315.779 Z-3.625
G1 X70.12 Y-315.947 Z-3.633
G1 X69.967 Y-316.104 Z-3.641
G1 X69.802 Y-316.249 Z-3.648
G1 X69.628 Y-316.383 Z-3.656
G1 X69.444 Y-316.503 Z-3.664
G1 X69.252 Y-316.609 Z-3.671
G1 X69.053 Y-316.701 Z-3.679
G1 X68.847 Y-316.779 Z-3.687
G1 X68.637 Y-316.841 Z-3.694
G1 X68.422 Y-316.888 Z-3.702
G1 X68.205 Y-316.919 Z-3.71
G1 X67.986 Y-316.934 Z-3.717
G1 X67.766 Y-316.933 Z-3.725
G1 X67.547 Y-316.917 Z-3.733
G1 X67.33 Y-316.884 Z-3.74
G1 X67.116 Y-316.836 Z-3.748
G1 X66.906 Y-316.772 Z-3.756
G1 X66.701 Y-316.693 Z-3.763
G1 X66.502 Y-316.599 Z-3.771
G1 X66.311 Y-316.491 Z-3.779
G1 X66.128 Y-316.37 Z-3.786
G1 X65.954 Y-316.236 Z-3.794
G1 X65.791 Y-316.089 Z-3.802
G1 X65.639 Y-315.931 Z-3.809
G1 X65.498 Y-315.762 Z-3.817
G1 X65.371 Y-315.583 Z-3.825
G1 X65.256 Y-315.396 Z-3.832
G1 X65.156 Y-315.2 Z-3.84
G1 X65.07 Y-314.998 Z-3.848
G1 X64.999 Y-314.791 Z-3.855
G1 X64.943 Y-314.578 Z-3.863
G1 X64.903 Y-314.362 Z-3.871
