(1001)
(T1  D=6.35 CR=0 - ZMIN=-20.574 - FLAT END MILL)
G0 G40 G90 G17
G21

(2D CONTOUR2)
T1 M6
M3 S5000
G0 X-234.485 Y-160.687
G0 Z6.096
G1 Z4.191 F508.
G1 Z-6.604
G3 X-245.714 Y-154.965 I-10.868 J-7.447
G1 X-321.092 Y-157.04
G3 X-333.905 Y-170.289 I0.362 J-13.17
G1 X-331.861 Y-513.287
G3 X-318.891 Y-526.382 I13.174 J0.078
G1 X-243.495 Y-527.559
G3 X-234.018 Y-523.746 I0.205 J13.173
G3 X-230.115 Y-514.306 I-9.271 J9.36
G1 X-232.178 Y-168.057
G3 X-234.485 Y-160.687 I-13.174 J-0.077
G1 Z-14.224
G3 X-245.714 Y-154.965 I-10.868 J-7.447
G1 X-321.092 Y-157.04
G3 X-333.905 Y-170.289 I0.362 J-13.17
G1 X-331.861 Y-513.287
G3 X-318.891 Y-526.382 I13.174 J0.078
G1 X-243.495 Y-527.559
G3 X-234.018 Y-523.746 I0.205 J13.173
G3 X-230.115 Y-514.306 I-9.271 J9.36
G1 X-232.178 Y-168.057
G3 X-234.485 Y-160.687 I-13.174 J-0.077
G1 Z-18.034
G3 X-245.167 Y-154.962 I-10.868 J-7.447
G1 Z-20.574
G3 X-245.714 Y-154.965 I-0.186 J-13.173
G1 X-273.087 Y-155.719
G1 Z-18.034
G1 X-284.512 Y-156.033
G1 Z-20.574
G1 X-321.092 Y-157.04
G3 X-328.353 Y-159.464 I0.362 J-13.17
G1 Z-18.034
G3 X-333.884 Y-169.467 I7.623 J-10.746
G1 Z-20.574
G3 X-333.905 Y-170.289 I13.154 J-0.744
G1 X-332.94 Y-332.203
G1 Z-18.034
G1 X-332.839 Y-349.134
G1 Z-20.574
G1 X-332.822 Y-352.032
G1 Z-18.034
G1 X-332.754 Y-363.462
G1 Z-20.574
G1 X-331.861 Y-513.287
G3 X-331.684 Y-515.364 I13.174 J0.078
G1 Z-18.034
G3 X-318.891 Y-526.382 I12.997 J2.156
G1 X-314.083 Y-526.457
G1 Z-20.574
G1 X-304.068 Y-526.613
G1 Z-18.034
G1 X-282.685 Y-526.947
G1 Z-20.574
G1 X-249.085 Y-527.471
G1 Z-18.034
G1 X-243.495 Y-527.559
G3 X-234.018 Y-523.746 I0.205 J13.173
G3 X-230.115 Y-514.306 I-9.271 J9.36
G1 X-230.182 Y-503.045
G1 Z-20.574
G1 X-230.255 Y-490.738
G1 Z-18.034
G1 X-230.324 Y-479.308
G1 Z-20.574
G1 X-230.45 Y-458.152
G1 Z-18.034
G1 X-230.518 Y-446.722
G1 Z-20.574
G1 X-231.075 Y-353.224
G1 Z-18.034
G1 X-231.143 Y-341.794
G1 Z-20.574
G1 X-231.273 Y-319.992
G1 Z-18.034
G1 X-231.341 Y-308.562
G1 Z-20.574
G1 X-231.346 Y-307.747
G1 Z-18.034
G1 X-231.414 Y-296.317
G1 Z-20.574
G1 X-231.494 Y-282.81
G1 Z-18.034
G1 X-231.562 Y-271.38
G1 Z-20.574
G1 X-231.933 Y-209.22
G1 Z-18.034
G1 X-232.001 Y-197.79
G1 Z-20.574
G1 X-232.039 Y-191.37
G1 Z-18.034
G1 X-232.107 Y-179.94
G1 Z-20.574
G1 X-232.178 Y-168.057
G3 X-234.179 Y-161.154 I-13.174 J-0.077
G1 Z-18.034
G3 X-234.485 Y-160.687 I-11.173 J-6.981
G0 Z6.096

(2D POCKET1)
G0 Z11.176
G0 X-290.37 Y-196.471
G0 Z6.096
G1 Z3.556 F508.
G1 X-290.353 Y-196.69 Z3.548
G1 X-290.352 Y-196.909 Z3.541
G1 X-290.366 Y-197.128 Z3.533
G1 X-290.397 Y-197.346 Z3.525
G1 X-290.443 Y-197.56 Z3.518
G1 X-290.505 Y-197.771 Z3.51
G1 X-290.582 Y-197.976 Z3.502
G1 X-290.673 Y-198.176 Z3.495
G1 X-290.779 Y-198.368 Z3.487
G1 X-290.899 Y-198.552 Z3.479
G1 X-291.032 Y-198.727 Z3.472
G1 X-291.177 Y-198.892 Z3.464
G1 X-291.333 Y-199.046 Z3.456
G1 X-291.501 Y-199.187 Z3.449
G1 X-291.678 Y-199.317 Z3.441
G1 X-291.864 Y-199.433 Z3.433
G1 X-292.058 Y-199.535 Z3.426
G1 X-292.259 Y-199.623 Z3.418
G1 X-292.466 Y-199.696 Z3.41
G1 X-292.678 Y-199.754 Z3.403
G1 X-292.893 Y-199.797 Z3.395
G1 X-293.111 Y-199.823 Z3.387
G1 X-293.33 Y-199.834 Z3.38
G1 X-293.55 Y-199.828 Z3.372
G1 X-293.768 Y-199.807 Z3.364
G1 X-293.985 Y-199.77 Z3.357
G1 X-294.198 Y-199.717 Z3.349
G1 X-294.406 Y-199.649 Z3.341
G1 X-294.609 Y-199.566 Z3.334
G1 X-294.806 Y-199.468 Z3.326
G1 X-294.995 Y-199.357 Z3.318
G1 X-295.175 Y-199.231 Z3.311
G1 X-295.346 Y-199.094 Z3.303
G1 X-295.506 Y-198.944 Z3.295
G1 X-295.655 Y-198.782 Z3.288
G1 X-295.792 Y-198.611 Z3.28
G1 X-295.916 Y-198.43 Z3.272
G1 X-296.026 Y-198.24 Z3.265
G1 X-296.123 Y-198.043 Z3.257
G1 X-296.205 Y-197.839 Z3.249
G1 X-296.271 Y-197.63 Z3.242
G1 X-296.323 Y-197.417 Z3.234
G1 X-296.358 Y-197.2 Z3.226
G1 X-296.378 Y-196.982 Z3.219
G1 X-296.382 Y-196.762 Z3.211
G1 X-296.37 Y-196.543 Z3.203
G1 X-296.342 Y-196.325 Z3.196
G1 X-296.299 Y-196.11 Z3.188
G1 X-296.239 Y-195.899 Z3.18
G1 X-296.165 Y-195.692 Z3.173
G1 X-296.076 Y-195.492 Z3.165
G1 X-295.972 Y-195.298 Z3.157
G1 X-295.855 Y-195.113 Z3.15
G1 X-295.724 Y-194.936 Z3.142
G1 X-295.581 Y-194.77 Z3.134
G1 X-295.426 Y-194.614 Z3.127
G1 X-295.261 Y-194.47 Z3.119
G1 X-295.085 Y-194.339 Z3.111
G1 X-294.9 Y-194.22 Z3.104
G1 X-294.707 Y-194.116 Z3.096
G1 X-294.507 Y-194.025 Z3.088
G1 X-294.301 Y-193.95 Z3.081
G1 X-294.09 Y-193.89 Z3.073
G1 X-293.875 Y-193.845 Z3.065
G1 X-293.658 Y-193.816 Z3.058
G1 X-293.439 Y-193.802 Z3.05
G1 X-293.219 Y-193.805 Z3.042
G1 X-293.001 Y-193.824 Z3.035
G1 X-292.784 Y-193.858 Z3.027
G1 X-292.57 Y-193.908 Z3.019
G1 X-292.361 Y-193.974 Z3.012
G1 X-292.157 Y-194.055 Z3.004
G1 X-291.959 Y-194.15 Z2.996
G1 X-291.769 Y-194.259 Z2.989
G1 X-291.587 Y-194.382 Z2.981
G1 X-291.415 Y-194.518 Z2.973
G1 X-291.253 Y-194.666 Z2.966
G1 X-291.102 Y-194.826 Z2.958
G1 X-290.963 Y-194.996 Z2.95
G1 X-290.837 Y-195.175 Z2.943
G1 X-290.724 Y-195.363 Z2.935
G1 X-290.625 Y-195.559 Z2.927
G1 X-290.541 Y-195.762 Z2.92
G1 X-290.472 Y-195.97 Z2.912
G1 X-290.418 Y-196.183 Z2.904
G1 X-290.379 Y-196.399 Z2.897
G1 X-290.357 Y-196.618 Z2.889
G1 X-290.35 Y-196.837 Z2.881
G1 X-290.36 Y-197.056 Z2.874
G1 X-290.385 Y-197.274 Z2.866
G1 X-290.426 Y-197.49 Z2.858
G1 X-290.483 Y-197.702 Z2.851
G1 X-290.555 Y-197.909 Z2.843
G1 X-290.642 Y-198.111 Z2.835
G1 X-290.743 Y-198.306 Z2.828
G1 X-290.858 Y-198.492 Z2.82
G1 X-290.986 Y-198.67 Z2.812
G1 X-291.127 Y-198.839 Z2.805
G1 X-291.28 Y-198.996 Z2.797
G1 X-291.444 Y-199.142 Z2.789
G1 X-291.618 Y-199.276 Z2.782
G1 X-291.802 Y-199.396 Z2.774
G1 X-291.993 Y-199.503 Z2.766
G1 X-292.192 Y-199.596 Z2.759
G1 X-292.397 Y-199.674 Z2.751
G1 X-292.608 Y-199.737 Z2.743
G1 X-292.822 Y-199.784 Z2.736
G1 X-293.039 Y-199.816 Z2.728
G1 X-293.258 Y-199.832 Z2.72
G1 X-293.477 Z2.713
G1 X-293.696 Y-199.816 Z2.705
G1 X-293.913 Y-199.784 Z2.697
G1 X-294.128 Y-199.736 Z2.69
G1 X-294.338 Y-199.673 Z2.682
G1 X-294.543 Y-199.595 Z2.674
G1 X-294.742 Y-199.502 Z2.667
G1 X-294.933 Y-199.395 Z2.659
G1 X-295.117 Y-199.274 Z2.651
G1 X-295.291 Y-199.14 Z2.644
G1 X-295.454 Y-198.994 Z2.636
G1 X-295.607 Y-198.837 Z2.628
G1 X-295.748 Y-198.668 Z2.621
G1 X-295.876 Y-198.49 Z2.613
G1 X-295.991 Y-198.303 Z2.605
G1 X-296.093 Y-198.109 Z2.598
G1 X-296.179 Y-197.907 Z2.59
G1 X-296.251 Y-197.7 Z2.582
G1 X-296.307 Y-197.488 Z2.575
G1 X-296.348 Y-197.272 Z2.567
G1 X-296.373 Y-197.054 Z2.559
G1 X-296.383 Y-196.835 Z2.552
G1 X-296.376 Y-196.615 Z2.544
G1 X-296.353 Y-196.397 Z2.536
G1 X-296.315 Y-196.181 Z2.529
G1 X-296.261 Y-195.968 Z2.521
G1 X-296.191 Y-195.76 Z2.513
G1 X-296.107 Y-195.557 Z2.506
G1 X-296.008 Y-195.361 Z2.498
G1 X-295.895 Y-195.173 Z2.49
G1 X-295.769 Y-194.994 Z2.483
G1 X-295.63 Y-194.824 Z2.475
G1 X-295.479 Y-194.664 Z2.467
G1 X-295.317 Y-194.517 Z2.46
G1 X-295.144 Y-194.381 Z2.452
G1 X-294.962 Y-194.258 Z2.444
G1 X-294.772 Y-194.149 Z2.437
G1 X-294.574 Y-194.054 Z2.429
G1 X-294.37 Y-193.973 Z2.421
G1 X-294.16 Y-193.908 Z2.414
G1 X-293.947 Y-193.858 Z2.406
G1 X-293.73 Y-193.823 Z2.398
G1 X-293.511 Y-193.805 Z2.391
G1 X-293.292 Y-193.802 Z2.383
G1 X-293.073 Y-193.816 Z2.375
G1 X-292.855 Y-193.845 Z2.368
G1 X-292.64 Y-193.89 Z2.36
G1 X-292.429 Y-193.951 Z2.352
G1 X-292.223 Y-194.026 Z2.345
G1 X-292.024 Y-194.117 Z2.337
G1 X-291.831 Y-194.222 Z2.329
G1 X-291.646 Y-194.34 Z2.322
G1 X-291.47 Y-194.472 Z2.314
G1 X-291.305 Y-194.616 Z2.306
G1 X-291.15 Y-194.772 Z2.299
G1 X-291.007 Y-194.938 Z2.291
G1 X-290.877 Y-195.115 Z2.283
G1 X-290.76 Y-195.3 Z2.276
G1 X-290.656 Y-195.494 Z2.268
G1 X-290.567 Y-195.695 Z2.26
G1 X-290.493 Y-195.901 Z2.253
G1 X-290.434 Y-196.112 Z2.245
G1 X-290.39 Y-196.328 Z2.237
G1 X-290.363 Y-196.545 Z2.23
G1 X-290.351 Y-196.764 Z2.222
G1 X-290.355 Y-196.984 Z2.214
G1 X-290.375 Y-197.202 Z2.207
G1 X-290.411 Y-197.419 Z2.199
G1 X-290.462 Y-197.632 Z2.191
G1 X-290.529 Y-197.841 Z2.184
G1 X-290.611 Y-198.045 Z2.176
G1 X-290.708 Y-198.242 Z2.168
G1 X-290.818 Y-198.432 Z2.161
G1 X-290.943 Y-198.613 Z2.153
G1 X-291.079 Y-198.784 Z2.145
G1 X-291.229 Y-198.945 Z2.138
G1 X-291.389 Y-199.095 Z2.13
G1 X-291.56 Y-199.233 Z2.122
G1 X-291.74 Y-199.358 Z2.115
G1 X-291.929 Y-199.469 Z2.107
G1 X-292.126 Y-199.567 Z2.099
G1 X-292.329 Y-199.65 Z2.092
G1 X-292.538 Y-199.718 Z2.084
G1 X-292.751 Y-199.77 Z2.076
G1 X-292.967 Y-199.807 Z2.069
G1 X-293.186 Y-199.828 Z2.061
G1 X-293.405 Y-199.834 Z2.053
G1 X-293.624 Y-199.823 Z2.046
G1 X-293.842 Y-199.796 Z2.038
G1 X-294.057 Y-199.754 Z2.03
G1 X-294.269 Y-199.696 Z2.023
G1 X-294.476 Y-199.622 Z2.015
G1 X-294.677 Y-199.534 Z2.007
G1 X-294.871 Y-199.432 Z2
G1 X-295.057 Y-199.316 Z1.992
G1 X-295.234 Y-199.186 Z1.984
G1 X-295.402 Y-199.044 Z1.977
G1 X-295.558 Y-198.89 Z1.969
G1 X-295.703 Y-198.725 Z1.961
G1 X-295.836 Y-198.55 Z1.954
G1 X-295.955 Y-198.366 Z1.946
G1 X-296.061 Y-198.174 Z1.938
G1 X-296.152 Y-197.974 Z1.931
G1 X-296.229 Y-197.769 Z1.923
G1 X-296.29 Y-197.558 Z1.915
G1 X-296.337 Y-197.343 Z1.908
G1 X-296.367 Y-197.126 Z1.9
G1 X-296.381 Y-196.907 Z1.892
G1 X-296.38 Y-196.688 Z1.885
G1 X-296.363 Y-196.469 Z1.877
G1 X-296.329 Y-196.252 Z1.869
G1 X-296.28 Y-196.038 Z1.862
G1 X-296.216 Y-195.828 Z1.854
G1 X-296.136 Y-195.624 Z1.846
G1 X-296.042 Y-195.425 Z1.839
G1 X-295.934 Y-195.234 Z1.831
G1 X-295.812 Y-195.052 Z1.823
G1 X-295.677 Y-194.879 Z1.816
G1 X-295.53 Y-194.716 Z1.808
G1 X-295.371 Y-194.564 Z1.8
G1 X-295.202 Y-194.424 Z1.793
G1 X-295.023 Y-194.297 Z1.785
G1 X-294.836 Y-194.183 Z1.777
G1 X-294.64 Y-194.083 Z1.77
G1 X-294.438 Y-193.998 Z1.762
G1 X-294.23 Y-193.928 Z1.754
G1 X-294.018 Y-193.873 Z1.747
G1 X-293.802 Y-193.833 Z1.739
G1 X-293.584 Y-193.809 Z1.731
G1 X-293.364 Y-193.801 Z1.724
G1 X-293.145 Y-193.81 Z1.716
G1 X-292.927 Y-193.834 Z1.708
G1 X-292.711 Y-193.873 Z1.701
G1 X-292.499 Y-193.929 Z1.693
G1 X-292.291 Y-194 Z1.685
G1 X-292.089 Y-194.085 Z1.678
G1 X-291.893 Y-194.186 Z1.67
G1 X-291.706 Y-194.3 Z1.662
G1 X-291.527 Y-194.427 Z1.655
G1 X-291.358 Y-194.567 Z1.647
G1 X-291.2 Y-194.719 Z1.64
G1 X-291.053 Y-194.882 Z1.632
G1 X-290.919 Y-195.056 Z1.624
G1 X-290.797 Y-195.238 Z1.617
G1 X-290.689 Y-195.429 Z1.609
G1 X-290.595 Y-195.628 Z1.601
G1 X-290.516 Y-195.832 Z1.594
G1 X-290.452 Y-196.042 Z1.586
G1 X-290.403 Y-196.256 Z1.578
G1 X-290.37 Y-196.473 Z1.571
G1 X-290.353 Y-196.692 Z1.563
G1 X-290.352 Y-196.912 Z1.555
G1 X-290.367 Y-197.131 Z1.548
G1 X-290.397 Y-197.348 Z1.54
G1 X-290.444 Y-197.562 Z1.532
G1 X-290.506 Y-197.773 Z1.525
G1 X-290.583 Y-197.978 Z1.517
G1 X-290.674 Y-198.178 Z1.509
G1 X-290.78 Y-198.37 Z1.502
G1 X-290.9 Y-198.554 Z1.494
G1 X-291.033 Y-198.729 Z1.486
G1 X-291.178 Y-198.893 Z1.479
G1 X-291.335 Y-199.047 Z1.471
G1 X-291.502 Y-199.189 Z1.463
G1 X-291.68 Y-199.318 Z1.456
G1 X-291.866 Y-199.434 Z1.448
G1 X-292.06 Y-199.536 Z1.44
G1 X-292.261 Y-199.624 Z1.433
G1 X-292.468 Y-199.697 Z1.425
G1 X-292.68 Y-199.755 Z1.417
G1 X-292.895 Y-199.797 Z1.41
G1 X-293.113 Y-199.823 Z1.402
G1 X-293.333 Y-199.834 Z1.394
G1 X-293.552 Y-199.828 Z1.387
G1 X-293.77 Y-199.807 Z1.379
G1 X-293.987 Y-199.769 Z1.371
G1 X-294.2 Y-199.717 Z1.364
G1 X-294.408 Y-199.648 Z1.356
G1 X-294.611 Y-199.565 Z1.348
G1 X-294.808 Y-199.467 Z1.341
G1 X-294.997 Y-199.355 Z1.333
G1 X-295.177 Y-199.23 Z1.325
G1 X-295.348 Y-199.092 Z1.318
G1 X-295.508 Y-198.942 Z1.31
G1 X-295.656 Y-198.781 Z1.302
G1 X-295.793 Y-198.609 Z1.295
G1 X-295.917 Y-198.428 Z1.287
G1 X-296.027 Y-198.238 Z1.279
G1 X-296.124 Y-198.041 Z1.272
G1 X-296.205 Y-197.837 Z1.264
G1 X-296.272 Y-197.628 Z1.256
G1 X-296.323 Y-197.415 Z1.249
G1 X-296.359 Y-197.198 Z1.241
G1 X-296.378 Y-196.979 Z1.233
G1 X-296.382 Y-196.76 Z1.226
G1 X-296.37 Y-196.541 Z1.218
G1 X-296.342 Y-196.323 Z1.21
G1 X-296.298 Y-196.108 Z1.203
G1 X-296.239 Y-195.897 Z1.195
G1 X-296.164 Y-195.69 Z1.187
G1 X-296.075 Y-195.49 Z1.18
G1 X-295.971 Y-195.297 Z1.172
G1 X-295.854 Y-195.111 Z1.164
G1 X-295.723 Y-194.935 Z1.157
G1 X-295.58 Y-194.768 Z1.149
G1 X-295.425 Y-194.613 Z1.141
G1 X-295.259 Y-194.469 Z1.134
G1 X-295.083 Y-194.338 Z1.126
G1 X-294.898 Y-194.219 Z1.118
G1 X-294.705 Y-194.115 Z1.111
G1 X-294.505 Y-194.025 Z1.103
G1 X-294.299 Y-193.949 Z1.095
G1 X-294.088 Y-193.889 Z1.088
G1 X-293.873 Y-193.844 Z1.08
G1 X-293.656 Y-193.815 Z1.072
G1 X-293.437 Y-193.802 Z1.065
G1 X-293.217 Y-193.805 Z1.057
G1 X-292.999 Y-193.824 Z1.049
G1 X-292.782 Y-193.859 Z1.042
G1 X-292.568 Y-193.909 Z1.034
G1 X-292.359 Y-193.975 Z1.026
G1 X-292.155 Y-194.055 Z1.019
G1 X-291.957 Y-194.151 Z1.011
G1 X-291.767 Y-194.26 Z1.003
G1 X-291.585 Y-194.384 Z0.996
G1 X-291.413 Y-194.52 Z0.988
G1 X-291.251 Y-194.668 Z0.98
G1 X-291.1 Y-194.827 Z0.973
G1 X-290.962 Y-194.997 Z0.965
G1 X-290.836 Y-195.177 Z0.957
G1 X-290.723 Y-195.365 Z0.95
G1 X-290.624 Y-195.561 Z0.942
G1 X-290.54 Y-195.764 Z0.934
G1 X-290.471 Y-195.972 Z0.927
G1 X-290.417 Y-196.185 Z0.919
G1 X-290.379 Y-196.401 Z0.911
G1 X-290.357 Y-196.62 Z0.904
G1 X-290.35 Y-196.839 Z0.896
G1 X-290.36 Y-197.058 Z0.888
G1 X-290.385 Y-197.276 Z0.881
G1 X-290.427 Y-197.492 Z0.873
G1 X-290.483 Y-197.704 Z0.865
G1 X-290.555 Y-197.911 Z0.858
G1 X-290.642 Y-198.113 Z0.85
G1 X-290.744 Y-198.307 Z0.842
G1 X-290.859 Y-198.494 Z0.835
G1 X-290.988 Y-198.672 Z0.827
G1 X-291.129 Y-198.84 Z0.819
G1 X-291.282 Y-198.997 Z0.812
G1 X-291.446 Y-199.143 Z0.804
G1 X-291.62 Y-199.277 Z0.796
G1 X-291.803 Y-199.397 Z0.789
G1 X-291.995 Y-199.504 Z0.781
G1 X-292.194 Y-199.597 Z0.773
G1 X-292.399 Y-199.675 Z0.766
G1 X-292.61 Y-199.737 Z0.758
G1 X-292.824 Y-199.785 Z0.75
G1 X-293.041 Y-199.816 Z0.743
G1 X-293.26 Y-199.832 Z0.735
G1 X-293.48 Z0.727
G1 X-293.698 Y-199.816 Z0.72
G1 X-293.916 Y-199.783 Z0.712
G1 X-294.13 Y-199.736 Z0.704
G1 X-294.34 Y-199.672 Z0.697
G1 X-294.545 Y-199.594 Z0.689
G1 X-294.744 Y-199.501 Z0.681
G1 X-294.935 Y-199.394 Z0.674
G1 X-295.118 Y-199.273 Z0.666
G1 X-295.292 Y-199.139 Z0.658
G1 X-295.456 Y-198.993 Z0.651
G1 X-295.609 Y-198.835 Z0.643
G1 X-295.749 Y-198.667 Z0.635
G1 X-295.878 Y-198.489 Z0.628
G1 X-295.992 Y-198.302 Z0.62
G1 X-296.093 Y-198.107 Z0.612
G1 X-296.18 Y-197.905 Z0.605
G1 X-296.252 Y-197.698 Z0.597
G1 X-296.308 Y-197.485 Z0.589
G1 X-296.349 Y-197.27 Z0.582
G1 X-296.374 Y-197.052 Z0.574
G1 X-296.383 Y-196.832 Z0.566
G1 X-296.376 Y-196.613 Z0.559
G1 X-296.353 Y-196.395 Z0.551
G1 X-296.314 Y-196.179 Z0.543
G1 X-296.26 Y-195.966 Z0.536
G1 X-296.19 Y-195.758 Z0.528
G1 X-296.106 Y-195.555 Z0.52
G1 X-296.007 Y-195.36 Z0.513
G1 X-295.894 Y-195.171 Z0.505
G1 X-295.767 Y-194.992 Z0.497
G1 X-295.628 Y-194.822 Z0.49
G1 X-295.477 Y-194.663 Z0.482
G1 X-295.315 Y-194.515 Z0.474
G1 X-295.142 Y-194.38 Z0.467
G1 X-294.96 Y-194.257 Z0.459
G1 X-294.77 Y-194.148 Z0.451
G1 X-294.572 Y-194.053 Z0.444
G1 X-294.368 Y-193.972 Z0.436
G1 X-294.158 Y-193.907 Z0.428
G1 X-293.945 Y-193.857 Z0.421
G1 X-293.728 Y-193.823 Z0.413
G1 X-293.509 Y-193.805 Z0.405
G1 X-293.29 Y-193.802 Z0.398
G1 X-293.071 Y-193.816 Z0.39
G1 X-292.853 Y-193.845 Z0.382
G1 X-292.638 Y-193.891 Z0.375
G1 X-292.427 Y-193.951 Z0.367
G1 X-292.222 Y-194.027 Z0.359
G1 X-292.022 Y-194.118 Z0.352
G1 X-291.829 Y-194.223 Z0.344
G1 X-291.644 Y-194.341 Z0.336
G1 X-291.469 Y-194.473 Z0.329
G1 X-291.303 Y-194.617 Z0.321
G1 X-291.149 Y-194.773 Z0.313
G1 X-291.006 Y-194.94 Z0.306
G1 X-290.876 Y-195.117 Z0.298
G1 X-290.759 Y-195.302 Z0.29
G1 X-290.655 Y-195.496 Z0.283
G1 X-290.566 Y-195.697 Z0.275
G1 X-290.492 Y-195.903 Z0.267
G1 X-290.433 Y-196.115 Z0.26
G1 X-290.39 Y-196.33 Z0.252
G1 X-290.362 Y-196.547 Z0.244
G1 X-290.351 Y-196.767 Z0.237
G1 X-290.355 Y-196.986 Z0.229
G1 X-290.375 Y-197.205 Z0.221
G1 X-290.411 Y-197.421 Z0.214
G1 X-290.463 Y-197.634 Z0.206
G1 X-290.53 Y-197.843 Z0.198
G1 X-290.612 Y-198.047 Z0.191
G1 X-290.709 Y-198.244 Z0.183
G1 X-290.82 Y-198.433 Z0.175
G1 X-290.944 Y-198.614 Z0.168
G1 X-291.081 Y-198.786 Z0.16
G1 X-291.23 Y-198.947 Z0.152
G1 X-291.39 Y-199.096 Z0.145
G1 X-291.561 Y-199.234 Z0.137
G1 X-291.742 Y-199.359 Z0.129
G1 X-291.931 Y-199.47 Z0.122
G1 X-292.128 Y-199.568 Z0.114
G1 X-292.331 Y-199.651 Z0.106
G1 X-292.54 Y-199.718 Z0.099
G1 X-292.753 Y-199.771 Z0.091
G1 X-292.969 Y-199.808 Z0.083
G1 X-293.188 Y-199.829 Z0.076
G1 X-293.407 Y-199.834 Z0.068
G1 X-293.626 Y-199.823 Z0.06
G1 X-293.844 Y-199.796 Z0.053
G1 X-294.059 Y-199.753 Z0.045
G1 X-294.271 Y-199.695 Z0.037
G1 X-294.478 Y-199.622 Z0.03
G1 X-294.679 Y-199.533 Z0.022
G1 X-294.873 Y-199.431 Z0.014
G1 X-295.059 Y-199.314 Z0.007
G1 X-295.236 Y-199.185 Z-0.001
G1 X-295.403 Y-199.042 Z-0.009
G1 X-295.56 Y-198.888 Z-0.016
G1 X-295.704 Y-198.724 Z-0.024
G1 X-295.837 Y-198.548 Z-0.032
G1 X-295.956 Y-198.364 Z-0.039
G1 X-296.062 Y-198.172 Z-0.047
G1 X-296.153 Y-197.972 Z-0.055
G1 X-296.23 Y-197.767 Z-0.062
G1 X-296.291 Y-197.556 Z-0.07
G1 X-296.337 Y-197.341 Z-0.078
G1 X-296.367 Y-197.124 Z-0.085
G1 X-296.382 Y-196.905 Z-0.093
G1 X-296.38 Y-196.685 Z-0.101
G1 X-296.362 Y-196.467 Z-0.108
G1 X-296.329 Y-196.25 Z-0.116
G1 X-296.28 Y-196.036 Z-0.124
G1 X-296.215 Y-195.826 Z-0.131
G1 X-296.135 Y-195.622 Z-0.139
G1 X-296.041 Y-195.423 Z-0.147
G1 X-295.933 Y-195.233 Z-0.154
G1 X-295.811 Y-195.05 Z-0.162
G1 X-295.676 Y-194.877 Z-0.17
G1 X-295.528 Y-194.714 Z-0.177
G1 X-295.37 Y-194.563 Z-0.185
G1 X-295.2 Y-194.423 Z-0.193
G1 X-295.022 Y-194.296 Z-0.2
G1 X-294.834 Y-194.182 Z-0.208
G1 X-294.638 Y-194.083 Z-0.216
G1 X-294.436 Y-193.997 Z-0.223
G1 X-294.228 Y-193.927 Z-0.231
G1 X-294.016 Y-193.872 Z-0.239
G1 X-293.8 Y-193.833 Z-0.246
G1 X-293.581 Y-193.809 Z-0.254
G1 X-293.362 Y-193.801 Z-0.262
G1 X-293.143 Y-193.81 Z-0.269
G1 X-292.925 Y-193.834 Z-0.277
G1 X-292.709 Y-193.874 Z-0.285
G1 X-292.497 Y-193.93 Z-0.292
G1 X-292.289 Y-194 Z-0.3
G1 X-292.087 Y-194.086 Z-0.308
G1 X-291.892 Y-194.187 Z-0.315
G1 X-291.704 Y-194.301 Z-0.323
G1 X-291.526 Y-194.428 Z-0.331
G1 X-291.357 Y-194.569 Z-0.338
G1 X-291.199 Y-194.721 Z-0.346
G1 X-291.052 Y-194.884 Z-0.354
G1 X-290.917 Y-195.057 Z-0.361
G1 X-290.796 Y-195.24 Z-0.369
G1 X-290.688 Y-195.431 Z-0.377
G1 X-290.594 Y-195.63 Z-0.384
G1 X-290.515 Y-195.834 Z-0.392
G1 X-290.451 Y-196.044 Z-0.4
G1 X-290.403 Y-196.258 Z-0.407
G1 X-290.37 Y-196.475 Z-0.415
G1 X-290.353 Y-196.694 Z-0.423
G1 X-290.352 Y-196.914 Z-0.43
G1 X-290.367 Y-197.133 Z-0.438
G1 X-290.398 Y-197.35 Z-0.446
G1 X-290.444 Y-197.564 Z-0.453
G1 X-290.506 Y-197.775 Z-0.461
G1 X-290.583 Y-197.98 Z-0.469
G1 X-290.675 Y-198.18 Z-0.476
G1 X-290.781 Y-198.372 Z-0.484
G1 X-290.901 Y-198.556 Z-0.492
G1 X-291.034 Y-198.73 Z-0.499
G1 X-291.179 Y-198.895 Z-0.507
G1 X-291.336 Y-199.048 Z-0.515
G1 X-291.504 Y-199.19 Z-0.522
G1 X-291.681 Y-199.319 Z-0.53
G1 X-291.868 Y-199.435 Z-0.538
G1 X-292.062 Y-199.537 Z-0.545
G1 X-292.263 Y-199.625 Z-0.553
G1 X-292.47 Y-199.698 Z-0.561
G1 X-292.682 Y-199.755 Z-0.568
G1 X-292.898 Y-199.797 Z-0.576
G1 X-293.115 Y-199.823 Z-0.584
G1 X-293.335 Y-199.834 Z-0.591
G1 X-293.554 Y-199.828 Z-0.599
G1 X-293.772 Y-199.806 Z-0.607
G1 X-293.989 Y-199.769 Z-0.614
G1 X-294.202 Y-199.716 Z-0.622
G1 X-294.41 Y-199.648 Z-0.63
G1 X-294.613 Y-199.564 Z-0.637
G1 X-294.81 Y-199.466 Z-0.645
G1 X-294.998 Y-199.354 Z-0.653
G1 X-295.179 Y-199.229 Z-0.66
G1 X-295.349 Y-199.091 Z-0.668
G1 X-295.509 Y-198.941 Z-0.676
G1 X-295.658 Y-198.779 Z-0.683
G1 X-295.794 Y-198.607 Z-0.691
G1 X-295.918 Y-198.426 Z-0.699
G1 X-296.028 Y-198.236 Z-0.706
G1 X-296.124 Y-198.039 Z-0.714
G1 X-296.206 Y-197.835 Z-0.722
G1 X-296.272 Y-197.626 Z-0.729
G1 X-296.324 Y-197.413 Z-0.737
G1 X-296.359 Y-197.196 Z-0.745
G1 X-296.379 Y-196.977 Z-0.752
G1 X-296.382 Y-196.758 Z-0.76
G1 X-296.37 Y-196.539 Z-0.768
G1 X-296.342 Y-196.321 Z-0.775
G1 X-296.298 Y-196.106 Z-0.783
G1 X-296.238 Y-195.895 Z-0.791
G1 X-296.163 Y-195.688 Z-0.798
G1 X-296.074 Y-195.488 Z-0.806
G1 X-295.97 Y-195.295 Z-0.814
G1 X-295.852 Y-195.109 Z-0.821
G1 X-295.722 Y-194.933 Z-0.829
G1 X-295.578 Y-194.767 Z-0.837
G1 X-295.423 Y-194.611 Z-0.844
G1 X-295.257 Y-194.468 Z-0.852
G1 X-295.082 Y-194.336 Z-0.86
G1 X-294.897 Y-194.218 Z-0.867
G1 X-294.704 Y-194.114 Z-0.875
G1 X-294.503 Y-194.024 Z-0.883
G1 X-294.297 Y-193.949 Z-0.89
G1 X-294.086 Y-193.889 Z-0.898
G1 X-293.871 Y-193.844 Z-0.906
G1 X-293.654 Y-193.815 Z-0.913
G1 X-293.435 Y-193.802 Z-0.921
G1 X-293.215 Y-193.805 Z-0.929
G1 X-292.997 Y-193.824 Z-0.936
G1 X-292.78 Y-193.859 Z-0.944
G1 X-292.566 Y-193.91 Z-0.952
G1 X-292.357 Y-193.975 Z-0.959
G1 X-292.153 Y-194.056 Z-0.967
G1 X-291.955 Y-194.152 Z-0.975
G1 X-291.765 Y-194.262 Z-0.982
G1 X-291.584 Y-194.385 Z-0.99
G1 X-291.411 Y-194.521 Z-0.998
G1 X-291.25 Y-194.669 Z-1.005
G1 X-291.099 Y-194.829 Z-1.013
G1 X-290.96 Y-194.999 Z-1.021
G1 X-290.834 Y-195.179 Z-1.028
G1 X-290.722 Y-195.367 Z-1.036
G1 X-290.623 Y-195.563 Z-1.044
G1 X-290.539 Y-195.766 Z-1.051
G1 X-290.471 Y-195.974 Z-1.059
G1 X-290.417 Y-196.187 Z-1.067
G1 X-290.379 Y-196.403 Z-1.074
G1 X-290.357 Y-196.622 Z-1.082
G1 X-290.35 Y-196.841 Z-1.09
G1 X-290.36 Y-197.06 Z-1.097
G1 X-290.386 Y-197.278 Z-1.105
G1 X-290.427 Y-197.494 Z-1.113
G1 X-290.484 Y-197.706 Z-1.12
G1 X-290.556 Y-197.913 Z-1.128
G1 X-290.643 Y-198.115 Z-1.136
G1 X-290.745 Y-198.309 Z-1.143
G1 X-290.86 Y-198.496 Z-1.151
G1 X-290.989 Y-198.674 Z-1.159
G1 X-291.13 Y-198.842 Z-1.166
G1 X-291.283 Y-198.999 Z-1.174
G1 X-291.447 Y-199.145 Z-1.182
G1 X-291.622 Y-199.278 Z-1.189
G1 X-291.805 Y-199.398 Z-1.197
G1 X-291.997 Y-199.505 Z-1.205
G1 X-292.196 Y-199.598 Z-1.212
G1 X-292.401 Y-199.675 Z-1.22
G1 X-292.612 Y-199.738 Z-1.228
G1 X-292.826 Y-199.785 Z-1.235
G1 X-293.043 Y-199.817 Z-1.243
G1 X-293.262 Y-199.832 Z-1.251
G1 X-293.482 Z-1.258
G1 X-293.701 Y-199.815 Z-1.266
G1 X-293.918 Y-199.783 Z-1.274
G1 X-294.132 Y-199.735 Z-1.281
G1 X-294.342 Y-199.672 Z-1.289
G1 X-294.547 Y-199.593 Z-1.297
G1 X-294.746 Y-199.5 Z-1.304
G1 X-294.937 Y-199.393 Z-1.312
G1 X-295.12 Y-199.272 Z-1.32
G1 X-295.294 Y-199.138 Z-1.327
G1 X-295.458 Y-198.991 Z-1.335
G1 X-295.61 Y-198.834 Z-1.343
G1 X-295.751 Y-198.665 Z-1.35
G1 X-295.879 Y-198.487 Z-1.358
G1 X-295.993 Y-198.3 Z-1.366
G1 X-296.094 Y-198.105 Z-1.373
G1 X-296.181 Y-197.903 Z-1.381
G1 X-296.252 Y-197.696 Z-1.389
G1 X-296.308 Y-197.483 Z-1.396
G1 X-296.349 Y-197.268 Z-1.404
G1 X-296.374 Y-197.05 Z-1.412
G1 X-296.383 Y-196.83 Z-1.419
G1 X-296.376 Y-196.611 Z-1.427
G1 X-296.353 Y-196.393 Z-1.435
G1 X-296.314 Y-196.177 Z-1.442
G1 X-296.259 Y-195.964 Z-1.45
G1 X-296.19 Y-195.756 Z-1.458
G1 X-296.105 Y-195.553 Z-1.465
G1 X-296.006 Y-195.358 Z-1.473
G1 X-295.893 Y-195.17 Z-1.481
G1 X-295.766 Y-194.99 Z-1.488
G1 X-295.627 Y-194.821 Z-1.496
G1 X-295.476 Y-194.662 Z-1.504
G1 X-295.313 Y-194.514 Z-1.511
G1 X-295.141 Y-194.378 Z-1.519
G1 X-294.959 Y-194.256 Z-1.527
G1 X-294.768 Y-194.147 Z-1.534
G1 X-294.57 Y-194.052 Z-1.542
G1 X-294.366 Y-193.972 Z-1.55
G1 X-294.156 Y-193.907 Z-1.557
G1 X-293.943 Y-193.857 Z-1.565
G1 X-293.726 Y-193.823 Z-1.573
G1 X-293.507 Y-193.805 Z-1.58
G1 X-293.288 Y-193.802 Z-1.588
G1 X-293.069 Y-193.816 Z-1.596
G1 X-292.851 Y-193.846 Z-1.603
G1 X-292.636 Y-193.891 Z-1.611
G1 X-292.425 Y-193.952 Z-1.619
G1 X-292.22 Y-194.028 Z-1.626
G1 X-292.02 Y-194.119 Z-1.634
G1 X-291.827 Y-194.224 Z-1.642
G1 X-291.643 Y-194.343 Z-1.649
G1 X-291.467 Y-194.475 Z-1.657
G1 X-291.302 Y-194.619 Z-1.665
G1 X-291.147 Y-194.775 Z-1.672
G1 X-291.005 Y-194.942 Z-1.68
G1 X-290.874 Y-195.118 Z-1.688
G1 X-290.758 Y-195.304 Z-1.695
G1 X-290.654 Y-195.498 Z-1.703
G1 X-290.566 Y-195.698 Z-1.711
G1 X-290.492 Y-195.905 Z-1.718
G1 X-290.433 Y-196.117 Z-1.726
G1 X-290.39 Y-196.332 Z-1.734
G1 X-290.362 Y-196.55 Z-1.741
G1 X-290.351 Y-196.769 Z-1.749
G1 X-290.355 Y-196.988 Z-1.757
G1 X-290.375 Y-197.207 Z-1.764
G1 X-290.412 Y-197.423 Z-1.772
G1 X-290.464 Y-197.636 Z-1.78
G1 X-290.531 Y-197.845 Z-1.787
G1 X-290.613 Y-198.049 Z-1.795
G1 X-290.71 Y-198.246 Z-1.803
G1 X-290.821 Y-198.435 Z-1.81
G1 X-290.945 Y-198.616 Z-1.818
G1 X-291.082 Y-198.787 Z-1.826
G1 X-291.232 Y-198.948 Z-1.833
G1 X-291.392 Y-199.098 Z-1.841
G1 X-291.563 Y-199.235 Z-1.849
G1 X-291.744 Y-199.36 Z-1.856
G1 X-291.933 Y-199.471 Z-1.864
G1 X-292.13 Y-199.569 Z-1.872
G1 X-292.333 Y-199.651 Z-1.879
G1 X-292.542 Y-199.719 Z-1.887
G1 X-292.755 Y-199.771 Z-1.895
G1 X-292.971 Y-199.808 Z-1.902
G1 X-293.19 Y-199.829 Z-1.91
G1 X-293.409 Y-199.834 Z-1.918
G1 X-293.628 Y-199.822 Z-1.925
G1 X-293.846 Y-199.795 Z-1.933
G1 X-294.061 Y-199.753 Z-1.941
G1 X-294.273 Y-199.694 Z-1.948
G1 X-294.48 Y-199.621 Z-1.956
G1 X-294.681 Y-199.533 Z-1.964
G1 X-294.875 Y-199.43 Z-1.971
G1 X-295.061 Y-199.313 Z-1.979
G1 X-295.238 Y-199.183 Z-1.987
G1 X-295.405 Y-199.041 Z-1.994
G1 X-295.561 Y-198.887 Z-2.002
G1 X-295.706 Y-198.722 Z-2.01
G1 X-295.838 Y-198.547 Z-2.017
G1 X-295.957 Y-198.362 Z-2.025
G1 X-296.063 Y-198.17 Z-2.033
G1 X-296.154 Y-197.97 Z-2.04
G1 X-296.23 Y-197.765 Z-2.048
G1 X-296.292 Y-197.554 Z-2.056
G1 X-296.337 Y-197.339 Z-2.063
G1 X-296.367 Y-197.122 Z-2.071
G1 X-296.382 Y-196.903 Z-2.079
G1 X-296.38 Y-196.683 Z-2.086
G1 X-296.362 Y-196.465 Z-2.094
G1 X-296.328 Y-196.248 Z-2.102
G1 X-296.279 Y-196.034 Z-2.109
G1 X-296.214 Y-195.824 Z-2.117
G1 X-296.135 Y-195.62 Z-2.125
G1 X-296.04 Y-195.422 Z-2.132
G1 X-295.932 Y-195.231 Z-2.14
G1 X-295.809 Y-195.048 Z-2.148
G1 X-295.674 Y-194.876 Z-2.155
G1 X-295.527 Y-194.713 Z-2.163
G1 X-295.368 Y-194.561 Z-2.17
G1 X-295.199 Y-194.422 Z-2.178
G1 X-295.02 Y-194.295 Z-2.186
G1 X-294.832 Y-194.181 Z-2.193
G1 X-294.636 Y-194.082 Z-2.201
G1 X-294.434 Y-193.997 Z-2.209
G1 X-294.226 Y-193.926 Z-2.216
G1 X-294.014 Y-193.872 Z-2.224
G1 X-293.798 Y-193.832 Z-2.232
G1 X-293.579 Y-193.809 Z-2.239
G1 X-293.36 Y-193.801 Z-2.247
G1 X-293.141 Y-193.81 Z-2.255
G1 X-292.923 Y-193.834 Z-2.262
G1 X-292.707 Y-193.874 Z-2.27
G1 X-292.495 Y-193.93 Z-2.278
G1 X-292.287 Y-194.001 Z-2.285
G1 X-292.085 Y-194.087 Z-2.293
G1 X-291.89 Y-194.188 Z-2.301
G1 X-291.702 Y-194.302 Z-2.308
G1 X-291.524 Y-194.43 Z-2.316
G1 X-291.355 Y-194.57 Z-2.324
G1 X-291.197 Y-194.722 Z-2.331
G1 X-291.05 Y-194.885 Z-2.339
G1 X-290.916 Y-195.059 Z-2.347
G1 X-290.795 Y-195.242 Z-2.354
G1 X-290.687 Y-195.433 Z-2.362
G1 X-290.593 Y-195.632 Z-2.37
G1 X-290.514 Y-195.836 Z-2.377
G1 X-290.451 Y-196.046 Z-2.385
G1 X-290.402 Y-196.26 Z-2.393
G1 X-290.37 Y-196.477 Z-2.4
G1 X-290.353 Y-196.696 Z-2.408
G1 X-290.352 Y-196.916 Z-2.416
G1 X-290.367 Y-197.135 Z-2.423
G1 X-290.398 Y-197.352 Z-2.431
G1 X-290.445 Y-197.566 Z-2.439
G1 X-290.507 Y-197.777 Z-2.446
G1 X-290.584 Y-197.982 Z-2.454
G1 X-290.676 Y-198.182 Z-2.462
G1 X-290.783 Y-198.374 Z-2.469
G1 X-290.903 Y-198.557 Z-2.477
G1 X-291.036 Y-198.732 Z-2.485
G1 X-291.181 Y-198.896 Z-2.492
G1 X-291.338 Y-199.05 Z-2.5
G1 X-291.506 Y-199.191 Z-2.508
G1 X-291.683 Y-199.32 Z-2.515
G1 X-291.87 Y-199.436 Z-2.523
G1 X-292.064 Y-199.538 Z-2.531
G1 X-292.265 Y-199.626 Z-2.538
G1 X-292.472 Y-199.698 Z-2.546
G1 X-292.684 Y-199.756 Z-2.554
G1 X-292.9 Y-199.798 Z-2.561
G1 X-293.118 Y-199.824 Z-2.569
G1 X-293.337 Y-199.834 Z-2.577
G1 X-293.556 Y-199.828 Z-2.584
G1 X-293.775 Y-199.806 Z-2.592
G1 X-293.991 Y-199.769 Z-2.6
G1 X-294.204 Y-199.715 Z-2.607
G1 X-294.412 Y-199.647 Z-2.615
G1 X-294.615 Y-199.563 Z-2.623
G1 X-294.812 Y-199.465 Z-2.63
G1 X-295 Y-199.353 Z-2.638
G1 X-295.18 Y-199.228 Z-2.646
G1 X-295.351 Y-199.089 Z-2.653
G1 X-295.511 Y-198.939 Z-2.661
G1 X-295.659 Y-198.778 Z-2.669
G1 X-295.796 Y-198.606 Z-2.676
G1 X-295.919 Y-198.424 Z-2.684
G1 X-296.029 Y-198.234 Z-2.692
G1 X-296.125 Y-198.037 Z-2.699
G1 X-296.207 Y-197.833 Z-2.707
G1 X-296.273 Y-197.624 Z-2.715
G1 X-296.324 Y-197.41 Z-2.722
G1 X-296.359 Y-197.194 Z-2.73
G1 X-296.379 Y-196.975 Z-2.738
G1 X-296.382 Y-196.756 Z-2.745
G1 X-296.37 Y-196.537 Z-2.753
G1 X-296.341 Y-196.319 Z-2.761
G1 X-296.297 Y-196.104 Z-2.768
G1 X-296.237 Y-195.893 Z-2.776
G1 X-296.163 Y-195.686 Z-2.784
G1 X-296.073 Y-195.486 Z-2.791
G1 X-295.969 Y-195.293 Z-2.799
G1 X-295.851 Y-195.108 Z-2.807
G1 X-295.72 Y-194.932 Z-2.814
G1 X-295.577 Y-194.765 Z-2.822
G1 X-295.422 Y-194.61 Z-2.83
G1 X-295.256 Y-194.466 Z-2.837
G1 X-295.08 Y-194.335 Z-2.845
G1 X-294.895 Y-194.217 Z-2.853
G1 X-294.702 Y-194.113 Z-2.86
G1 X-294.501 Y-194.023 Z-2.868
G1 X-294.295 Y-193.948 Z-2.876
G1 X-294.084 Y-193.888 Z-2.883
G1 X-293.869 Y-193.844 Z-2.891
G1 X-293.652 Y-193.815 Z-2.899
G1 X-293.433 Y-193.802 Z-2.906
G1 X-293.213 Y-193.805 Z-2.914
G1 X-292.994 Y-193.824 Z-2.922
G1 X-292.778 Y-193.859 Z-2.929
G1 X-292.564 Y-193.91 Z-2.937
G1 X-292.355 Y-193.976 Z-2.945
G1 X-292.151 Y-194.057 Z-2.952
G1 X-291.953 Y-194.153 Z-2.96
G1 X-291.763 Y-194.263 Z-2.968
G1 X-291.582 Y-194.386 Z-2.975
G1 X-291.41 Y-194.522 Z-2.983
G1 X-291.248 Y-194.671 Z-2.991
G1 X-291.098 Y-194.83 Z-2.998
G1 X-290.959 Y-195.001 Z-3.006
G1 X-290.833 Y-195.18 Z-3.014
G1 X-290.721 Y-195.369 Z-3.021
G1 X-290.623 Y-195.565 Z-3.029
G1 X-290.539 Y-195.768 Z-3.037
G1 X-290.47 Y-195.976 Z-3.044
G1 X-290.416 Y-196.189 Z-3.052
G1 X-290.379 Y-196.406 Z-3.06
G1 X-290.356 Y-196.624 Z-3.067
G1 X-290.35 Y-196.843 Z-3.075
G1 X-290.36 Y-197.063 Z-3.083
G1 X-290.386 Y-197.281 Z-3.09
G1 X-290.428 Y-197.496 Z-3.098
G1 X-290.485 Y-197.708 Z-3.106
G1 X-290.557 Y-197.915 Z-3.113
G1 X-290.644 Y-198.117 Z-3.121
G1 X-290.746 Y-198.311 Z-3.129
G1 X-290.861 Y-198.498 Z-3.136
G1 X-290.99 Y-198.675 Z-3.144
G1 X-291.132 Y-198.843 Z-3.152
G1 X-291.285 Y-199 Z-3.159
G1 X-291.449 Y-199.146 Z-3.167
G1 X-291.623 Y-199.279 Z-3.175
G1 X-291.807 Y-199.399 Z-3.182
G1 X-291.999 Y-199.506 Z-3.19
G1 X-292.198 Y-199.598 Z-3.198
G1 X-292.403 Y-199.676 Z-3.205
G1 X-292.614 Y-199.738 Z-3.213
G1 X-292.828 Y-199.785 Z-3.221
G1 X-293.045 Y-199.817 Z-3.228
G1 X-293.264 Y-199.832 Z-3.236
G1 X-293.484 Z-3.244
G1 X-293.703 Y-199.815 Z-3.251
G1 X-293.92 Y-199.783 Z-3.259
G1 X-294.134 Y-199.735 Z-3.267
G1 X-294.344 Y-199.671 Z-3.274
G1 X-294.549 Y-199.593 Z-3.282
G1 X-294.747 Y-199.499 Z-3.29
G1 X-294.939 Y-199.392 Z-3.297
G1 X-295.122 Y-199.271 Z-3.305
G1 X-295.296 Y-199.136 Z-3.313
G1 X-295.459 Y-198.99 Z-3.32
G1 X-295.611 Y-198.832 Z-3.328
G1 X-295.752 Y-198.663 Z-3.336
G1 X-295.88 Y-198.485 Z-3.343
G1 X-295.995 Y-198.298 Z-3.351
G1 X-296.095 Y-198.103 Z-3.359
G1 X-296.181 Y-197.901 Z-3.366
G1 X-296.253 Y-197.694 Z-3.374
G1 X-296.309 Y-197.481 Z-3.382
G1 X-296.349 Y-197.266 Z-3.389
G1 X-296.374 Y-197.048 Z-3.397
G1 X-296.383 Y-196.828 Z-3.405
G1 X-296.376 Y-196.609 Z-3.412
G1 X-296.352 Y-196.391 Z-3.42
G1 X-296.313 Y-196.175 Z-3.428
G1 X-296.259 Y-195.962 Z-3.435
G1 X-296.189 Y-195.754 Z-3.443
G1 X-296.104 Y-195.552 Z-3.451
G1 X-296.005 Y-195.356 Z-3.458
G1 X-295.892 Y-195.168 Z-3.466
G1 X-295.765 Y-194.989 Z-3.474
G1 X-295.626 Y-194.819 Z-3.481
G1 X-295.474 Y-194.66 Z-3.489
G1 X-295.312 Y-194.513 Z-3.497
G1 X-295.139 Y-194.377 Z-3.504
G1 X-294.957 Y-194.255 Z-3.512
G1 X-294.766 Y-194.146 Z-3.52
G1 X-294.568 Y-194.051 Z-3.527
G1 X-294.364 Y-193.971 Z-3.535
G1 X-294.154 Y-193.906 Z-3.543
G1 X-293.941 Y-193.857 Z-3.55
G1 X-293.724 Y-193.823 Z-3.558
G1 X-293.505 Y-193.805 Z-3.566
G1 X-293.285 Y-193.802 Z-3.573
G1 X-293.066 Y-193.816 Z-3.581
G1 X-292.849 Y-193.846 Z-3.589
G1 X-292.634 Y-193.892 Z-3.596
G1 X-292.423 Y-193.953 Z-3.604
G1 X-292.218 Y-194.029 Z-3.612
G1 X-292.018 Y-194.12 Z-3.619
G1 X-291.825 Y-194.225 Z-3.627
G1 X-291.641 Y-194.344 Z-3.635
G1 X-291.465 Y-194.476 Z-3.642
G1 X-291.3 Y-194.62 Z-3.65
G1 X-291.146 Y-194.776 Z-3.658
G1 X-291.003 Y-194.943 Z-3.665
G1 X-290.873 Y-195.12 Z-3.673
G1 X-290.756 Y-195.306 Z-3.681
G1 X-290.653 Y-195.5 Z-3.688
G1 X-290.565 Y-195.7 Z-3.696
G1 X-290.491 Y-195.907 Z-3.704
G1 X-290.432 Y-196.119 Z-3.711
G1 X-290.389 Y-196.334 Z-3.719
G1 X-290.362 Y-196.552 Z-3.727
G1 X-290.351 Y-196.771 Z-3.734
G1 X-290.355 Y-196.99 Z-3.742
G1 X-290.376 Y-197.209 Z-3.75
G1 X-290.412 Y-197.425 Z-3.757
G1 X-290.464 Y-197.638 Z-3.765
G1 X-290.531 Y-197.847 Z-3.773
G1 X-290.614 Y-198.051 Z-3.78
G1 X-290.711 Y-198.248 Z-3.788
G1 X-290.822 Y-198.437 Z-3.796
G1 X-290.946 Y-198.618 Z-3.803
G1 X-291.084 Y-198.789 Z-3.811
G1 X-291.233 Y-198.95 Z-3.819
G1 X-291.394 Y-199.099 Z-3.826
G1 X-291.565 Y-199.237 Z-3.834
G1 X-291.745 Y-199.361 Z-3.842
G1 X-291.935 Y-199.472 Z-3.849
G1 X-292.132 Y-199.569 Z-3.857
G1 X-292.335 Y-199.652 Z-3.865
G1 X-292.544 Y-199.72 Z-3.872
G1 X-292.757 Y-199.772 Z-3.88
G1 X-292.973 Y-199.808 Z-3.888
G1 X-293.192 Y-199.829 Z-3.895
G1 X-293.411 Y-199.834 Z-3.903
G1 X-293.631 Y-199.822 Z-3.911
G1 X-293.848 Y-199.795 Z-3.918
G1 X-294.064 Y-199.752 Z-3.926
G1 X-294.275 Y-199.694 Z-3.934
G1 X-294.482 Y-199.62 Z-3.941
G1 X-294.683 Y-199.532 Z-3.949
G1 X-294.877 Y-199.429 Z-3.957
G1 X-295.062 Y-199.312 Z-3.964
G1 X-295.239 Y-199.182 Z-3.972
G1 X-295.406 Y-199.04 Z-3.98
G1 X-295.562 Y-198.885 Z-3.987
G1 X-295.707 Y-198.72 Z-3.995
G1 X-295.839 Y-198.545 Z-4.003
G1 X-295.958 Y-198.361 Z-4.01
G1 X-296.064 Y-198.168 Z-4.018
G1 X-296.155 Y-197.968 Z-4.026
G1 X-296.231 Y-197.763 Z-4.033
G1 X-296.292 Y-197.552 Z-4.041
G1 X-296.338 Y-197.337 Z-4.049
G1 X-296.368 Y-197.12 Z-4.056
G1 X-296.382 Y-196.901 Z-4.064
G1 X-296.386 Y-196.746
G2 X-296.297 Y-196.514 I0.324 J0.009
G2 X-296.07 Y-196.413 I0.236 J-0.223
G1 X-264.473 Y-195.543
G2 X-264.242 Y-195.632 I0.009 J-0.324
G2 X-264.14 Y-195.859 I-0.223 J-0.236
G1 X-264.132 Y-196.167
G2 X-264.447 Y-196.5 I-0.324 J-0.009
G1 X-296.044 Y-197.37
G2 X-296.377 Y-197.055 I-0.009 J0.324
G1 X-296.382 Y-196.901
G3 X-297.85 Y-194.198 I-3.394 J-0.093
G2 X-298.265 Y-191.948 I0.918 J1.332
G2 X-296.977 Y-191.248 I1.332 J-0.918
G1 X-261.213 Y-190.264
G3 X-258.668 Y-189.144 I-0.101 J3.682
G2 X-258.221 Y-189.137 I0.227 J-0.22
G2 X-258.198 Y-189.567 I-0.22 J-0.227
G3 X-259.056 Y-192.032 I2.824 J-2.364
G1 X-258.848 Y-199.583
G3 X-257.687 Y-202.167 I3.682 J0.101
G2 X-257.673 Y-202.615 I-0.217 J-0.231
G2 X-257.896 Y-202.715 I-0.231 J0.217
G2 X-258.124 Y-202.626 I-0.008 J0.317
G3 X-260.788 Y-201.589 I-2.563 J-2.645
G1 X-299.417 Y-202.653
G3 X-302.02 Y-203.834 I0.101 J-3.682
G2 X-302.468 Y-203.851 I-0.233 J0.215
G2 X-302.569 Y-203.629 I0.215 J0.233
G2 X-302.482 Y-203.4 I0.317 J0.01
G3 X-301.465 Y-200.757 I-2.665 J2.542
G1 X-301.673 Y-193.206
G3 X-302.665 Y-190.792 I-3.682 J-0.101
G2 X-302.65 Y-190.344 I0.232 J0.216
G2 X-302.218 Y-190.343 I0.216 J-0.232
G3 X-299.616 Y-191.321 I2.501 J2.704
G1 X-296.977 Y-191.248
G0 Z6.096
G0 X-291.973 Y-199.493
G1 Z-1.524 F508.
G1 X-292.171 Y-199.587 Z-1.532
G1 X-292.376 Y-199.667 Z-1.539
G1 X-292.586 Y-199.731 Z-1.547
G1 X-292.8 Y-199.78 Z-1.555
G1 X-293.017 Y-199.814 Z-1.562
G1 X-293.236 Y-199.831 Z-1.57
G1 X-293.455 Y-199.833 Z-1.578
G1 X-293.675 Y-199.818 Z-1.585
G1 X-293.892 Y-199.788 Z-1.593
G1 X-294.107 Y-199.742 Z-1.601
G1 X-294.317 Y-199.68 Z-1.608
G1 X-294.523 Y-199.603 Z-1.616
G1 X-294.723 Y-199.512 Z-1.624
G1 X-294.915 Y-199.406 Z-1.631
G1 X-295.099 Y-199.286 Z-1.639
G1 X-295.274 Y-199.154 Z-1.647
G1 X-295.439 Y-199.009 Z-1.654
G1 X-295.593 Y-198.852 Z-1.662
G1 X-295.735 Y-198.685 Z-1.67
G1 X-295.865 Y-198.508 Z-1.677
G1 X-295.981 Y-198.321 Z-1.685
G1 X-296.084 Y-198.127 Z-1.693
G1 X-296.172 Y-197.926 Z-1.7
G1 X-296.245 Y-197.719 Z-1.708
G1 X-296.303 Y-197.507 Z-1.716
G1 X-296.345 Y-197.292 Z-1.723
G1 X-296.372 Y-197.074 Z-1.731
G1 X-296.383 Y-196.854 Z-1.739
G1 X-296.377 Y-196.635 Z-1.746
G1 X-296.356 Y-196.416 Z-1.754
G1 X-296.319 Y-196.2 Z-1.762
G1 X-296.266 Y-195.987 Z-1.769
G1 X-296.198 Y-195.778 Z-1.777
G1 X-296.115 Y-195.575 Z-1.785
G1 X-296.017 Y-195.378 Z-1.792
G1 X-295.905 Y-195.189 Z-1.8
G1 X-295.78 Y-195.009 Z-1.808
G1 X-295.642 Y-194.838 Z-1.815
G1 X-295.492 Y-194.678 Z-1.823
G1 X-295.331 Y-194.529 Z-1.831
G1 X-295.159 Y-194.392 Z-1.838
G1 X-294.978 Y-194.268 Z-1.846
G1 X-294.788 Y-194.157 Z-1.854
G1 X-294.591 Y-194.061 Z-1.861
G1 X-294.387 Y-193.979 Z-1.869
G1 X-294.178 Y-193.913 Z-1.877
G1 X-293.964 Y-193.861 Z-1.884
G1 X-293.748 Y-193.826 Z-1.892
G1 X-293.529 Y-193.806 Z-1.9
G1 X-293.31 Y-193.802 Z-1.907
G1 X-293.09 Y-193.814 Z-1.915
G1 X-292.873 Y-193.842 Z-1.923
G1 X-292.657 Y-193.886 Z-1.93
G1 X-292.446 Y-193.945 Z-1.938
G1 X-292.239 Y-194.02 Z-1.946
G1 X-292.039 Y-194.109 Z-1.953
G1 X-291.845 Y-194.213 Z-1.961
G1 X-291.66 Y-194.331 Z-1.969
G1 X-291.484 Y-194.461 Z-1.976
G1 X-291.317 Y-194.605 Z-1.984
G1 X-291.162 Y-194.76 Z-1.992
G1 X-291.018 Y-194.925 Z-2
G1 X-290.886 Y-195.101 Z-2.007
G1 X-290.768 Y-195.286 Z-2.015
G1 X-290.663 Y-195.479 Z-2.023
G1 X-290.573 Y-195.68 Z-2.03
G1 X-290.498 Y-195.886 Z-2.038
G1 X-290.438 Y-196.097 Z-2.046
G1 X-290.393 Y-196.312 Z-2.053
G1 X-290.364 Y-196.53 Z-2.061
G1 X-290.351 Y-196.749 Z-2.069
G1 X-290.354 Y-196.968 Z-2.076
G1 X-290.373 Y-197.187 Z-2.084
G1 X-290.408 Y-197.404 Z-2.092
G1 X-290.458 Y-197.618 Z-2.099
G1 X-290.524 Y-197.827 Z-2.107
G1 X-290.605 Y-198.031 Z-2.115
G1 X-290.701 Y-198.229 Z-2.122
G1 X-290.81 Y-198.419 Z-2.13
G1 X-290.934 Y-198.601 Z-2.138
G1 X-291.07 Y-198.773 Z-2.145
G1 X-291.218 Y-198.935 Z-2.153
G1 X-291.378 Y-199.086 Z-2.161
G1 X-291.548 Y-199.224 Z-2.168
G1 X-291.728 Y-199.35 Z-2.176
G1 X-291.917 Y-199.463 Z-2.184
G1 X-292.113 Y-199.561 Z-2.191
G1 X-292.316 Y-199.645 Z-2.199
G1 X-292.524 Y-199.714 Z-2.207
G1 X-292.737 Y-199.767 Z-2.214
G1 X-292.953 Y-199.805 Z-2.222
G1 X-293.172 Y-199.828 Z-2.23
G1 X-293.391 Y-199.834 Z-2.237
G1 X-293.611 Y-199.824 Z-2.245
G1 X-293.829 Y-199.798 Z-2.253
G1 X-294.044 Y-199.757 Z-2.26
G1 X-294.256 Y-199.7 Z-2.268
G1 X-294.464 Y-199.627 Z-2.276
G1 X-294.665 Y-199.54 Z-2.283
G1 X-294.86 Y-199.438 Z-2.291
G1 X-295.047 Y-199.323 Z-2.299
G1 X-295.224 Y-199.194 Z-2.306
G1 X-295.392 Y-199.052 Z-2.314
G1 X-295.549 Y-198.899 Z-2.322
G1 X-295.695 Y-198.735 Z-2.329
G1 X-295.828 Y-198.56 Z-2.337
G1 X-295.949 Y-198.377 Z-2.345
G1 X-296.055 Y-198.185 Z-2.352
G1 X-296.148 Y-197.985 Z-2.36
G1 X-296.225 Y-197.78 Z-2.368
G1 X-296.288 Y-197.569 Z-2.375
G1 X-296.335 Y-197.355 Z-2.383
G1 X-296.366 Y-197.138 Z-2.391
G1 X-296.381 Y-196.919 Z-2.398
G1 X-296.38 Y-196.699 Z-2.406
G1 X-296.364 Y-196.48 Z-2.414
G1 X-296.331 Y-196.263 Z-2.421
G1 X-296.283 Y-196.049 Z-2.429
G1 X-296.219 Y-195.839 Z-2.437
G1 X-296.141 Y-195.634 Z-2.444
G1 X-296.047 Y-195.435 Z-2.452
G1 X-295.939 Y-195.244 Z-2.46
G1 X-295.818 Y-195.061 Z-2.467
G1 X-295.684 Y-194.887 Z-2.475
G1 X-295.537 Y-194.723 Z-2.483
G1 X-295.379 Y-194.571 Z-2.49
G1 X-295.21 Y-194.431 Z-2.498
G1 X-295.032 Y-194.303 Z-2.506
G1 X-294.844 Y-194.188 Z-2.513
G1 X-294.649 Y-194.088 Z-2.521
G1 X-294.447 Y-194.002 Z-2.529
G1 X-294.239 Y-193.93 Z-2.536
G1 X-294.027 Y-193.875 Z-2.544
G1 X-293.811 Y-193.834 Z-2.552
G1 X-293.593 Y-193.81 Z-2.559
G1 X-293.374 Y-193.801 Z-2.567
G1 X-293.154 Y-193.809 Z-2.575
G1 X-292.936 Y-193.832 Z-2.582
G1 X-292.72 Y-193.872 Z-2.59
G1 X-292.507 Y-193.926 Z-2.598
G1 X-292.299 Y-193.997 Z-2.605
G1 X-292.097 Y-194.082 Z-2.613
G1 X-291.901 Y-194.181 Z-2.621
G1 X-291.713 Y-194.295 Z-2.628
G1 X-291.534 Y-194.422 Z-2.636
G1 X-291.365 Y-194.562 Z-2.644
G1 X-291.206 Y-194.713 Z-2.651
G1 X-291.058 Y-194.876 Z-2.659
G1 X-290.923 Y-195.049 Z-2.667
G1 X-290.801 Y-195.231 Z-2.674
G1 X-290.692 Y-195.422 Z-2.682
G1 X-290.598 Y-195.62 Z-2.69
G1 X-290.518 Y-195.825 Z-2.697
G1 X-290.454 Y-196.035 Z-2.705
G1 X-290.404 Y-196.249 Z-2.713
G1 X-290.371 Y-196.466 Z-2.72
G1 X-290.353 Y-196.685 Z-2.728
G1 X-290.352 Y-196.904 Z-2.736
G1 X-290.366 Y-197.123 Z-2.743
G1 X-290.396 Y-197.341 Z-2.751
G1 X-290.442 Y-197.556 Z-2.759
G1 X-290.503 Y-197.766 Z-2.766
G1 X-290.58 Y-197.972 Z-2.774
G1 X-290.671 Y-198.172 Z-2.782
G1 X-290.777 Y-198.364 Z-2.789
G1 X-290.896 Y-198.549 Z-2.797
G1 X-291.029 Y-198.724 Z-2.805
G1 X-291.174 Y-198.889 Z-2.812
G1 X-291.33 Y-199.043 Z-2.82
G1 X-291.497 Y-199.185 Z-2.828
G1 X-291.675 Y-199.315 Z-2.835
G1 X-291.861 Y-199.431 Z-2.843
G1 X-292.055 Y-199.534 Z-2.851
G1 X-292.256 Y-199.622 Z-2.858
G1 X-292.463 Y-199.695 Z-2.866
G1 X-292.675 Y-199.753 Z-2.874
G1 X-292.89 Y-199.796 Z-2.881
G1 X-293.108 Y-199.823 Z-2.889
G1 X-293.327 Y-199.834 Z-2.897
G1 X-293.547 Y-199.828 Z-2.904
G1 X-293.765 Y-199.807 Z-2.912
G1 X-293.982 Y-199.77 Z-2.92
G1 X-294.195 Y-199.718 Z-2.927
G1 X-294.404 Y-199.65 Z-2.935
G1 X-294.607 Y-199.567 Z-2.943
G1 X-294.804 Y-199.469 Z-2.951
G1 X-294.993 Y-199.358 Z-2.958
G1 X-295.173 Y-199.233 Z-2.966
G1 X-295.344 Y-199.095 Z-2.974
G1 X-295.505 Y-198.945 Z-2.981
G1 X-295.654 Y-198.784 Z-2.989
G1 X-295.791 Y-198.612 Z-2.997
G1 X-295.915 Y-198.431 Z-3.004
G1 X-296.026 Y-198.241 Z-3.012
G1 X-296.122 Y-198.044 Z-3.02
G1 X-296.204 Y-197.84 Z-3.027
G1 X-296.271 Y-197.631 Z-3.035
G1 X-296.322 Y-197.418 Z-3.043
G1 X-296.358 Y-197.201 Z-3.05
G1 X-296.378 Y-196.983 Z-3.058
G1 X-296.382 Y-196.763 Z-3.066
G1 X-296.37 Y-196.544 Z-3.073
G1 X-296.342 Y-196.326 Z-3.081
G1 X-296.299 Y-196.111 Z-3.089
G1 X-296.24 Y-195.899 Z-3.096
G1 X-296.165 Y-195.693 Z-3.104
G1 X-296.076 Y-195.492 Z-3.112
G1 X-295.972 Y-195.299 Z-3.119
G1 X-295.855 Y-195.113 Z-3.127
G1 X-295.724 Y-194.937 Z-3.135
G1 X-295.581 Y-194.77 Z-3.142
G1 X-295.426 Y-194.614 Z-3.15
G1 X-295.261 Y-194.47 Z-3.158
G1 X-295.085 Y-194.339 Z-3.165
G1 X-294.9 Y-194.22 Z-3.173
G1 X-294.707 Y-194.116 Z-3.181
G1 X-294.507 Y-194.025 Z-3.188
G1 X-294.301 Y-193.95 Z-3.196
G1 X-294.09 Y-193.889 Z-3.204
G1 X-293.875 Y-193.844 Z-3.211
G1 X-293.657 Y-193.815 Z-3.219
G1 X-293.438 Y-193.802 Z-3.227
G1 X-293.218 Y-193.805 Z-3.234
G1 X-292.999 Y-193.824 Z-3.242
G1 X-292.783 Y-193.858 Z-3.25
G1 X-292.569 Y-193.909 Z-3.257
G1 X-292.359 Y-193.975 Z-3.265
G1 X-292.155 Y-194.055 Z-3.273
G1 X-291.957 Y-194.151 Z-3.28
G1 X-291.767 Y-194.26 Z-3.288
G1 X-291.585 Y-194.383 Z-3.296
G1 X-291.413 Y-194.519 Z-3.303
G1 X-291.251 Y-194.668 Z-3.311
G1 X-291.1 Y-194.827 Z-3.319
G1 X-290.961 Y-194.997 Z-3.326
G1 X-290.835 Y-195.177 Z-3.334
G1 X-290.723 Y-195.366 Z-3.342
G1 X-290.624 Y-195.562 Z-3.349
G1 X-290.54 Y-195.765 Z-3.357
G1 X-290.471 Y-195.973 Z-3.365
G1 X-290.417 Y-196.186 Z-3.372
G1 X-290.379 Y-196.402 Z-3.38
G1 X-290.357 Y-196.621 Z-3.388
G1 X-290.35 Y-196.84 Z-3.395
G1 X-290.36 Y-197.06 Z-3.403
G1 X-290.386 Y-197.278 Z-3.411
G1 X-290.427 Y-197.493 Z-3.418
G1 X-290.484 Y-197.705 Z-3.426
G1 X-290.556 Y-197.913 Z-3.434
G1 X-290.643 Y-198.114 Z-3.441
G1 X-290.745 Y-198.309 Z-3.449
G1 X-290.86 Y-198.496 Z-3.457
G1 X-290.989 Y-198.674 Z-3.464
G1 X-291.13 Y-198.842 Z-3.472
G1 X-291.283 Y-198.999 Z-3.48
G1 X-291.448 Y-199.145 Z-3.487
G1 X-291.622 Y-199.278 Z-3.495
G1 X-291.806 Y-199.399 Z-3.503
G1 X-291.997 Y-199.505 Z-3.51
G1 X-292.197 Y-199.598 Z-3.518
G1 X-292.402 Y-199.676 Z-3.526
G1 X-292.612 Y-199.738 Z-3.533
G1 X-292.827 Y-199.785 Z-3.541
G1 X-293.044 Y-199.817 Z-3.549
G1 X-293.263 Y-199.832 Z-3.556
G1 X-293.483 Z-3.564
G1 X-293.702 Y-199.815 Z-3.572
G1 X-293.919 Y-199.783 Z-3.579
G1 X-294.133 Y-199.735 Z-3.587
G1 X-294.343 Y-199.671 Z-3.595
G1 X-294.548 Y-199.593 Z-3.602
G1 X-294.747 Y-199.499 Z-3.61
G1 X-294.939 Y-199.392 Z-3.618
G1 X-295.122 Y-199.271 Z-3.625
G1 X-295.295 Y-199.136 Z-3.633
G1 X-295.459 Y-198.99 Z-3.641
G1 X-295.612 Y-198.832 Z-3.648
G1 X-295.752 Y-198.663 Z-3.656
G1 X-295.88 Y-198.485 Z-3.664
G1 X-295.995 Y-198.298 Z-3.671
G1 X-296.095 Y-198.102 Z-3.679
G1 X-296.182 Y-197.901 Z-3.687
G1 X-296.253 Y-197.693 Z-3.694
G1 X-296.309 Y-197.481 Z-3.702
G1 X-296.349 Y-197.265 Z-3.71
G1 X-296.374 Y-197.047 Z-3.717
G1 X-296.383 Y-196.827 Z-3.725
G1 X-296.375 Y-196.608 Z-3.733
G1 X-296.352 Y-196.389 Z-3.74
G1 X-296.313 Y-196.173 Z-3.748
G1 X-296.258 Y-195.961 Z-3.756
G1 X-296.188 Y-195.753 Z-3.763
G1 X-296.103 Y-195.55 Z-3.771
G1 X-296.004 Y-195.354 Z-3.779
G1 X-295.891 Y-195.166 Z-3.786
G1 X-295.764 Y-194.987 Z-3.794
G1 X-295.624 Y-194.818 Z-3.802
G1 X-295.473 Y-194.659 Z-3.809
G1 X-295.31 Y-194.511 Z-3.817
G1 X-295.137 Y-194.376 Z-3.825
G1 X-294.955 Y-194.253 Z-3.832
G1 X-294.764 Y-194.145 Z-3.84
G1 X-294.566 Y-194.05 Z-3.848
G1 X-294.361 Y-193.97 Z-3.855
G1 X-294.152 Y-193.905 Z-3.863
G1 X-293.938 Y-193.856 Z-3.871
G1 X-293.721 Y-193.822 Z-3.879
G1 X-293.502 Y-193.804 Z-3.886
G1 X-293.282 Y-193.803 Z-3.894
G1 X-293.063 Y-193.817 Z-3.902
G1 X-292.846 Y-193.847 Z-3.909
G1 X-292.631 Y-193.892 Z-3.917
G1 X-292.42 Y-193.954 Z-3.925
G1 X-292.214 Y-194.03 Z-3.932
G1 X-292.014 Y-194.121 Z-3.94
G1 X-291.822 Y-194.227 Z-3.948
G1 X-291.638 Y-194.346 Z-3.955
G1 X-291.462 Y-194.478 Z-3.963
G1 X-291.297 Y-194.623 Z-3.971
G1 X-291.143 Y-194.78 Z-3.978
G1 X-291.001 Y-194.947 Z-3.986
G1 X-290.871 Y-195.124 Z-3.994
G1 X-290.754 Y-195.31 Z-4.001
G1 X-290.651 Y-195.504 Z-4.009
G1 X-290.563 Y-195.705 Z-4.017
G1 X-290.49 Y-195.912 Z-4.024
G1 X-290.431 Y-196.123 Z-4.032
G1 X-290.389 Y-196.339 Z-4.04
G1 X-290.362 Y-196.557 Z-4.047
G1 X-290.351 Y-196.776 Z-4.055
G1 X-290.356 Y-196.996 Z-4.063
G1 X-290.376 Y-197.214 Z-4.07
G1 X-290.413 Y-197.431 Z-4.078
G1 X-290.466 Y-197.644 Z-4.086
G1 X-290.533 Y-197.853 Z-4.093
G1 X-290.616 Y-198.056 Z-4.101
G1 X-290.714 Y-198.253 Z-4.109
G1 X-290.825 Y-198.442 Z-4.116
G1 X-290.95 Y-198.623 Z-4.124
G1 X-291.088 Y-198.794 Z-4.132
G1 X-291.237 Y-198.954 Z-4.139
G1 X-291.399 Y-199.103 Z-4.147
G1 X-291.57 Y-199.241 Z-4.155
G1 X-291.751 Y-199.365 Z-4.162
G1 X-291.941 Y-199.476 Z-4.17
G1 X-292.138 Y-199.572 Z-4.178
G1 X-292.341 Y-199.654 Z-4.185
G1 X-292.551 Y-199.721 Z-4.193
G1 X-292.764 Y-199.773 Z-4.201
G1 X-292.981 Y-199.809 Z-4.208
G1 X-293.199 Y-199.829 Z-4.216
G1 X-293.419 Y-199.833 Z-4.224
G1 X-293.638 Y-199.822 Z-4.231
G1 X-293.856 Y-199.794 Z-4.239
G1 X-294.071 Y-199.75 Z-4.247
G1 X-294.283 Y-199.691 Z-4.254
G1 X-294.489 Y-199.617 Z-4.262
G1 X-294.69 Y-199.528 Z-4.27
G1 X-294.884 Y-199.425 Z-4.277
G1 X-295.069 Y-199.307 Z-4.285
G1 X-295.246 Y-199.177 Z-4.293
G1 X-295.412 Y-199.034 Z-4.3
G1 X-295.568 Y-198.879 Z-4.308
G1 X-295.712 Y-198.714 Z-4.316
G1 X-295.844 Y-198.538 Z-4.323
G1 X-295.963 Y-198.353 Z-4.331
G1 X-296.068 Y-198.16 Z-4.339
G1 X-296.158 Y-197.96 Z-4.346
G1 X-296.234 Y-197.754 Z-4.354
G1 X-296.294 Y-197.543 Z-4.362
G1 X-296.339 Y-197.328 Z-4.369
G1 X-296.369 Y-197.11 Z-4.377
G1 X-296.382 Y-196.891 Z-4.385
G1 X-296.379 Y-196.672 Z-4.392
G1 X-296.361 Y-196.453 Z-4.4
G1 X-296.326 Y-196.236 Z-4.408
G1 X-296.276 Y-196.022 Z-4.415
G1 X-296.21 Y-195.813 Z-4.423
G1 X-296.13 Y-195.609 Z-4.431
G1 X-296.035 Y-195.411 Z-4.438
G1 X-295.925 Y-195.22 Z-4.446
G1 X-295.802 Y-195.038 Z-4.454
G1 X-295.666 Y-194.866 Z-4.461
G1 X-295.518 Y-194.704 Z-4.469
G1 X-295.359 Y-194.553 Z-4.477
G1 X-295.189 Y-194.414 Z-4.484
G1 X-295.009 Y-194.288 Z-4.492
G1 X-294.821 Y-194.175 Z-4.5
G1 X-294.624 Y-194.076 Z-4.507
G1 X-294.422 Y-193.992 Z-4.515
G1 X-294.213 Y-193.923 Z-4.523
G1 X-294 Y-193.869 Z-4.53
G1 X-293.784 Y-193.83 Z-4.538
G1 X-293.566 Y-193.808 Z-4.546
G1 X-293.346 Y-193.801 Z-4.553
G1 X-293.127 Y-193.811 Z-4.561
G1 X-292.909 Y-193.836 Z-4.569
G1 X-292.693 Y-193.878 Z-4.576
G1 X-292.481 Y-193.934 Z-4.584
G1 X-292.274 Y-194.006 Z-4.592
G1 X-292.072 Y-194.093 Z-4.599
G1 X-291.877 Y-194.195 Z-4.607
G1 X-291.69 Y-194.31 Z-4.615
G1 X-291.512 Y-194.439 Z-4.622
G1 X-291.344 Y-194.58 Z-4.63
G1 X-291.187 Y-194.733 Z-4.638
G1 X-291.041 Y-194.897 Z-4.645
G1 X-290.907 Y-195.071 Z-4.653
G1 X-290.787 Y-195.255 Z-4.661
G1 X-290.68 Y-195.446 Z-4.668
G1 X-290.587 Y-195.646 Z-4.676
G1 X-290.509 Y-195.851 Z-4.684
G1 X-290.447 Y-196.061 Z-4.691
G1 X-290.399 Y-196.276 Z-4.699
G1 X-290.368 Y-196.493 Z-4.707
G1 X-290.352 Y-196.712 Z-4.714
G1 Y-196.932 Z-4.722
G1 X-290.369 Y-197.151 Z-4.73
G1 X-290.401 Y-197.368 Z-4.737
G1 X-290.449 Y-197.582 Z-4.745
G1 X-290.512 Y-197.792 Z-4.753
G1 X-290.591 Y-197.997 Z-4.76
G1 X-290.684 Y-198.196 Z-4.768
G1 X-290.791 Y-198.388 Z-4.776
G1 X-290.912 Y-198.571 Z-4.783
G1 X-291.046 Y-198.745 Z-4.791
G1 X-291.193 Y-198.908 Z-4.799
G1 X-291.35 Y-199.061 Z-4.807
G1 X-291.519 Y-199.202 Z-4.814
G1 X-291.697 Y-199.33 Z-4.822
G1 X-291.885 Y-199.445 Z-4.83
G1 X-292.08 Y-199.546 Z-4.837
G1 X-292.281 Y-199.632 Z-4.845
G1 X-292.489 Y-199.703 Z-4.853
G1 X-292.701 Y-199.76 Z-4.86
G1 X-292.917 Y-199.8 Z-4.868
G1 X-293.135 Y-199.825 Z-4.876
G1 X-293.355 Y-199.834 Z-4.883
G1 X-293.574 Y-199.827 Z-4.891
G1 X-293.792 Y-199.804 Z-4.899
G1 X-294.009 Y-199.765 Z-4.906
G1 X-294.221 Y-199.71 Z-4.914
G1 X-294.429 Y-199.64 Z-4.922
G1 X-294.632 Y-199.556 Z-4.929
G1 X-294.828 Y-199.456 Z-4.937
G1 X-295.016 Y-199.343 Z-4.945
G1 X-295.195 Y-199.216 Z-4.952
G1 X-295.365 Y-199.077 Z-4.96
G1 X-295.524 Y-198.926 Z-4.968
G1 X-295.672 Y-198.763 Z-4.975
G1 X-295.807 Y-198.59 Z-4.983
G1 X-295.929 Y-198.408 Z-4.991
G1 X-296.038 Y-198.217 Z-4.998
G1 X-296.133 Y-198.019 Z-5.006
G1 X-296.213 Y-197.815 Z-5.014
G1 X-296.278 Y-197.605 Z-5.021
G1 X-296.328 Y-197.391 Z-5.029
G1 X-296.362 Y-197.174 Z-5.037
G1 X-296.38 Y-196.955 Z-5.044
G1 X-296.382 Y-196.736 Z-5.052
G1 X-296.368 Y-196.517 Z-5.06
G1 X-296.338 Y-196.299 Z-5.067
G1 X-296.292 Y-196.084 Z-5.075
G1 X-296.231 Y-195.873 Z-5.083
G1 X-296.155 Y-195.667 Z-5.09
G1 X-296.064 Y-195.468 Z-5.098
G1 X-295.958 Y-195.275 Z-5.106
G1 X-295.839 Y-195.091 Z-5.113
G1 X-295.707 Y-194.915 Z-5.121
G1 X-295.563 Y-194.75 Z-5.129
G1 X-295.406 Y-194.596 Z-5.136
G1 X-295.239 Y-194.453 Z-5.144
G1 X-295.062 Y-194.323 Z-5.152
G1 X-294.876 Y-194.206 Z-5.159
G1 X-294.682 Y-194.104 Z-5.167
G1 X-294.481 Y-194.015 Z-5.175
G1 X-294.275 Y-193.941 Z-5.182
G1 X-294.063 Y-193.883 Z-5.19
G1 X-293.848 Y-193.84 Z-5.198
G1 X-293.63 Y-193.813 Z-5.205
G1 X-293.41 Y-193.802 Z-5.213
G1 X-293.191 Y-193.807 Z-5.221
G1 X-292.972 Y-193.827 Z-5.228
G1 X-292.756 Y-193.864 Z-5.236
G1 X-292.543 Y-193.916 Z-5.244
G1 X-292.334 Y-193.984 Z-5.251
G1 X-292.13 Y-194.066 Z-5.259
G1 X-291.933 Y-194.164 Z-5.267
G1 X-291.744 Y-194.275 Z-5.274
G1 X-291.563 Y-194.4 Z-5.282
G1 X-291.392 Y-194.537 Z-5.29
G1 X-291.232 Y-194.687 Z-5.297
G1 X-291.082 Y-194.848 Z-5.305
G1 X-290.945 Y-195.019 Z-5.313
G1 X-290.821 Y-195.2 Z-5.32
G1 X-290.71 Y-195.39 Z-5.328
G1 X-290.613 Y-195.587 Z-5.336
G1 X-290.531 Y-195.79 Z-5.343
G1 X-290.463 Y-195.999 Z-5.351
G1 X-290.412 Y-196.213 Z-5.359
G1 X-290.375 Y-196.429 Z-5.366
G1 X-290.355 Y-196.648 Z-5.374
G1 X-290.351 Y-196.867 Z-5.382
G1 X-290.362 Y-197.087 Z-5.389
G1 X-290.39 Y-197.305 Z-5.397
G1 X-290.433 Y-197.52 Z-5.405
G1 X-290.492 Y-197.731 Z-5.412
G1 X-290.566 Y-197.938 Z-5.42
G1 X-290.655 Y-198.139 Z-5.428
G1 X-290.758 Y-198.333 Z-5.435
G1 X-290.875 Y-198.518 Z-5.443
G1 X-291.006 Y-198.695 Z-5.451
G1 X-291.149 Y-198.862 Z-5.458
G1 X-291.303 Y-199.018 Z-5.466
G1 X-291.469 Y-199.162 Z-5.474
G1 X-291.644 Y-199.294 Z-5.481
G1 X-291.829 Y-199.413 Z-5.489
G1 X-292.022 Y-199.518 Z-5.497
G1 X-292.222 Y-199.608 Z-5.504
G1 X-292.428 Y-199.684 Z-5.512
G1 X-292.639 Y-199.745 Z-5.52
G1 X-292.854 Y-199.79 Z-5.527
G1 X-293.071 Y-199.819 Z-5.535
G1 X-293.291 Y-199.833 Z-5.543
G1 X-293.51 Y-199.83 Z-5.55
G1 X-293.729 Y-199.812 Z-5.558
G1 X-293.946 Y-199.778 Z-5.566
G1 X-294.16 Y-199.728 Z-5.573
G1 X-294.369 Y-199.662 Z-5.581
G1 X-294.573 Y-199.582 Z-5.589
G1 X-294.771 Y-199.487 Z-5.596
G1 X-294.962 Y-199.377 Z-5.604
G1 X-295.144 Y-199.255 Z-5.612
G1 X-295.316 Y-199.119 Z-5.619
G1 X-295.479 Y-198.971 Z-5.627
G1 X-295.63 Y-198.812 Z-5.635
G1 X-295.769 Y-198.642 Z-5.642
G1 X-295.895 Y-198.462 Z-5.65
G1 X-296.008 Y-198.274 Z-5.658
G1 X-296.107 Y-198.078 Z-5.665
G1 X-296.191 Y-197.875 Z-5.673
G1 X-296.261 Y-197.667 Z-5.681
G1 X-296.315 Y-197.454 Z-5.688
G1 X-296.353 Y-197.238 Z-5.696
G1 X-296.376 Y-197.019 Z-5.704
G1 X-296.383 Y-196.8 Z-5.711
G1 X-296.373 Y-196.58 Z-5.719
G1 X-296.348 Y-196.362 Z-5.727
G1 X-296.307 Y-196.147 Z-5.734
G1 X-296.251 Y-195.934 Z-5.742
G1 X-296.179 Y-195.727 Z-5.75
G1 X-296.092 Y-195.525 Z-5.758
G1 X-295.991 Y-195.33 Z-5.765
G1 X-295.876 Y-195.144 Z-5.773
G1 X-295.747 Y-194.965 Z-5.781
G1 X-295.606 Y-194.797 Z-5.788
G1 X-295.453 Y-194.64 Z-5.796
G1 X-295.289 Y-194.494 Z-5.804
G1 X-295.115 Y-194.36 Z-5.811
G1 X-294.932 Y-194.239 Z-5.819
G1 X-294.74 Y-194.132 Z-5.827
G1 X-294.541 Y-194.039 Z-5.834
G1 X-294.336 Y-193.961 Z-5.842
G1 X-294.125 Y-193.898 Z-5.85
G1 X-293.911 Y-193.851 Z-5.857
G1 X-293.694 Y-193.819 Z-5.865
G1 X-293.475 Y-193.803 Z-5.873
G1 X-293.255 Z-5.88
G1 X-293.036 Y-193.82 Z-5.888
G1 X-292.819 Y-193.852 Z-5.896
G1 X-292.604 Y-193.899 Z-5.903
G1 X-292.394 Y-193.962 Z-5.911
G1 X-292.189 Y-194.041 Z-5.919
G1 X-291.99 Y-194.134 Z-5.926
G1 X-291.798 Y-194.241 Z-5.934
G1 X-291.615 Y-194.362 Z-5.942
G1 X-291.441 Y-194.496 Z-5.949
G1 X-291.277 Y-194.642 Z-5.957
G1 X-291.125 Y-194.8 Z-5.965
G1 X-290.984 Y-194.968 Z-5.972
G1 X-290.856 Y-195.146 Z-5.98
G1 X-290.741 Y-195.334 Z-5.988
G1 X-290.64 Y-195.529 Z-5.995
G1 X-290.553 Y-195.73 Z-6.003
G1 X-290.481 Y-195.938 Z-6.011
G1 X-290.425 Y-196.15 Z-6.018
G1 X-290.384 Y-196.366 Z-6.026
G1 X-290.359 Y-196.584 Z-6.034
G1 X-290.35 Y-196.803 Z-6.041
G1 X-290.357 Y-197.023 Z-6.049
G1 X-290.38 Y-197.241 Z-6.057
G1 X-290.419 Y-197.457 Z-6.064
G1 X-290.473 Y-197.67 Z-6.072
G1 X-290.543 Y-197.878 Z-6.08
G1 X-290.628 Y-198.081 Z-6.087
G1 X-290.727 Y-198.277 Z-6.095
G1 X-290.84 Y-198.465 Z-6.103
G1 X-290.966 Y-198.644 Z-6.11
G1 X-291.106 Y-198.814 Z-6.118
G1 X-291.257 Y-198.973 Z-6.126
G1 X-291.419 Y-199.121 Z-6.133
G1 X-291.592 Y-199.257 Z-6.141
G1 X-291.774 Y-199.379 Z-6.149
G1 X-291.965 Y-199.488 Z-6.156
G1 X-292.163 Y-199.583 Z-6.164
G1 X-292.367 Y-199.664 Z-6.172
G1 X-292.577 Y-199.729 Z-6.179
G1 X-292.791 Y-199.778 Z-6.187
G1 X-293.008 Y-199.812 Z-6.195
G1 X-293.226 Y-199.831 Z-6.202
G1 X-293.446 Y-199.833 Z-6.21
G1 X-293.665 Y-199.819 Z-6.218
G1 X-293.883 Y-199.789 Z-6.225
G1 X-294.098 Y-199.744 Z-6.233
G1 X-294.309 Y-199.683 Z-6.241
G1 X-294.514 Y-199.607 Z-6.248
G1 X-294.714 Y-199.516 Z-6.256
G1 X-294.907 Y-199.411 Z-6.264
G1 X-295.092 Y-199.292 Z-6.271
G1 X-295.267 Y-199.16 Z-6.279
G1 X-295.432 Y-199.015 Z-6.287
G1 X-295.587 Y-198.859 Z-6.294
G1 X-295.729 Y-198.692 Z-6.302
G1 X-295.86 Y-198.515 Z-6.31
G1 X-295.976 Y-198.33 Z-6.317
G1 X-296.08 Y-198.136 Z-6.325
G1 X-296.168 Y-197.935 Z-6.333
G1 X-296.242 Y-197.728 Z-6.34
G1 X-296.301 Y-197.516 Z-6.348
G1 X-296.344 Y-197.301 Z-6.356
G1 X-296.371 Y-197.083 Z-6.363
G1 X-296.382 Y-196.864 Z-6.371
G1 X-296.378 Y-196.644 Z-6.379
G1 X-296.357 Y-196.426 Z-6.386
G1 X-296.321 Y-196.209 Z-6.394
G1 X-296.269 Y-195.996 Z-6.402
G1 X-296.201 Y-195.787 Z-6.409
G1 X-296.119 Y-195.584 Z-6.417
G1 X-296.022 Y-195.387 Z-6.425
G1 X-295.911 Y-195.197 Z-6.432
G1 X-295.786 Y-195.016 Z-6.44
G1 X-295.648 Y-194.845 Z-6.448
G1 X-295.499 Y-194.684 Z-6.455
G1 X-295.338 Y-194.535 Z-6.463
G1 X-295.167 Y-194.398 Z-6.471
G1 X-294.986 Y-194.273 Z-6.478
G1 X-294.797 Y-194.162 Z-6.486
G1 X-294.6 Y-194.065 Z-6.494
G1 X-294.396 Y-193.983 Z-6.501
G1 X-294.187 Y-193.915 Z-6.509
G1 X-293.974 Y-193.863 Z-6.517
G1 X-293.757 Y-193.827 Z-6.524
G1 X-293.539 Y-193.806 Z-6.532
G1 X-293.319 Y-193.802 Z-6.54
G1 X-293.1 Y-193.813 Z-6.547
G1 X-292.882 Y-193.841 Z-6.555
G1 X-292.667 Y-193.884 Z-6.563
G1 X-292.455 Y-193.942 Z-6.57
G1 X-292.248 Y-194.016 Z-6.578
G1 X-292.047 Y-194.105 Z-6.586
G1 X-291.854 Y-194.208 Z-6.593
G1 X-291.668 Y-194.325 Z-6.601
G1 X-291.491 Y-194.455 Z-6.609
G1 X-291.324 Y-194.598 Z-6.616
G1 X-291.168 Y-194.753 Z-6.624
G1 X-291.024 Y-194.918 Z-6.632
G1 X-290.892 Y-195.093 Z-6.639
G1 X-290.773 Y-195.278 Z-6.647
G1 X-290.668 Y-195.471 Z-6.655
G1 X-290.577 Y-195.671 Z-6.662
G1 X-290.501 Y-195.877 Z-6.67
G1 X-290.44 Y-196.088 Z-6.678
G1 X-290.395 Y-196.303 Z-6.686
G1 X-290.365 Y-196.52 Z-6.693
G1 X-290.351 Y-196.739 Z-6.701
G1 X-290.354 Y-196.959 Z-6.709
G1 X-290.372 Y-197.178 Z-6.716
G1 X-290.406 Y-197.395 Z-6.724
G1 X-290.456 Y-197.608 Z-6.732
G1 X-290.521 Y-197.818 Z-6.739
G1 X-290.601 Y-198.022 Z-6.747
G1 X-290.696 Y-198.22 Z-6.755
G1 X-290.805 Y-198.411 Z-6.762
G1 X-290.928 Y-198.593 Z-6.77
G1 X-291.064 Y-198.766 Z-6.778
G1 X-291.212 Y-198.928 Z-6.785
G1 X-291.371 Y-199.079 Z-6.793
G1 X-291.541 Y-199.218 Z-6.801
G1 X-291.72 Y-199.345 Z-6.808
G1 X-291.908 Y-199.458 Z-6.816
G1 X-292.104 Y-199.557 Z-6.824
G1 X-292.307 Y-199.642 Z-6.831
G1 X-292.515 Y-199.711 Z-6.839
G1 X-292.728 Y-199.766 Z-6.847
G1 X-292.944 Y-199.804 Z-6.854
G1 X-293.162 Y-199.827 Z-6.862
G1 X-293.382 Y-199.834 Z-6.87
G1 X-293.601 Y-199.825 Z-6.877
G1 X-293.819 Y-199.8 Z-6.885
G1 X-294.035 Y-199.759 Z-6.893
G1 X-294.247 Y-199.702 Z-6.9
G1 X-294.455 Y-199.631 Z-6.908
G1 X-294.657 Y-199.544 Z-6.916
G1 X-294.852 Y-199.443 Z-6.923
G1 X-295.039 Y-199.328 Z-6.931
G1 X-295.217 Y-199.2 Z-6.939
G1 X-295.385 Y-199.059 Z-6.946
G1 X-295.543 Y-198.906 Z-6.954
G1 X-295.689 Y-198.742 Z-6.962
G1 X-295.823 Y-198.568 Z-6.969
G1 X-295.944 Y-198.385 Z-6.977
G1 X-296.051 Y-198.193 Z-6.985
G1 X-296.144 Y-197.994 Z-6.992
G1 X-296.222 Y-197.789 Z-7
G1 X-296.285 Y-197.579 Z-7.008
G1 X-296.333 Y-197.364 Z-7.015
G1 X-296.365 Y-197.147 Z-7.023
G1 X-296.381 Y-196.928 Z-7.031
G1 Y-196.708 Z-7.038
G1 X-296.365 Y-196.489 Z-7.046
G1 X-296.333 Y-196.272 Z-7.054
G1 X-296.285 Y-196.058 Z-7.061
G1 X-296.222 Y-195.847 Z-7.069
G1 X-296.144 Y-195.642 Z-7.077
G1 X-296.051 Y-195.443 Z-7.084
G1 X-295.944 Y-195.252 Z-7.092
G1 X-295.824 Y-195.068 Z-7.1
G1 X-295.69 Y-194.894 Z-7.107
G1 X-295.544 Y-194.73 Z-7.115
G1 X-295.386 Y-194.577 Z-7.123
G1 X-295.218 Y-194.436 Z-7.13
G1 X-295.04 Y-194.308 Z-7.138
G1 X-294.853 Y-194.193 Z-7.146
G1 X-294.658 Y-194.092 Z-7.153
G1 X-294.456 Y-194.005 Z-7.161
G1 X-294.249 Y-193.933 Z-7.169
G1 X-294.036 Y-193.877 Z-7.176
G1 X-293.821 Y-193.836 Z-7.184
G1 X-293.603 Y-193.811 Z-7.192
G1 X-293.383 Y-193.801 Z-7.199
G1 X-293.164 Y-193.808 Z-7.207
G1 X-292.945 Y-193.831 Z-7.215
G1 X-292.729 Y-193.87 Z-7.222
G1 X-292.516 Y-193.924 Z-7.23
G1 X-292.308 Y-193.993 Z-7.238
G1 X-292.105 Y-194.078 Z-7.245
G1 X-291.909 Y-194.177 Z-7.253
G1 X-291.721 Y-194.29 Z-7.261
G1 X-291.542 Y-194.416 Z-7.268
G1 X-291.372 Y-194.555 Z-7.276
G1 X-291.212 Y-194.706 Z-7.284
G1 X-291.065 Y-194.869 Z-7.291
G1 X-290.929 Y-195.041 Z-7.299
G1 X-290.806 Y-195.223 Z-7.307
G1 X-290.697 Y-195.414 Z-7.314
G1 X-290.602 Y-195.612 Z-7.322
G1 X-290.521 Y-195.816 Z-7.33
G1 X-290.456 Y-196.026 Z-7.337
G1 X-290.406 Y-196.24 Z-7.345
G1 X-290.372 Y-196.456 Z-7.353
G1 X-290.354 Y-196.675 Z-7.36
G1 X-290.351 Y-196.895 Z-7.368
G1 X-290.365 Y-197.114 Z-7.376
G1 X-290.394 Y-197.332 Z-7.383
G1 X-290.44 Y-197.546 Z-7.391
G1 X-290.5 Y-197.757 Z-7.399
G1 X-290.576 Y-197.963 Z-7.406
G1 X-290.667 Y-198.163 Z-7.414
G1 X-290.772 Y-198.356 Z-7.422
G1 X-290.891 Y-198.541 Z-7.429
G1 X-291.023 Y-198.716 Z-7.437
G1 X-291.167 Y-198.882 Z-7.445
G1 X-291.323 Y-199.036 Z-7.452
G1 X-291.49 Y-199.179 Z-7.46
G1 X-291.667 Y-199.309 Z-7.468
G1 X-291.853 Y-199.426 Z-7.475
G1 X-292.046 Y-199.53 Z-7.483
G1 X-292.247 Y-199.619 Z-7.491
G1 X-292.454 Y-199.693 Z-7.498
G1 X-292.665 Y-199.751 Z-7.506
G1 X-292.881 Y-199.795 Z-7.514
G1 X-293.099 Y-199.822 Z-7.521
G1 X-293.318 Y-199.833 Z-7.529
G1 X-293.537 Y-199.829 Z-7.537
G1 X-293.756 Y-199.809 Z-7.544
G1 X-293.973 Y-199.772 Z-7.552
G1 X-294.186 Y-199.72 Z-7.56
G1 X-294.395 Y-199.653 Z-7.567
G1 X-294.598 Y-199.571 Z-7.575
G1 X-294.796 Y-199.474 Z-7.583
G1 X-294.985 Y-199.363 Z-7.59
G1 X-295.166 Y-199.238 Z-7.598
G1 X-295.337 Y-199.101 Z-7.606
G1 X-295.498 Y-198.952 Z-7.614
G1 X-295.648 Y-198.791 Z-7.621
G1 X-295.785 Y-198.62 Z-7.629
G1 X-295.91 Y-198.439 Z-7.637
G1 X-296.021 Y-198.25 Z-7.644
G1 X-296.118 Y-198.053 Z-7.652
G1 X-296.201 Y-197.849 Z-7.66
G1 X-296.268 Y-197.64 Z-7.667
G1 X-296.321 Y-197.427 Z-7.675
G1 X-296.357 Y-197.211 Z-7.683
G1 X-296.378 Y-196.992 Z-7.69
G1 X-296.382 Y-196.773 Z-7.698
G1 X-296.371 Y-196.553 Z-7.706
G1 X-296.344 Y-196.335 Z-7.713
G1 X-296.301 Y-196.12 Z-7.721
G1 X-296.242 Y-195.908 Z-7.729
G1 X-296.169 Y-195.702 Z-7.736
G1 X-296.08 Y-195.501 Z-7.744
G1 X-295.977 Y-195.307 Z-7.752
G1 X-295.86 Y-195.121 Z-7.759
G1 X-295.73 Y-194.944 Z-7.767
G1 X-295.588 Y-194.777 Z-7.775
G1 X-295.433 Y-194.621 Z-7.782
G1 X-295.268 Y-194.476 Z-7.79
G1 X-295.093 Y-194.344 Z-7.798
G1 X-294.908 Y-194.225 Z-7.805
G1 X-294.715 Y-194.12 Z-7.813
G1 X-294.516 Y-194.029 Z-7.821
G1 X-294.31 Y-193.953 Z-7.828
G1 X-294.099 Y-193.892 Z-7.836
G1 X-293.884 Y-193.846 Z-7.844
G1 X-293.666 Y-193.816 Z-7.851
G1 X-293.447 Y-193.802 Z-7.859
G1 X-293.228 Y-193.805 Z-7.867
G1 X-293.009 Y-193.823 Z-7.874
G1 X-292.792 Y-193.857 Z-7.882
G1 X-292.578 Y-193.906 Z-7.89
G1 X-292.368 Y-193.971 Z-7.897
G1 X-292.164 Y-194.052 Z-7.905
G1 X-291.966 Y-194.146 Z-7.913
G1 X-291.775 Y-194.255 Z-7.92
G1 X-291.593 Y-194.378 Z-7.928
G1 X-291.42 Y-194.513 Z-7.936
G1 X-291.258 Y-194.661 Z-7.943
G1 X-291.106 Y-194.82 Z-7.951
G1 X-290.967 Y-194.99 Z-7.959
G1 X-290.841 Y-195.169 Z-7.966
G1 X-290.727 Y-195.357 Z-7.974
G1 X-290.628 Y-195.553 Z-7.982
G1 X-290.543 Y-195.756 Z-7.989
G1 X-290.474 Y-195.964 Z-7.997
G1 X-290.419 Y-196.177 Z-8.005
G1 X-290.38 Y-196.393 Z-8.012
G1 X-290.357 Y-196.611 Z-8.02
G1 X-290.35 Y-196.831 Z-8.028
G1 X-290.359 Y-197.05 Z-8.035
G1 X-290.384 Y-197.268 Z-8.043
G1 X-290.425 Y-197.484 Z-8.051
G1 X-290.481 Y-197.696 Z-8.058
G1 X-290.553 Y-197.904 Z-8.066
G1 X-290.639 Y-198.106 Z-8.074
G1 X-290.74 Y-198.301 Z-8.081
G1 X-290.855 Y-198.488 Z-8.089
G1 X-290.983 Y-198.666 Z-8.097
G1 X-291.124 Y-198.835 Z-8.104
G1 X-291.277 Y-198.992 Z-8.112
G1 X-291.44 Y-199.139 Z-8.12
G1 X-291.614 Y-199.273 Z-8.127
G1 X-291.797 Y-199.394 Z-8.135
G1 X-291.989 Y-199.501 Z-8.143
G1 X-292.188 Y-199.594 Z-8.15
G1 X-292.393 Y-199.672 Z-8.158
G1 X-292.603 Y-199.736 Z-8.166
G1 X-292.818 Y-199.784 Z-8.173
G1 X-293.035 Y-199.816 Z-8.181
G1 X-293.254 Y-199.832 Z-8.189
G1 X-293.473 Z-8.196
G1 X-293.692 Y-199.816 Z-8.204
G1 X-293.91 Y-199.785 Z-8.212
G1 X-294.124 Y-199.737 Z-8.219
G1 X-294.334 Y-199.674 Z-8.227
G1 X-294.54 Y-199.596 Z-8.235
G1 X-294.739 Y-199.504 Z-8.242
G1 X-294.931 Y-199.397 Z-8.25
G1 X-295.114 Y-199.276 Z-8.258
G1 X-295.288 Y-199.142 Z-8.265
G1 X-295.452 Y-198.997 Z-8.273
G1 X-295.605 Y-198.839 Z-8.281
G1 X-295.746 Y-198.671 Z-8.288
G1 X-295.875 Y-198.493 Z-8.296
G1 X-295.99 Y-198.306 Z-8.304
G1 X-296.091 Y-198.111 Z-8.311
G1 X-296.178 Y-197.909 Z-8.319
G1 X-296.25 Y-197.702 Z-8.327
G1 X-296.307 Y-197.49 Z-8.334
G1 X-296.348 Y-197.274 Z-8.342
G1 X-296.373 Y-197.056 Z-8.35
G1 X-296.383 Y-196.837 Z-8.357
G1 X-296.376 Y-196.617 Z-8.365
G1 X-296.354 Y-196.399 Z-8.373
G1 X-296.315 Y-196.183 Z-8.38
G1 X-296.261 Y-195.97 Z-8.388
G1 X-296.192 Y-195.761 Z-8.396
G1 X-296.107 Y-195.559 Z-8.403
G1 X-296.009 Y-195.363 Z-8.411
G1 X-295.896 Y-195.174 Z-8.419
G1 X-295.769 Y-194.995 Z-8.426
G1 X-295.63 Y-194.825 Z-8.434
G1 X-295.479 Y-194.665 Z-8.442
G1 X-295.317 Y-194.517 Z-8.449
G1 X-295.145 Y-194.381 Z-8.457
G1 X-294.963 Y-194.258 Z-8.465
G1 X-294.772 Y-194.149 Z-8.472
G1 X-294.575 Y-194.054 Z-8.48
G1 X-294.37 Y-193.973 Z-8.488
G1 X-294.161 Y-193.908 Z-8.495
G1 X-293.947 Y-193.858 Z-8.503
G1 X-293.73 Y-193.823 Z-8.511
G1 X-293.511 Y-193.805 Z-8.518
G1 X-293.292 Y-193.802 Z-8.526
G1 X-293.073 Y-193.816 Z-8.534
G1 X-292.855 Y-193.845 Z-8.541
G1 X-292.64 Y-193.89 Z-8.549
G1 X-292.429 Y-193.951 Z-8.557
G1 X-292.223 Y-194.027 Z-8.565
G1 X-292.023 Y-194.117 Z-8.572
G1 X-291.83 Y-194.222 Z-8.58
G1 X-291.645 Y-194.341 Z-8.588
G1 X-291.47 Y-194.473 Z-8.595
G1 X-291.304 Y-194.617 Z-8.603
G1 X-291.149 Y-194.773 Z-8.611
G1 X-291.007 Y-194.939 Z-8.618
G1 X-290.876 Y-195.116 Z-8.626
G1 X-290.759 Y-195.302 Z-8.634
G1 X-290.656 Y-195.495 Z-8.641
G1 X-290.567 Y-195.696 Z-8.649
G1 X-290.492 Y-195.903 Z-8.657
G1 X-290.433 Y-196.114 Z-8.664
G1 X-290.39 Y-196.33 Z-8.672
G1 X-290.362 Y-196.547 Z-8.68
G1 X-290.351 Y-196.767 Z-8.687
G1 X-290.355 Y-196.986 Z-8.695
G1 X-290.375 Y-197.205 Z-8.703
G1 X-290.411 Y-197.421 Z-8.71
G1 X-290.463 Y-197.635 Z-8.718
G1 X-290.53 Y-197.844 Z-8.726
G1 X-290.612 Y-198.047 Z-8.733
G1 X-290.709 Y-198.245 Z-8.741
G1 X-290.82 Y-198.434 Z-8.749
G1 X-290.944 Y-198.615 Z-8.756
G1 X-291.082 Y-198.787 Z-8.764
G1 X-291.231 Y-198.948 Z-8.772
G1 X-291.391 Y-199.097 Z-8.779
G1 X-291.562 Y-199.235 Z-8.787
G1 X-291.743 Y-199.36 Z-8.795
G1 X-291.932 Y-199.471 Z-8.802
G1 X-292.129 Y-199.568 Z-8.81
G1 X-292.333 Y-199.651 Z-8.818
G1 X-292.541 Y-199.719 Z-8.825
G1 X-292.755 Y-199.771 Z-8.833
G1 X-292.971 Y-199.808 Z-8.841
G1 X-293.19 Y-199.829 Z-8.848
G1 X-293.409 Y-199.834 Z-8.856
G1 X-293.629 Y-199.822 Z-8.864
G1 X-293.846 Y-199.795 Z-8.871
G1 X-294.062 Y-199.753 Z-8.879
G1 X-294.274 Y-199.694 Z-8.887
G1 X-294.48 Y-199.621 Z-8.894
G1 X-294.681 Y-199.532 Z-8.902
G1 X-294.875 Y-199.429 Z-8.91
G1 X-295.061 Y-199.313 Z-8.917
G1 X-295.238 Y-199.183 Z-8.925
G1 X-295.405 Y-199.04 Z-8.933
G1 X-295.562 Y-198.886 Z-8.94
G1 X-295.706 Y-198.721 Z-8.948
G1 X-295.839 Y-198.546 Z-8.956
G1 X-295.958 Y-198.361 Z-8.963
G1 X-296.063 Y-198.169 Z-8.971
G1 X-296.154 Y-197.969 Z-8.979
G1 X-296.231 Y-197.763 Z-8.986
G1 X-296.292 Y-197.552 Z-8.994
G1 X-296.338 Y-197.337 Z-9.002
G1 X-296.368 Y-197.12 Z-9.009
G1 X-296.382 Y-196.901 Z-9.017
G1 X-296.386 Y-196.746
G2 X-296.297 Y-196.514 I0.324 J0.009
G2 X-296.07 Y-196.413 I0.236 J-0.223
G1 X-264.473 Y-195.543
G2 X-264.242 Y-195.632 I0.009 J-0.324
G2 X-264.14 Y-195.859 I-0.223 J-0.236
G1 X-264.132 Y-196.167
G2 X-264.447 Y-196.5 I-0.324 J-0.009
G1 X-296.044 Y-197.37
G2 X-296.377 Y-197.055 I-0.009 J0.324
G1 X-296.382 Y-196.901
G3 X-297.85 Y-194.198 I-3.394 J-0.093
G2 X-298.265 Y-191.948 I0.918 J1.332
G2 X-296.977 Y-191.248 I1.332 J-0.918
G1 X-261.213 Y-190.264
G3 X-258.668 Y-189.144 I-0.101 J3.682
G2 X-258.221 Y-189.137 I0.227 J-0.22
G2 X-258.198 Y-189.567 I-0.22 J-0.227
G3 X-259.056 Y-192.032 I2.824 J-2.364
G1 X-258.848 Y-199.583
G3 X-257.687 Y-202.167 I3.682 J0.101
G2 X-257.673 Y-202.615 I-0.217 J-0.231
G2 X-257.896 Y-202.715 I-0.231 J0.217
G2 X-258.124 Y-202.626 I-0.008 J0.317
G3 X-260.788 Y-201.589 I-2.563 J-2.645
G1 X-299.417 Y-202.653
G3 X-302.02 Y-203.834 I0.101 J-3.682
G2 X-302.468 Y-203.851 I-0.233 J0.215
G2 X-302.569 Y-203.629 I0.215 J0.233
G2 X-302.482 Y-203.4 I0.317 J0.01
G3 X-301.465 Y-200.757 I-2.665 J2.542
G1 X-301.673 Y-193.206
G3 X-302.665 Y-190.792 I-3.682 J-0.101
G2 X-302.65 Y-190.344 I0.232 J0.216
G2 X-302.218 Y-190.343 I0.216 J-0.232
G3 X-299.616 Y-191.321 I2.501 J2.704
G1 X-296.977 Y-191.248
G0 Z6.096
G0 X-263.06 Y-481.18
G1 Z3.556 F508.
G1 X-262.841 Y-481.172 Z3.548
G1 X-262.622 Y-481.181 Z3.541
G1 X-262.403 Y-481.205 Z3.533
G1 X-262.188 Y-481.245 Z3.525
G1 X-261.975 Y-481.3 Z3.518
G1 X-261.768 Y-481.371 Z3.51
G1 X-261.565 Y-481.457 Z3.502
G1 X-261.37 Y-481.557 Z3.495
G1 X-261.183 Y-481.671 Z3.487
G1 X-261.004 Y-481.798 Z3.479
G1 X-260.835 Y-481.938 Z3.472
G1 X-260.677 Y-482.09 Z3.464
G1 X-260.53 Y-482.253 Z3.456
G1 X-260.395 Y-482.427 Z3.449
G1 X-260.274 Y-482.609 Z3.441
G1 X-260.166 Y-482.8 Z3.433
G1 X-260.072 Y-482.999 Z3.426
G1 X-259.992 Y-483.204 Z3.418
G1 X-259.928 Y-483.413 Z3.41
G1 X-259.88 Y-483.627 Z3.403
G1 X-259.847 Y-483.844 Z3.395
G1 X-259.83 Y-484.063 Z3.387
G1 X-259.829 Y-484.283 Z3.38
G1 X-259.843 Y-484.502 Z3.372
G1 X-259.874 Y-484.719 Z3.364
G1 X-259.92 Y-484.934 Z3.357
G1 X-259.982 Y-485.144 Z3.349
G1 X-260.059 Y-485.35 Z3.341
G1 X-260.151 Y-485.549 Z3.334
G1 X-260.257 Y-485.741 Z3.326
G1 X-260.377 Y-485.925 Z3.318
G1 X-260.51 Y-486.1 Z3.311
G1 X-260.655 Y-486.264 Z3.303
G1 X-260.812 Y-486.418 Z3.295
G1 X-260.979 Y-486.56 Z3.288
G1 X-261.156 Y-486.689 Z3.28
G1 X-261.343 Y-486.805 Z3.272
G1 X-261.537 Y-486.907 Z3.265
G1 X-261.738 Y-486.995 Z3.257
G1 X-261.945 Y-487.068 Z3.249
G1 X-262.157 Y-487.126 Z3.242
G1 X-262.372 Y-487.168 Z3.234
G1 X-262.59 Y-487.194 Z3.226
G1 X-262.809 Y-487.205 Z3.219
G1 X-263.029 Y-487.199 Z3.211
G1 X-263.247 Y-487.178 Z3.203
G1 X-263.464 Y-487.141 Z3.196
G1 X-263.677 Y-487.088 Z3.188
G1 X-263.885 Y-487.019 Z3.18
G1 X-264.088 Y-486.936 Z3.173
G1 X-264.285 Y-486.838 Z3.165
G1 X-264.474 Y-486.726 Z3.157
G1 X-264.654 Y-486.601 Z3.15
G1 X-264.824 Y-486.463 Z3.142
G1 X-264.985 Y-486.313 Z3.134
G1 X-265.133 Y-486.152 Z3.127
G1 X-265.27 Y-485.98 Z3.119
G1 X-265.394 Y-485.799 Z3.111
G1 X-265.504 Y-485.609 Z3.104
G1 X-265.6 Y-485.412 Z3.096
G1 X-265.682 Y-485.208 Z3.088
G1 X-265.749 Y-484.999 Z3.081
G1 X-265.8 Y-484.786 Z3.073
G1 X-265.836 Y-484.569 Z3.065
G1 X-265.855 Y-484.35 Z3.058
G1 X-265.859 Y-484.131 Z3.05
G1 X-265.847 Y-483.912 Z3.042
G1 X-265.819 Y-483.694 Z3.035
G1 X-265.775 Y-483.479 Z3.027
G1 X-265.716 Y-483.268 Z3.019
G1 X-265.641 Y-483.061 Z3.012
G1 X-265.552 Y-482.861 Z3.004
G1 X-265.448 Y-482.668 Z2.996
G1 X-265.33 Y-482.482 Z2.989
G1 X-265.2 Y-482.306 Z2.981
G1 X-265.057 Y-482.139 Z2.973
G1 X-264.902 Y-481.984 Z2.966
G1 X-264.736 Y-481.84 Z2.958
G1 X-264.56 Y-481.709 Z2.95
G1 X-264.375 Y-481.59 Z2.943
G1 X-264.182 Y-481.486 Z2.935
G1 X-263.982 Y-481.396 Z2.927
G1 X-263.776 Y-481.32 Z2.92
G1 X-263.565 Y-481.26 Z2.912
G1 X-263.35 Y-481.215 Z2.904
G1 X-263.133 Y-481.186 Z2.897
G1 X-262.913 Y-481.173 Z2.889
G1 X-262.694 Y-481.176 Z2.881
G1 X-262.475 Y-481.195 Z2.874
G1 X-262.259 Y-481.23 Z2.866
G1 X-262.045 Y-481.28 Z2.858
G1 X-261.836 Y-481.346 Z2.851
G1 X-261.632 Y-481.427 Z2.843
G1 X-261.434 Y-481.522 Z2.835
G1 X-261.244 Y-481.632 Z2.828
G1 X-261.062 Y-481.755 Z2.82
G1 X-260.89 Y-481.891 Z2.812
G1 X-260.728 Y-482.039 Z2.805
G1 X-260.577 Y-482.198 Z2.797
G1 X-260.438 Y-482.368 Z2.789
G1 X-260.312 Y-482.548 Z2.782
G1 X-260.2 Y-482.737 Z2.774
G1 X-260.101 Y-482.933 Z2.766
G1 X-260.017 Y-483.135 Z2.759
G1 X-259.948 Y-483.344 Z2.751
G1 X-259.894 Y-483.556 Z2.743
G1 X-259.856 Y-483.773 Z2.736
G1 X-259.834 Y-483.991 Z2.728
G1 X-259.827 Y-484.21 Z2.72
G1 X-259.837 Y-484.43 Z2.713
G1 X-259.862 Y-484.648 Z2.705
G1 X-259.903 Y-484.863 Z2.697
G1 X-259.96 Y-485.075 Z2.69
G1 X-260.032 Y-485.282 Z2.682
G1 X-260.119 Y-485.484 Z2.674
G1 X-260.221 Y-485.679 Z2.667
G1 X-260.336 Y-485.865 Z2.659
G1 X-260.465 Y-486.043 Z2.651
G1 X-260.606 Y-486.211 Z2.644
G1 X-260.759 Y-486.369 Z2.636
G1 X-260.923 Y-486.514 Z2.628
G1 X-261.097 Y-486.648 Z2.621
G1 X-261.28 Y-486.768 Z2.613
G1 X-261.472 Y-486.875 Z2.605
G1 X-261.671 Y-486.968 Z2.598
G1 X-261.876 Y-487.046 Z2.59
G1 X-262.087 Y-487.109 Z2.582
G1 X-262.301 Y-487.156 Z2.575
G1 X-262.518 Y-487.187 Z2.567
G1 X-262.737 Y-487.203 Z2.559
G1 X-262.956 Z2.552
G1 X-263.175 Y-487.187 Z2.544
G1 X-263.392 Y-487.155 Z2.536
G1 X-263.607 Y-487.107 Z2.529
G1 X-263.817 Y-487.044 Z2.521
G1 X-264.022 Y-486.965 Z2.513
G1 X-264.221 Y-486.872 Z2.506
G1 X-264.412 Y-486.765 Z2.498
G1 X-264.595 Y-486.644 Z2.49
G1 X-264.769 Y-486.51 Z2.483
G1 X-264.933 Y-486.364 Z2.475
G1 X-265.086 Y-486.206 Z2.467
G1 X-265.226 Y-486.038 Z2.46
G1 X-265.354 Y-485.86 Z2.452
G1 X-265.469 Y-485.673 Z2.444
G1 X-265.57 Y-485.478 Z2.437
G1 X-265.657 Y-485.276 Z2.429
G1 X-265.728 Y-485.069 Z2.421
G1 X-265.785 Y-484.856 Z2.414
G1 X-265.826 Y-484.641 Z2.406
G1 X-265.85 Y-484.423 Z2.398
G1 X-265.86 Y-484.203 Z2.391
G1 X-265.853 Y-483.984 Z2.383
G1 X-265.83 Y-483.766 Z2.375
G1 X-265.791 Y-483.55 Z2.368
G1 X-265.737 Y-483.337 Z2.36
G1 X-265.667 Y-483.129 Z2.352
G1 X-265.583 Y-482.926 Z2.345
G1 X-265.484 Y-482.731 Z2.337
G1 X-265.371 Y-482.542 Z2.329
G1 X-265.244 Y-482.363 Z2.322
G1 X-265.105 Y-482.193 Z2.314
G1 X-264.954 Y-482.034 Z2.306
G1 X-264.792 Y-481.886 Z2.299
G1 X-264.619 Y-481.751 Z2.291
G1 X-264.437 Y-481.628 Z2.283
G1 X-264.247 Y-481.519 Z2.276
G1 X-264.049 Y-481.424 Z2.268
G1 X-263.845 Y-481.344 Z2.26
G1 X-263.635 Y-481.278 Z2.253
G1 X-263.421 Y-481.228 Z2.245
G1 X-263.205 Y-481.194 Z2.237
G1 X-262.986 Y-481.176 Z2.23
G1 X-262.766 Y-481.173 Z2.222
G1 X-262.547 Y-481.187 Z2.214
G1 X-262.33 Y-481.217 Z2.207
G1 X-262.115 Y-481.262 Z2.199
G1 X-261.904 Y-481.322 Z2.191
G1 X-261.698 Y-481.398 Z2.184
G1 X-261.498 Y-481.489 Z2.176
G1 X-261.306 Y-481.594 Z2.168
G1 X-261.121 Y-481.713 Z2.161
G1 X-260.945 Y-481.844 Z2.153
G1 X-260.78 Y-481.989 Z2.145
G1 X-260.625 Y-482.144 Z2.138
G1 X-260.483 Y-482.311 Z2.13
G1 X-260.352 Y-482.488 Z2.122
G1 X-260.235 Y-482.673 Z2.115
G1 X-260.132 Y-482.867 Z2.107
G1 X-260.043 Y-483.068 Z2.099
G1 X-259.969 Y-483.274 Z2.092
G1 X-259.91 Y-483.486 Z2.084
G1 X-259.867 Y-483.701 Z2.076
G1 X-259.839 Y-483.919 Z2.069
G1 X-259.827 Y-484.138 Z2.061
G1 X-259.832 Y-484.357 Z2.053
G1 X-259.852 Y-484.576 Z2.046
G1 X-259.888 Y-484.792 Z2.038
G1 X-259.94 Y-485.006 Z2.03
G1 X-260.007 Y-485.215 Z2.023
G1 X-260.089 Y-485.418 Z2.015
G1 X-260.186 Y-485.615 Z2.007
G1 X-260.296 Y-485.805 Z2
G1 X-260.421 Y-485.986 Z1.992
G1 X-260.558 Y-486.157 Z1.984
G1 X-260.707 Y-486.318 Z1.977
G1 X-260.867 Y-486.468 Z1.969
G1 X-261.038 Y-486.605 Z1.961
G1 X-261.219 Y-486.73 Z1.954
G1 X-261.408 Y-486.842 Z1.946
G1 X-261.605 Y-486.939 Z1.938
G1 X-261.808 Y-487.022 Z1.931
G1 X-262.017 Y-487.09 Z1.923
G1 X-262.23 Y-487.142 Z1.915
G1 X-262.446 Y-487.179 Z1.908
G1 X-262.665 Y-487.2 Z1.9
G1 X-262.884 Y-487.205 Z1.892
G1 X-263.103 Y-487.194 Z1.885
G1 X-263.321 Y-487.167 Z1.877
G1 X-263.536 Y-487.124 Z1.869
G1 X-263.748 Y-487.066 Z1.862
G1 X-263.955 Y-486.993 Z1.854
G1 X-264.156 Y-486.904 Z1.846
G1 X-264.35 Y-486.802 Z1.839
G1 X-264.536 Y-486.685 Z1.831
G1 X-264.713 Y-486.556 Z1.823
G1 X-264.88 Y-486.414 Z1.816
G1 X-265.036 Y-486.26 Z1.808
G1 X-265.181 Y-486.095 Z1.8
G1 X-265.314 Y-485.92 Z1.793
G1 X-265.433 Y-485.735 Z1.785
G1 X-265.539 Y-485.543 Z1.777
G1 X-265.63 Y-485.343 Z1.77
G1 X-265.706 Y-485.138 Z1.762
G1 X-265.768 Y-484.927 Z1.754
G1 X-265.814 Y-484.712 Z1.747
G1 X-265.844 Y-484.495 Z1.739
G1 X-265.858 Y-484.276 Z1.731
G1 X-265.857 Y-484.056 Z1.724
G1 X-265.839 Y-483.838 Z1.716
G1 X-265.806 Y-483.621 Z1.708
G1 X-265.756 Y-483.407 Z1.701
G1 X-265.692 Y-483.197 Z1.693
G1 X-265.612 Y-482.993 Z1.685
G1 X-265.518 Y-482.794 Z1.678
G1 X-265.409 Y-482.604 Z1.67
G1 X-265.287 Y-482.421 Z1.662
G1 X-265.152 Y-482.248 Z1.655
G1 X-265.005 Y-482.085 Z1.647
G1 X-264.847 Y-481.934 Z1.64
G1 X-264.677 Y-481.794 Z1.632
G1 X-264.498 Y-481.667 Z1.624
G1 X-264.31 Y-481.553 Z1.617
G1 X-264.115 Y-481.454 Z1.609
G1 X-263.913 Y-481.368 Z1.601
G1 X-263.705 Y-481.298 Z1.594
G1 X-263.492 Y-481.243 Z1.586
G1 X-263.276 Y-481.204 Z1.578
G1 X-263.058 Y-481.18 Z1.571
G1 X-262.839 Y-481.172 Z1.563
G1 X-262.62 Y-481.181 Z1.555
G1 X-262.401 Y-481.205 Z1.548
G1 X-262.186 Y-481.245 Z1.54
G1 X-261.973 Y-481.301 Z1.532
G1 X-261.766 Y-481.372 Z1.525
G1 X-261.564 Y-481.457 Z1.517
G1 X-261.368 Y-481.558 Z1.509
G1 X-261.181 Y-481.672 Z1.502
G1 X-261.002 Y-481.799 Z1.494
G1 X-260.833 Y-481.94 Z1.486
G1 X-260.675 Y-482.092 Z1.479
G1 X-260.528 Y-482.255 Z1.471
G1 X-260.394 Y-482.428 Z1.463
G1 X-260.272 Y-482.611 Z1.456
G1 X-260.165 Y-482.802 Z1.448
G1 X-260.071 Y-483.001 Z1.44
G1 X-259.992 Y-483.206 Z1.433
G1 X-259.928 Y-483.415 Z1.425
G1 X-259.879 Y-483.63 Z1.417
G1 X-259.847 Y-483.847 Z1.41
G1 X-259.83 Y-484.065 Z1.402
G1 X-259.829 Y-484.285 Z1.394
G1 X-259.844 Y-484.504 Z1.387
G1 X-259.874 Y-484.721 Z1.379
G1 X-259.921 Y-484.936 Z1.371
G1 X-259.983 Y-485.146 Z1.364
G1 X-260.06 Y-485.352 Z1.356
G1 X-260.152 Y-485.551 Z1.348
G1 X-260.258 Y-485.743 Z1.341
G1 X-260.378 Y-485.927 Z1.333
G1 X-260.511 Y-486.101 Z1.325
G1 X-260.656 Y-486.266 Z1.318
G1 X-260.813 Y-486.42 Z1.31
G1 X-260.981 Y-486.561 Z1.302
G1 X-261.158 Y-486.69 Z1.295
G1 X-261.345 Y-486.806 Z1.287
G1 X-261.539 Y-486.908 Z1.279
G1 X-261.74 Y-486.996 Z1.272
G1 X-261.947 Y-487.069 Z1.264
G1 X-262.159 Y-487.126 Z1.256
G1 X-262.374 Y-487.168 Z1.249
G1 X-262.592 Y-487.195 Z1.241
G1 X-262.812 Y-487.205 Z1.233
G1 X-263.031 Y-487.199 Z1.226
G1 X-263.249 Y-487.178 Z1.218
G1 X-263.466 Y-487.14 Z1.21
G1 X-263.679 Y-487.087 Z1.203
G1 X-263.887 Y-487.019 Z1.195
G1 X-264.09 Y-486.935 Z1.187
G1 X-264.287 Y-486.837 Z1.18
G1 X-264.475 Y-486.725 Z1.172
G1 X-264.655 Y-486.6 Z1.164
G1 X-264.826 Y-486.462 Z1.157
G1 X-264.986 Y-486.312 Z1.149
G1 X-265.135 Y-486.15 Z1.141
G1 X-265.271 Y-485.978 Z1.134
G1 X-265.395 Y-485.797 Z1.126
G1 X-265.505 Y-485.607 Z1.118
G1 X-265.601 Y-485.41 Z1.111
G1 X-265.683 Y-485.206 Z1.103
G1 X-265.749 Y-484.997 Z1.095
G1 X-265.8 Y-484.784 Z1.088
G1 X-265.836 Y-484.567 Z1.08
G1 X-265.855 Y-484.348 Z1.072
G1 X-265.859 Y-484.129 Z1.065
G1 X-265.847 Y-483.91 Z1.057
G1 X-265.818 Y-483.692 Z1.049
G1 X-265.774 Y-483.477 Z1.042
G1 X-265.715 Y-483.266 Z1.034
G1 X-265.64 Y-483.059 Z1.026
G1 X-265.551 Y-482.859 Z1.019
G1 X-265.447 Y-482.666 Z1.011
G1 X-265.329 Y-482.48 Z1.003
G1 X-265.198 Y-482.304 Z0.996
G1 X-265.055 Y-482.138 Z0.988
G1 X-264.9 Y-481.983 Z0.98
G1 X-264.734 Y-481.839 Z0.973
G1 X-264.558 Y-481.708 Z0.965
G1 X-264.373 Y-481.589 Z0.957
G1 X-264.18 Y-481.485 Z0.95
G1 X-263.98 Y-481.395 Z0.942
G1 X-263.774 Y-481.32 Z0.934
G1 X-263.563 Y-481.26 Z0.927
G1 X-263.348 Y-481.215 Z0.919
G1 X-263.13 Y-481.186 Z0.911
G1 X-262.911 Y-481.173 Z0.904
G1 X-262.692 Y-481.176 Z0.896
G1 X-262.473 Y-481.195 Z0.888
G1 X-262.257 Y-481.23 Z0.881
G1 X-262.043 Y-481.281 Z0.873
G1 X-261.834 Y-481.347 Z0.865
G1 X-261.63 Y-481.427 Z0.858
G1 X-261.432 Y-481.523 Z0.85
G1 X-261.242 Y-481.633 Z0.842
G1 X-261.06 Y-481.756 Z0.835
G1 X-260.888 Y-481.892 Z0.827
G1 X-260.726 Y-482.04 Z0.819
G1 X-260.576 Y-482.2 Z0.812
G1 X-260.437 Y-482.37 Z0.804
G1 X-260.311 Y-482.55 Z0.796
G1 X-260.199 Y-482.738 Z0.789
G1 X-260.1 Y-482.935 Z0.781
G1 X-260.016 Y-483.137 Z0.773
G1 X-259.947 Y-483.346 Z0.766
G1 X-259.894 Y-483.558 Z0.758
G1 X-259.856 Y-483.775 Z0.75
G1 X-259.833 Y-483.993 Z0.743
G1 X-259.827 Y-484.212 Z0.735
G1 X-259.837 Y-484.432 Z0.727
G1 X-259.862 Y-484.65 Z0.72
G1 X-259.904 Y-484.865 Z0.712
G1 X-259.961 Y-485.077 Z0.704
G1 X-260.033 Y-485.284 Z0.697
G1 X-260.12 Y-485.486 Z0.689
G1 X-260.222 Y-485.68 Z0.681
G1 X-260.337 Y-485.867 Z0.674
G1 X-260.466 Y-486.045 Z0.666
G1 X-260.607 Y-486.213 Z0.658
G1 X-260.76 Y-486.37 Z0.651
G1 X-260.924 Y-486.516 Z0.643
G1 X-261.099 Y-486.649 Z0.635
G1 X-261.282 Y-486.77 Z0.628
G1 X-261.474 Y-486.876 Z0.62
G1 X-261.673 Y-486.969 Z0.612
G1 X-261.878 Y-487.046 Z0.605
G1 X-262.089 Y-487.109 Z0.597
G1 X-262.303 Y-487.156 Z0.589
G1 X-262.52 Y-487.188 Z0.582
G1 X-262.739 Y-487.203 Z0.574
G1 X-262.959 Z0.566
G1 X-263.177 Y-487.186 Z0.559
G1 X-263.395 Y-487.154 Z0.551
G1 X-263.609 Y-487.106 Z0.543
G1 X-263.819 Y-487.043 Z0.536
G1 X-264.024 Y-486.964 Z0.528
G1 X-264.223 Y-486.871 Z0.52
G1 X-264.414 Y-486.764 Z0.513
G1 X-264.597 Y-486.643 Z0.505
G1 X-264.771 Y-486.509 Z0.497
G1 X-264.934 Y-486.362 Z0.49
G1 X-265.087 Y-486.205 Z0.482
G1 X-265.228 Y-486.036 Z0.474
G1 X-265.356 Y-485.858 Z0.467
G1 X-265.47 Y-485.671 Z0.459
G1 X-265.571 Y-485.476 Z0.451
G1 X-265.658 Y-485.274 Z0.444
G1 X-265.729 Y-485.067 Z0.436
G1 X-265.785 Y-484.854 Z0.428
G1 X-265.826 Y-484.639 Z0.421
G1 X-265.851 Y-484.421 Z0.413
G1 X-265.86 Y-484.201 Z0.405
G1 X-265.852 Y-483.982 Z0.398
G1 X-265.829 Y-483.764 Z0.39
G1 X-265.791 Y-483.548 Z0.382
G1 X-265.736 Y-483.335 Z0.375
G1 X-265.667 Y-483.127 Z0.367
G1 X-265.582 Y-482.924 Z0.359
G1 X-265.483 Y-482.729 Z0.352
G1 X-265.369 Y-482.541 Z0.344
G1 X-265.243 Y-482.361 Z0.336
G1 X-265.104 Y-482.192 Z0.329
G1 X-264.953 Y-482.033 Z0.321
G1 X-264.79 Y-481.885 Z0.313
G1 X-264.617 Y-481.749 Z0.306
G1 X-264.435 Y-481.627 Z0.298
G1 X-264.245 Y-481.518 Z0.29
G1 X-264.047 Y-481.423 Z0.283
G1 X-263.843 Y-481.343 Z0.275
G1 X-263.633 Y-481.278 Z0.267
G1 X-263.419 Y-481.228 Z0.26
G1 X-263.202 Y-481.194 Z0.252
G1 X-262.984 Y-481.176 Z0.244
G1 X-262.764 Y-481.174 Z0.237
G1 X-262.545 Y-481.187 Z0.229
G1 X-262.328 Y-481.217 Z0.221
G1 X-262.113 Y-481.262 Z0.214
G1 X-261.902 Y-481.323 Z0.206
G1 X-261.696 Y-481.399 Z0.198
G1 X-261.496 Y-481.49 Z0.191
G1 X-261.304 Y-481.595 Z0.183
G1 X-261.119 Y-481.714 Z0.175
G1 X-260.944 Y-481.846 Z0.168
G1 X-260.778 Y-481.99 Z0.16
G1 X-260.624 Y-482.146 Z0.152
G1 X-260.481 Y-482.313 Z0.145
G1 X-260.351 Y-482.49 Z0.137
G1 X-260.234 Y-482.675 Z0.129
G1 X-260.131 Y-482.869 Z0.122
G1 X-260.042 Y-483.07 Z0.114
G1 X-259.968 Y-483.276 Z0.106
G1 X-259.91 Y-483.488 Z0.099
G1 X-259.866 Y-483.703 Z0.091
G1 X-259.839 Y-483.921 Z0.083
G1 X-259.827 Y-484.14 Z0.076
G1 X-259.832 Y-484.359 Z0.068
G1 X-259.852 Y-484.578 Z0.06
G1 X-259.888 Y-484.794 Z0.053
G1 X-259.94 Y-485.008 Z0.045
G1 X-260.008 Y-485.217 Z0.037
G1 X-260.09 Y-485.42 Z0.03
G1 X-260.187 Y-485.617 Z0.022
G1 X-260.298 Y-485.806 Z0.014
G1 X-260.422 Y-485.987 Z0.007
G1 X-260.559 Y-486.159 Z-0.001
G1 X-260.708 Y-486.319 Z-0.009
G1 X-260.869 Y-486.469 Z-0.016
G1 X-261.04 Y-486.607 Z-0.024
G1 X-261.221 Y-486.731 Z-0.032
G1 X-261.41 Y-486.843 Z-0.039
G1 X-261.607 Y-486.94 Z-0.047
G1 X-261.81 Y-487.022 Z-0.055
G1 X-262.019 Y-487.09 Z-0.062
G1 X-262.232 Y-487.142 Z-0.07
G1 X-262.448 Y-487.179 Z-0.078
G1 X-262.667 Y-487.2 Z-0.085
G1 X-262.886 Y-487.205 Z-0.093
G1 X-263.105 Y-487.194 Z-0.101
G1 X-263.323 Y-487.167 Z-0.108
G1 X-263.538 Y-487.124 Z-0.116
G1 X-263.75 Y-487.066 Z-0.124
G1 X-263.957 Y-486.992 Z-0.131
G1 X-264.158 Y-486.904 Z-0.139
G1 X-264.352 Y-486.801 Z-0.147
G1 X-264.538 Y-486.684 Z-0.154
G1 X-264.715 Y-486.554 Z-0.162
G1 X-264.882 Y-486.412 Z-0.17
G1 X-265.038 Y-486.258 Z-0.177
G1 X-265.183 Y-486.093 Z-0.185
G1 X-265.315 Y-485.918 Z-0.193
G1 X-265.434 Y-485.733 Z-0.2
G1 X-265.539 Y-485.541 Z-0.208
G1 X-265.631 Y-485.341 Z-0.216
G1 X-265.707 Y-485.136 Z-0.223
G1 X-265.768 Y-484.925 Z-0.231
G1 X-265.814 Y-484.71 Z-0.239
G1 X-265.844 Y-484.493 Z-0.246
G1 X-265.858 Y-484.274 Z-0.254
G1 X-265.857 Y-484.054 Z-0.262
G1 X-265.839 Y-483.836 Z-0.269
G1 X-265.805 Y-483.619 Z-0.277
G1 X-265.756 Y-483.405 Z-0.285
G1 X-265.691 Y-483.195 Z-0.292
G1 X-265.611 Y-482.991 Z-0.3
G1 X-265.517 Y-482.793 Z-0.308
G1 X-265.408 Y-482.602 Z-0.315
G1 X-265.286 Y-482.419 Z-0.323
G1 X-265.151 Y-482.247 Z-0.331
G1 X-265.004 Y-482.084 Z-0.338
G1 X-264.845 Y-481.932 Z-0.346
G1 X-264.676 Y-481.793 Z-0.354
G1 X-264.496 Y-481.666 Z-0.361
G1 X-264.309 Y-481.552 Z-0.369
G1 X-264.113 Y-481.453 Z-0.377
G1 X-263.911 Y-481.368 Z-0.384
G1 X-263.703 Y-481.298 Z-0.392
G1 X-263.49 Y-481.243 Z-0.4
G1 X-263.274 Y-481.203 Z-0.407
G1 X-263.056 Y-481.18 Z-0.415
G1 X-262.837 Y-481.173 Z-0.423
G1 X-262.617 Y-481.181 Z-0.43
G1 X-262.399 Y-481.205 Z-0.438
G1 X-262.184 Y-481.246 Z-0.446
G1 X-261.971 Y-481.301 Z-0.453
G1 X-261.764 Y-481.372 Z-0.461
G1 X-261.562 Y-481.458 Z-0.469
G1 X-261.367 Y-481.559 Z-0.476
G1 X-261.179 Y-481.673 Z-0.484
G1 X-261.001 Y-481.801 Z-0.492
G1 X-260.832 Y-481.941 Z-0.499
G1 X-260.674 Y-482.093 Z-0.507
G1 X-260.527 Y-482.257 Z-0.515
G1 X-260.393 Y-482.43 Z-0.522
G1 X-260.271 Y-482.613 Z-0.53
G1 X-260.164 Y-482.804 Z-0.538
G1 X-260.07 Y-483.003 Z-0.545
G1 X-259.991 Y-483.208 Z-0.553
G1 X-259.927 Y-483.418 Z-0.561
G1 X-259.879 Y-483.632 Z-0.568
G1 X-259.846 Y-483.849 Z-0.576
G1 X-259.83 Y-484.067 Z-0.584
G1 X-259.829 Y-484.287 Z-0.591
G1 X-259.844 Y-484.506 Z-0.599
G1 X-259.875 Y-484.723 Z-0.607
G1 X-259.922 Y-484.938 Z-0.614
G1 X-259.984 Y-485.148 Z-0.622
G1 X-260.061 Y-485.354 Z-0.63
G1 X-260.153 Y-485.553 Z-0.637
G1 X-260.259 Y-485.745 Z-0.645
G1 X-260.379 Y-485.929 Z-0.653
G1 X-260.512 Y-486.103 Z-0.66
G1 X-260.658 Y-486.268 Z-0.668
G1 X-260.815 Y-486.421 Z-0.676
G1 X-260.982 Y-486.563 Z-0.683
G1 X-261.16 Y-486.692 Z-0.691
G1 X-261.346 Y-486.807 Z-0.699
G1 X-261.541 Y-486.909 Z-0.706
G1 X-261.742 Y-486.997 Z-0.714
G1 X-261.949 Y-487.069 Z-0.722
G1 X-262.161 Y-487.127 Z-0.729
G1 X-262.376 Y-487.169 Z-0.737
G1 X-262.594 Y-487.195 Z-0.745
G1 X-262.814 Y-487.205 Z-0.752
G1 X-263.033 Y-487.199 Z-0.76
G1 X-263.251 Y-487.177 Z-0.768
G1 X-263.468 Y-487.14 Z-0.775
G1 X-263.681 Y-487.086 Z-0.783
G1 X-263.889 Y-487.018 Z-0.791
G1 X-264.092 Y-486.934 Z-0.798
G1 X-264.288 Y-486.836 Z-0.806
G1 X-264.477 Y-486.724 Z-0.814
G1 X-264.657 Y-486.599 Z-0.821
G1 X-264.828 Y-486.46 Z-0.829
G1 X-264.988 Y-486.31 Z-0.837
G1 X-265.136 Y-486.149 Z-0.844
G1 X-265.273 Y-485.977 Z-0.852
G1 X-265.396 Y-485.795 Z-0.86
G1 X-265.506 Y-485.605 Z-0.867
G1 X-265.602 Y-485.408 Z-0.875
G1 X-265.684 Y-485.204 Z-0.883
G1 X-265.75 Y-484.995 Z-0.89
G1 X-265.801 Y-484.781 Z-0.898
G1 X-265.836 Y-484.565 Z-0.906
G1 X-265.855 Y-484.346 Z-0.913
G1 X-265.859 Y-484.127 Z-0.921
G1 X-265.846 Y-483.908 Z-0.929
G1 X-265.818 Y-483.69 Z-0.936
G1 X-265.774 Y-483.475 Z-0.944
G1 X-265.714 Y-483.264 Z-0.952
G1 X-265.639 Y-483.057 Z-0.959
G1 X-265.55 Y-482.857 Z-0.967
G1 X-265.446 Y-482.664 Z-0.975
G1 X-265.328 Y-482.479 Z-0.982
G1 X-265.197 Y-482.303 Z-0.99
G1 X-265.054 Y-482.136 Z-0.998
G1 X-264.899 Y-481.981 Z-1.005
G1 X-264.733 Y-481.837 Z-1.013
G1 X-264.557 Y-481.706 Z-1.021
G1 X-264.372 Y-481.588 Z-1.028
G1 X-264.178 Y-481.484 Z-1.036
G1 X-263.978 Y-481.394 Z-1.044
G1 X-263.772 Y-481.319 Z-1.051
G1 X-263.561 Y-481.259 Z-1.059
G1 X-263.346 Y-481.215 Z-1.067
G1 X-263.128 Y-481.186 Z-1.074
G1 X-262.909 Y-481.173 Z-1.082
G1 X-262.69 Y-481.176 Z-1.09
G1 X-262.471 Y-481.196 Z-1.097
G1 X-262.254 Y-481.231 Z-1.105
G1 X-262.041 Y-481.281 Z-1.113
G1 X-261.832 Y-481.347 Z-1.12
G1 X-261.628 Y-481.428 Z-1.128
G1 X-261.43 Y-481.524 Z-1.136
G1 X-261.24 Y-481.634 Z-1.143
G1 X-261.059 Y-481.757 Z-1.151
G1 X-260.886 Y-481.893 Z-1.159
G1 X-260.725 Y-482.042 Z-1.166
G1 X-260.574 Y-482.202 Z-1.174
G1 X-260.436 Y-482.372 Z-1.182
G1 X-260.31 Y-482.552 Z-1.189
G1 X-260.198 Y-482.74 Z-1.197
G1 X-260.099 Y-482.936 Z-1.205
G1 X-260.016 Y-483.139 Z-1.212
G1 X-259.947 Y-483.348 Z-1.22
G1 X-259.893 Y-483.561 Z-1.228
G1 X-259.855 Y-483.777 Z-1.235
G1 X-259.833 Y-483.995 Z-1.243
G1 X-259.827 Y-484.214 Z-1.251
G1 X-259.837 Y-484.434 Z-1.258
G1 X-259.863 Y-484.652 Z-1.266
G1 X-259.904 Y-484.867 Z-1.274
G1 X-259.961 Y-485.079 Z-1.281
G1 X-260.034 Y-485.286 Z-1.289
G1 X-260.121 Y-485.488 Z-1.297
G1 X-260.223 Y-485.682 Z-1.304
G1 X-260.338 Y-485.869 Z-1.312
G1 X-260.467 Y-486.047 Z-1.32
G1 X-260.609 Y-486.214 Z-1.327
G1 X-260.762 Y-486.372 Z-1.335
G1 X-260.926 Y-486.517 Z-1.343
G1 X-261.1 Y-486.65 Z-1.35
G1 X-261.284 Y-486.771 Z-1.358
G1 X-261.476 Y-486.877 Z-1.366
G1 X-261.675 Y-486.97 Z-1.373
G1 X-261.88 Y-487.047 Z-1.381
G1 X-262.091 Y-487.11 Z-1.389
G1 X-262.305 Y-487.157 Z-1.396
G1 X-262.522 Y-487.188 Z-1.404
G1 X-262.741 Y-487.203 Z-1.412
G1 X-262.961 Z-1.419
G1 X-263.18 Y-487.186 Z-1.427
G1 X-263.397 Y-487.154 Z-1.435
G1 X-263.611 Y-487.106 Z-1.442
G1 X-263.821 Y-487.042 Z-1.45
G1 X-264.026 Y-486.964 Z-1.458
G1 X-264.224 Y-486.87 Z-1.465
G1 X-264.416 Y-486.763 Z-1.473
G1 X-264.599 Y-486.642 Z-1.481
G1 X-264.772 Y-486.507 Z-1.488
G1 X-264.936 Y-486.361 Z-1.496
G1 X-265.088 Y-486.203 Z-1.504
G1 X-265.229 Y-486.034 Z-1.511
G1 X-265.357 Y-485.856 Z-1.519
G1 X-265.471 Y-485.669 Z-1.527
G1 X-265.572 Y-485.474 Z-1.534
G1 X-265.658 Y-485.272 Z-1.542
G1 X-265.73 Y-485.065 Z-1.55
G1 X-265.786 Y-484.852 Z-1.557
G1 X-265.826 Y-484.637 Z-1.565
G1 X-265.851 Y-484.419 Z-1.573
G1 X-265.86 Y-484.199 Z-1.58
G1 X-265.852 Y-483.98 Z-1.588
G1 X-265.829 Y-483.762 Z-1.596
G1 X-265.79 Y-483.546 Z-1.603
G1 X-265.736 Y-483.333 Z-1.611
G1 X-265.666 Y-483.125 Z-1.619
G1 X-265.581 Y-482.923 Z-1.626
G1 X-265.482 Y-482.727 Z-1.634
G1 X-265.368 Y-482.539 Z-1.642
G1 X-265.242 Y-482.36 Z-1.649
G1 X-265.102 Y-482.19 Z-1.657
G1 X-264.951 Y-482.031 Z-1.665
G1 X-264.789 Y-481.884 Z-1.672
G1 X-264.616 Y-481.748 Z-1.68
G1 X-264.434 Y-481.626 Z-1.688
G1 X-264.243 Y-481.517 Z-1.695
G1 X-264.045 Y-481.422 Z-1.703
G1 X-263.841 Y-481.342 Z-1.711
G1 X-263.631 Y-481.277 Z-1.718
G1 X-263.417 Y-481.228 Z-1.726
G1 X-263.2 Y-481.194 Z-1.734
G1 X-262.982 Y-481.176 Z-1.741
G1 X-262.762 Y-481.174 Z-1.749
G1 X-262.543 Y-481.187 Z-1.757
G1 X-262.326 Y-481.217 Z-1.764
G1 X-262.111 Y-481.263 Z-1.772
G1 X-261.9 Y-481.324 Z-1.78
G1 X-261.694 Y-481.4 Z-1.787
G1 X-261.495 Y-481.491 Z-1.795
G1 X-261.302 Y-481.596 Z-1.803
G1 X-261.118 Y-481.715 Z-1.81
G1 X-260.942 Y-481.847 Z-1.818
G1 X-260.777 Y-481.992 Z-1.826
G1 X-260.623 Y-482.148 Z-1.833
G1 X-260.48 Y-482.314 Z-1.841
G1 X-260.35 Y-482.491 Z-1.849
G1 X-260.233 Y-482.677 Z-1.856
G1 X-260.13 Y-482.871 Z-1.864
G1 X-260.042 Y-483.072 Z-1.872
G1 X-259.968 Y-483.278 Z-1.879
G1 X-259.909 Y-483.49 Z-1.887
G1 X-259.866 Y-483.705 Z-1.895
G1 X-259.839 Y-483.923 Z-1.902
G1 X-259.827 Y-484.142 Z-1.91
G1 X-259.832 Y-484.361 Z-1.918
G1 X-259.853 Y-484.58 Z-1.925
G1 X-259.889 Y-484.796 Z-1.933
G1 X-259.941 Y-485.01 Z-1.941
G1 X-260.008 Y-485.219 Z-1.948
G1 X-260.091 Y-485.422 Z-1.956
G1 X-260.188 Y-485.619 Z-1.964
G1 X-260.299 Y-485.808 Z-1.971
G1 X-260.423 Y-485.989 Z-1.979
G1 X-260.56 Y-486.16 Z-1.987
G1 X-260.71 Y-486.321 Z-1.994
G1 X-260.871 Y-486.47 Z-2.002
G1 X-261.042 Y-486.608 Z-2.01
G1 X-261.222 Y-486.732 Z-2.017
G1 X-261.412 Y-486.844 Z-2.025
G1 X-261.608 Y-486.941 Z-2.033
G1 X-261.812 Y-487.023 Z-2.04
G1 X-262.021 Y-487.091 Z-2.048
G1 X-262.234 Y-487.143 Z-2.056
G1 X-262.45 Y-487.179 Z-2.063
G1 X-262.669 Y-487.2 Z-2.071
G1 X-262.888 Y-487.205 Z-2.079
G1 X-263.107 Y-487.193 Z-2.086
G1 X-263.325 Y-487.166 Z-2.094
G1 X-263.54 Y-487.123 Z-2.102
G1 X-263.752 Y-487.065 Z-2.109
G1 X-263.959 Y-486.991 Z-2.117
G1 X-264.16 Y-486.903 Z-2.125
G1 X-264.353 Y-486.8 Z-2.132
G1 X-264.539 Y-486.683 Z-2.14
G1 X-264.716 Y-486.553 Z-2.148
G1 X-264.883 Y-486.411 Z-2.155
G1 X-265.039 Y-486.256 Z-2.163
G1 X-265.184 Y-486.091 Z-2.17
G1 X-265.316 Y-485.916 Z-2.178
G1 X-265.435 Y-485.732 Z-2.186
G1 X-265.54 Y-485.539 Z-2.193
G1 X-265.631 Y-485.339 Z-2.201
G1 X-265.708 Y-485.134 Z-2.209
G1 X-265.769 Y-484.923 Z-2.216
G1 X-265.815 Y-484.708 Z-2.224
G1 X-265.844 Y-484.491 Z-2.232
G1 X-265.858 Y-484.272 Z-2.239
G1 X-265.856 Y-484.052 Z-2.247
G1 X-265.839 Y-483.833 Z-2.255
G1 X-265.805 Y-483.617 Z-2.262
G1 X-265.755 Y-483.403 Z-2.27
G1 X-265.691 Y-483.193 Z-2.278
G1 X-265.611 Y-482.989 Z-2.285
G1 X-265.516 Y-482.791 Z-2.293
G1 X-265.407 Y-482.6 Z-2.301
G1 X-265.285 Y-482.418 Z-2.308
G1 X-265.15 Y-482.245 Z-2.316
G1 X-265.002 Y-482.082 Z-2.324
G1 X-264.843 Y-481.931 Z-2.331
G1 X-264.674 Y-481.791 Z-2.339
G1 X-264.495 Y-481.665 Z-2.347
G1 X-264.307 Y-481.551 Z-2.354
G1 X-264.111 Y-481.452 Z-2.362
G1 X-263.909 Y-481.367 Z-2.37
G1 X-263.701 Y-481.297 Z-2.377
G1 X-263.488 Y-481.242 Z-2.385
G1 X-263.272 Y-481.203 Z-2.393
G1 X-263.054 Y-481.18 Z-2.4
G1 X-262.835 Y-481.173 Z-2.408
G1 X-262.615 Y-481.181 Z-2.416
G1 X-262.397 Y-481.206 Z-2.423
G1 X-262.181 Y-481.246 Z-2.431
G1 X-261.969 Y-481.302 Z-2.439
G1 X-261.762 Y-481.373 Z-2.446
G1 X-261.56 Y-481.459 Z-2.454
G1 X-261.365 Y-481.56 Z-2.462
G1 X-261.177 Y-481.674 Z-2.469
G1 X-260.999 Y-481.802 Z-2.477
G1 X-260.83 Y-481.943 Z-2.485
G1 X-260.672 Y-482.095 Z-2.492
G1 X-260.526 Y-482.258 Z-2.5
G1 X-260.392 Y-482.432 Z-2.508
G1 X-260.27 Y-482.615 Z-2.515
G1 X-260.163 Y-482.806 Z-2.523
G1 X-260.069 Y-483.005 Z-2.531
G1 X-259.99 Y-483.21 Z-2.538
G1 X-259.927 Y-483.42 Z-2.546
G1 X-259.879 Y-483.634 Z-2.554
G1 X-259.846 Y-483.851 Z-2.561
G1 X-259.829 Y-484.07 Z-2.569
G1 Y-484.289 Z-2.577
G1 X-259.844 Y-484.508 Z-2.584
G1 X-259.875 Y-484.725 Z-2.592
G1 X-259.922 Y-484.94 Z-2.6
G1 X-259.984 Y-485.15 Z-2.607
G1 X-260.062 Y-485.355 Z-2.615
G1 X-260.154 Y-485.555 Z-2.623
G1 X-260.261 Y-485.747 Z-2.63
G1 X-260.381 Y-485.93 Z-2.638
G1 X-260.514 Y-486.105 Z-2.646
G1 X-260.659 Y-486.269 Z-2.653
G1 X-260.816 Y-486.422 Z-2.661
G1 X-260.984 Y-486.564 Z-2.669
G1 X-261.162 Y-486.693 Z-2.676
G1 X-261.348 Y-486.808 Z-2.684
G1 X-261.543 Y-486.91 Z-2.692
G1 X-261.744 Y-486.998 Z-2.699
G1 X-261.951 Y-487.07 Z-2.707
G1 X-262.163 Y-487.127 Z-2.715
G1 X-262.379 Y-487.169 Z-2.722
G1 X-262.597 Y-487.195 Z-2.73
G1 X-262.816 Y-487.205 Z-2.738
G1 X-263.035 Y-487.199 Z-2.745
G1 X-263.254 Y-487.177 Z-2.753
G1 X-263.47 Y-487.139 Z-2.761
G1 X-263.683 Y-487.086 Z-2.768
G1 X-263.891 Y-487.017 Z-2.776
G1 X-264.094 Y-486.933 Z-2.784
G1 X-264.29 Y-486.835 Z-2.791
G1 X-264.479 Y-486.723 Z-2.799
G1 X-264.659 Y-486.597 Z-2.807
G1 X-264.829 Y-486.459 Z-2.814
G1 X-264.989 Y-486.309 Z-2.822
G1 X-265.137 Y-486.147 Z-2.83
G1 X-265.274 Y-485.975 Z-2.837
G1 X-265.397 Y-485.793 Z-2.845
G1 X-265.507 Y-485.604 Z-2.853
G1 X-265.603 Y-485.406 Z-2.86
G1 X-265.684 Y-485.202 Z-2.868
G1 X-265.75 Y-484.993 Z-2.876
G1 X-265.801 Y-484.779 Z-2.883
G1 X-265.836 Y-484.563 Z-2.891
G1 X-265.856 Y-484.344 Z-2.899
G1 X-265.859 Y-484.125 Z-2.906
G1 X-265.846 Y-483.906 Z-2.914
G1 X-265.818 Y-483.688 Z-2.922
G1 X-265.773 Y-483.473 Z-2.929
G1 X-265.714 Y-483.262 Z-2.937
G1 X-265.639 Y-483.056 Z-2.945
G1 X-265.549 Y-482.855 Z-2.952
G1 X-265.445 Y-482.662 Z-2.96
G1 X-265.327 Y-482.477 Z-2.968
G1 X-265.196 Y-482.301 Z-2.975
G1 X-265.052 Y-482.135 Z-2.983
G1 X-264.897 Y-481.98 Z-2.991
G1 X-264.731 Y-481.836 Z-2.998
G1 X-264.555 Y-481.705 Z-3.006
G1 X-264.37 Y-481.587 Z-3.014
G1 X-264.177 Y-481.483 Z-3.021
G1 X-263.976 Y-481.393 Z-3.029
G1 X-263.77 Y-481.318 Z-3.037
G1 X-263.559 Y-481.259 Z-3.044
G1 X-263.344 Y-481.214 Z-3.052
G1 X-263.126 Y-481.186 Z-3.06
G1 X-262.907 Y-481.173 Z-3.067
G1 X-262.688 Y-481.177 Z-3.075
G1 X-262.469 Y-481.196 Z-3.083
G1 X-262.252 Y-481.231 Z-3.09
G1 X-262.039 Y-481.282 Z-3.098
G1 X-261.83 Y-481.348 Z-3.106
G1 X-261.626 Y-481.429 Z-3.113
G1 X-261.428 Y-481.525 Z-3.121
G1 X-261.238 Y-481.635 Z-3.129
G1 X-261.057 Y-481.758 Z-3.136
G1 X-260.885 Y-481.895 Z-3.144
G1 X-260.723 Y-482.043 Z-3.152
G1 X-260.573 Y-482.203 Z-3.159
G1 X-260.434 Y-482.373 Z-3.167
G1 X-260.309 Y-482.553 Z-3.175
G1 X-260.197 Y-482.742 Z-3.182
G1 X-260.098 Y-482.938 Z-3.19
G1 X-260.015 Y-483.141 Z-3.198
G1 X-259.946 Y-483.35 Z-3.205
G1 X-259.893 Y-483.563 Z-3.213
G1 X-259.855 Y-483.779 Z-3.221
G1 X-259.833 Y-483.997 Z-3.228
G1 X-259.827 Y-484.217 Z-3.236
G1 X-259.837 Y-484.436 Z-3.244
G1 X-259.863 Y-484.654 Z-3.251
G1 X-259.905 Y-484.869 Z-3.259
G1 X-259.962 Y-485.081 Z-3.267
G1 X-260.035 Y-485.288 Z-3.274
G1 X-260.122 Y-485.49 Z-3.282
G1 X-260.224 Y-485.684 Z-3.29
G1 X-260.339 Y-485.871 Z-3.297
G1 X-260.468 Y-486.048 Z-3.305
G1 X-260.61 Y-486.216 Z-3.313
G1 X-260.763 Y-486.373 Z-3.32
G1 X-260.928 Y-486.518 Z-3.328
G1 X-261.102 Y-486.652 Z-3.336
G1 X-261.286 Y-486.772 Z-3.343
G1 X-261.478 Y-486.878 Z-3.351
G1 X-261.677 Y-486.97 Z-3.359
G1 X-261.882 Y-487.048 Z-3.366
G1 X-262.093 Y-487.11 Z-3.374
G1 X-262.307 Y-487.157 Z-3.382
G1 X-262.524 Y-487.188 Z-3.389
G1 X-262.743 Y-487.203 Z-3.397
G1 X-262.963 Z-3.405
G1 X-263.182 Y-487.186 Z-3.412
G1 X-263.399 Y-487.153 Z-3.42
G1 X-263.613 Y-487.105 Z-3.428
G1 X-263.823 Y-487.042 Z-3.435
G1 X-264.028 Y-486.963 Z-3.443
G1 X-264.226 Y-486.869 Z-3.451
G1 X-264.418 Y-486.762 Z-3.458
G1 X-264.6 Y-486.64 Z-3.466
G1 X-264.774 Y-486.506 Z-3.474
G1 X-264.937 Y-486.36 Z-3.481
G1 X-265.09 Y-486.202 Z-3.489
G1 X-265.23 Y-486.033 Z-3.497
G1 X-265.358 Y-485.854 Z-3.504
G1 X-265.472 Y-485.667 Z-3.512
G1 X-265.573 Y-485.472 Z-3.52
G1 X-265.659 Y-485.27 Z-3.527
G1 X-265.73 Y-485.063 Z-3.535
G1 X-265.786 Y-484.85 Z-3.543
G1 X-265.826 Y-484.635 Z-3.55
G1 X-265.851 Y-484.416 Z-3.558
G1 X-265.86 Y-484.197 Z-3.566
G1 X-265.852 Y-483.978 Z-3.573
G1 X-265.829 Y-483.76 Z-3.581
G1 X-265.79 Y-483.544 Z-3.589
G1 X-265.735 Y-483.331 Z-3.596
G1 X-265.665 Y-483.123 Z-3.604
G1 X-265.58 Y-482.921 Z-3.612
G1 X-265.481 Y-482.725 Z-3.619
G1 X-265.367 Y-482.537 Z-3.627
G1 X-265.24 Y-482.358 Z-3.635
G1 X-265.101 Y-482.189 Z-3.642
G1 X-264.949 Y-482.03 Z-3.65
G1 X-264.787 Y-481.882 Z-3.658
G1 X-264.614 Y-481.747 Z-3.665
G1 X-264.432 Y-481.625 Z-3.673
G1 X-264.241 Y-481.516 Z-3.681
G1 X-264.043 Y-481.421 Z-3.688
G1 X-263.839 Y-481.341 Z-3.696
G1 X-263.629 Y-481.277 Z-3.704
G1 X-263.415 Y-481.227 Z-3.711
G1 X-263.198 Y-481.193 Z-3.719
G1 X-262.98 Y-481.176 Z-3.727
G1 X-262.76 Y-481.174 Z-3.734
G1 X-262.541 Y-481.188 Z-3.742
G1 X-262.324 Y-481.218 Z-3.75
G1 X-262.109 Y-481.263 Z-3.757
G1 X-261.898 Y-481.324 Z-3.765
G1 X-261.692 Y-481.401 Z-3.773
G1 X-261.493 Y-481.492 Z-3.78
G1 X-261.3 Y-481.597 Z-3.788
G1 X-261.116 Y-481.716 Z-3.796
G1 X-260.941 Y-481.848 Z-3.803
G1 X-260.775 Y-481.993 Z-3.811
G1 X-260.621 Y-482.149 Z-3.819
G1 X-260.479 Y-482.316 Z-3.826
G1 X-260.349 Y-482.493 Z-3.834
G1 X-260.232 Y-482.679 Z-3.842
G1 X-260.129 Y-482.873 Z-3.849
G1 X-260.041 Y-483.074 Z-3.857
G1 X-259.967 Y-483.28 Z-3.865
G1 X-259.909 Y-483.492 Z-3.872
G1 X-259.866 Y-483.707 Z-3.88
G1 X-259.839 Y-483.925 Z-3.888
G1 X-259.827 Y-484.144 Z-3.895
G1 X-259.832 Y-484.364 Z-3.903
G1 X-259.853 Y-484.582 Z-3.911
G1 X-259.889 Y-484.798 Z-3.918
G1 X-259.942 Y-485.012 Z-3.926
G1 X-260.009 Y-485.22 Z-3.934
G1 X-260.092 Y-485.424 Z-3.941
G1 X-260.189 Y-485.621 Z-3.949
G1 X-260.3 Y-485.81 Z-3.957
G1 X-260.424 Y-485.991 Z-3.964
G1 X-260.562 Y-486.162 Z-3.972
G1 X-260.711 Y-486.322 Z-3.98
G1 X-260.872 Y-486.472 Z-3.987
G1 X-261.043 Y-486.609 Z-3.995
G1 X-261.224 Y-486.734 Z-4.003
G1 X-261.414 Y-486.845 Z-4.01
G1 X-261.61 Y-486.941 Z-4.018
G1 X-261.814 Y-487.024 Z-4.026
G1 X-262.023 Y-487.091 Z-4.033
G1 X-262.236 Y-487.143 Z-4.041
G1 X-262.452 Y-487.18 Z-4.049
G1 X-262.671 Y-487.2 Z-4.056
G1 X-262.89 Y-487.205 Z-4.064
G1 X-294.341 Y-486.714
G2 X-294.66 Y-486.385 I0.005 J0.324
G1 X-294.655 Y-486.076
G2 X-294.557 Y-485.848 I0.324 J-0.005
G2 X-294.326 Y-485.757 I0.226 J-0.233
G1 X-262.721 Y-486.249
G2 X-262.401 Y-486.579 I-0.005 J-0.324
G1 X-262.406 Y-486.888
G2 X-262.736 Y-487.207 I-0.324 J0.005
G1 X-262.89 Y-487.205
G3 X-266.821 Y-489.738 I-0.066 J-4.215
G2 X-270.752 Y-492.271 I-3.865 J1.682
G1 X-297.826 Y-491.848
G3 X-300.415 Y-492.857 I-0.057 J-3.683
G2 X-300.863 Y-492.845 I-0.218 J0.23
G2 X-300.867 Y-492.413 I0.23 J0.218
G3 X-299.904 Y-489.987 I-2.72 J2.483
G1 X-299.787 Y-482.434
G3 X-300.835 Y-479.804 I-3.683 J0.057
G2 X-300.83 Y-479.356 I0.227 J0.221
G2 X-300.602 Y-479.265 I0.221 J-0.227
G2 X-300.378 Y-479.364 I-0.006 J-0.317
G3 X-297.761 Y-480.515 I2.674 J2.532
G1 X-259.122 Y-481.117
G3 X-256.471 Y-480.049 I0.057 J3.683
G2 X-256.023 Y-480.051 I0.223 J-0.225
G2 X-255.931 Y-480.277 I-0.225 J-0.223
G2 X-256.029 Y-480.502 I-0.317 J0.004
G3 X-257.159 Y-483.099 I2.553 J-2.655
G1 X-257.277 Y-490.652
G3 X-256.39 Y-493.107 I3.683 J-0.058
G2 X-256.424 Y-493.554 I-0.24 J-0.206
G2 X-256.855 Y-493.536 I-0.206 J0.24
G3 X-259.413 Y-492.447 I-2.615 J-2.594
G1 X-270.752 Y-492.271
G0 Z6.096
G0 X-260.111 Y-482.912
G1 Z-1.524 F508.
G1 X-260.025 Y-483.114 Z-1.532
G1 X-259.954 Y-483.322 Z-1.539
G1 X-259.899 Y-483.535 Z-1.547
G1 X-259.859 Y-483.751 Z-1.555
G1 X-259.835 Y-483.969 Z-1.562
G1 X-259.827 Y-484.188 Z-1.57
G1 X-259.835 Y-484.408 Z-1.578
G1 X-259.859 Y-484.626 Z-1.585
G1 X-259.899 Y-484.842 Z-1.593
G1 X-259.954 Y-485.054 Z-1.601
G1 X-260.025 Y-485.262 Z-1.608
G1 X-260.11 Y-485.464 Z-1.616
G1 X-260.21 Y-485.66 Z-1.624
G1 X-260.324 Y-485.848 Z-1.631
G1 X-260.452 Y-486.026 Z-1.639
G1 X-260.592 Y-486.196 Z-1.647
G1 X-260.744 Y-486.354 Z-1.654
G1 X-260.907 Y-486.501 Z-1.662
G1 X-261.08 Y-486.636 Z-1.67
G1 X-261.263 Y-486.758 Z-1.677
G1 X-261.454 Y-486.866 Z-1.685
G1 X-261.652 Y-486.96 Z-1.693
G1 X-261.857 Y-487.039 Z-1.7
