%
(Made in : Autodesk CAM Post Processor)
(G Code optimized for OpenBuilds OX CNC 1000 x 750 with GRBL V0.9j controller)

(Program Name : 1001)
(3 Operations :)
(1 : 2D Contour2)
(  Tool : Flat End Mill 2 Flutes, Diam = 6.35mm, Len = 25.4mm)
(  Spindle : RPM = 5000, set router dial to 1)
(  Machining time : 41 min 51 sec)
(2 : 2D Pocket1)
(  Tool : Flat End Mill 2 Flutes, Diam = 6.35mm, Len = 25.4mm)
(  Spindle : RPM = 5000, set router dial to 1)
(  Machining time : 12 min 54 sec)
(3 : Drill2)
(  Tool : Flat End Mill 2 Flutes, Diam = 6.35mm, Len = 25.4mm)
(  Spindle : RPM = 5000, set router dial to 1)
(  Machining time : 28 sec)

G90 G94
G17
G21

(Operation 1 of 3 : 2D Contour2)

G53 G0 Z-10
G54
S5000 M3
G4 P1.0
X-0.1662 Y3.1706
Z6.096
G1 F508
Z4.191
Z-6.604
G3 X-3.1706 Y-0.1662 I0.1662 J-3.1706
G1 X-1.3943 Y-34.0618
G3 X-0.1412 Y-36.4261 I3.1706 J0.1662
G2 X-1.1509 Y-37.7311 I-0.4983 J-0.6576
G3 X-3.2853 Y-37.0516 I-1.9683 J-2.4912
G1 X-5.868 Y-37.1869
G3 X-9.8189 Y-41.5748 I0.2184 J-4.1693
G1 X-8.3541 Y-69.5236
G3 X-3.9663 Y-73.4744 I4.1693 J0.2184
G1 X-2.2242 Y-73.3831
G3 X0.1401 Y-72.1301 I-0.1662 J3.1706
G2 X1.445 Y-73.1399 I0.6576 J-0.4983
G3 X0.7656 Y-75.2744 I2.4912 J-1.9683
G1 X7.069 Y-195.5482
G3 X8.322 Y-197.9125 I3.1706 J0.1662
G2 X7.3121 Y-199.2176 I-0.4984 J-0.6577
G3 X5.1781 Y-198.5383 I-1.9682 J-2.4914
G1 X2.4061 Y-198.6833
G3 X-1.545 Y-203.0707 I0.2184 J-4.1695
G1 X3.5845 Y-300.9483
G3 X7.9717 Y-304.9007 I4.1695 J0.2172
G1 X7.9736 Y-304.9006
X9.905 Y-304.7986
G3 X12.2681 Y-303.5456 I-0.1674 J3.1706
G2 X13.5731 Y-304.5555 I0.6576 J-0.4984
G3 X12.8936 Y-306.6902 I2.4911 J-1.9684
G1 X18.9793 Y-422.8112
G3 X21.8732 Y-425.8079 I3.1706 J0.1662
G1 X425.8303 Y-461.1489
G3 X429.282 Y-457.986 I0.2767 J3.1629
G1 Y-416.986
G3 X426.3837 Y-413.8231 I-3.175
G1 X88.9736 Y-384.3041
G2 X72.706 Y-367.4604 I1.5557 J17.7799
G1 X56.1469 Y-52.3273
G2 X72.7914 Y-33.5102 I17.8959 J0.9403
G1 X424.8467 Y-8.8658
G3 X427.8 Y-5.6997 I-0.2217 J3.1672
G1 X427.807 Y13.3146
G3 X424.4658 Y16.4864 I-3.175 J0.0012
G1 X420.1488 Y16.2601
G3 X417.9341 Y15.19 I0.1662 J-3.1706
G2 X416.7079 Y16.2941 I-0.6187 J0.5458
G3 X417.5406 Y18.6084 I-2.3379 J2.1482
G1 X417.4236 Y20.8413
G3 X413.0362 Y24.7922 I-4.1694 J-0.2186
G1 X395.5358 Y23.875
X395.5343
G3 X391.5853 Y19.4881 I0.2205 J-4.1694
G1 X391.5854 Y19.4871
X391.6854 Y17.5821
G3 X392.9384 Y15.218 I3.1706 J0.1664
G2 X391.9285 Y13.913 I-0.4984 J-0.6576
G3 X389.7938 Y14.5925 I-1.9685 J-2.4911
G1 X233.4758 Y6.4002
G3 X231.2615 Y5.3304 I0.1662 J-3.1706
G2 X230.0352 Y6.4345 I-0.6186 J0.5459
G3 X230.8676 Y8.7488 I-2.3382 J2.1479
G1 X230.7447 Y11.0912
G3 X226.3564 Y15.0422 I-4.169 J-0.2179
G1 X198.3967 Y13.5769
G3 X194.4443 Y9.1896 I0.2172 J-4.1695
G1 X194.5683 Y6.8193
G3 X195.6385 Y4.6043 I3.1707 J0.1659
G2 X194.5349 Y3.3785 I-0.5456 J-0.6185
G3 X192.2208 Y4.211 I-2.1479 J-2.3382
G1 X38.76 Y-3.8315
G3 X36.3957 Y-5.0846 I0.1662 J-3.1706
G2 X35.0907 Y-4.0749 I-0.6576 J0.4983
G3 X35.7702 Y-1.9405 I-2.4912 J1.9683
G1 X35.6232 Y0.8655
G3 X31.2353 Y4.8163 I-4.1693 J-0.2185
G1 X-0.1662 Y3.1706
Z-14.224
G3 X-3.1706 Y-0.1662 I0.1662 J-3.1706
G1 X-1.3943 Y-34.0618
G3 X-0.1412 Y-36.4261 I3.1706 J0.1662
G2 X-1.1509 Y-37.7311 I-0.4983 J-0.6576
G3 X-3.2853 Y-37.0516 I-1.9683 J-2.4912
G1 X-5.868 Y-37.1869
G3 X-9.8189 Y-41.5748 I0.2184 J-4.1693
G1 X-8.3541 Y-69.5236
G3 X-3.9663 Y-73.4744 I4.1693 J0.2184
G1 X-2.2242 Y-73.3831
G3 X0.1401 Y-72.1301 I-0.1662 J3.1706
G2 X1.445 Y-73.1399 I0.6576 J-0.4983
G3 X0.7656 Y-75.2744 I2.4912 J-1.9683
G1 X7.069 Y-195.5482
G3 X8.322 Y-197.9125 I3.1706 J0.1662
G2 X7.3121 Y-199.2176 I-0.4984 J-0.6577
G3 X5.1781 Y-198.5383 I-1.9682 J-2.4914
G1 X2.4061 Y-198.6833
G3 X-1.545 Y-203.0707 I0.2184 J-4.1695
G1 X3.5845 Y-300.9483
G3 X7.9717 Y-304.9007 I4.1695 J0.2172
G1 X7.9736 Y-304.9006
X9.905 Y-304.7986
G3 X12.2681 Y-303.5456 I-0.1674 J3.1706
G2 X13.5731 Y-304.5555 I0.6576 J-0.4984
G3 X12.8936 Y-306.6902 I2.4911 J-1.9684
G1 X18.9793 Y-422.8112
G3 X21.8732 Y-425.8079 I3.1706 J0.1662
G1 X425.8303 Y-461.1489
G3 X429.282 Y-457.986 I0.2767 J3.1629
G1 Y-416.986
G3 X426.3837 Y-413.8231 I-3.175
G1 X88.9736 Y-384.3041
G2 X72.706 Y-367.4604 I1.5557 J17.7799
G1 X56.1469 Y-52.3273
G2 X72.7914 Y-33.5102 I17.8959 J0.9403
G1 X424.8467 Y-8.8658
G3 X427.8 Y-5.6997 I-0.2217 J3.1672
G1 X427.807 Y13.3146
G3 X424.4658 Y16.4864 I-3.175 J0.0012
G1 X420.1488 Y16.2601
G3 X417.9341 Y15.19 I0.1662 J-3.1706
G2 X416.7079 Y16.2941 I-0.6187 J0.5458
G3 X417.5406 Y18.6084 I-2.3379 J2.1482
G1 X417.4236 Y20.8413
G3 X413.0362 Y24.7922 I-4.1694 J-0.2186
G1 X395.5358 Y23.875
X395.5343
G3 X391.5853 Y19.4881 I0.2205 J-4.1694
G1 X391.5854 Y19.4871
X391.6854 Y17.5821
G3 X392.9384 Y15.218 I3.1706 J0.1664
G2 X391.9285 Y13.913 I-0.4984 J-0.6576
G3 X389.7938 Y14.5925 I-1.9685 J-2.4911
G1 X233.4758 Y6.4002
G3 X231.2615 Y5.3304 I0.1662 J-3.1706
G2 X230.0352 Y6.4345 I-0.6186 J0.5459
G3 X230.8676 Y8.7488 I-2.3382 J2.1479
G1 X230.7447 Y11.0912
G3 X226.3564 Y15.0422 I-4.169 J-0.2179
G1 X198.3967 Y13.5769
G3 X194.4443 Y9.1896 I0.2172 J-4.1695
G1 X194.5683 Y6.8193
G3 X195.6385 Y4.6043 I3.1707 J0.1659
G2 X194.5349 Y3.3785 I-0.5456 J-0.6185
G3 X192.2208 Y4.211 I-2.1479 J-2.3382
G1 X38.76 Y-3.8315
G3 X36.3957 Y-5.0846 I0.1662 J-3.1706
G2 X35.0907 Y-4.0749 I-0.6576 J0.4983
G3 X35.7702 Y-1.9405 I-2.4912 J1.9683
G1 X35.6232 Y0.8655
G3 X31.2353 Y4.8163 I-4.1693 J-0.2185
G1 X-0.1662 Y3.1706
Z-19.05
G3 X-3.1706 Y-0.1662 I0.1662 J-3.1706
G1 X-1.3943 Y-34.0618
G3 X-0.1412 Y-36.4261 I3.1706 J0.1662
G2 X-1.1509 Y-37.7311 I-0.4983 J-0.6576
G3 X-3.2853 Y-37.0516 I-1.9683 J-2.4912
G1 X-5.868 Y-37.1869
G3 X-9.8189 Y-41.5748 I0.2184 J-4.1693
G1 X-8.3541 Y-69.5236
G3 X-3.9663 Y-73.4744 I4.1693 J0.2184
G1 X-2.2242 Y-73.3831
G3 X0.1401 Y-72.1301 I-0.1662 J3.1706
G2 X1.445 Y-73.1399 I0.6576 J-0.4983
G3 X0.7656 Y-75.2744 I2.4912 J-1.9683
G1 X4.0692 Y-138.311
Z-16.51
X4.6675 Y-149.7253
Z-19.05
X7.069 Y-195.5482
G3 X8.322 Y-197.9125 I3.1706 J0.1662
G2 X7.3121 Y-199.2176 I-0.4984 J-0.6577
G3 X5.1781 Y-198.5383 I-1.9682 J-2.4914
G1 X2.4061 Y-198.6833
G3 X-1.545 Y-203.0707 I0.2184 J-4.1695
G1 X3.5845 Y-300.9483
G3 X7.9717 Y-304.9007 I4.1695 J0.2172
G1 X7.9736 Y-304.9006
X9.905 Y-304.7986
G3 X12.2681 Y-303.5456 I-0.1674 J3.1706
G2 X13.5731 Y-304.5555 I0.6576 J-0.4984
G3 X12.8936 Y-306.6902 I2.4911 J-1.9684
G1 X18.9793 Y-422.8112
G3 X21.8732 Y-425.8079 I3.1706 J0.1662
G1 X103.648 Y-432.9622
Z-16.51
X115.0345 Y-433.9583
Z-19.05
X332.647 Y-452.9966
Z-16.51
X344.0336 Y-453.9928
Z-19.05
X425.8303 Y-461.1489
G3 X429.282 Y-457.986 I0.2767 J3.1629
G1 Y-416.986
G3 X426.3837 Y-413.8231 I-3.175
G1 X88.9736 Y-384.3041
G2 X72.706 Y-367.4604 I1.5557 J17.7799
G1 X63.7532 Y-197.0805
Z-16.51
X63.1534 Y-185.6663
Z-19.05
X56.1469 Y-52.3273
G2 X72.7914 Y-33.5102 I17.8959 J0.9403
G1 X178.9277 Y-26.0805
Z-16.51
X190.3298 Y-25.2823
Z-19.05
X424.8467 Y-8.8658
G3 X427.8 Y-5.6997 I-0.2217 J3.1672
G1 X427.807 Y13.3146
G3 X424.4658 Y16.4864 I-3.175 J0.0012
G1 X420.1488 Y16.2601
G3 X417.9341 Y15.19 I0.1662 J-3.1706
G2 X416.7079 Y16.2941 I-0.6187 J0.5458
G3 X417.5406 Y18.6084 I-2.3379 J2.1482
G1 X417.4236 Y20.8413
G3 X413.0362 Y24.7922 I-4.1694 J-0.2186
G1 X395.5358 Y23.875
X395.5343
G3 X391.5853 Y19.4881 I0.2205 J-4.1694
G1 X391.5854 Y19.4871
X391.6854 Y17.5821
G3 X392.9384 Y15.218 I3.1706 J0.1664
G2 X391.9285 Y13.913 I-0.4984 J-0.6576
G3 X389.7938 Y14.5925 I-1.9685 J-2.4911
G1 X306.155 Y10.2092
Z-16.51
X294.7407 Y9.611
Z-19.05
X233.4758 Y6.4002
G3 X231.2615 Y5.3304 I0.1662 J-3.1706
G2 X230.0352 Y6.4345 I-0.6186 J0.5459
G3 X230.8676 Y8.7488 I-2.3382 J2.1479
G1 X230.7447 Y11.0912
G3 X226.3564 Y15.0422 I-4.169 J-0.2179
G1 X198.3967 Y13.5769
G3 X194.4443 Y9.1896 I0.2172 J-4.1695
G1 X194.5683 Y6.8193
G3 X195.6385 Y4.6043 I3.1707 J0.1659
G2 X194.5349 Y3.3785 I-0.5456 J-0.6185
G3 X192.2208 Y4.211 I-2.1479 J-2.3382
G1 X38.76 Y-3.8315
G3 X36.3957 Y-5.0846 I0.1662 J-3.1706
G2 X35.0907 Y-4.0749 I-0.6576 J0.4983
G3 X35.7702 Y-1.9405 I-2.4912 J1.9683
G1 X35.6232 Y0.8655
G3 X31.2353 Y4.8163 I-4.1693 J-0.2185
G1 X-0.1662 Y3.1706
G0 Z6.096
X206.5912 Y-45.7164
G1 Z4.191 F508
Z-6.604
G3 X206.3013 Y-47.5542 I14.8167 J-3.2788
G1 X191.2203 Y-205.6836
G3 X206.4168 Y-222.299 I15.1067 J-1.4405
G1 X597.1345 Y-219.9709
G3 X602.263 Y-214.3866 I-0.0298 J5.1746
G1 X589.895 Y-58.6701
G3 X547.0928 Y-19.2845 I-42.6382 J-3.3865
G1 X421.7508 Y-19.7655
X421.5413 Y-19.7733
X220.3483 Y-33.857
G3 X206.5912 Y-45.7164 I1.0596 J-15.1381
G1 Z-14.224
G3 X206.3013 Y-47.5542 I14.8167 J-3.2788
G1 X191.2203 Y-205.6836
G3 X206.4168 Y-222.299 I15.1067 J-1.4405
G1 X597.1345 Y-219.9709
G3 X602.263 Y-214.3866 I-0.0298 J5.1746
G1 X589.895 Y-58.6701
G3 X547.0928 Y-19.2845 I-42.6382 J-3.3865
G1 X421.7508 Y-19.7655
X421.5413 Y-19.7733
X220.3483 Y-33.857
G3 X206.5912 Y-45.7164 I1.0596 J-15.1381
G1 Z-19.05
G3 X206.3013 Y-47.5542 I14.8167 J-3.2788
G1 X200.2045 Y-111.4813
Z-16.51
X199.1194 Y-122.8597
Z-19.05
X191.2203 Y-205.6836
G3 X206.4168 Y-222.299 I15.1067 J-1.4405
G1 X271.322 Y-221.9122
Z-16.51
X282.7518 Y-221.8441
Z-19.05
X502.987 Y-220.5319
Z-16.51
X514.4168 Y-220.4638
Z-19.05
X597.1345 Y-219.9709
G3 X602.263 Y-214.3866 I-0.0298 J5.1746
G1 X594.2996 Y-114.1247
Z-16.51
X593.3946 Y-102.7305
Z-19.05
X589.895 Y-58.6701
G3 X547.0928 Y-19.2845 I-42.6382 J-3.3865
G1 X489.4888 Y-19.5056
Z-16.51
X478.0589 Y-19.5494
Z-19.05
X421.7508 Y-19.7655
X421.5413 Y-19.7733
X318.5603 Y-26.9821
Z-16.51
X307.1582 Y-27.7802
Z-19.05
X220.3483 Y-33.857
G3 X206.5912 Y-45.7164 I1.0596 J-15.1381
G0 Z6.096
X296.2459 Y80.9601
G1 Z4.191 F508
Z-6.604
X296.5174 Y84.077
G3 X305.4133 Y83.7816 I4.6347 J5.4775
X308.0509 Y91.5309 I-4.2607 J5.7737
G1 X319.6719 Y89.8976
G3 X319.7566 Y82.396 I6.1591 J-3.6818
X328.5828 Y79.5879 I6.0748 J3.8187
G1 X481.4886 Y58.0984
G3 X490.5158 Y57.6885 I4.7665 J5.3636
X493.1189 Y65.5551 I-4.2601 J5.7736
G1 X515.5012 Y62.4094
G3 X515.7319 Y54.2205 I6.0038 J-3.9286
X524.608 Y52.011 I5.7736 J4.2602
G1 X674.4615 Y30.9505
G3 X683.325 Y29.9782 I5.0447 J5.102
X686.2847 Y38.4074 I-3.8185 J6.0749
G1 X711.922 Y34.8043
X707.8109 Y5.5532
G3 X706.8386 Y-3.3106 I5.1021 J-5.045
X715.0314 Y-6.348 I6.0751 J3.8186
G1 X711.9139 Y-28.5298
G3 X704.5649 Y-28.702 I-3.5302 J-6.2463
X701.7568 Y-37.5275 I3.8188 J-6.0745
G1 X685.3058 Y-154.5816
G3 X684.334 Y-163.4454 I5.1023 J-5.0446
X692.7273 Y-166.4167 I6.0746 J3.819
G1 X679.8404 Y-258.1103
G3 X672.3135 Y-258.1801 I-3.7068 J-6.1439
X669.5059 Y-267.0057 I3.8191 J-6.0744
G1 X653.847 Y-378.424
X254.5719
X257.5894 Y-343.93
X593.379
X593.3795
G3 X617.3411 Y-323.1033 J24.1974
G1 X661.3021 Y-10.6128
G3 X641.0669 Y16.7398 I-24.0334 J3.3816
G1 X295.4228 Y71.5108
X296.2459 Y80.9601
Z-14.224
X296.5174 Y84.077
G3 X305.4133 Y83.7816 I4.6347 J5.4775
X308.0509 Y91.5309 I-4.2607 J5.7737
G1 X319.6719 Y89.8976
G3 X319.7566 Y82.396 I6.1591 J-3.6818
X328.5828 Y79.5879 I6.0748 J3.8187
G1 X481.4886 Y58.0984
G3 X490.5158 Y57.6885 I4.7665 J5.3636
X493.1189 Y65.5551 I-4.2601 J5.7736
G1 X515.5012 Y62.4094
G3 X515.7319 Y54.2205 I6.0038 J-3.9286
X524.608 Y52.011 I5.7736 J4.2602
G1 X674.4615 Y30.9505
G3 X683.325 Y29.9782 I5.0447 J5.102
X686.2847 Y38.4074 I-3.8185 J6.0749
G1 X711.922 Y34.8043
X707.8109 Y5.5532
G3 X706.8386 Y-3.3106 I5.1021 J-5.045
X715.0314 Y-6.348 I6.0751 J3.8186
G1 X711.9139 Y-28.5298
G3 X704.5649 Y-28.702 I-3.5302 J-6.2463
X701.7568 Y-37.5275 I3.8188 J-6.0745
G1 X685.3058 Y-154.5816
G3 X684.334 Y-163.4454 I5.1023 J-5.0446
X692.7273 Y-166.4167 I6.0746 J3.819
G1 X679.8404 Y-258.1103
G3 X672.3135 Y-258.1801 I-3.7068 J-6.1439
X669.5059 Y-267.0057 I3.8191 J-6.0744
G1 X653.847 Y-378.424
X254.5719
X257.5894 Y-343.93
X593.379
X593.3795
G3 X617.3411 Y-323.1033 J24.1974
G1 X661.3021 Y-10.6128
G3 X641.0669 Y16.7398 I-24.0334 J3.3816
G1 X295.4228 Y71.5108
X296.2459 Y80.9601
Z-19.05
X296.5174 Y84.077
G3 X305.4133 Y83.7816 I4.6347 J5.4775
X308.0509 Y91.5309 I-4.2607 J5.7737
G1 X319.6719 Y89.8976
G3 X319.7566 Y82.396 I6.1591 J-3.6818
X328.5828 Y79.5879 I6.0748 J3.8187
G1 X444.5717 Y63.2867
Z-16.51
X455.8905 Y61.696
Z-19.05
X481.4886 Y58.0984
G3 X490.5158 Y57.6885 I4.7665 J5.3636
X493.1189 Y65.5551 I-4.2601 J5.7736
G1 X515.5012 Y62.4094
G3 X515.7319 Y54.2205 I6.0038 J-3.9286
X524.608 Y52.011 I5.7736 J4.2602
G1 X556.4307 Y47.5386
Z-16.51
X567.7495 Y45.9478
Z-19.05
X636.3367 Y36.3086
Z-16.51
X647.6555 Y34.7178
Z-19.05
X674.4615 Y30.9505
G3 X683.325 Y29.9782 I5.0447 J5.102
X686.2847 Y38.4074 I-3.8185 J6.0749
G1 X688.3817 Y38.1127
Z-16.51
X699.7005 Y36.5219
Z-19.05
X708.1491 Y35.3345
Z-16.51
X711.922 Y34.8043
X711.5685 Y32.289
Z-19.05
X707.8109 Y5.5532
G3 X706.8386 Y-3.3106 I5.1021 J-5.045
X711.4294 Y-6.5124 I6.0751 J3.8186
G1 Z-16.51
G3 X715.0314 Y-6.348 I1.4842 J7.0204
G1 X714.4636 Y-10.3881
Z-19.05
X713.796 Y-15.1381
Z-16.51
X711.9139 Y-28.5298
G3 X708.4641 Y-27.6017 I-3.5302 J-6.2463
G1 Z-19.05
G3 X704.5649 Y-28.702 I-0.0804 J-7.1745
X701.7568 Y-37.5275 I3.8188 J-6.0745
G1 X697.2865 Y-69.3354
Z-16.51
X695.5455 Y-81.7232
Z-19.05
X694.5046 Y-89.1299
Z-16.51
X692.9138 Y-100.4486
Z-19.05
X685.3058 Y-154.5816
G3 X684.334 Y-163.4454 I5.1023 J-5.0446
X689.1063 Y-166.6825 I6.0746 J3.819
G1 Z-16.51
G3 X692.7273 Y-166.4167 I1.3023 J7.0561
G1 X692.2349 Y-169.9202
Z-19.05
X690.4562 Y-182.5757
Z-16.51
X688.1629 Y-198.8936
Z-19.05
X680.882 Y-250.6989
Z-16.51
X679.8404 Y-258.1103
G3 X676.1372 Y-257.0787 I-3.7068 J-6.1439
G1 Z-19.05
G3 X672.3135 Y-258.1801 I-0.0036 J-7.1754
X669.5059 Y-267.0057 I3.8191 J-6.0744
G1 X661.8919 Y-321.1818
Z-16.51
X660.3011 Y-332.5006
Z-19.05
X654.3824 Y-374.614
Z-16.51
X653.847 Y-378.424
X650.892
Z-19.05
X608.095
Z-16.51
X596.665
Z-19.05
X363.753
Z-16.51
X352.323
Z-19.05
X254.5719
X257.5894 Y-343.93
X534.892
Z-16.51
X546.322
Z-19.05
X593.379
G3 X617.3411 Y-323.1033 I0.0005 J24.1974
G1 X642.2599 Y-145.9706
Z-16.51
X643.8523 Y-134.6521
Z-19.05
X661.3021 Y-10.6128
G3 X641.0669 Y16.7398 I-24.0334 J3.3816
G1 X523.1815 Y35.42
Z-16.51
X511.8923 Y37.2089
Z-19.05
X295.4228 Y71.5108
X296.2459 Y80.9601
G0 Z6.096
X160.6874 Y-234.4847
G1 Z4.191 F508
Z-6.604
G3 X154.9652 Y-245.7142 I7.4473 J-10.8676
G1 X157.0402 Y-321.0923
G3 X170.289 Y-333.9049 I13.17 J0.3621
G1 X513.2869 Y-331.8609
G3 X526.3816 Y-318.8915 I-0.0784 J13.1744
G1 X527.5586 Y-243.4946
G3 X514.3059 Y-230.1151 I-13.1731 J0.205
G1 X168.0572 Y-232.1781
G3 X160.6874 Y-234.4847 I0.0775 J-13.1743
G1 Z-14.224
G3 X154.9652 Y-245.7142 I7.4473 J-10.8676
G1 X157.0402 Y-321.0923
G3 X170.289 Y-333.9049 I13.17 J0.3621
G1 X513.2869 Y-331.8609
G3 X526.3816 Y-318.8915 I-0.0784 J13.1744
G1 X527.5586 Y-243.4946
G3 X514.3059 Y-230.1151 I-13.1731 J0.205
G1 X168.0572 Y-232.1781
G3 X160.6874 Y-234.4847 I0.0775 J-13.1743
G1 Z-19.05
G3 X154.9652 Y-245.7142 I7.4473 J-10.8676
G1 X155.7187 Y-273.0865
Z-16.51
X156.0332 Y-284.5122
Z-19.05
X157.0402 Y-321.0923
G3 X170.289 Y-333.9049 I13.17 J0.3621
G1 X337.704 Y-332.9073
Z-16.51
X349.1338 Y-332.8392
Z-19.05
X513.2869 Y-331.8609
G3 X526.3816 Y-318.8915 I-0.0784 J13.1744
G1 X526.7684 Y-294.1138
Z-16.51
X526.9468 Y-282.6852
Z-19.05
X527.5586 Y-243.4946
G3 X514.3059 Y-230.1151 I-13.1731 J0.205
G1 X353.224 Y-231.0748
Z-16.51
X341.7942 Y-231.1429
Z-19.05
X168.0572 Y-232.1781
G3 X160.6874 Y-234.4847 I0.0775 J-13.1743
G0 Z6.096

(Operation 2 of 3 : 2D Pocket1)

G54
S5000 M3
X238.2376 Y-119.8101
Z11.176
Z6.096
G1 Z3.556 F508
G2 X238.1487 Y-119.2919 Z2.9126 I-3.006 J-0.2491
X237.9711 Y-118.797 Z2.2692 I-2.917 J-0.7673
X237.7103 Y-118.3405 Z1.6257 I-2.7395 J-1.2622
X237.3742 Y-117.9362 Z0.9823 I-2.4787 J-1.7187
X236.973 Y-117.5964 Z0.3389 I-2.1426 J-2.123
X236.5189 Y-117.3314 Z-0.3045 I-1.7414 J-2.4628
X236.0257 Y-117.1493 Z-0.948 I-1.2873 J-2.7278
X235.5083 Y-117.0556 Z-1.5914 I-0.794 J-2.9099
X234.9826 Y-117.0532 Z-2.2348 I-0.2767 J-3.0035
X234.4644 Y-117.1421 Z-2.8782 I0.2491 J-3.006
X233.9695 Y-117.3197 Z-3.5217 I0.7673 J-2.917
X232.2154 Y-120.0443 Z-4.064 I1.2622 J-2.7395
G1 X232.2155 Y-120.034
X232.2222 Y-119.9932
X232.2411 Y-119.9564
X232.2705 Y-119.9273
X232.3075 Y-119.9087
X232.3484 Y-119.9024
X232.8593 Y-119.9049
X232.9034 Y-119.9121
X232.943 Y-119.9326
X232.9744 Y-119.9643
X232.9944 Y-120.0041
X233.0012 Y-120.0482
X232.994 Y-120.0922
X232.9736 Y-120.1319
X232.9419 Y-120.1633
X232.902 Y-120.1833
X232.8579 Y-120.1901
X232.347 Y-120.1876
X232.3061 Y-120.1809
X232.2694 Y-120.1619
X232.2402 Y-120.1325
X232.2216 Y-120.0956
X232.2154 Y-120.0547
Y-120.0443
G3 X230.8928 Y-117.4683 I-3.1399 J0.0154
G2 X231.7791 Y-114.7115 I0.8788 J1.2383
G1 X236.3288 Y-114.734
G3 X238.9646 Y-113.6419 I0.0182 J3.683
G1 X239.0163 Y-113.5996
X239.0757 Y-113.5691
X239.1401 Y-113.5517
X239.2068 Y-113.5482
X239.2728 Y-113.5587
X239.335 Y-113.5828
X239.3909 Y-113.6194
X239.4379 Y-113.6668
X239.4739 Y-113.723
X239.4974 Y-113.7856
X239.5072 Y-113.8516
X239.503 Y-113.9182
X239.485 Y-113.9825
X239.4539 Y-114.0416
X239.4111 Y-114.0929
G3 X238.293 Y-116.7179 I2.5648 J-2.6431
G1 X238.26 Y-123.4319
G3 X239.3517 Y-126.0671 I3.683 J-0.0181
G1 X239.3938 Y-126.1187
X239.4242 Y-126.178
X239.4416 Y-126.2423
X239.4451 Y-126.3088
X239.4346 Y-126.3746
X239.4106 Y-126.4367
X239.3741 Y-126.4925
X239.3267 Y-126.5393
X239.2707 Y-126.5753
X239.2083 Y-126.5987
X239.1424 Y-126.6085
X239.0759 Y-126.6043
X239.0118 Y-126.5863
X238.9528 Y-126.5553
X238.9017 Y-126.5127
G3 X236.2772 Y-125.395 I-2.6427 J-2.5653
G1 X228.9742 Y-125.359
G3 X226.3384 Y-126.4511 I-0.0182 J-3.683
G1 X226.2868 Y-126.4933
X226.2274 Y-126.5238
X226.163 Y-126.5412
X226.0964 Y-126.5447
X226.0305 Y-126.5342
X225.9683 Y-126.5101
X225.9125 Y-126.4736
X225.8656 Y-126.4262
X225.8296 Y-126.37
X225.8062 Y-126.3076
X225.7964 Y-126.2416
X225.8006 Y-126.175
X225.8186 Y-126.1108
X225.8497 Y-126.0518
X225.8924 Y-126.0006
G3 X227.011 Y-123.3751 I-2.5644 J2.6436
G1 X227.044 Y-116.6621
G3 X225.9519 Y-114.0264 I-3.683 J0.0181
G1 X225.9097 Y-113.9748
X225.8792 Y-113.9154
X225.8618 Y-113.8511
X225.8583 Y-113.7845
X225.8688 Y-113.7186
X225.8928 Y-113.6564
X225.9294 Y-113.6006
X225.9768 Y-113.5537
X226.0329 Y-113.5177
X226.0954 Y-113.4943
X226.1613 Y-113.4844
X226.2279 Y-113.4886
X226.2921 Y-113.5066
X226.3511 Y-113.5376
X226.4023 Y-113.5803
G3 X229.0268 Y-114.698 I2.6427 J2.5653
G1 X231.7791 Y-114.7115
G0 Z6.096
X236.5374 Y-122.7781
G1 Z-1.524 F508
G2 X236.9897 Y-122.5101 Z-2.1674 I-1.3058 J2.7189
X237.3886 Y-122.1675 Z-2.8108 I-1.7581 J2.4509
X237.722 Y-121.761 Z-3.4543 I-2.157 J2.1084
X237.9796 Y-121.3027 Z-4.0977 I-2.4903 J1.7018
X238.1538 Y-120.8066 Z-4.7411 I-2.748 J1.2435
X238.2392 Y-120.2878 Z-5.3845 I-2.9222 J0.7474
X238.2332 Y-119.7621 Z-6.028 I-3.0076 J0.2286
X238.136 Y-119.2454 Z-6.6714 I-3.0016 J-0.2971
X237.9506 Y-118.7534 Z-7.3148 I-2.9044 J-0.8138
X237.6825 Y-118.3011 Z-7.9582 I-2.7189 J-1.3058
X237.34 Y-117.9022 Z-8.6017 I-2.4509 J-1.7581
X232.2154 Y-120.0443 Z-9.017 I-2.1084 J-2.157
G1 X232.2155 Y-120.034
X232.2222 Y-119.9932
X232.2411 Y-119.9564
X232.2705 Y-119.9273
X232.3075 Y-119.9087
X232.3484 Y-119.9024
X232.8593 Y-119.9049
X232.9034 Y-119.9121
X232.943 Y-119.9326
X232.9744 Y-119.9643
X232.9944 Y-120.0041
X233.0012 Y-120.0482
X232.994 Y-120.0922
X232.9736 Y-120.1319
X232.9419 Y-120.1633
X232.902 Y-120.1833
X232.8579 Y-120.1901
X232.347 Y-120.1876
X232.3061 Y-120.1809
X232.2694 Y-120.1619
X232.2402 Y-120.1325
X232.2216 Y-120.0956
X232.2154 Y-120.0547
Y-120.0443
G3 X230.8928 Y-117.4683 I-3.1399 J0.0154
G2 X231.7791 Y-114.7115 I0.8788 J1.2383
G1 X236.3288 Y-114.734
G3 X238.9646 Y-113.6419 I0.0182 J3.683
G1 X239.0163 Y-113.5996
X239.0757 Y-113.5691
X239.1401 Y-113.5517
X239.2068 Y-113.5482
X239.2728 Y-113.5587
X239.335 Y-113.5828
X239.3909 Y-113.6194
X239.4379 Y-113.6668
X239.4739 Y-113.723
X239.4974 Y-113.7856
X239.5072 Y-113.8516
X239.503 Y-113.9182
X239.485 Y-113.9825
X239.4539 Y-114.0416
X239.4111 Y-114.0929
G3 X238.293 Y-116.7179 I2.5648 J-2.6431
G1 X238.26 Y-123.4319
G3 X239.3517 Y-126.0671 I3.683 J-0.0181
G1 X239.3938 Y-126.1187
X239.4242 Y-126.178
X239.4416 Y-126.2423
X239.4451 Y-126.3088
X239.4346 Y-126.3746
X239.4106 Y-126.4367
X239.3741 Y-126.4925
X239.3267 Y-126.5393
X239.2707 Y-126.5753
X239.2083 Y-126.5987
X239.1424 Y-126.6085
X239.0759 Y-126.6043
X239.0118 Y-126.5863
X238.9528 Y-126.5553
X238.9017 Y-126.5127
G3 X236.2772 Y-125.395 I-2.6427 J-2.5653
G1 X228.9742 Y-125.359
G3 X226.3384 Y-126.4511 I-0.0182 J-3.683
G1 X226.2868 Y-126.4933
X226.2274 Y-126.5238
X226.163 Y-126.5412
X226.0964 Y-126.5447
X226.0305 Y-126.5342
X225.9683 Y-126.5101
X225.9125 Y-126.4736
X225.8656 Y-126.4262
X225.8296 Y-126.37
X225.8062 Y-126.3076
X225.7964 Y-126.2416
X225.8006 Y-126.175
X225.8186 Y-126.1108
X225.8497 Y-126.0518
X225.8924 Y-126.0006
G3 X227.011 Y-123.3751 I-2.5644 J2.6436
G1 X227.044 Y-116.6621
G3 X225.9519 Y-114.0264 I-3.683 J0.0181
G1 X225.9097 Y-113.9748
X225.8792 Y-113.9154
X225.8618 Y-113.8511
X225.8583 Y-113.7845
X225.8688 Y-113.7186
X225.8928 Y-113.6564
X225.9294 Y-113.6006
X225.9768 Y-113.5537
X226.0329 Y-113.5177
X226.0954 Y-113.4943
X226.1613 Y-113.4844
X226.2279 Y-113.4886
X226.2921 Y-113.5066
X226.3511 Y-113.5376
X226.4023 Y-113.5803
G3 X229.0268 Y-114.698 I2.6427 J2.5653
G1 X231.7791 Y-114.7115
G0 Z6.096
X345.0948 Y-50.4401
G1 Z3.556 F508
G2 X345.1883 Y-50.9574 Z2.9126 I3.0036 J0.276
X345.3703 Y-51.4507 Z2.2692 I2.91 J0.7934
X345.6352 Y-51.9049 Z1.6257 I2.7281 J1.2866
X345.9749 Y-52.3062 Z0.9823 I2.4632 J1.7408
X346.3791 Y-52.6424 Z0.3389 I2.1235 J2.1421
X346.8356 Y-52.9033 Z-0.3045 I1.7193 J2.4783
X347.3304 Y-53.0809 Z-0.948 I1.2628 J2.7392
X347.8486 Y-53.17 Z-1.5914 I0.7679 J2.9169
X348.3744 Y-53.1677 Z-2.2348 I0.2498 J3.0059
X348.8918 Y-53.0741 Z-2.8782 I-0.276 J3.0036
X349.385 Y-52.8921 Z-3.5217 I-0.7934 J2.91
X351.1146 Y-50.1519 Z-4.064 I-1.2866 J2.7281
G1 X351.1147 Y-50.1803
Y-50.1807
X351.1073 Y-50.2181
X351.0862 Y-50.2498
X351.0546 Y-50.271
X351.0172 Y-50.2786
X269.1103 Y-50.6141
X269.1097
X269.0709 Y-50.6079
X269.0359 Y-50.5901
X269.008 Y-50.5624
X268.9901 Y-50.5274
X268.9838 Y-50.4886
Y-50.4881
X268.9899 Y-50.4492
X269.0077 Y-50.4142
X269.0354 Y-50.3863
X269.0704 Y-50.3684
X269.1092 Y-50.3621
X351.0162 Y-50.026
X351.0166
X351.054 Y-50.0334
X351.0857 Y-50.0545
X351.1069 Y-50.0861
X351.1145 Y-50.1235
X351.1146 Y-50.1519
G3 X352.4487 Y-52.7112 I3.1464 J0.0127
G2 X351.5824 Y-55.4643 I-0.8725 J-1.2383
G1 X265.6989 Y-55.816
G3 X263.0733 Y-56.9317 I0.0151 J-3.683
G1 X263.0221 Y-56.9743
X262.9631 Y-57.0053
X262.8989 Y-57.0232
X262.8324 Y-57.0273
X262.7665 Y-57.0174
X262.7041 Y-56.994
X262.648 Y-56.958
X262.6007 Y-56.9111
X262.5643 Y-56.8553
X262.5403 Y-56.7931
X262.5299 Y-56.7273
X262.5334 Y-56.6607
X262.5509 Y-56.5964
X262.5814 Y-56.5371
X262.6236 Y-56.4856
G3 X263.718 Y-53.8503 I-2.5886 J2.6199
G1 X263.69 Y-47.1697
G3 X262.5746 Y-44.5447 I-3.683 J-0.0154
G1 X262.5319 Y-44.4934
X262.5009 Y-44.4343
X262.4829 Y-44.37
X262.4788 Y-44.3034
X262.4887 Y-44.2374
X262.5122 Y-44.1749
X262.5483 Y-44.1187
X262.5953 Y-44.0713
X262.6512 Y-44.0348
X262.7134 Y-44.0108
X262.7794 Y-44.0004
X262.846 Y-44.0039
X262.9104 Y-44.0214
X262.9698 Y-44.0519
X263.0215 Y-44.0942
G3 X265.6561 Y-45.1883 I2.6195 J2.5889
G1 X354.3071 Y-44.8245
G3 X356.9327 Y-43.7088 I-0.0151 J3.683
G1 X356.984 Y-43.6661
X357.0431 Y-43.6351
X357.1073 Y-43.6171
X357.1739 Y-43.613
X357.2399 Y-43.6229
X357.3023 Y-43.6464
X357.3585 Y-43.6824
X357.4058 Y-43.7294
X357.4423 Y-43.7853
X357.4663 Y-43.8475
X357.4768 Y-43.9134
X357.4732 Y-43.98
X357.4558 Y-44.0444
X357.4252 Y-44.1037
X357.383 Y-44.1553
G3 X356.289 Y-46.7897 I2.589 J-2.6195
G1 X356.316 Y-53.471
G3 X357.4319 Y-56.097 I3.683 J0.0149
G1 X357.4745 Y-56.1482
X357.5055 Y-56.2073
X357.5235 Y-56.2715
X357.5276 Y-56.338
X357.5177 Y-56.404
X357.4942 Y-56.4664
X357.4582 Y-56.5225
X357.4113 Y-56.5698
X357.3554 Y-56.6063
X357.2932 Y-56.6303
X357.2274 Y-56.6407
X357.1608 Y-56.6371
X357.0965 Y-56.6197
X357.0372 Y-56.5892
X356.9856 Y-56.547
G3 X354.3509 Y-55.4529 I-2.6196 J-2.5889
G1 X351.5824 Y-55.4643
G0 Z6.096
X346.7683 Y-47.4569
G1 Z-1.524 F508
G2 X346.3184 Y-47.729 Z-2.1674 I1.3301 J-2.7071
X345.9226 Y-48.0751 Z-2.8108 I1.78 J-2.435
X345.5929 Y-48.4847 Z-3.4543 I2.1758 J-2.089
X345.3393 Y-48.9453 Z-4.0977 I2.5055 J-1.6794
X345.1696 Y-49.4429 Z-4.7411 I2.759 J-1.2188
X345.0889 Y-49.9624 Z-5.3845 I2.9288 J-0.7212
X345.0996 Y-50.4881 Z-6.028 I3.0095 J-0.2017
X345.2014 Y-51.0039 Z-6.6714 I2.9988 J0.324
X345.3912 Y-51.4942 Z-7.3148 I2.897 J0.8398
X345.6633 Y-51.9441 Z-7.9582 I2.7071 J1.3301
X346.0094 Y-52.3399 Z-8.6017 I2.435 J1.78
X351.1146 Y-50.1519 Z-9.017 I2.089 J2.1758
G1 X351.1147 Y-50.1803
Y-50.1807
X351.1073 Y-50.2181
X351.0862 Y-50.2498
X351.0546 Y-50.271
X351.0172 Y-50.2786
X269.1103 Y-50.6141
X269.1097
X269.0709 Y-50.6079
X269.0359 Y-50.5901
X269.008 Y-50.5624
X268.9901 Y-50.5274
X268.9838 Y-50.4886
Y-50.4881
X268.9899 Y-50.4492
X269.0077 Y-50.4142
X269.0354 Y-50.3863
X269.0704 Y-50.3684
X269.1092 Y-50.3621
X351.0162 Y-50.026
X351.0166
X351.054 Y-50.0334
X351.0857 Y-50.0545
X351.1069 Y-50.0861
X351.1145 Y-50.1235
X351.1146 Y-50.1519
G3 X352.4487 Y-52.7112 I3.1464 J0.0127
G2 X351.5824 Y-55.4643 I-0.8725 J-1.2383
G1 X265.6989 Y-55.816
G3 X263.0733 Y-56.9317 I0.0151 J-3.683
G1 X263.0221 Y-56.9743
X262.9631 Y-57.0053
X262.8989 Y-57.0232
X262.8324 Y-57.0273
X262.7665 Y-57.0174
X262.7041 Y-56.994
X262.648 Y-56.958
X262.6007 Y-56.9111
X262.5643 Y-56.8553
X262.5403 Y-56.7931
X262.5299 Y-56.7273
X262.5334 Y-56.6607
X262.5509 Y-56.5964
X262.5814 Y-56.5371
X262.6236 Y-56.4856
G3 X263.718 Y-53.8503 I-2.5886 J2.6199
G1 X263.69 Y-47.1697
G3 X262.5746 Y-44.5447 I-3.683 J-0.0154
G1 X262.5319 Y-44.4934
X262.5009 Y-44.4343
X262.4829 Y-44.37
X262.4788 Y-44.3034
X262.4887 Y-44.2374
X262.5122 Y-44.1749
X262.5483 Y-44.1187
X262.5953 Y-44.0713
X262.6512 Y-44.0348
X262.7134 Y-44.0108
X262.7794 Y-44.0004
X262.846 Y-44.0039
X262.9104 Y-44.0214
X262.9698 Y-44.0519
X263.0215 Y-44.0942
G3 X265.6561 Y-45.1883 I2.6195 J2.5889
G1 X354.3071 Y-44.8245
G3 X356.9327 Y-43.7088 I-0.0151 J3.683
G1 X356.984 Y-43.6661
X357.0431 Y-43.6351
X357.1073 Y-43.6171
X357.1739 Y-43.613
X357.2399 Y-43.6229
X357.3023 Y-43.6464
X357.3585 Y-43.6824
X357.4058 Y-43.7294
X357.4423 Y-43.7853
X357.4663 Y-43.8475
X357.4768 Y-43.9134
X357.4732 Y-43.98
X357.4558 Y-44.0444
X357.4252 Y-44.1037
X357.383 Y-44.1553
G3 X356.289 Y-46.7897 I2.589 J-2.6195
G1 X356.316 Y-53.471
G3 X357.4319 Y-56.097 I3.683 J0.0149
G1 X357.4745 Y-56.1482
X357.5055 Y-56.2073
X357.5235 Y-56.2715
X357.5276 Y-56.338
X357.5177 Y-56.404
X357.4942 Y-56.4664
X357.4582 Y-56.5225
X357.4113 Y-56.5698
X357.3554 Y-56.6063
X357.2932 Y-56.6303
X357.2274 Y-56.6407
X357.1608 Y-56.6371
X357.0965 Y-56.6197
X357.0372 Y-56.5892
X356.9856 Y-56.547
G3 X354.3509 Y-55.4529 I-2.6196 J-2.5889
G1 X351.5824 Y-55.4643
G0 Z6.096
X506.883 Y-49.2673
G1 Z3.556 F508
G2 X506.7914 Y-48.7496 Z2.9126 I-3.0046 J-0.2647
X506.6113 Y-48.2557 Z2.2692 I-2.913 J-0.7824
X506.3481 Y-47.8005 Z1.6257 I-2.7329 J-1.2764
X506.0099 Y-47.3979 Z0.9823 I-2.4697 J-1.7316
X505.6069 Y-47.0602 Z0.3389 I-2.1315 J-2.1341
X505.1514 Y-46.7976 Z-0.3045 I-1.7285 J-2.4718
X504.6573 Y-46.6181 Z-0.948 I-1.273 J-2.7344
X504.1394 Y-46.5271 Z-1.5914 I-0.7789 J-2.914
X503.6137 Y-46.5274 Z-2.2348 I-0.261 J-3.0049
X503.0959 Y-46.6191 Z-2.8782 I0.2647 J-3.0046
X502.602 Y-46.7992 Z-3.5217 I0.7825 J-2.913
X500.8621 Y-49.533 Z-4.064 I1.2764 J-2.7329
G1 Y-49.5022
Y-49.5021
X500.8682 Y-49.4561
X500.886 Y-49.4131
X500.9142 Y-49.3763
X500.9511 Y-49.348
X500.994 Y-49.3302
X501.0401 Y-49.3241
X512.8485 Y-49.3217
X512.8486
X512.8998 Y-49.3284
X512.9475 Y-49.3482
X512.9885 Y-49.3797
X513.02 Y-49.4206
X513.0398 Y-49.4684
X513.0465 Y-49.5196
X513.0398 Y-49.5708
X513.0201 Y-49.6185
X512.9887 Y-49.6595
X512.9478 Y-49.691
X512.9001 Y-49.7108
X512.8489 Y-49.7176
X501.0405 Y-49.7417
X501.0402
X500.9941 Y-49.7357
X500.9512 Y-49.7179
X500.9143 Y-49.6896
X500.886 Y-49.6528
X500.8682 Y-49.6098
X500.8622 Y-49.5638
X500.8621 Y-49.533
G3 X499.4788 Y-46.9457 I-3.1128 J-0.0009
G2 X500.3302 Y-44.1381 I0.8517 J1.2746
G1 X516.3238 Y-44.1348
G3 X518.9537 Y-43.0294 I-0.0008 J3.683
G1 X519.0051 Y-42.987
X519.0643 Y-42.9562
X519.1286 Y-42.9385
X519.1952 Y-42.9346
X519.2611 Y-42.9448
X519.3234 Y-42.9685
X519.3794 Y-43.0047
X519.4266 Y-43.0519
X519.4628 Y-43.1079
X519.4866 Y-43.1702
X519.4968 Y-43.2361
X519.4929 Y-43.3027
X519.4753 Y-43.367
X519.4445 Y-43.4262
X519.4021 Y-43.4776
G3 X518.298 Y-46.1081 I2.5789 J-2.6294
G1 X518.3 Y-52.9267
G3 X519.4057 Y-55.5566 I3.683 J0.0011
G1 X519.4482 Y-55.608
X519.479 Y-55.6672
X519.4967 Y-55.7316
X519.5005 Y-55.7982
X519.4903 Y-55.8641
X519.4665 Y-55.9265
X519.4303 Y-55.9825
X519.3831 Y-56.0296
X519.327 Y-56.0659
X519.2647 Y-56.0896
X519.1987 Y-56.0997
X519.1321 Y-56.0958
X519.0678 Y-56.078
X519.0086 Y-56.0472
X518.9572 Y-56.0047
G3 X516.3165 Y-54.8967 I-2.6332 J-2.575
G1 X497.6405 Y-54.9348
G3 X495.0201 Y-56.0374 I0.0075 J-3.683
G1 X494.9687 Y-56.0797
X494.9096 Y-56.1104
X494.8453 Y-56.128
X494.7788 Y-56.1318
X494.713 Y-56.1216
X494.6508 Y-56.0979
X494.5949 Y-56.0617
X494.5478 Y-56.0146
X494.5116 Y-55.9586
X494.4879 Y-55.8964
X494.4778 Y-55.8306
X494.4817 Y-55.7641
X494.4993 Y-55.6999
X494.53 Y-55.6408
X494.5724 Y-55.5894
G3 X495.677 Y-52.9584 I-2.5784 J2.6299
G1 X495.675 Y-46.1125
G3 X494.5693 Y-43.4826 I-3.683 J-0.0011
G1 X494.5268 Y-43.4312
X494.4961 Y-43.3721
X494.4784 Y-43.3078
X494.4745 Y-43.2412
X494.4847 Y-43.1753
X494.5084 Y-43.113
X494.5446 Y-43.057
X494.5917 Y-43.0099
X494.6477 Y-42.9736
X494.71 Y-42.9499
X494.7759 Y-42.9397
X494.8424 Y-42.9435
X494.9067 Y-42.9612
X494.9659 Y-42.9919
X495.0173 Y-43.0343
G3 X497.6478 Y-44.1387 I2.6297 J2.5786
G1 X500.3302 Y-44.1381
G0 Z6.096
X505.1983 Y-52.2442
G1 Z-1.524 F508
G2 X505.6492 Y-51.9738 Z-2.1674 I-1.3199 J2.7121
X506.0463 Y-51.6292 Z-2.8108 I-1.7708 J2.4417
X506.3776 Y-51.2209 Z-3.4543 I-2.1679 J2.0971
X506.6328 Y-50.7612 Z-4.0977 I-2.4992 J1.6888
X506.8044 Y-50.2642 Z-4.7411 I-2.7545 J1.2292
X506.8871 Y-49.745 Z-5.3845 I-2.926 J0.7322
X506.8784 Y-49.2193 Z-6.028 I-3.0087 J0.2129
X506.7785 Y-48.7031 Z-6.6714 I-3 J-0.3127
X506.5905 Y-48.2121 Z-7.3148 I-2.9001 J-0.8289
X506.3201 Y-47.7612 Z-7.9582 I-2.7121 J-1.32
X505.9755 Y-47.3641 Z-8.6017 I-2.4417 J-1.7709
X500.8621 Y-49.533 Z-9.017 I-2.0971 J-2.1679
G1 Y-49.5022
Y-49.5021
X500.8682 Y-49.4561
X500.886 Y-49.4131
X500.9142 Y-49.3763
X500.9511 Y-49.348
X500.994 Y-49.3302
X501.0401 Y-49.3241
X512.8485 Y-49.3217
X512.8486
X512.8998 Y-49.3284
X512.9475 Y-49.3482
X512.9885 Y-49.3797
X513.02 Y-49.4206
X513.0398 Y-49.4684
X513.0465 Y-49.5196
X513.0398 Y-49.5708
X513.0201 Y-49.6185
X512.9887 Y-49.6595
X512.9478 Y-49.691
X512.9001 Y-49.7108
X512.8489 Y-49.7176
X501.0405 Y-49.7417
X501.0402
X500.9941 Y-49.7357
X500.9512 Y-49.7179
X500.9143 Y-49.6896
X500.886 Y-49.6528
X500.8682 Y-49.6098
X500.8622 Y-49.5638
X500.8621 Y-49.533
G3 X499.4788 Y-46.9457 I-3.1128 J-0.0009
G2 X500.3302 Y-44.1381 I0.8517 J1.2746
G1 X516.3238 Y-44.1348
G3 X518.9537 Y-43.0294 I-0.0008 J3.683
G1 X519.0051 Y-42.987
X519.0643 Y-42.9562
X519.1286 Y-42.9385
X519.1952 Y-42.9346
X519.2611 Y-42.9448
X519.3234 Y-42.9685
X519.3794 Y-43.0047
X519.4266 Y-43.0519
X519.4628 Y-43.1079
X519.4866 Y-43.1702
X519.4968 Y-43.2361
X519.4929 Y-43.3027
X519.4753 Y-43.367
X519.4445 Y-43.4262
X519.4021 Y-43.4776
G3 X518.298 Y-46.1081 I2.5789 J-2.6294
G1 X518.3 Y-52.9267
G3 X519.4057 Y-55.5566 I3.683 J0.0011
G1 X519.4482 Y-55.608
X519.479 Y-55.6672
X519.4967 Y-55.7316
X519.5005 Y-55.7982
X519.4903 Y-55.8641
X519.4665 Y-55.9265
X519.4303 Y-55.9825
X519.3831 Y-56.0296
X519.327 Y-56.0659
X519.2647 Y-56.0896
X519.1987 Y-56.0997
X519.1321 Y-56.0958
X519.0678 Y-56.078
X519.0086 Y-56.0472
X518.9572 Y-56.0047
G3 X516.3165 Y-54.8967 I-2.6332 J-2.575
G1 X497.6405 Y-54.9348
G3 X495.0201 Y-56.0374 I0.0075 J-3.683
G1 X494.9687 Y-56.0797
X494.9096 Y-56.1104
X494.8453 Y-56.128
X494.7788 Y-56.1318
X494.713 Y-56.1216
X494.6508 Y-56.0979
X494.5949 Y-56.0617
X494.5478 Y-56.0146
X494.5116 Y-55.9586
X494.4879 Y-55.8964
X494.4778 Y-55.8306
X494.4817 Y-55.7641
X494.4993 Y-55.6999
X494.53 Y-55.6408
X494.5724 Y-55.5894
G3 X495.677 Y-52.9584 I-2.5784 J2.6299
G1 X495.675 Y-46.1125
G3 X494.5693 Y-43.4826 I-3.683 J-0.0011
G1 X494.5268 Y-43.4312
X494.4961 Y-43.3721
X494.4784 Y-43.3078
X494.4745 Y-43.2412
X494.4847 Y-43.1753
X494.5084 Y-43.113
X494.5446 Y-43.057
X494.5917 Y-43.0099
X494.6477 Y-42.9736
X494.71 Y-42.9499
X494.7759 Y-42.9397
X494.8424 Y-42.9435
X494.9067 Y-42.9612
X494.9659 Y-42.9919
X495.0173 Y-43.0343
G3 X497.6478 Y-44.1387 I2.6297 J2.5786
G1 X500.3302 Y-44.1381
G0 Z6.096
X560.8102 Y-141.6744
G1 Z3.556 F508
G2 X560.899 Y-142.1926 Z2.9126 I3.006 J0.248
X561.0764 Y-142.6876 Z2.2692 I2.9173 J0.7662
X561.337 Y-143.1442 Z1.6257 I2.7399 J1.2612
X561.6729 Y-143.5486 Z0.9823 I2.4793 J1.7178
X562.074 Y-143.8886 Z0.3389 I2.1433 J2.1222
X562.528 Y-144.1537 Z-0.3045 I1.7423 J2.4622
X563.0212 Y-144.336 Z-0.948 I1.2882 J2.7273
X563.5385 Y-144.4298 Z-1.5914 I0.7951 J2.9096
X564.0643 Y-144.4324 Z-2.2348 I0.2778 J3.0034
X564.5825 Y-144.3437 Z-2.8782 I-0.248 J3.006
X565.0774 Y-144.1663 Z-3.5217 I-0.7662 J2.9173
X566.8325 Y-141.4423 Z-4.064 I-1.2612 J2.7399
X561.4325 Y-141.4138 I-2.7 J0.0142
G1 X561.6535 Y-99.4835
X561.6613 Y-99.4408
X561.6832 Y-99.4033
X561.7166 Y-99.3755
X561.7575 Y-99.3609
X561.801 Y-99.3611
X561.8418 Y-99.3762
X561.8749 Y-99.4043
X561.8964 Y-99.442
X561.9037 Y-99.4848
X561.6826 Y-141.4424
X561.6749 Y-141.4798
X561.6535 Y-141.5114
X561.6217 Y-141.5325
X561.5842 Y-141.5397
X561.5297 Y-141.5395
X561.4923 Y-141.5318
X561.4607 Y-141.5104
X561.4396 Y-141.4785
X561.4324 Y-141.441
X561.4325 Y-141.4138
G3 X558.859 Y-137.5092 I-4.2152 J0.0222
G2 X556.2856 Y-133.6046 I1.6418 J3.8824
G1 X556.4839 Y-95.9706
G3 X555.3929 Y-93.3346 I-3.6829 J0.0194
G1 X555.3505 Y-93.2826
X555.32 Y-93.2228
X555.3027 Y-93.158
X555.2995 Y-93.091
X555.3104 Y-93.0248
X555.3351 Y-92.9624
X555.3723 Y-92.9066
X555.4204 Y-92.8599
X555.4773 Y-92.8243
X555.5404 Y-92.8015
X555.6069 Y-92.7925
X555.6737 Y-92.7977
X555.738 Y-92.8168
X555.7969 Y-92.849
X555.8476 Y-92.8929
G3 X558.5196 Y-94.0618 I2.6914 J2.5141
G1 X565.0946 Y-94.0964
G3 X567.7787 Y-92.9558 I0.0194 J3.683
G1 X567.8299 Y-92.9125
X567.889 Y-92.8808
X567.9535 Y-92.8624
X568.0205 Y-92.8579
X568.0869 Y-92.8676
X568.1497 Y-92.891
X568.2062 Y-92.9272
X568.2539 Y-92.9745
X568.2905 Y-93.0307
X568.3145 Y-93.0933
X568.3248 Y-93.1596
X568.3208 Y-93.2266
X568.3029 Y-93.2913
X568.2718 Y-93.3507
X568.2288 Y-93.4023
G3 X567.11 Y-96.0266 I2.5642 J-2.6437
G1 X566.853 Y-144.7826
G3 X567.9437 Y-147.4182 I3.683 J-0.0194
G1 X567.9858 Y-147.4698
X568.0162 Y-147.5291
X568.0336 Y-147.5934
X568.037 Y-147.6599
X568.0265 Y-147.7257
X568.0025 Y-147.7878
X567.966 Y-147.8435
X567.9186 Y-147.8904
X567.8625 Y-147.9263
X567.8002 Y-147.9497
X567.7343 Y-147.9595
X567.6678 Y-147.9553
X567.6037 Y-147.9373
X567.5447 Y-147.9063
X567.4936 Y-147.8636
G3 X564.8693 Y-146.7451 I-2.6436 J-2.5644
G1 X558.1903 Y-146.7101
G3 X555.5543 Y-147.8012 I-0.0193 J-3.683
G1 X555.5027 Y-147.8434
X555.4433 Y-147.8738
X555.3789 Y-147.8912
X555.3123 Y-147.8947
X555.2465 Y-147.8841
X555.1843 Y-147.8601
X555.1285 Y-147.8235
X555.0816 Y-147.7761
X555.0456 Y-147.72
X555.0222 Y-147.6575
X555.0124 Y-147.5916
X555.0166 Y-147.525
X555.0346 Y-147.4608
X555.0657 Y-147.4018
X555.1084 Y-147.3506
G3 X556.2269 Y-144.7264 I-2.5644 J2.6436
G1 X556.2856 Y-133.6046
G0 Z6.096
X562.5115 Y-138.707
G1 Z-1.524 F508
G2 X562.0591 Y-138.9749 Z-2.1674 I1.3048 J-2.7194
X561.6601 Y-139.3173 Z-2.8108 I1.7572 J-2.4515
X561.3266 Y-139.7237 Z-3.4543 I2.1562 J-2.1091
X561.0687 Y-140.1819 Z-4.0977 I2.4897 J-1.7027
X560.8944 Y-140.678 Z-4.7411 I2.7475 J-1.2445
X560.8088 Y-141.1967 Z-5.3845 I2.9219 J-0.7485
X560.8146 Y-141.7224 Z-6.028 I3.0075 J-0.2297
X560.9116 Y-142.2392 Z-6.6714 I3.0017 J0.296
X561.0969 Y-142.7312 Z-7.3148 I2.9047 J0.8128
X561.3648 Y-143.1836 Z-7.9582 I2.7194 J1.3048
X561.7072 Y-143.5826 Z-8.6017 I2.4515 J1.7572
X566.8325 Y-141.4423 Z-9.017 I2.1091 J2.1562
X561.4325 Y-141.4138 I-2.7 J0.0142
G1 X561.6535 Y-99.4835
X561.6613 Y-99.4408
X561.6832 Y-99.4033
X561.7166 Y-99.3755
X561.7575 Y-99.3609
X561.801 Y-99.3611
X561.8418 Y-99.3762
X561.8749 Y-99.4043
X561.8964 Y-99.442
X561.9037 Y-99.4848
X561.6826 Y-141.4424
X561.6749 Y-141.4798
X561.6535 Y-141.5114
X561.6217 Y-141.5325
X561.5842 Y-141.5397
X561.5297 Y-141.5395
X561.4923 Y-141.5318
X561.4607 Y-141.5104
X561.4396 Y-141.4785
X561.4324 Y-141.441
X561.4325 Y-141.4138
G3 X558.859 Y-137.5092 I-4.2152 J0.0222
G2 X556.2856 Y-133.6046 I1.6418 J3.8824
G1 X556.4839 Y-95.9706
G3 X555.3929 Y-93.3346 I-3.6829 J0.0194
G1 X555.3505 Y-93.2826
X555.32 Y-93.2228
X555.3027 Y-93.158
X555.2995 Y-93.091
X555.3104 Y-93.0248
X555.3351 Y-92.9624
X555.3723 Y-92.9066
X555.4204 Y-92.8599
X555.4773 Y-92.8243
X555.5404 Y-92.8015
X555.6069 Y-92.7925
X555.6737 Y-92.7977
X555.738 Y-92.8168
X555.7969 Y-92.849
X555.8476 Y-92.8929
G3 X558.5196 Y-94.0618 I2.6914 J2.5141
G1 X565.0946 Y-94.0964
G3 X567.7787 Y-92.9558 I0.0194 J3.683
G1 X567.8299 Y-92.9125
X567.889 Y-92.8808
X567.9535 Y-92.8624
X568.0205 Y-92.8579
X568.0869 Y-92.8676
X568.1497 Y-92.891
X568.2062 Y-92.9272
X568.2539 Y-92.9745
X568.2905 Y-93.0307
X568.3145 Y-93.0933
X568.3248 Y-93.1596
X568.3208 Y-93.2266
X568.3029 Y-93.2913
X568.2718 Y-93.3507
X568.2288 Y-93.4023
G3 X567.11 Y-96.0266 I2.5642 J-2.6437
G1 X566.853 Y-144.7826
G3 X567.9437 Y-147.4182 I3.683 J-0.0194
G1 X567.9858 Y-147.4698
X568.0162 Y-147.5291
X568.0336 Y-147.5934
X568.037 Y-147.6599
X568.0265 Y-147.7257
X568.0025 Y-147.7878
X567.966 Y-147.8435
X567.9186 Y-147.8904
X567.8625 Y-147.9263
X567.8002 Y-147.9497
X567.7343 Y-147.9595
X567.6678 Y-147.9553
X567.6037 Y-147.9373
X567.5447 Y-147.9063
X567.4936 Y-147.8636
G3 X564.8693 Y-146.7451 I-2.6436 J-2.5644
G1 X558.1903 Y-146.7101
G3 X555.5543 Y-147.8012 I-0.0193 J-3.683
G1 X555.5027 Y-147.8434
X555.4433 Y-147.8738
X555.3789 Y-147.8912
X555.3123 Y-147.8947
X555.2465 Y-147.8841
X555.1843 Y-147.8601
X555.1285 Y-147.8235
X555.0816 Y-147.7761
X555.0456 Y-147.72
X555.0222 Y-147.6575
X555.0124 Y-147.5916
X555.0166 Y-147.525
X555.0346 Y-147.4608
X555.0657 Y-147.4018
X555.1084 Y-147.3506
G3 X556.2269 Y-144.7264 I-2.5644 J2.6436
G1 X556.2856 Y-133.6046
G0 Z6.096
X481.1803 Y-263.0603
G1 Z3.556 F508
G2 X481.2637 Y-263.5794 Z2.9126 I3.0085 J0.217
X481.4359 Y-264.0762 Z2.2692 I2.9251 J0.7361
X481.6919 Y-264.5355 Z1.6257 I2.7528 J1.2328
X482.0236 Y-264.9433 Z0.9823 I2.4969 J1.6921
X482.4212 Y-265.2874 Z0.3389 I2.1651 J2.1
X482.8724 Y-265.5572 Z-0.3045 I1.7676 J2.4441
X483.3637 Y-265.7445 Z-0.948 I1.3163 J2.7139
X483.88 Y-265.8437 Z-1.5914 I0.8251 J2.9012
X484.4057 Y-265.8518 Z-2.2348 I0.3087 J3.0004
X484.9248 Y-265.7684 Z-2.8782 I-0.217 J3.0084
X485.4216 Y-265.5961 Z-3.5217 I-0.7361 J2.925
X487.2046 Y-262.8904 Z-4.064 I-1.2328 J2.7528
G1 X486.7142 Y-294.3407
X486.707 Y-294.4039
X486.6876 Y-294.4644
X486.6567 Y-294.5201
X486.6156 Y-294.5686
X486.5658 Y-294.6082
X486.5092 Y-294.6373
X486.4481 Y-294.6548
X486.3847 Y-294.6601
X486.076 Y-294.6553
X486.0128 Y-294.6481
X485.9523 Y-294.6287
X485.8966 Y-294.5978
X485.8481 Y-294.5567
X485.8085 Y-294.5069
X485.7794 Y-294.4504
X485.7619 Y-294.3892
X485.7567 Y-294.3258
X486.2491 Y-262.7208
X486.2563 Y-262.6576
X486.2757 Y-262.5971
X486.3066 Y-262.5415
X486.3477 Y-262.4929
X486.3975 Y-262.4533
X486.454 Y-262.4242
X486.5152 Y-262.4067
X486.5786 Y-262.4015
X486.8877 Y-262.4063
X486.9509 Y-262.4135
X487.0114 Y-262.4329
X487.0671 Y-262.4638
X487.1156 Y-262.5049
X487.1552 Y-262.5547
X487.1843 Y-262.6113
X487.2018 Y-262.6724
X487.207 Y-262.7358
X487.2046 Y-262.8904
G3 X489.7376 Y-266.8213 I4.2147 J-0.0657
G2 X492.2706 Y-270.7522 I-1.6817 J-3.8652
G1 X491.8484 Y-297.8256
G3 X492.8568 Y-300.4154 I3.6826 J-0.0574
G1 X492.8986 Y-300.4706
X492.9275 Y-300.5336
X492.9419 Y-300.6014
X492.9413 Y-300.6707
X492.9256 Y-300.7382
X492.8956 Y-300.8006
X492.8528 Y-300.8551
X492.7991 Y-300.8989
X492.7372 Y-300.93
X492.67 Y-300.9469
X492.6008 Y-300.9488
X492.5328 Y-300.9356
X492.4692 Y-300.9079
X492.4133 Y-300.8671
G3 X489.987 Y-299.9044 I-2.4833 J-2.7199
G1 X482.4341 Y-299.7874
G3 X479.8037 Y-300.8351 I-0.057 J-3.6826
G1 X479.7515 Y-300.8763
X479.6918 Y-300.9058
X479.6272 Y-300.9221
X479.5607 Y-300.9245
X479.4951 Y-300.913
X479.4334 Y-300.8881
X479.3782 Y-300.8508
X479.332 Y-300.8028
X479.2969 Y-300.7462
X479.2744 Y-300.6836
X479.2655 Y-300.6176
X479.2706 Y-300.5512
X479.2894 Y-300.4873
X479.3211 Y-300.4288
X479.3644 Y-300.3782
G3 X480.5146 Y-297.7614 I-2.5324 J2.6742
G1 X481.1165 Y-259.1224
G3 X480.0488 Y-256.4713 I-3.6826 J0.0574
G1 X480.0072 Y-256.4194
X479.9773 Y-256.36
X479.9605 Y-256.2956
X479.9575 Y-256.2291
X479.9685 Y-256.1634
X479.993 Y-256.1015
X480.0298 Y-256.0461
X480.0774 Y-255.9996
X480.1337 Y-255.9641
X480.1962 Y-255.9411
X480.2621 Y-255.9316
X480.3285 Y-255.9362
X480.3924 Y-255.9545
X480.4512 Y-255.9858
X480.5021 Y-256.0287
G3 X483.0995 Y-257.1585 I2.6549 J2.5527
G1 X490.6525 Y-257.2766
G3 X493.1073 Y-256.39 I0.0575 J3.6826
G1 X493.1645 Y-256.351
X493.2288 Y-256.3253
X493.2972 Y-256.3142
X493.3663 Y-256.3182
X493.4329 Y-256.3372
X493.4938 Y-256.3702
X493.5461 Y-256.4157
X493.5872 Y-256.4715
X493.6152 Y-256.5348
X493.6288 Y-256.6027
X493.6272 Y-256.672
X493.6107 Y-256.7392
X493.5799 Y-256.8013
X493.5363 Y-256.8552
G3 X492.4474 Y-259.4126 I2.5937 J-2.6148
G1 X492.2706 Y-270.7522
G0 Z6.096
X482.912 Y-260.1106
G1 Z-1.524 F508
G2 X482.4569 Y-260.3738 Z-2.1674 I1.2767 J-2.7327
X482.0544 Y-260.7121 Z-2.8108 I1.7318 J-2.4695
X481.7167 Y-261.1151 Z-3.4543 I2.1344 J-2.1313
X481.4542 Y-261.5706 Z-4.0977 I2.472 J-1.7283
X481.2747 Y-262.0648 Z-4.7411 I2.7346 J-1.2727
X481.1838 Y-262.5826 Z-5.3845 I2.914 J-0.7786
X481.1842 Y-263.1084 Z-6.028 I3.005 J-0.2607
X481.2759 Y-263.6261 Z-6.6714 I3.0046 J0.2651
X481.456 Y-264.12 Z-7.3148 I2.9129 J0.7828
X481.7192 Y-264.5752 Z-7.9582 I2.7327 J1.2767
X482.0575 Y-264.9777 Z-8.6017 I2.4695 J1.7318
X487.2046 Y-262.8904 Z-9.017 I2.1313 J2.1343
G1 X486.7142 Y-294.3407
X486.707 Y-294.4039
X486.6876 Y-294.4644
X486.6567 Y-294.5201
X486.6156 Y-294.5686
X486.5658 Y-294.6082
X486.5092 Y-294.6373
X486.4481 Y-294.6548
X486.3847 Y-294.6601
X486.076 Y-294.6553
X486.0128 Y-294.6481
X485.9523 Y-294.6287
X485.8966 Y-294.5978
X485.8481 Y-294.5567
X485.8085 Y-294.5069
X485.7794 Y-294.4504
X485.7619 Y-294.3892
X485.7567 Y-294.3258
X486.2491 Y-262.7208
X486.2563 Y-262.6576
X486.2757 Y-262.5971
X486.3066 Y-262.5415
X486.3477 Y-262.4929
X486.3975 Y-262.4533
X486.454 Y-262.4242
X486.5152 Y-262.4067
X486.5786 Y-262.4015
X486.8877 Y-262.4063
X486.9509 Y-262.4135
X487.0114 Y-262.4329
X487.0671 Y-262.4638
X487.1156 Y-262.5049
X487.1552 Y-262.5547
X487.1843 Y-262.6113
X487.2018 Y-262.6724
X487.207 Y-262.7358
X487.2046 Y-262.8904
G3 X489.7376 Y-266.8213 I4.2147 J-0.0657
G2 X492.2706 Y-270.7522 I-1.6817 J-3.8652
G1 X491.8484 Y-297.8256
G3 X492.8568 Y-300.4154 I3.6826 J-0.0574
G1 X492.8986 Y-300.4706
X492.9275 Y-300.5336
X492.9419 Y-300.6014
X492.9413 Y-300.6707
X492.9256 Y-300.7382
X492.8956 Y-300.8006
X492.8528 Y-300.8551
X492.7991 Y-300.8989
X492.7372 Y-300.93
X492.67 Y-300.9469
X492.6008 Y-300.9488
X492.5328 Y-300.9356
X492.4692 Y-300.9079
X492.4133 Y-300.8671
G3 X489.987 Y-299.9044 I-2.4833 J-2.7199
G1 X482.4341 Y-299.7874
G3 X479.8037 Y-300.8351 I-0.057 J-3.6826
G1 X479.7515 Y-300.8763
X479.6918 Y-300.9058
X479.6272 Y-300.9221
X479.5607 Y-300.9245
X479.4951 Y-300.913
X479.4334 Y-300.8881
X479.3782 Y-300.8508
X479.332 Y-300.8028
X479.2969 Y-300.7462
X479.2744 Y-300.6836
X479.2655 Y-300.6176
X479.2706 Y-300.5512
X479.2894 Y-300.4873
X479.3211 Y-300.4288
X479.3644 Y-300.3782
G3 X480.5146 Y-297.7614 I-2.5324 J2.6742
G1 X481.1165 Y-259.1224
G3 X480.0488 Y-256.4713 I-3.6826 J0.0574
G1 X480.0072 Y-256.4194
X479.9773 Y-256.36
X479.9605 Y-256.2956
X479.9575 Y-256.2291
X479.9685 Y-256.1634
X479.993 Y-256.1015
X480.0298 Y-256.0461
X480.0774 Y-255.9996
X480.1337 Y-255.9641
X480.1962 Y-255.9411
X480.2621 Y-255.9316
X480.3285 Y-255.9362
X480.3924 Y-255.9545
X480.4512 Y-255.9858
X480.5021 Y-256.0287
G3 X483.0995 Y-257.1585 I2.6549 J2.5527
G1 X490.6525 Y-257.2766
G3 X493.1073 Y-256.39 I0.0575 J3.6826
G1 X493.1645 Y-256.351
X493.2288 Y-256.3253
X493.2972 Y-256.3142
X493.3663 Y-256.3182
X493.4329 Y-256.3372
X493.4938 Y-256.3702
X493.5461 Y-256.4157
X493.5872 Y-256.4715
X493.6152 Y-256.5348
X493.6288 Y-256.6027
X493.6272 Y-256.672
X493.6107 Y-256.7392
X493.5799 Y-256.8013
X493.5363 Y-256.8552
G3 X492.4474 Y-259.4126 I2.5937 J-2.6148
G1 X492.2706 Y-270.7522
G0 Z6.096
X652.8121 Y-286.2024
G1 Z3.556 F508
G2 X652.7944 Y-285.6769 Z2.9126 I-3.012 J0.1612
X652.6856 Y-285.1625 Z2.2692 I-2.9942 J-0.3642
X652.4892 Y-284.6748 Z1.6257 I-2.8855 J-0.8786
X652.2111 Y-284.2286 Z0.9823 I-2.689 J-1.3664
X651.8597 Y-283.8375 Z0.3389 I-2.4109 J-1.8125
X651.4458 Y-283.5134 Z-0.3045 I-2.0595 J-2.2036
X650.9818 Y-283.266 Z-0.948 I-1.6456 J-2.5278
X650.482 Y-283.103 Z-1.5914 I-1.1816 J-2.7752
X649.9614 Y-283.0292 Z-2.2348 I-0.6818 J-2.9382
X649.4359 Y-283.047 Z-2.8782 I-0.1612 J-3.0119
X648.9215 Y-283.1557 Z-3.5217 I0.3642 J-2.9942
X646.8139 Y-285.6171 Z-4.064 I0.8786 J-2.8854
G1 X647.0073 Y-284.255
X647.0224 Y-284.1932
X647.0492 Y-284.1355
X647.0868 Y-284.0842
X647.1337 Y-284.0412
X647.188 Y-284.0082
X647.2478 Y-283.9864
X647.3106 Y-283.9767
X647.3741 Y-283.9794
X672.3775 Y-287.5327
X672.4394 Y-287.5478
X672.4971 Y-287.5747
X672.5485 Y-287.6123
X672.5915 Y-287.6592
X672.6247 Y-287.7135
X672.6465 Y-287.7733
X672.6563 Y-287.8362
X672.6537 Y-287.8998
X672.2708 Y-290.6241
X672.2558 Y-290.6859
X672.2291 Y-290.7435
X672.1916 Y-290.7948
X672.1448 Y-290.8378
X672.0905 Y-290.8709
X672.0308 Y-290.8927
X671.968 Y-290.9024
X671.9045 Y-290.8997
X646.8962 Y-287.3457
X646.8344 Y-287.3306
X646.7767 Y-287.3038
X646.7254 Y-287.2662
X646.6824 Y-287.2193
X646.6493 Y-287.165
X646.6275 Y-287.1052
X646.6178 Y-287.0424
X646.6205 Y-286.9788
X646.8139 Y-285.6171
G3 X645.5985 Y-282.6389 I-3.1578 J0.4484
G2 X643.7874 Y-279.9806 I3.1335 J4.081
G3 X643.3353 Y-278.9908 I-3.5394 J-1.0184
G1 X643.305 Y-278.9314
X643.2879 Y-278.8669
X643.2845 Y-278.8003
X643.2952 Y-278.7345
X643.3195 Y-278.6723
X643.3562 Y-278.6166
X643.4037 Y-278.5698
X643.46 Y-278.534
X643.5225 Y-278.5108
X643.5885 Y-278.5011
X643.6551 Y-278.5055
X643.7192 Y-278.5237
X643.7782 Y-278.5549
X643.8293 Y-278.5978
X643.8703 Y-278.6504
G3 X646.4788 Y-280.3504 I3.1267 J1.9464
G1 X676.2998 Y-284.5883
X676.3686 Y-284.606
X676.4317 Y-284.6384
X676.4861 Y-284.6842
X676.5288 Y-284.7409
X676.5579 Y-284.8056
X676.5718 Y-284.8753
X676.5699 Y-284.9463
X675.2198 Y-294.5514
X675.2053 Y-294.6119
X675.1792 Y-294.6685
X675.1425 Y-294.7188
X675.0967 Y-294.761
X675.0436 Y-294.7934
X674.9851 Y-294.8148
X674.9236 Y-294.8243
X674.8614 Y-294.8217
X645.0252 Y-290.5816
G3 X642.0464 Y-291.4875 I-0.5182 J-3.6464
G1 X641.9925 Y-291.5265
X641.9316 Y-291.5534
X641.8664 Y-291.567
X641.7998 Y-291.5666
X641.7347 Y-291.5522
X641.6742 Y-291.5246
X641.6207 Y-291.485
X641.5767 Y-291.435
X641.5441 Y-291.3769
X641.5244 Y-291.3133
X641.5185 Y-291.247
X641.5265 Y-291.1809
X641.5482 Y-291.1179
X641.5826 Y-291.0609
X641.6282 Y-291.0123
G3 X642.8684 Y-288.7418 I-2.4062 J2.7883
G1 X643.8944 Y-281.5168
G3 X643.7874 Y-279.9806 I-3.6464 J0.5178
G0 Z6.096
X650.7249 Y-288.9122
G1 Z-1.524 F508
G2 X651.2093 Y-288.708 Z-2.1674 I-0.9247 J2.871
X651.651 Y-288.4228 Z-2.8108 I-1.4092 J2.6668
X652.0365 Y-288.0652 Z-3.4543 I-1.8509 J2.3816
X652.354 Y-287.6461 Z-4.0977 I-2.2363 J2.024
X652.5939 Y-287.1783 Z-4.7411 I-2.5538 J1.6049
X652.7489 Y-286.6759 Z-5.3845 I-2.7937 J1.1371
X652.8143 Y-286.1542 Z-6.028 I-2.9487 J0.6347
X652.7881 Y-285.6291 Z-6.6714 I-3.0141 J0.113
X652.6712 Y-285.1165 Z-7.3148 I-2.9879 J-0.4121
X652.467 Y-284.632 Z-7.9582 I-2.871 J-0.9247
X652.1818 Y-284.1903 Z-8.6017 I-2.6668 J-1.4092
X646.8139 Y-285.6171 Z-9.017 I-2.3816 J-1.8509
G1 X647.0073 Y-284.255
X647.0224 Y-284.1932
X647.0492 Y-284.1355
X647.0868 Y-284.0842
X647.1337 Y-284.0412
X647.188 Y-284.0082
X647.2478 Y-283.9864
X647.3106 Y-283.9767
X647.3741 Y-283.9794
X672.3775 Y-287.5327
X672.4394 Y-287.5478
X672.4971 Y-287.5747
X672.5485 Y-287.6123
X672.5915 Y-287.6592
X672.6247 Y-287.7135
X672.6465 Y-287.7733
X672.6563 Y-287.8362
X672.6537 Y-287.8998
X672.2708 Y-290.6241
X672.2558 Y-290.6859
X672.2291 Y-290.7435
X672.1916 Y-290.7948
X672.1448 Y-290.8378
X672.0905 Y-290.8709
X672.0308 Y-290.8927
X671.968 Y-290.9024
X671.9045 Y-290.8997
X646.8962 Y-287.3457
X646.8344 Y-287.3306
X646.7767 Y-287.3038
X646.7254 Y-287.2662
X646.6824 Y-287.2193
X646.6493 Y-287.165
X646.6275 Y-287.1052
X646.6178 Y-287.0424
X646.6205 Y-286.9788
X646.8139 Y-285.6171
G3 X645.5985 Y-282.6389 I-3.1578 J0.4484
G2 X643.7874 Y-279.9806 I3.1335 J4.081
G3 X643.3353 Y-278.9908 I-3.5394 J-1.0184
G1 X643.305 Y-278.9314
X643.2879 Y-278.8669
X643.2845 Y-278.8003
X643.2952 Y-278.7345
X643.3195 Y-278.6723
X643.3562 Y-278.6166
X643.4037 Y-278.5698
X643.46 Y-278.534
X643.5225 Y-278.5108
X643.5885 Y-278.5011
X643.6551 Y-278.5055
X643.7192 Y-278.5237
X643.7782 Y-278.5549
X643.8293 Y-278.5978
X643.8703 Y-278.6504
G3 X646.4788 Y-280.3504 I3.1267 J1.9464
G1 X676.2998 Y-284.5883
X676.3686 Y-284.606
X676.4317 Y-284.6384
X676.4861 Y-284.6842
X676.5288 Y-284.7409
X676.5579 Y-284.8056
X676.5718 Y-284.8753
X676.5699 Y-284.9463
X675.2198 Y-294.5514
X675.2053 Y-294.6119
X675.1792 Y-294.6685
X675.1425 Y-294.7188
X675.0967 Y-294.761
X675.0436 Y-294.7934
X674.9851 Y-294.8148
X674.9236 Y-294.8243
X674.8614 Y-294.8217
X645.0252 Y-290.5816
G3 X642.0464 Y-291.4875 I-0.5182 J-3.6464
G1 X641.9925 Y-291.5265
X641.9316 Y-291.5534
X641.8664 Y-291.567
X641.7998 Y-291.5666
X641.7347 Y-291.5522
X641.6742 Y-291.5246
X641.6207 Y-291.485
X641.5767 Y-291.435
X641.5441 Y-291.3769
X641.5244 Y-291.3133
X641.5185 Y-291.247
X641.5265 Y-291.1809
X641.5482 Y-291.1179
X641.5826 Y-291.0609
X641.6282 Y-291.0123
G3 X642.8684 Y-288.7418 I-2.4062 J2.7883
G1 X643.8944 Y-281.5168
G3 X643.7874 Y-279.9806 I-3.6464 J0.5178
G0 Z6.096
X191.3548 Y-296.3192
G1 Z3.556 F508
G2 X191.4605 Y-296.8343 Z2.9126 I2.9963 J0.3465
X191.654 Y-297.3231 Z2.2692 I2.8906 J0.8615
X191.9295 Y-297.7709 Z1.6257 I2.6971 J1.3504
X192.2785 Y-298.1641 Z0.9823 I2.4216 J1.7982
X192.6906 Y-298.4907 Z0.3389 I2.0726 J2.1914
X193.153 Y-298.7408 Z-0.3045 I1.6606 J2.518
X193.6519 Y-298.9068 Z-0.948 I1.1981 J2.7681
X194.172 Y-298.9837 Z-1.5914 I0.6992 J2.9341
X194.6976 Y-298.969 Z-2.2348 I0.1791 J3.0109
X195.2126 Y-298.8634 Z-2.8782 I-0.3465 J2.9963
X195.7015 Y-298.6698 Z-3.5217 I-0.8615 J2.8906
X197.3662 Y-295.8897 Z-4.064 I-1.3504 J2.6971
G1 X197.3705 Y-296.0441
X197.366 Y-296.1075
X197.3492 Y-296.1689
X197.3208 Y-296.2258
X197.2818 Y-296.276
X197.2338 Y-296.3177
X197.1785 Y-296.3492
X197.1182 Y-296.3694
X197.0551 Y-296.3773
X196.7463 Y-296.3859
X196.6828 Y-296.3814
X196.6215 Y-296.3646
X196.5646 Y-296.3362
X196.5143 Y-296.2972
X196.4726 Y-296.2492
X196.4411 Y-296.1939
X196.421 Y-296.1336
X196.413 Y-296.0705
X195.5434 Y-264.4735
X195.5478 Y-264.41
X195.5646 Y-264.3487
X195.593 Y-264.2918
X195.632 Y-264.2415
X195.6801 Y-264.1998
X195.7353 Y-264.1683
X195.7957 Y-264.1482
X195.8588 Y-264.1402
X196.1669 Y-264.1317
X196.2303 Y-264.1362
X196.2917 Y-264.153
X196.3486 Y-264.1814
X196.3989 Y-264.2204
X196.4406 Y-264.2684
X196.4721 Y-264.3237
X196.4922 Y-264.384
X196.5002 Y-264.4471
X197.3662 Y-295.8897
G3 X199.0027 Y-298.5176 I3.0638 J0.0844
G2 X198.3016 Y-301.533 I-0.7452 J-1.416
G1 X193.2056 Y-301.6734
G3 X190.7917 Y-302.6647 I0.1014 J-3.6816
G1 X190.7361 Y-302.7063
X190.6729 Y-302.7347
X190.605 Y-302.7488
X190.5357 Y-302.7477
X190.4682 Y-302.7316
X190.4059 Y-302.7011
X190.3517 Y-302.6579
X190.3082 Y-302.6039
X190.2775 Y-302.5418
X190.261 Y-302.4744
X190.2596 Y-302.4051
X190.2732 Y-302.3371
X190.3014 Y-302.2738
X190.3426 Y-302.218
G3 X191.3206 Y-299.6157 I-2.7036 J2.501
G1 X190.2636 Y-261.2127
G3 X189.144 Y-258.6682 I-3.6816 J-0.1013
G1 X189.0999 Y-258.6149
X189.0684 Y-258.5532
X189.051 Y-258.4862
X189.0486 Y-258.4171
X189.0614 Y-258.349
X189.0886 Y-258.2854
X189.129 Y-258.2292
X189.1807 Y-258.1831
X189.2411 Y-258.1494
X189.3075 Y-258.1297
X189.3765 Y-258.1248
X189.4449 Y-258.135
X189.5095 Y-258.16
X189.5671 Y-258.1983
G3 X192.0324 Y-259.0556 I2.3639 J2.8243
G1 X199.5834 Y-258.8476
G3 X202.1669 Y-257.687 I-0.1014 J3.6816
G1 X202.2174 Y-257.6436
X202.2758 Y-257.6116
X202.3395 Y-257.5925
X202.4059 Y-257.5872
X202.4719 Y-257.5958
X202.5347 Y-257.6181
X202.5914 Y-257.6529
X202.6396 Y-257.6989
X202.6771 Y-257.7539
X202.7023 Y-257.8155
X202.7141 Y-257.881
X202.7119 Y-257.9476
X202.6959 Y-258.0122
X202.6667 Y-258.0721
X202.6256 Y-258.1245
G3 X201.5894 Y-260.7884 I2.6454 J-2.5625
G1 X202.6534 Y-299.4174
G3 X203.834 Y-302.0196 I3.6816 J0.1014
G1 X203.8779 Y-302.0697
X203.9103 Y-302.1279
X203.9299 Y-302.1915
X203.9357 Y-302.2579
X203.9275 Y-302.324
X203.9058 Y-302.3869
X203.8713 Y-302.4439
X203.8257 Y-302.4925
X203.771 Y-302.5304
X203.7095 Y-302.5561
X203.6441 Y-302.5684
X203.5775 Y-302.5667
X203.5127 Y-302.5512
X203.4526 Y-302.5224
X203.3999 Y-302.4818
G3 X200.7566 Y-301.4654 I-2.5419 J-2.6652
G1 X198.3016 Y-301.533
G0 Z6.096
X192.9578 Y-293.2976
G1 Z-1.524 F508
G2 X192.5144 Y-293.5802 Z-2.1674 I1.3933 J-2.6751
X192.1269 Y-293.9355 Z-2.8108 I1.8367 J-2.3925
X191.8069 Y-294.3527 Z-3.4543 I2.2243 J-2.0373
X191.5642 Y-294.8191 Z-4.0977 I2.5442 J-1.6201
X191.4062 Y-295.3206 Z-4.7411 I2.7869 J-1.1537
X191.3377 Y-295.8418 Z-5.3845 I2.9449 J-0.6522
X191.3608 Y-296.3671 Z-6.028 I3.0134 J-0.1309
X191.4747 Y-296.8804 Z-6.6714 I2.9904 J0.3944
X191.676 Y-297.3661 Z-7.3148 I2.8764 J0.9076
X191.9586 Y-297.8095 Z-7.9582 I2.6751 J1.3933
X192.3139 Y-298.197 Z-8.6017 I2.3925 J1.8367
X197.3662 Y-295.8897 Z-9.017 I2.0373 J2.2243
G1 X197.3705 Y-296.0441
X197.366 Y-296.1075
X197.3492 Y-296.1689
X197.3208 Y-296.2258
X197.2818 Y-296.276
X197.2338 Y-296.3177
X197.1785 Y-296.3492
X197.1182 Y-296.3694
X197.0551 Y-296.3773
X196.7463 Y-296.3859
X196.6828 Y-296.3814
X196.6215 Y-296.3646
X196.5646 Y-296.3362
X196.5143 Y-296.2972
X196.4726 Y-296.2492
X196.4411 Y-296.1939
X196.421 Y-296.1336
X196.413 Y-296.0705
X195.5434 Y-264.4735
X195.5478 Y-264.41
X195.5646 Y-264.3487
X195.593 Y-264.2918
X195.632 Y-264.2415
X195.6801 Y-264.1998
X195.7353 Y-264.1683
X195.7957 Y-264.1482
X195.8588 Y-264.1402
X196.1669 Y-264.1317
X196.2303 Y-264.1362
X196.2917 Y-264.153
X196.3486 Y-264.1814
X196.3989 Y-264.2204
X196.4406 Y-264.2684
X196.4721 Y-264.3237
X196.4922 Y-264.384
X196.5002 Y-264.4471
X197.3662 Y-295.8897
G3 X199.0027 Y-298.5176 I3.0638 J0.0844
G2 X198.3016 Y-301.533 I-0.7452 J-1.416
G1 X193.2056 Y-301.6734
G3 X190.7917 Y-302.6647 I0.1014 J-3.6816
G1 X190.7361 Y-302.7063
X190.6729 Y-302.7347
X190.605 Y-302.7488
X190.5357 Y-302.7477
X190.4682 Y-302.7316
X190.4059 Y-302.7011
X190.3517 Y-302.6579
X190.3082 Y-302.6039
X190.2775 Y-302.5418
X190.261 Y-302.4744
X190.2596 Y-302.4051
X190.2732 Y-302.3371
X190.3014 Y-302.2738
X190.3426 Y-302.218
G3 X191.3206 Y-299.6157 I-2.7036 J2.501
G1 X190.2636 Y-261.2127
G3 X189.144 Y-258.6682 I-3.6816 J-0.1013
G1 X189.0999 Y-258.6149
X189.0684 Y-258.5532
X189.051 Y-258.4862
X189.0486 Y-258.4171
X189.0614 Y-258.349
X189.0886 Y-258.2854
X189.129 Y-258.2292
X189.1807 Y-258.1831
X189.2411 Y-258.1494
X189.3075 Y-258.1297
X189.3765 Y-258.1248
X189.4449 Y-258.135
X189.5095 Y-258.16
X189.5671 Y-258.1983
G3 X192.0324 Y-259.0556 I2.3639 J2.8243
G1 X199.5834 Y-258.8476
G3 X202.1669 Y-257.687 I-0.1014 J3.6816
G1 X202.2174 Y-257.6436
X202.2758 Y-257.6116
X202.3395 Y-257.5925
X202.4059 Y-257.5872
X202.4719 Y-257.5958
X202.5347 Y-257.6181
X202.5914 Y-257.6529
X202.6396 Y-257.6989
X202.6771 Y-257.7539
X202.7023 Y-257.8155
X202.7141 Y-257.881
X202.7119 Y-257.9476
X202.6959 Y-258.0122
X202.6667 Y-258.0721
X202.6256 Y-258.1245
G3 X201.5894 Y-260.7884 I2.6454 J-2.5625
G1 X202.6534 Y-299.4174
G3 X203.834 Y-302.0196 I3.6816 J0.1014
G1 X203.8779 Y-302.0697
X203.9103 Y-302.1279
X203.9299 Y-302.1915
X203.9357 Y-302.2579
X203.9275 Y-302.324
X203.9058 Y-302.3869
X203.8713 Y-302.4439
X203.8257 Y-302.4925
X203.771 Y-302.5304
X203.7095 Y-302.5561
X203.6441 Y-302.5684
X203.5775 Y-302.5667
X203.5127 Y-302.5512
X203.4526 Y-302.5224
X203.3999 Y-302.4818
G3 X200.7566 Y-301.4654 I-2.5419 J-2.6652
G1 X198.3016 Y-301.533
G0 Z6.096
X16.5973 Y-333.4844
G1 Z3.556 F508
G2 X17.1094 Y-333.3652 Z2.9126 I-0.4253 J2.9861
X17.593 Y-333.1588 Z2.2692 I-0.9373 J2.8669
X18.0334 Y-332.8717 Z1.6257 I-1.4209 J2.6606
X18.4173 Y-332.5124 Z0.9823 I-1.8614 J2.3734
X18.7329 Y-332.0919 Z0.3389 I-2.2452 J2.0141
X18.9707 Y-331.623 Z-0.3045 I-2.5609 J1.5937
X19.1235 Y-331.1199 Z-0.948 I-2.7987 J1.1248
X19.1866 Y-330.598 Z-1.5914 I-2.9515 J0.6217
X19.1582 Y-330.073 Z-2.2348 I-3.0146 J0.0997
X19.0389 Y-329.5609 Z-2.8782 I-2.9861 J-0.4253
X18.8326 Y-329.0773 Z-3.5217 I-2.8669 J-0.9373
X16.0096 Y-327.4864 Z-4.064 I-2.6606 J-1.4209
G1 X39.8546 Y-326.2005
X39.9182 Y-326.2033
X39.9799 Y-326.2184
X40.0376 Y-326.2454
X40.0888 Y-326.283
X40.1318 Y-326.3299
X40.1647 Y-326.3843
X40.1864 Y-326.4441
X40.1961 Y-326.507
X40.3443 Y-329.2546
X40.3415 Y-329.3181
X40.3263 Y-329.3799
X40.2994 Y-329.4375
X40.2617 Y-329.4888
X40.2148 Y-329.5317
X40.1604 Y-329.5647
X40.1006 Y-329.5864
X40.0378 Y-329.596
X14.8162 Y-330.9564
X14.7527 Y-330.9536
X14.691 Y-330.9384
X14.6334 Y-330.9115
X14.5822 Y-330.8738
X14.5393 Y-330.8269
X14.5065 Y-330.7725
X14.4849 Y-330.7128
X14.4753 Y-330.6499
X14.3313 Y-327.9019
X14.3342 Y-327.8383
X14.3495 Y-327.7765
X14.3765 Y-327.7189
X14.4142 Y-327.6676
X14.4612 Y-327.6247
X14.5157 Y-327.5917
X14.5755 Y-327.57
X14.6384 Y-327.5603
X16.0096 Y-327.4864
G3 X18.5132 Y-325.6151 I-0.1517 J2.8133
G2 X21.0167 Y-323.7437 I2.6553 J-0.942
G1 X41.0632 Y-322.6627
G3 X43.8105 Y-321.1959 I-0.1983 J3.6777
G1 X43.8559 Y-321.1471
X43.9104 Y-321.1089
X43.9718 Y-321.0829
X44.0373 Y-321.0704
X44.1039 Y-321.0719
X44.1688 Y-321.0872
X44.229 Y-321.1158
X44.2819 Y-321.1563
X44.3251 Y-321.207
X44.3568 Y-321.2657
X44.3755 Y-321.3296
X44.3804 Y-321.3961
X44.3713 Y-321.4621
X44.3486 Y-321.5248
X44.3133 Y-321.5813
G3 X43.5361 Y-324.0494 I2.9005 J-2.2697
G1 X43.9292 Y-331.3374
G3 X44.9676 Y-333.7077 I3.6777 J0.1984
G1 X45.0088 Y-333.7602
X45.0382 Y-333.8201
X45.0544 Y-333.8848
X45.0566 Y-333.9515
X45.0449 Y-334.0172
X45.0197 Y-334.079
X44.9821 Y-334.1342
X44.9338 Y-334.1802
X44.877 Y-334.2152
X44.8141 Y-334.2375
X44.7479 Y-334.2461
X44.6814 Y-334.2407
X44.6175 Y-334.2215
X44.559 Y-334.1893
X44.5085 Y-334.1456
G3 X41.6199 Y-332.9833 I-2.6902 J-2.5154
G1 X11.5284 Y-334.6063
X11.4575 Y-334.6021
X11.3892 Y-334.5823
X11.3271 Y-334.5477
X11.2742 Y-334.5001
X11.2332 Y-334.442
X11.2063 Y-334.3763
X11.1946 Y-334.3061
X10.6868 Y-324.6175
X10.6911 Y-324.5467
X10.711 Y-324.4787
X10.7455 Y-324.4168
X10.7929 Y-324.3641
X10.8508 Y-324.3233
X10.9164 Y-324.2964
X10.9863 Y-324.2847
X21.0167 Y-323.7437
G0 Z6.096
X13.5345 Y-331.9616
G1 Z-1.524 F508
G2 X13.8287 Y-332.3973 Z-2.1674 I2.6375 J1.4633
X14.1941 Y-332.7754 Z-2.8108 I2.3433 J1.8991
X14.6195 Y-333.0843 Z-3.4543 I1.978 J2.2772
X15.0922 Y-333.3146 Z-4.0977 I1.5525 J2.586
X15.5976 Y-333.4593 Z-4.7411 I1.0799 J2.8163
X16.1206 Y-333.5141 Z-5.3845 I0.5744 J2.9611
X16.645 Y-333.4772 Z-6.028 I0.0515 J3.0158
X17.1551 Y-333.3498 Z-6.6714 I-0.473 J2.9789
X17.6354 Y-333.1358 Z-7.3148 I-0.9831 J2.8515
X18.0711 Y-332.8416 Z-7.9582 I-1.4633 J2.6375
X18.4492 Y-332.4762 Z-8.6017 I-1.8991 J2.3433
X16.0096 Y-327.4864 Z-9.017 I-2.2771 J1.978
G1 X39.8546 Y-326.2005
X39.9182 Y-326.2033
X39.9799 Y-326.2184
X40.0376 Y-326.2454
X40.0888 Y-326.283
X40.1318 Y-326.3299
X40.1647 Y-326.3843
X40.1864 Y-326.4441
X40.1961 Y-326.507
X40.3443 Y-329.2546
X40.3415 Y-329.3181
X40.3263 Y-329.3799
X40.2994 Y-329.4375
X40.2617 Y-329.4888
X40.2148 Y-329.5317
X40.1604 Y-329.5647
X40.1006 Y-329.5864
X40.0378 Y-329.596
X14.8162 Y-330.9564
X14.7527 Y-330.9536
X14.691 Y-330.9384
X14.6334 Y-330.9115
X14.5822 Y-330.8738
X14.5393 Y-330.8269
X14.5065 Y-330.7725
X14.4849 Y-330.7128
X14.4753 Y-330.6499
X14.3313 Y-327.9019
X14.3342 Y-327.8383
X14.3495 Y-327.7765
X14.3765 Y-327.7189
X14.4142 Y-327.6676
X14.4612 Y-327.6247
X14.5157 Y-327.5917
X14.5755 Y-327.57
X14.6384 Y-327.5603
X16.0096 Y-327.4864
G3 X18.5132 Y-325.6151 I-0.1517 J2.8133
G2 X21.0167 Y-323.7437 I2.6553 J-0.942
G1 X41.0632 Y-322.6627
G3 X43.8105 Y-321.1959 I-0.1983 J3.6777
G1 X43.8559 Y-321.1471
X43.9104 Y-321.1089
X43.9718 Y-321.0829
X44.0373 Y-321.0704
X44.1039 Y-321.0719
X44.1688 Y-321.0872
X44.229 Y-321.1158
X44.2819 Y-321.1563
X44.3251 Y-321.207
X44.3568 Y-321.2657
X44.3755 Y-321.3296
X44.3804 Y-321.3961
X44.3713 Y-321.4621
X44.3486 Y-321.5248
X44.3133 Y-321.5813
G3 X43.5361 Y-324.0494 I2.9005 J-2.2697
G1 X43.9292 Y-331.3374
G3 X44.9676 Y-333.7077 I3.6777 J0.1984
G1 X45.0088 Y-333.7602
X45.0382 Y-333.8201
X45.0544 Y-333.8848
X45.0566 Y-333.9515
X45.0449 Y-334.0172
X45.0197 Y-334.079
X44.9821 Y-334.1342
X44.9338 Y-334.1802
X44.877 Y-334.2152
X44.8141 Y-334.2375
X44.7479 Y-334.2461
X44.6814 Y-334.2407
X44.6175 Y-334.2215
X44.559 Y-334.1893
X44.5085 Y-334.1456
G3 X41.6199 Y-332.9833 I-2.6902 J-2.5154
G1 X11.5284 Y-334.6063
X11.4575 Y-334.6021
X11.3892 Y-334.5823
X11.3271 Y-334.5477
X11.2742 Y-334.5001
X11.2332 Y-334.442
X11.2063 Y-334.3763
X11.1946 Y-334.3061
X10.6868 Y-324.6175
X10.6911 Y-324.5467
X10.711 Y-324.4787
X10.7455 Y-324.4168
X10.7929 Y-324.3641
X10.8508 Y-324.3233
X10.9164 Y-324.2964
X10.9863 Y-324.2847
X21.0167 Y-323.7437
G0 Z11.176

(Operation 3 of 3 : Drill2)

G54
S5000 M3
X28.051 Y-400.9579
Z6.096
G1 Z-13.984 F508
G0 Z6.096
X98.2525 Y-407.3384
G1 Z-13.984 F508
G0 Z6.096
X177.6674 Y-414.5167
G1 Z-13.984 F508
G0 Z6.096
X251.1715 Y-421.2552
G1 Z-13.984 F508
G0 Z6.096
X261.2386 Y-360.7856
G1 Z-13.984 F508
G0 Z6.096
X417.8276 Y-436.3686
G1 Z-13.984 F508
G0 Z6.096
X330.2573 Y-428.405
G1 Z-13.984 F508
G0 Z6.096
X349.1698 Y-360.4845
G1 Z-13.984 F508
G0 Z6.096
X428.5778 Y-360.2547
G1 Z-13.984 F508
G0 Z6.096
X502.3895 Y-359.9481
G1 Z-13.984 F508
G0 Z6.096
X582.1278 Y-359.7186
G1 Z-13.984 F508
G0 Z6.096
X652.6183 Y-359.4809
G1 Z-13.984 F508
G0 Z6.096

G53 Z-10
M5
G4 P1.0
G53 X-10 Y-10
M30
%
