%
(Made in : Autodesk CAM Post Processor)
(G Code optimized for OpenBuilds OX CNC 1000 x 750 with GRBL V0.9j controller)

(Program Name : 1001)
(4 Operations :)
(1 : 2D Contour2)
(  Tool : Flat End Mill 2 Flutes, Diam = 6.35mm, Len = 25.4mm)
(  Spindle : RPM = 5000, set router dial to 1)
(  Machining time : 1 hours 26 min 36 sec)
(2 : 2D Pocket1)
(  Tool : Flat End Mill 2 Flutes, Diam = 6.35mm, Len = 25.4mm)
(  Spindle : RPM = 5000, set router dial to 1)
(  Machining time : 27 min 45 sec)
(3 : Drill1)
(  Tool : Flat End Mill 2 Flutes, Diam = 6.35mm, Len = 25.4mm)
(  Spindle : RPM = 5000, set router dial to 1)
(  Machining time : 11 sec)
(4 : Drill2)
(  Tool : Flat End Mill 2 Flutes, Diam = 6.35mm, Len = 25.4mm)
(  Spindle : RPM = 5000, set router dial to 1)
(  Machining time : 47 sec)

G90 G94
G17
G21

(Operation 1 of 4 : 2D Contour2)

G53 G0 Z-10
G54
S5000 M3
G4 P1.0
X-0.1662 Y3.1706
Z6.096
G1 F508
Z4.191
Z-6.604
G3 X-3.1706 Y-0.1662 I0.1662 J-3.1706
G1 X-1.3943 Y-34.0618
G3 X-0.1412 Y-36.4261 I3.1706 J0.1662
G2 X-1.1509 Y-37.7311 I-0.4983 J-0.6576
G3 X-3.2853 Y-37.0516 I-1.9683 J-2.4912
G1 X-5.868 Y-37.1869
G3 X-9.8189 Y-41.5748 I0.2184 J-4.1693
G1 X-8.3541 Y-69.5236
G3 X-3.9663 Y-73.4744 I4.1693 J0.2184
G1 X-2.2242 Y-73.3831
G3 X0.1401 Y-72.1301 I-0.1662 J3.1706
G2 X1.445 Y-73.1399 I0.6576 J-0.4983
G3 X0.7656 Y-75.2744 I2.4912 J-1.9683
G1 X7.069 Y-195.5482
G3 X8.322 Y-197.9125 I3.1706 J0.1662
G2 X7.3121 Y-199.2176 I-0.4984 J-0.6577
G3 X5.1781 Y-198.5383 I-1.9682 J-2.4914
G1 X2.4061 Y-198.6833
G3 X-1.545 Y-203.0707 I0.2184 J-4.1695
G1 X3.5845 Y-300.9483
G3 X7.9717 Y-304.9007 I4.1695 J0.2172
G1 X7.9736 Y-304.9006
X9.905 Y-304.7986
G3 X12.2681 Y-303.5456 I-0.1674 J3.1706
G2 X13.5731 Y-304.5555 I0.6576 J-0.4984
G3 X12.8936 Y-306.6902 I2.4911 J-1.9684
G1 X18.9793 Y-422.8112
G3 X21.8732 Y-425.8079 I3.1706 J0.1662
G1 X425.8303 Y-461.1489
G3 X429.282 Y-457.986 I0.2767 J3.1629
G1 Y-416.986
G3 X426.3837 Y-413.8231 I-3.175
G1 X88.9736 Y-384.3041
G2 X72.706 Y-367.4604 I1.5557 J17.7799
G1 X56.1469 Y-52.3273
G2 X72.7914 Y-33.5102 I17.8959 J0.9403
G1 X424.8467 Y-8.8658
G3 X427.8 Y-5.6997 I-0.2217 J3.1672
G1 X427.807 Y13.3146
G3 X424.4658 Y16.4864 I-3.175 J0.0012
G1 X420.1488 Y16.2601
G3 X417.9341 Y15.19 I0.1662 J-3.1706
G2 X416.7079 Y16.2941 I-0.6187 J0.5458
G3 X417.5406 Y18.6084 I-2.3379 J2.1482
G1 X417.4236 Y20.8413
G3 X413.0362 Y24.7922 I-4.1694 J-0.2186
G1 X395.5358 Y23.875
X395.5343
G3 X391.5853 Y19.4881 I0.2205 J-4.1694
G1 X391.5854 Y19.4871
X391.6854 Y17.5821
G3 X392.9384 Y15.218 I3.1706 J0.1664
G2 X391.9285 Y13.913 I-0.4984 J-0.6576
G3 X389.7938 Y14.5925 I-1.9685 J-2.4911
G1 X233.4758 Y6.4002
G3 X231.2615 Y5.3304 I0.1662 J-3.1706
G2 X230.0352 Y6.4345 I-0.6186 J0.5459
G3 X230.8676 Y8.7488 I-2.3382 J2.1479
G1 X230.7447 Y11.0912
G3 X226.3564 Y15.0422 I-4.169 J-0.2179
G1 X198.3967 Y13.5769
G3 X194.4443 Y9.1896 I0.2172 J-4.1695
G1 X194.5683 Y6.8193
G3 X195.6385 Y4.6043 I3.1707 J0.1659
G2 X194.5349 Y3.3785 I-0.5456 J-0.6185
G3 X192.2208 Y4.211 I-2.1479 J-2.3382
G1 X38.76 Y-3.8315
G3 X36.3957 Y-5.0846 I0.1662 J-3.1706
G2 X35.0907 Y-4.0749 I-0.6576 J0.4983
G3 X35.7702 Y-1.9405 I-2.4912 J1.9683
G1 X35.6232 Y0.8655
G3 X31.2353 Y4.8163 I-4.1693 J-0.2185
G1 X-0.1662 Y3.1706
Z-14.224
G3 X-3.1706 Y-0.1662 I0.1662 J-3.1706
G1 X-1.3943 Y-34.0618
G3 X-0.1412 Y-36.4261 I3.1706 J0.1662
G2 X-1.1509 Y-37.7311 I-0.4983 J-0.6576
G3 X-3.2853 Y-37.0516 I-1.9683 J-2.4912
G1 X-5.868 Y-37.1869
G3 X-9.8189 Y-41.5748 I0.2184 J-4.1693
G1 X-8.3541 Y-69.5236
G3 X-3.9663 Y-73.4744 I4.1693 J0.2184
G1 X-2.2242 Y-73.3831
G3 X0.1401 Y-72.1301 I-0.1662 J3.1706
G2 X1.445 Y-73.1399 I0.6576 J-0.4983
G3 X0.7656 Y-75.2744 I2.4912 J-1.9683
G1 X7.069 Y-195.5482
G3 X8.322 Y-197.9125 I3.1706 J0.1662
G2 X7.3121 Y-199.2176 I-0.4984 J-0.6577
G3 X5.1781 Y-198.5383 I-1.9682 J-2.4914
G1 X2.4061 Y-198.6833
G3 X-1.545 Y-203.0707 I0.2184 J-4.1695
G1 X3.5845 Y-300.9483
G3 X7.9717 Y-304.9007 I4.1695 J0.2172
G1 X7.9736 Y-304.9006
X9.905 Y-304.7986
G3 X12.2681 Y-303.5456 I-0.1674 J3.1706
G2 X13.5731 Y-304.5555 I0.6576 J-0.4984
G3 X12.8936 Y-306.6902 I2.4911 J-1.9684
G1 X18.9793 Y-422.8112
G3 X21.8732 Y-425.8079 I3.1706 J0.1662
G1 X425.8303 Y-461.1489
G3 X429.282 Y-457.986 I0.2767 J3.1629
G1 Y-416.986
G3 X426.3837 Y-413.8231 I-3.175
G1 X88.9736 Y-384.3041
G2 X72.706 Y-367.4604 I1.5557 J17.7799
G1 X56.1469 Y-52.3273
G2 X72.7914 Y-33.5102 I17.8959 J0.9403
G1 X424.8467 Y-8.8658
G3 X427.8 Y-5.6997 I-0.2217 J3.1672
G1 X427.807 Y13.3146
G3 X424.4658 Y16.4864 I-3.175 J0.0012
G1 X420.1488 Y16.2601
G3 X417.9341 Y15.19 I0.1662 J-3.1706
G2 X416.7079 Y16.2941 I-0.6187 J0.5458
G3 X417.5406 Y18.6084 I-2.3379 J2.1482
G1 X417.4236 Y20.8413
G3 X413.0362 Y24.7922 I-4.1694 J-0.2186
G1 X395.5358 Y23.875
X395.5343
G3 X391.5853 Y19.4881 I0.2205 J-4.1694
G1 X391.5854 Y19.4871
X391.6854 Y17.5821
G3 X392.9384 Y15.218 I3.1706 J0.1664
G2 X391.9285 Y13.913 I-0.4984 J-0.6576
G3 X389.7938 Y14.5925 I-1.9685 J-2.4911
G1 X233.4758 Y6.4002
G3 X231.2615 Y5.3304 I0.1662 J-3.1706
G2 X230.0352 Y6.4345 I-0.6186 J0.5459
G3 X230.8676 Y8.7488 I-2.3382 J2.1479
G1 X230.7447 Y11.0912
G3 X226.3564 Y15.0422 I-4.169 J-0.2179
G1 X198.3967 Y13.5769
G3 X194.4443 Y9.1896 I0.2172 J-4.1695
G1 X194.5683 Y6.8193
G3 X195.6385 Y4.6043 I3.1707 J0.1659
G2 X194.5349 Y3.3785 I-0.5456 J-0.6185
G3 X192.2208 Y4.211 I-2.1479 J-2.3382
G1 X38.76 Y-3.8315
G3 X36.3957 Y-5.0846 I0.1662 J-3.1706
G2 X35.0907 Y-4.0749 I-0.6576 J0.4983
G3 X35.7702 Y-1.9405 I-2.4912 J1.9683
G1 X35.6232 Y0.8655
G3 X31.2353 Y4.8163 I-4.1693 J-0.2185
G1 X-0.1662 Y3.1706
Z-19.05
G3 X-3.1706 Y-0.1662 I0.1662 J-3.1706
G1 X-1.3943 Y-34.0618
G3 X-0.1412 Y-36.4261 I3.1706 J0.1662
G2 X-1.1509 Y-37.7311 I-0.4983 J-0.6576
G3 X-3.2853 Y-37.0516 I-1.9683 J-2.4912
G1 X-5.868 Y-37.1869
G3 X-9.8189 Y-41.5748 I0.2184 J-4.1693
G1 X-8.3541 Y-69.5236
G3 X-3.9663 Y-73.4744 I4.1693 J0.2184
G1 X-2.2242 Y-73.3831
G3 X0.1401 Y-72.1301 I-0.1662 J3.1706
G2 X1.445 Y-73.1399 I0.6576 J-0.4983
G3 X0.7656 Y-75.2744 I2.4912 J-1.9683
G1 X4.0692 Y-138.311
Z-16.51
X4.6675 Y-149.7253
Z-19.05
X7.069 Y-195.5482
G3 X8.322 Y-197.9125 I3.1706 J0.1662
G2 X7.3121 Y-199.2176 I-0.4984 J-0.6577
G3 X5.1781 Y-198.5383 I-1.9682 J-2.4914
G1 X2.4061 Y-198.6833
G3 X-1.545 Y-203.0707 I0.2184 J-4.1695
G1 X3.5845 Y-300.9483
G3 X7.9717 Y-304.9007 I4.1695 J0.2172
G1 X7.9736 Y-304.9006
X9.905 Y-304.7986
G3 X12.2681 Y-303.5456 I-0.1674 J3.1706
G2 X13.5731 Y-304.5555 I0.6576 J-0.4984
G3 X12.8936 Y-306.6902 I2.4911 J-1.9684
G1 X18.9793 Y-422.8112
G3 X21.8732 Y-425.8079 I3.1706 J0.1662
G1 X103.648 Y-432.9622
Z-16.51
X115.0345 Y-433.9583
Z-19.05
X332.647 Y-452.9966
Z-16.51
X344.0336 Y-453.9928
Z-19.05
X425.8303 Y-461.1489
G3 X429.282 Y-457.986 I0.2767 J3.1629
G1 Y-416.986
G3 X426.3837 Y-413.8231 I-3.175
G1 X88.9736 Y-384.3041
G2 X72.706 Y-367.4604 I1.5557 J17.7799
G1 X63.7532 Y-197.0805
Z-16.51
X63.1534 Y-185.6663
Z-19.05
X56.1469 Y-52.3273
G2 X72.7914 Y-33.5102 I17.8959 J0.9403
G1 X178.9277 Y-26.0805
Z-16.51
X190.3298 Y-25.2823
Z-19.05
X424.8467 Y-8.8658
G3 X427.8 Y-5.6997 I-0.2217 J3.1672
G1 X427.807 Y13.3146
G3 X424.4658 Y16.4864 I-3.175 J0.0012
G1 X420.1488 Y16.2601
G3 X417.9341 Y15.19 I0.1662 J-3.1706
G2 X416.7079 Y16.2941 I-0.6187 J0.5458
G3 X417.5406 Y18.6084 I-2.3379 J2.1482
G1 X417.4236 Y20.8413
G3 X413.0362 Y24.7922 I-4.1694 J-0.2186
G1 X395.5358 Y23.875
X395.5343
G3 X391.5853 Y19.4881 I0.2205 J-4.1694
G1 X391.5854 Y19.4871
X391.6854 Y17.5821
G3 X392.9384 Y15.218 I3.1706 J0.1664
G2 X391.9285 Y13.913 I-0.4984 J-0.6576
G3 X389.7938 Y14.5925 I-1.9685 J-2.4911
G1 X306.155 Y10.2092
Z-16.51
X294.7407 Y9.611
Z-19.05
X233.4758 Y6.4002
G3 X231.2615 Y5.3304 I0.1662 J-3.1706
G2 X230.0352 Y6.4345 I-0.6186 J0.5459
G3 X230.8676 Y8.7488 I-2.3382 J2.1479
G1 X230.7447 Y11.0912
G3 X226.3564 Y15.0422 I-4.169 J-0.2179
G1 X198.3967 Y13.5769
G3 X194.4443 Y9.1896 I0.2172 J-4.1695
G1 X194.5683 Y6.8193
G3 X195.6385 Y4.6043 I3.1707 J0.1659
G2 X194.5349 Y3.3785 I-0.5456 J-0.6185
G3 X192.2208 Y4.211 I-2.1479 J-2.3382
G1 X38.76 Y-3.8315
G3 X36.3957 Y-5.0846 I0.1662 J-3.1706
G2 X35.0907 Y-4.0749 I-0.6576 J0.4983
G3 X35.7702 Y-1.9405 I-2.4912 J1.9683
G1 X35.6232 Y0.8655
G3 X31.2353 Y4.8163 I-4.1693 J-0.2185
G1 X-0.1662 Y3.1706
G0 Z6.096
X206.5912 Y-45.7164
G1 Z4.191 F508
Z-6.604
G3 X206.3013 Y-47.5542 I14.8167 J-3.2788
G1 X191.2203 Y-205.6836
G3 X206.4168 Y-222.299 I15.1067 J-1.4405
G1 X597.1345 Y-219.9709
G3 X602.263 Y-214.3866 I-0.0298 J5.1746
G1 X589.895 Y-58.6701
G3 X547.0928 Y-19.2845 I-42.6382 J-3.3866
G1 X421.7508 Y-19.7655
X421.5413 Y-19.7733
X220.3483 Y-33.857
G3 X206.5912 Y-45.7164 I1.0596 J-15.1381
G1 Z-14.224
G3 X206.3013 Y-47.5542 I14.8167 J-3.2788
G1 X191.2203 Y-205.6836
G3 X206.4168 Y-222.299 I15.1067 J-1.4405
G1 X597.1345 Y-219.9709
G3 X602.263 Y-214.3866 I-0.0298 J5.1746
G1 X589.895 Y-58.6701
G3 X547.0928 Y-19.2845 I-42.6382 J-3.3866
G1 X421.7508 Y-19.7655
X421.5413 Y-19.7733
X220.3483 Y-33.857
G3 X206.5912 Y-45.7164 I1.0596 J-15.1381
G1 Z-19.05
G3 X206.3013 Y-47.5542 I14.8167 J-3.2788
G1 X200.2045 Y-111.4813
Z-16.51
X199.1194 Y-122.8597
Z-19.05
X191.2203 Y-205.6836
G3 X206.4168 Y-222.299 I15.1067 J-1.4405
G1 X271.322 Y-221.9122
Z-16.51
X282.7518 Y-221.8441
Z-19.05
X502.987 Y-220.5319
Z-16.51
X514.4168 Y-220.4638
Z-19.05
X597.1345 Y-219.9709
G3 X602.263 Y-214.3866 I-0.0298 J5.1746
G1 X594.2996 Y-114.1247
Z-16.51
X593.3946 Y-102.7305
Z-19.05
X589.895 Y-58.6701
G3 X547.0928 Y-19.2845 I-42.6382 J-3.3866
G1 X489.4888 Y-19.5056
Z-16.51
X478.0589 Y-19.5494
Z-19.05
X421.7508 Y-19.7655
X421.5413 Y-19.7733
X318.5603 Y-26.9821
Z-16.51
X307.1582 Y-27.7802
Z-19.05
X220.3483 Y-33.857
G3 X206.5912 Y-45.7164 I1.0596 J-15.1381
G0 Z6.096
X288.9127 Y68.1096
G1 Z4.191 F508
Z-6.604
G3 X291.5061 Y65.7022 I3.0903 J0.7285
G1 X640.0731 Y10.468
G2 X655.014 Y-9.7281 I-2.8044 J-17.6993
G1 X611.053 Y-322.2187
G2 X593.3791 Y-337.58 I-17.6735 J2.4861
G1 X254.68
G3 X251.5171 Y-340.4783 J-3.175
G1 X247.9441 Y-381.3223
G3 X251.107 Y-384.774 I3.1629 J-0.2767
G1 X656.607
G3 X659.7511 Y-382.0409 J3.175
G1 X675.9341 Y-266.8929
G3 X675.4433 Y-264.7073 I-3.1441 J0.4419
G2 X676.8312 Y-263.815 I0.6895 J0.4531
G3 X679.0757 Y-265.2689 I2.6878 J1.69
G1 X680.9907 Y-265.5389
G3 X685.7079 Y-261.987 I0.5827 J4.1345
G1 X685.7081 Y-261.9859
X699.3491 Y-164.9269
G3 X695.7943 Y-160.2108 I-4.1351 J0.5809
G1 X693.0466 Y-159.8249
G3 X690.8613 Y-160.3157 I-0.4417 J-3.1441
G2 X689.969 Y-158.9278 I-0.4531 J0.6895
G3 X691.4231 Y-156.6819 I-1.69 J2.6878
G1 X708.1851 Y-37.4147
G3 X707.6944 Y-35.2292 I-3.1441 J0.4419
G2 X709.0821 Y-34.3371 I0.6893 J0.453
G3 X711.3282 Y-35.7913 I2.6879 J1.6899
G1 X713.0562 Y-36.0341
G3 X717.7711 Y-32.4807 I0.5806 J4.1343
G1 X721.6661 Y-4.7661
G3 X718.1128 Y-0.0504 I-4.1342 J0.5814
G1 X715.5519 Y0.3095
G3 X713.3661 Y-0.1813 I-0.4419 J-3.1441
G2 X712.4738 Y1.2067 I-0.4532 J0.6895
G3 X713.9281 Y3.4528 I-1.6898 J2.6879
G1 X718.6521 Y37.0646
G3 X715.9499 Y40.6506 I-3.1441 J0.4419
G1 X684.8123 Y45.0267
G3 X680.096 Y41.4742 I-0.5817 J-4.1346
G1 X679.7049 Y38.691
G3 X680.1957 Y36.5055 I3.1441 J-0.4418
G2 X678.8079 Y35.6134 I-0.6894 J-0.453
G3 X676.5619 Y37.0677 I-2.6879 J-1.6898
G1 X524.3859 Y58.4546
G3 X522.008 Y57.827 I-0.4419 J-3.1441
G2 X521.0153 Y59.1445 I-0.503 J0.6538
G3 X522.2742 Y61.2577 I-1.8853 J2.5547
G1 X522.6041 Y63.6075
G3 X519.0508 Y68.3229 I-4.1342 J0.5812
G1 X491.3242 Y72.2198
G3 X486.608 Y68.6674 I-0.5816 J-4.1347
G1 X486.6078 Y68.6658
X486.2818 Y66.3425
G3 X486.9097 Y63.9652 I3.1442 J-0.4412
G2 X485.5918 Y62.9721 I-0.6539 J-0.5032
G3 X483.4789 Y64.2311 I-2.5548 J-1.8851
G1 X328.4699 Y86.0162
G3 X326.2842 Y85.5254 I-0.4419 J-3.1441
G2 X325.3918 Y86.9135 I-0.4532 J0.6895
G3 X326.8462 Y89.1603 I-1.6898 J2.688
G1 X327.1111 Y91.0487
G3 X323.5577 Y95.7639 I-4.1342 J0.581
G1 X306.2049 Y98.2027
G3 X301.4898 Y94.649 I-0.5807 J-4.1342
G1 X301.1789 Y92.4349
G3 X301.8064 Y90.0575 I3.1441 J-0.4416
G2 X300.4885 Y89.0645 I-0.654 J-0.5031
G3 X298.3759 Y90.3231 I-2.5545 J-1.8855
G1 X294.0949 Y90.9248
G3 X290.49 Y88.0562 I-0.4419 J-3.1441
G1 X288.84 Y69.1136
G3 X288.9127 Y68.1096 I3.163 J-0.2755
G0 Z6.096
X463.0226 Y113.0181
G1 Z4.191 F508
Z-6.604
G3 X464.8321 Y110.8632 I3.0844 J0.7529
G1 X477.9901 Y105.0942
G3 X480.4494 Y105.0562 I1.2749 J2.9078
G2 X481.0497 Y103.5195 I0.3077 J-0.7654
G3 X479.2678 Y101.8249 I1.1263 J-2.9685
G1 X478.4168 Y99.8821
G3 X480.5667 Y94.3826 I3.8242 J-1.675
G1 X524.5425 Y75.1271
G3 X530.0414 Y77.277 I1.6745 J3.8245
G1 X530.9874 Y79.4378
G3 X531.0244 Y81.8967 I-2.9084 J1.2734
G2 X532.5615 Y82.4976 I0.7656 J0.3081
G3 X534.2565 Y80.7156 I2.9685 J1.1264
G1 X542.3566 Y77.169
G3 X544.8151 Y77.1319 I1.2734 J2.9084
G2 X545.4156 Y75.5954 I0.3079 J-0.7653
G3 X543.6335 Y73.9001 I1.1263 J-2.9685
G1 X542.2895 Y70.8298
G3 X545.198 Y66.3816 I2.9085 J-1.2732
G1 X1170.49
G3 X1173.653 Y69.2801 J3.175
G1 X1177.2229 Y110.1245
G3 X1174.0601 Y113.576 I-3.1628 J0.2765
G1 X557.201
G2 X555.4722 Y113.7029 I-0.0012 J11.8251
G1 X470.6614 Y126.2419
G3 X467.2891 Y124.3757 I-0.4644 J-3.1409
G1 X463.1991 Y115.0457
G3 X463.0226 Y113.0181 I2.9079 J-1.2747
G1 Z-14.224
G3 X464.8321 Y110.8632 I3.0844 J0.7529
G1 X477.9901 Y105.0942
G3 X480.4494 Y105.0562 I1.2749 J2.9078
G2 X481.0497 Y103.5195 I0.3077 J-0.7654
G3 X479.2678 Y101.8249 I1.1263 J-2.9685
G1 X478.4168 Y99.8821
G3 X480.5667 Y94.3826 I3.8242 J-1.675
G1 X524.5425 Y75.1271
G3 X530.0414 Y77.277 I1.6745 J3.8245
G1 X530.9874 Y79.4378
G3 X531.0244 Y81.8967 I-2.9084 J1.2734
G2 X532.5615 Y82.4976 I0.7656 J0.3081
G3 X534.2565 Y80.7156 I2.9685 J1.1264
G1 X542.3566 Y77.169
G3 X544.8151 Y77.1319 I1.2734 J2.9084
G2 X545.4156 Y75.5954 I0.3079 J-0.7653
G3 X543.6335 Y73.9001 I1.1263 J-2.9685
G1 X542.2895 Y70.8298
G3 X545.198 Y66.3816 I2.9085 J-1.2732
G1 X1170.49
G3 X1173.653 Y69.2801 J3.175
G1 X1177.2229 Y110.1245
G3 X1174.0601 Y113.576 I-3.1628 J0.2765
G1 X557.201
G2 X555.4722 Y113.7029 I-0.0012 J11.8251
G1 X470.6614 Y126.2419
G3 X467.2891 Y124.3757 I-0.4644 J-3.1409
G1 X463.1991 Y115.0457
G3 X463.0226 Y113.0181 I2.9079 J-1.2747
G1 Z-19.05
G3 X464.8321 Y110.8632 I3.0844 J0.7529
G1 X477.9901 Y105.0942
G3 X480.4494 Y105.0562 I1.2749 J2.9078
G2 X481.0497 Y103.5195 I0.3077 J-0.7654
G3 X479.2678 Y101.8249 I1.1263 J-2.9685
G1 X478.4168 Y99.8821
G3 X480.5667 Y94.3826 I3.8242 J-1.675
G1 X524.5425 Y75.1271
G3 X530.0414 Y77.277 I1.6745 J3.8245
G1 X530.9874 Y79.4378
G3 X531.0244 Y81.8967 I-2.9084 J1.2734
G2 X532.5615 Y82.4976 I0.7656 J0.3081
G3 X534.2565 Y80.7156 I2.9685 J1.1264
G1 X542.3566 Y77.169
G3 X544.8151 Y77.1319 I1.2734 J2.9084
G2 X545.4156 Y75.5954 I0.3079 J-0.7653
G3 X543.6335 Y73.9001 I1.1263 J-2.9685
G1 X542.2895 Y70.8298
G3 X545.198 Y66.3816 I2.9085 J-1.2732
G1 X641.066
Z-16.51
X652.496
Z-19.05
X974.144
Z-16.51
X985.574
Z-19.05
X1170.49
G3 X1173.653 Y69.2801 J3.175
G1 X1177.2229 Y110.1245
G3 X1174.0601 Y113.576 I-3.1628 J0.2765
G1 X974.472
Z-16.51
X963.042
Z-19.05
X710.028
Z-16.51
X698.598
Z-19.05
X576.752
Z-16.51
X565.322
Z-19.05
X557.201
G2 X555.4722 Y113.7029 I-0.0012 J11.8251
G1 X470.6614 Y126.2419
G3 X467.2891 Y124.3757 I-0.4644 J-3.1409
G1 X463.1991 Y115.0457
G3 X463.0226 Y113.0181 I2.9079 J-1.2747
G0 Z6.096
X725.1094 Y-56.7535
G1 Z4.191 F508
Z-6.604
G3 X725.098 Y-57.1823 I4.1619 J-0.3257
G1 X725.806 Y-86.1554
G3 X729.0576 Y-89.2519 I3.174 J0.0776
G1 X782.6506 Y-87.9421
G3 X784.9454 Y-86.8781 I-0.0776 J3.1741
G2 X786.1674 Y-87.9872 I0.6166 J-0.5484
G3 X785.3229 Y-90.2212 I2.3296 J-2.1572
G1 X785.3829 Y-92.701
Y-92.7024
G3 X789.6607 Y-96.7734 I4.1739 J0.1029
G1 X805.6545 Y-96.3826
X805.6559 Y-96.3825
G3 X809.7261 Y-92.1074 I-0.1038 J4.1739
G1 X809.6721 Y-89.8978
G3 X808.6085 Y-87.6033 I-3.1741 J-0.0776
G2 X809.7171 Y-86.3818 I0.5483 J0.6163
G3 X811.9516 Y-87.226 I2.1569 J2.3299
G1 X899.348 Y-85.09
X986.7444 Y-87.226
G3 X988.9793 Y-86.3814 I0.0776 J3.174
G2 X990.0886 Y-87.6033 I0.5607 J-0.6054
G3 X989.025 Y-89.8978 I2.1104 J-2.3721
G1 X988.9709 Y-92.1063
G3 X993.0426 Y-96.3826 I4.1734 J-0.1029
G1 X1009.0425 Y-96.7735
X1009.0558 Y-96.7738
G3 X1013.314 Y-92.7026 I0.0844 J4.1742
G1 X1013.3141 Y-92.701
X1013.3741 Y-90.2212
G3 X1012.5277 Y-87.9851 I-3.1741 J0.0768
G2 X1013.7472 Y-86.8776 I0.6039 J0.5602
G3 X1016.0424 Y-87.9421 I2.3728 J2.1096
G1 X1069.6425 Y-89.2519
G3 X1072.894 Y-86.1545 I0.0775 J3.1741
G1 X1073.5939 Y-57.1892
G3 X1069.4486 Y-52.9048 I-4.1686 J0.1144
G1 X1067.2922 Y-52.8897
G3 X1065.0326 Y-53.8119 I-0.0222 J-3.1749
G2 X1063.9009 Y-52.6084 I-0.5823 J0.5863
G3 X1064.964 Y-50.3149 I-2.1108 J2.3717
G1 X1065.3141 Y-36.1095
G3 X1062.14 Y-32.8563 I-3.1741 J0.0782
G1 X736.558
G3 X733.384 Y-36.1088 J-3.175
G1 X733.731 Y-50.3142
G3 X734.7946 Y-52.6088 I3.1741 J0.0775
G2 X733.6652 Y-53.8107 I-0.5483 J-0.6163
G3 X731.4069 Y-52.8897 I-2.2361 J-2.2539
G1 X729.2419 Y-52.9048
X729.2408
G3 X725.1094 Y-56.7535 I0.0305 J-4.1745
G0 Z6.096
X709.263 Y-121.0458
G1 Z4.191 F508
Z-6.604
G3 X709.1242 Y-125.1305 I14.9583 J-2.5529
G1 X725.1542 Y-283.1644
G3 X739.2833 Y-296.7775 I15.0979 J1.5313
G1 X940.5563 Y-309.6525
X940.7655 Y-309.659
X1066.1064 Y-309.402
G3 X1108.6765 Y-269.7656 I-0.0852 J42.7701
G1 X1120.1165 Y-113.9785
X1120.1167 Y-113.9748
G3 X1114.948 Y-108.424 I-5.1642 J0.3731
G1 X724.221
G3 X709.263 Y-121.0458 I0.0003 J-15.1746
G1 Z-14.224
G3 X709.1242 Y-125.1305 I14.9583 J-2.5529
G1 X725.1542 Y-283.1644
G3 X739.2833 Y-296.7775 I15.0979 J1.5313
G1 X940.5563 Y-309.6525
X940.7655 Y-309.659
X1066.1064 Y-309.402
G3 X1108.6765 Y-269.7656 I-0.0852 J42.7701
G1 X1120.1165 Y-113.9785
X1120.1167 Y-113.9748
G3 X1114.948 Y-108.424 I-5.1642 J0.3731
G1 X724.221
G3 X709.263 Y-121.0458 I0.0003 J-15.1746
G1 Z-19.05
G3 X709.1242 Y-125.1305 I14.9583 J-2.5529
G1 X715.9257 Y-192.1836
Z-16.51
X717.0792 Y-203.5552
Z-19.05
X725.1542 Y-283.1644
G3 X739.2833 Y-296.7775 I15.0979 J1.5313
G1 X784.276 Y-299.6556
Z-16.51
X795.6827 Y-300.3853
Z-19.05
X940.5563 Y-309.6525
X940.7655 Y-309.659
X1029.6615 Y-309.4767
Z-16.51
X1041.0914 Y-309.4533
Z-19.05
X1066.1064 Y-309.402
G3 X1108.6765 Y-269.7656 I-0.0852 J42.7701
G1 X1109.9191 Y-252.8443
Z-16.51
X1110.7561 Y-241.445
Z-19.05
X1120.1165 Y-113.9785
X1120.1167 Y-113.9748
G3 X1114.948 Y-108.424 I-5.1642 J0.3731
G1 X1076.415
Z-16.51
X1064.985
Z-19.05
X819.035
Z-16.51
X807.605
Z-19.05
X724.221
G3 X709.263 Y-121.0458 I0.0003 J-15.1746
G0 Z6.096
X765.5927 Y15.5998
G1 Z4.191 F508
Z-6.604
G3 X768.356 Y12.5162 I3.1744 J0.0647
G1 X1123.759 Y-33.8793
G2 X1138.3645 Y-51.8741 I-2.1796 J-16.6937
G1 X1138.3635 Y-51.887
X1119.7836 Y-304.8905
X1119.7826 Y-304.9034
G2 X1102.7036 Y-320.5714 I-16.7947 J1.1645
G1 X744.3383 Y-314.5515
G3 X741.118 Y-317.4999 I-0.0533 J-3.1746
G1 X738.6981 Y-351.4019
G3 X741.7149 Y-354.7994 I3.1669 J-0.226
G1 X1166.2799 Y-374.8925
G3 X1169.6014 Y-371.8712 I0.1501 J3.1714
G1 X1172.1714 Y-317.6142
G3 X1171.2708 Y-315.2449 I-3.1714 J0.1502
G2 X1172.4635 Y-314.1033 I0.5905 J0.577
G3 X1174.6292 Y-315.1034 I2.3165 J2.1713
G1 X1177.0846 Y-315.2202
G3 X1181.4614 Y-311.2474 I0.2058 J4.1706
G1 X1184.2014 Y-253.323
X1184.2015 Y-253.3207
G3 X1180.2373 Y-248.9559 I-4.1711 J0.1943
G1 X1180.23 Y-248.9555
X1178.0299 Y-248.8515
G3 X1175.6632 Y-249.75 I-0.1499 J-3.1714
G2 X1174.5237 Y-248.5592 I-0.5753 J0.59
G3 X1175.5215 Y-246.3951 I-2.1737 J2.3143
G1 X1178.5675 Y-182.0237
X1184.9594 Y-117.8979
G3 X1184.2892 Y-115.612 I-3.1593 J0.3149
G2 X1185.5941 Y-114.5987 I0.6477 J0.5128
G3 X1187.8041 Y-115.8342 I2.5259 J1.9237
G1 X1189.9795 Y-116.0518
G3 X1194.5588 Y-112.3175 I0.4232 J4.156
G1 X1194.5593 Y-112.3118
X1200.3093 Y-54.6082
X1200.3103 Y-54.599
G3 X1196.5626 Y-50.0396 I-4.1582 J0.402
G1 X1194.1154 Y-49.7953
G3 X1191.8248 Y-50.4688 I-0.3153 J-3.1593
G2 X1190.8116 Y-49.1653 I-0.5135 J0.6463
G3 X1192.0494 Y-46.9524 I-1.9216 J2.5274
G1 X1197.4294 Y7.0974
G3 X1194.5848 Y10.5713 I-3.1594 J0.3145
G1 X771.6418 Y52.716
G3 X768.161 Y49.7957 I-0.3148 J-3.1594
G1 X765.601 Y15.9036
G3 X765.5927 Y15.5998 I3.166 J-0.2391
G1 Z-14.224
G3 X768.356 Y12.5162 I3.1744 J0.0647
G1 X1123.759 Y-33.8793
G2 X1138.3645 Y-51.8741 I-2.1796 J-16.6937
G1 X1138.3635 Y-51.887
X1119.7836 Y-304.8905
X1119.7826 Y-304.9034
G2 X1102.7036 Y-320.5714 I-16.7947 J1.1645
G1 X744.3383 Y-314.5515
G3 X741.118 Y-317.4999 I-0.0533 J-3.1746
G1 X738.6981 Y-351.4019
G3 X741.7149 Y-354.7994 I3.1669 J-0.226
G1 X1166.2799 Y-374.8925
G3 X1169.6014 Y-371.8712 I0.1501 J3.1714
G1 X1172.1714 Y-317.6142
G3 X1171.2708 Y-315.2449 I-3.1714 J0.1502
G2 X1172.4635 Y-314.1033 I0.5905 J0.577
G3 X1174.6292 Y-315.1034 I2.3165 J2.1713
G1 X1177.0846 Y-315.2202
G3 X1181.4614 Y-311.2474 I0.2058 J4.1706
G1 X1184.2014 Y-253.323
X1184.2015 Y-253.3207
G3 X1180.2373 Y-248.9559 I-4.1711 J0.1943
G1 X1180.23 Y-248.9555
X1178.0299 Y-248.8515
G3 X1175.6632 Y-249.75 I-0.1499 J-3.1714
G2 X1174.5237 Y-248.5592 I-0.5753 J0.59
G3 X1175.5215 Y-246.3951 I-2.1737 J2.3143
G1 X1178.5675 Y-182.0237
X1184.9594 Y-117.8979
G3 X1184.2892 Y-115.612 I-3.1593 J0.3149
G2 X1185.5941 Y-114.5987 I0.6477 J0.5128
G3 X1187.8041 Y-115.8342 I2.5259 J1.9237
G1 X1189.9795 Y-116.0518
G3 X1194.5588 Y-112.3175 I0.4232 J4.156
G1 X1194.5593 Y-112.3118
X1200.3093 Y-54.6082
X1200.3103 Y-54.599
G3 X1196.5626 Y-50.0396 I-4.1582 J0.402
G1 X1194.1154 Y-49.7953
G3 X1191.8248 Y-50.4688 I-0.3153 J-3.1593
G2 X1190.8116 Y-49.1653 I-0.5135 J0.6463
G3 X1192.0494 Y-46.9524 I-1.9216 J2.5274
G1 X1197.4294 Y7.0974
G3 X1194.5848 Y10.5713 I-3.1594 J0.3145
G1 X771.6418 Y52.716
G3 X768.161 Y49.7957 I-0.3148 J-3.1594
G1 X765.601 Y15.9036
G3 X765.5927 Y15.5998 I3.166 J-0.2391
G0 Z6.096
X725.1094 Y-56.7535
G1 Z-3.429 F508
Z-14.224
G3 X725.098 Y-57.1823 I4.1619 J-0.3257
G1 X725.806 Y-86.1554
G3 X729.0576 Y-89.2519 I3.174 J0.0776
G1 X782.6506 Y-87.9421
G3 X784.9454 Y-86.8781 I-0.0776 J3.1741
G2 X786.1674 Y-87.9872 I0.6166 J-0.5484
G3 X785.3229 Y-90.2212 I2.3296 J-2.1572
G1 X785.3829 Y-92.701
Y-92.7024
G3 X789.6607 Y-96.7734 I4.1739 J0.1029
G1 X805.6545 Y-96.3826
X805.6559 Y-96.3825
G3 X809.7261 Y-92.1074 I-0.1038 J4.1739
G1 X809.6721 Y-89.8978
G3 X808.6085 Y-87.6033 I-3.1741 J-0.0776
G2 X809.7171 Y-86.3818 I0.5483 J0.6163
G3 X811.9516 Y-87.226 I2.1569 J2.3299
G1 X899.348 Y-85.09
X986.7444 Y-87.226
G3 X988.9793 Y-86.3814 I0.0776 J3.174
G2 X990.0886 Y-87.6033 I0.5607 J-0.6054
G3 X989.025 Y-89.8978 I2.1104 J-2.3721
G1 X988.9709 Y-92.1063
G3 X993.0426 Y-96.3826 I4.1734 J-0.1029
G1 X1009.0425 Y-96.7735
X1009.0558 Y-96.7738
G3 X1013.314 Y-92.7026 I0.0844 J4.1742
G1 X1013.3141 Y-92.701
X1013.3741 Y-90.2212
G3 X1012.5277 Y-87.9851 I-3.1741 J0.0768
G2 X1013.7472 Y-86.8776 I0.6039 J0.5602
G3 X1016.0424 Y-87.9421 I2.3728 J2.1096
G1 X1069.6425 Y-89.2519
G3 X1072.894 Y-86.1545 I0.0775 J3.1741
G1 X1073.5939 Y-57.1892
G3 X1069.4486 Y-52.9048 I-4.1686 J0.1144
G1 X1067.2922 Y-52.8897
G3 X1065.0326 Y-53.8119 I-0.0222 J-3.1749
G2 X1063.9009 Y-52.6084 I-0.5823 J0.5863
G3 X1064.964 Y-50.3149 I-2.1108 J2.3717
G1 X1065.3141 Y-36.1095
G3 X1062.14 Y-32.8563 I-3.1741 J0.0782
G1 X736.558
G3 X733.384 Y-36.1088 J-3.175
G1 X733.731 Y-50.3142
G3 X734.7946 Y-52.6088 I3.1741 J0.0775
G2 X733.6652 Y-53.8107 I-0.5483 J-0.6163
G3 X731.4069 Y-52.8897 I-2.2361 J-2.2539
G1 X729.2419 Y-52.9048
X729.2408
G3 X725.1094 Y-56.7535 I0.0305 J-4.1745
G1 Z-19.05
G3 X725.098 Y-57.1823 I4.1619 J-0.3257
G1 X725.806 Y-86.1554
G3 X729.0576 Y-89.2519 I3.174 J0.0776
G1 X756.2383 Y-88.5876
Z-16.51
X767.6649 Y-88.3083
Z-19.05
X782.6506 Y-87.9421
G3 X784.9454 Y-86.8781 I-0.0776 J3.1741
G2 X786.1674 Y-87.9872 I0.6166 J-0.5484
G3 X785.3229 Y-90.2212 I2.3296 J-2.1572
G1 X785.3829 Y-92.701
Y-92.7024
G3 X789.6607 Y-96.7734 I4.1739 J0.1029
G1 X805.6545 Y-96.3826
X805.6559 Y-96.3825
G3 X809.7261 Y-92.1074 I-0.1038 J4.1739
G1 X809.6721 Y-89.8978
G3 X808.6085 Y-87.6033 I-3.1741 J-0.0776
G2 X809.7171 Y-86.3818 I0.5483 J0.6163
G3 X811.9516 Y-87.226 I2.1569 J2.3299
G1 X899.348 Y-85.09
X903.5181 Y-85.192
Z-16.51
X914.9447 Y-85.4712
Z-19.05
X986.7444 Y-87.226
G3 X988.9793 Y-86.3814 I0.0776 J3.174
G2 X990.0886 Y-87.6033 I0.5607 J-0.6054
G3 X989.025 Y-89.8978 I2.1104 J-2.3721
G1 X988.9709 Y-92.1063
G3 X993.0426 Y-96.3826 I4.1734 J-0.1029
G1 X1009.0425 Y-96.7735
X1009.0558 Y-96.7738
G3 X1013.314 Y-92.7026 I0.0844 J4.1742
G1 X1013.3141 Y-92.701
X1013.3741 Y-90.2212
G3 X1012.5277 Y-87.9851 I-3.1741 J0.0768
G2 X1013.7472 Y-86.8776 I0.6039 J0.5602
G3 X1016.0424 Y-87.9421 I2.3728 J2.1096
G1 X1069.6425 Y-89.2519
G3 X1072.894 Y-86.1545 I0.0775 J3.1741
G1 X1073.5939 Y-57.1892
G3 X1069.4486 Y-52.9048 I-4.1686 J0.1144
G1 X1067.2922 Y-52.8897
G3 X1065.0326 Y-53.8119 I-0.0222 J-3.1749
G2 X1063.9009 Y-52.6084 I-0.5823 J0.5863
G3 X1064.964 Y-50.3149 I-2.1108 J2.3717
G1 X1065.3141 Y-36.1095
G3 X1062.14 Y-32.8563 I-3.1741 J0.0782
G1 X961.351
Z-16.51
X949.921
Z-19.05
X827.11
Z-16.51
X815.68
Z-19.05
X736.558
G3 X733.384 Y-36.1088 J-3.175
G1 X733.731 Y-50.3142
G3 X734.7946 Y-52.6088 I3.1741 J0.0775
G2 X733.6652 Y-53.8107 I-0.5483 J-0.6163
G3 X731.4069 Y-52.8897 I-2.2361 J-2.2539
G1 X729.2419 Y-52.9048
X729.2408
G3 X725.1094 Y-56.7535 I0.0305 J-4.1745
G0 Z6.096
X765.5927 Y15.5998
G1 Z-11.049 F508
Z-19.05
G3 X768.356 Y12.5162 I3.1744 J0.0647
G1 X1031.6022 Y-21.8488
Z-16.51
X1042.936 Y-23.3284
Z-19.05
X1123.759 Y-33.8793
G2 X1138.3645 Y-51.8741 I-2.1796 J-16.6937
G1 X1138.3635 Y-51.887
X1128.9547 Y-180.007
Z-16.51
X1128.1176 Y-191.4063
Z-19.05
X1119.7836 Y-304.8905
X1119.7826 Y-304.9034
G2 X1102.7036 Y-320.5714 I-16.7947 J1.1645
G1 X744.3383 Y-314.5515
G3 X741.118 Y-317.4999 I-0.0533 J-3.1746
G1 X738.6981 Y-351.4019
G3 X741.7149 Y-354.7994 I3.1669 J-0.226
G1 X880.1373 Y-361.3504
Z-16.51
X891.5545 Y-361.8908
Z-19.05
X1087.3213 Y-371.1556
Z-16.51
X1098.7385 Y-371.696
Z-19.05
X1166.2799 Y-374.8925
G3 X1169.6014 Y-371.8712 I0.1501 J3.1714
G1 X1172.1714 Y-317.6142
G3 X1171.2708 Y-315.2449 I-3.1714 J0.1502
G2 X1172.4635 Y-314.1033 I0.5905 J0.577
G3 X1174.6292 Y-315.1034 I2.3165 J2.1713
G1 X1177.0846 Y-315.2202
G3 X1181.4614 Y-311.2474 I0.2058 J4.1706
G1 X1184.2014 Y-253.323
X1184.2015 Y-253.3207
G3 X1180.2373 Y-248.9559 I-4.1711 J0.1943
G1 X1180.23 Y-248.9555
X1178.0299 Y-248.8515
G3 X1175.6632 Y-249.75 I-0.1499 J-3.1714
G2 X1174.5237 Y-248.5592 I-0.5753 J0.59
G3 X1175.5215 Y-246.3951 I-2.1737 J2.3143
G1 X1178.2931 Y-187.8226
Z-16.51
X1178.5675 Y-182.0237
X1179.1262 Y-176.419
Z-19.05
X1184.9594 Y-117.8979
G3 X1184.2892 Y-115.612 I-3.1593 J0.3149
G2 X1185.5941 Y-114.5987 I0.6477 J0.5128
G3 X1187.8041 Y-115.8342 I2.5259 J1.9237
G1 X1189.9795 Y-116.0518
G3 X1194.5588 Y-112.3175 I0.4232 J4.156
G1 X1194.5593 Y-112.3118
X1200.3093 Y-54.6082
X1200.3103 Y-54.599
G3 X1196.5626 Y-50.0396 I-4.1582 J0.402
G1 X1194.1154 Y-49.7953
G3 X1191.8248 Y-50.4688 I-0.3153 J-3.1593
G2 X1190.8116 Y-49.1653 I-0.5135 J0.6463
G3 X1192.0494 Y-46.9524 I-1.9216 J2.5274
G1 X1197.4294 Y7.0974
G3 X1194.5848 Y10.5713 I-3.1594 J0.3145
G1 X969.3527 Y33.0148
Z-16.51
X957.9789 Y34.1482
Z-19.05
X771.6418 Y52.716
G3 X768.161 Y49.7957 I-0.3148 J-3.1594
G1 X765.601 Y15.9036
G3 X765.5927 Y15.5998 I3.166 J-0.2391
G0 Z6.096
X160.6874 Y-234.4847
G1 Z4.191 F508
Z-6.604
G3 X154.9652 Y-245.7142 I7.4473 J-10.8676
G1 X157.0402 Y-321.0923
G3 X170.289 Y-333.9049 I13.17 J0.3621
G1 X513.2869 Y-331.8609
G3 X526.3816 Y-318.8915 I-0.0784 J13.1744
G1 X527.5586 Y-243.4946
G3 X514.3059 Y-230.1151 I-13.1731 J0.205
G1 X168.0572 Y-232.1781
G3 X160.6874 Y-234.4847 I0.0775 J-13.1743
G1 Z-14.224
G3 X154.9652 Y-245.7142 I7.4473 J-10.8676
G1 X157.0402 Y-321.0923
G3 X170.289 Y-333.9049 I13.17 J0.3621
G1 X513.2869 Y-331.8609
G3 X526.3816 Y-318.8915 I-0.0784 J13.1744
G1 X527.5586 Y-243.4946
G3 X514.3059 Y-230.1151 I-13.1731 J0.205
G1 X168.0572 Y-232.1781
G3 X160.6874 Y-234.4847 I0.0775 J-13.1743
G0 Z6.096
X288.9127 Y68.1096
G1 Z-3.429 F508
Z-14.224
G3 X291.5061 Y65.7022 I3.0903 J0.7285
G1 X640.0731 Y10.468
G2 X655.014 Y-9.7281 I-2.8044 J-17.6993
G1 X611.053 Y-322.2187
G2 X593.3791 Y-337.58 I-17.6735 J2.4861
G1 X254.68
G3 X251.5171 Y-340.4783 J-3.175
G1 X247.9441 Y-381.3223
G3 X251.107 Y-384.774 I3.1629 J-0.2767
G1 X656.607
G3 X659.7511 Y-382.0409 J3.175
G1 X675.9341 Y-266.8929
G3 X675.4433 Y-264.7073 I-3.1441 J0.4419
G2 X676.8312 Y-263.815 I0.6895 J0.4531
G3 X679.0757 Y-265.2689 I2.6878 J1.69
G1 X680.9907 Y-265.5389
G3 X685.7079 Y-261.987 I0.5827 J4.1345
G1 X685.7081 Y-261.9859
X699.3491 Y-164.9269
G3 X695.7943 Y-160.2108 I-4.1351 J0.5809
G1 X693.0466 Y-159.8249
G3 X690.8613 Y-160.3157 I-0.4417 J-3.1441
G2 X689.969 Y-158.9278 I-0.4531 J0.6895
G3 X691.4231 Y-156.6819 I-1.69 J2.6878
G1 X708.1851 Y-37.4147
G3 X707.6944 Y-35.2292 I-3.1441 J0.4419
G2 X709.0821 Y-34.3371 I0.6893 J0.453
G3 X711.3282 Y-35.7913 I2.6879 J1.6899
G1 X713.0562 Y-36.0341
G3 X717.7711 Y-32.4807 I0.5806 J4.1343
G1 X721.6661 Y-4.7661
G3 X718.1128 Y-0.0504 I-4.1342 J0.5814
G1 X715.5519 Y0.3095
G3 X713.3661 Y-0.1813 I-0.4419 J-3.1441
G2 X712.4738 Y1.2067 I-0.4532 J0.6895
G3 X713.9281 Y3.4528 I-1.6898 J2.6879
G1 X718.6521 Y37.0646
G3 X715.9499 Y40.6506 I-3.1441 J0.4419
G1 X684.8123 Y45.0267
G3 X680.096 Y41.4742 I-0.5817 J-4.1346
G1 X679.7049 Y38.691
G3 X680.1957 Y36.5055 I3.1441 J-0.4418
G2 X678.8079 Y35.6134 I-0.6894 J-0.453
G3 X676.5619 Y37.0677 I-2.6879 J-1.6898
G1 X524.3859 Y58.4546
G3 X522.008 Y57.827 I-0.4419 J-3.1441
G2 X521.0153 Y59.1445 I-0.503 J0.6538
G3 X522.2742 Y61.2577 I-1.8853 J2.5547
G1 X522.6041 Y63.6075
G3 X519.0508 Y68.3229 I-4.1342 J0.5812
G1 X491.3242 Y72.2198
G3 X486.608 Y68.6674 I-0.5816 J-4.1347
G1 X486.6078 Y68.6658
X486.2818 Y66.3425
G3 X486.9097 Y63.9652 I3.1442 J-0.4412
G2 X485.5918 Y62.9721 I-0.6539 J-0.5032
G3 X483.4789 Y64.2311 I-2.5548 J-1.8851
G1 X328.4699 Y86.0162
G3 X326.2842 Y85.5254 I-0.4419 J-3.1441
G2 X325.3918 Y86.9135 I-0.4532 J0.6895
G3 X326.8462 Y89.1603 I-1.6898 J2.688
G1 X327.1111 Y91.0487
G3 X323.5577 Y95.7639 I-4.1342 J0.581
G1 X306.2049 Y98.2027
G3 X301.4898 Y94.649 I-0.5807 J-4.1342
G1 X301.1789 Y92.4349
G3 X301.8064 Y90.0575 I3.1441 J-0.4416
G2 X300.4885 Y89.0645 I-0.654 J-0.5031
G3 X298.3759 Y90.3231 I-2.5545 J-1.8855
G1 X294.0949 Y90.9248
G3 X290.49 Y88.0562 I-0.4419 J-3.1441
G1 X288.84 Y69.1136
G3 X288.9127 Y68.1096 I3.163 J-0.2755
G1 Z-19.05
G3 X291.5061 Y65.7022 I3.0903 J0.7285
G1 X510.8985 Y30.9371
Z-16.51
X522.1877 Y29.1482
Z-19.05
X640.0731 Y10.468
G2 X655.014 Y-9.7281 I-2.8044 J-17.6993
G1 X637.5642 Y-133.7674
Z-16.51
X635.9719 Y-145.086
Z-19.05
X611.053 Y-322.2187
G2 X593.3791 Y-337.58 I-17.6735 J2.4861
G1 X546.322
Z-16.51
X534.892
Z-19.05
X254.68
G3 X251.5171 Y-340.4783 J-3.175
G1 X247.9441 Y-381.3223
G3 X251.107 Y-384.774 I3.1629 J-0.2767
G1 X352.323
Z-16.51
X363.753
Z-19.05
X656.607
G3 X659.7511 Y-382.0409 J3.175
G1 X675.9341 Y-266.8929
G3 X675.4433 Y-264.7073 I-3.1441 J0.4419
G2 X676.8312 Y-263.815 I0.6895 J0.4531
G3 X679.0757 Y-265.2689 I2.6878 J1.69
G1 X680.9907 Y-265.5389
G3 X685.7079 Y-261.987 I0.5827 J4.1345
G1 X685.7081 Y-261.9859
X699.3491 Y-164.9269
G3 X695.7943 Y-160.2108 I-4.1351 J0.5809
G1 X693.0466 Y-159.8249
G3 X690.8613 Y-160.3157 I-0.4417 J-3.1441
G2 X689.969 Y-158.9278 I-0.4531 J0.6895
G3 X691.4231 Y-156.6819 I-1.69 J2.6878
G1 X701.9839 Y-81.5379
Z-16.51
X703.5747 Y-70.2191
Z-19.05
X708.1851 Y-37.4147
G3 X707.6944 Y-35.2292 I-3.1441 J0.4419
G2 X709.0821 Y-34.3371 I0.6893 J0.453
G3 X711.3282 Y-35.7913 I2.6879 J1.6899
G1 X713.0562 Y-36.0341
G3 X717.7711 Y-32.4807 I0.5806 J4.1343
G1 X721.6661 Y-4.7661
G3 X718.1128 Y-0.0504 I-4.1342 J0.5814
G1 X715.5519 Y0.3095
G3 X713.3661 Y-0.1813 I-0.4419 J-3.1441
G2 X712.4738 Y1.2067 I-0.4532 J0.6895
G3 X713.9281 Y3.4528 I-1.6898 J2.6879
G1 X718.6521 Y37.0646
G3 X715.9499 Y40.6506 I-3.1441 J0.4419
G1 X684.8123 Y45.0267
G3 X680.096 Y41.4742 I-0.5817 J-4.1346
G1 X679.7049 Y38.691
G3 X680.1957 Y36.5055 I3.1441 J-0.4418
G2 X678.8079 Y35.6134 I-0.6894 J-0.453
G3 X676.5619 Y37.0677 I-2.6879 J-1.6898
G1 X524.3859 Y58.4546
G3 X522.008 Y57.827 I-0.4419 J-3.1441
G2 X521.0153 Y59.1445 I-0.503 J0.6538
G3 X522.2742 Y61.2577 I-1.8853 J2.5547
G1 X522.6041 Y63.6075
G3 X519.0508 Y68.3229 I-4.1342 J0.5812
G1 X491.3242 Y72.2198
G3 X486.608 Y68.6674 I-0.5816 J-4.1347
G1 X486.6078 Y68.6658
X486.2818 Y66.3425
G3 X486.9097 Y63.9652 I3.1442 J-0.4412
G2 X485.5918 Y62.9721 I-0.6539 J-0.5032
G3 X483.4789 Y64.2311 I-2.5548 J-1.8851
G1 X456.7743 Y67.9842
Z-16.51
X445.4555 Y69.5749
Z-19.05
X328.4699 Y86.0162
G3 X326.2842 Y85.5254 I-0.4419 J-3.1441
G2 X325.3918 Y86.9135 I-0.4532 J0.6895
G3 X326.8462 Y89.1603 I-1.6898 J2.688
G1 X327.1111 Y91.0487
G3 X323.5577 Y95.7639 I-4.1342 J0.581
G1 X306.2049 Y98.2027
G3 X301.4898 Y94.649 I-0.5807 J-4.1342
G1 X301.1789 Y92.4349
G3 X301.8064 Y90.0575 I3.1441 J-0.4416
G2 X300.4885 Y89.0645 I-0.654 J-0.5031
G3 X298.3759 Y90.3231 I-2.5545 J-1.8855
G1 X294.0949 Y90.9248
G3 X290.49 Y88.0562 I-0.4419 J-3.1441
G1 X288.84 Y69.1136
G3 X288.9127 Y68.1096 I3.163 J-0.2755
G0 Z6.096
X160.6874 Y-234.4847
G1 Z-11.049 F508
Z-19.05
G3 X154.9652 Y-245.7142 I7.4473 J-10.8676
G1 X155.7187 Y-273.0865
Z-16.51
X156.0332 Y-284.5122
Z-19.05
X157.0402 Y-321.0923
G3 X170.289 Y-333.9049 I13.17 J0.3621
G1 X337.704 Y-332.9073
Z-16.51
X349.1338 Y-332.8392
Z-19.05
X513.2869 Y-331.8609
G3 X526.3816 Y-318.8915 I-0.0784 J13.1744
G1 X526.7684 Y-294.1138
Z-16.51
X526.9468 Y-282.6852
Z-19.05
X527.5586 Y-243.4946
G3 X514.3059 Y-230.1151 I-13.1731 J0.205
G1 X353.224 Y-231.0748
Z-16.51
X341.7942 Y-231.1429
Z-19.05
X168.0572 Y-232.1781
G3 X160.6874 Y-234.4847 I0.0775 J-13.1743
G0 Z6.096
X439.4675 Y-402.4547
G1 Z4.191 F508
Z-6.604
G3 X438.6461 Y-404.8758 I2.3415 J-2.1443
G1 X442.2201 Y-445.7198
G3 X445.383 Y-448.618 I3.1629 J0.2768
G1 X1070.67
G3 X1073.5798 Y-444.1729 J3.175
G1 X1072.2399 Y-441.1029
G3 X1070.4569 Y-439.4047 I-2.9099 J-1.2701
G2 X1071.0568 Y-437.8693 I0.2926 J0.7706
G3 X1073.5135 Y-437.8314 I1.1832 J2.9463
G1 X1081.6135 Y-434.2844
G3 X1083.3085 Y-432.5023 I-1.2736 J2.9084
G2 X1084.8448 Y-433.103 I0.7712 J-0.2926
G3 X1084.8834 Y-435.5667 I2.9452 J-1.186
G1 X1085.8331 Y-437.7269
G3 X1091.3137 Y-439.8767 I3.8199 J1.6777
G1 X1091.3234 Y-439.8725
X1135.3033 Y-420.6175
X1135.308 Y-420.6154
G3 X1137.4456 Y-415.1119 I-1.6793 J3.8191
G1 X1136.5989 Y-413.1765
G3 X1134.817 Y-411.4807 I-2.9089 J-1.2725
G2 X1135.417 Y-409.9444 I0.2927 J0.771
G3 X1137.8748 Y-409.9059 I1.183 J2.9464
G1 X1151.0348 Y-404.1369
G3 X1152.6678 Y-399.9543 I-1.2748 J2.9079
G1 X1148.5779 Y-390.6243
G3 X1145.2057 Y-388.7581 I-2.9078 J-1.2747
G1 X1060.3959 Y-401.2971
G2 X1058.6698 Y-401.424 I-1.7277 J11.698
G1 X441.809
G3 X439.4675 Y-402.4547 J-3.175
G1 Z-14.224
G3 X438.6461 Y-404.8758 I2.3415 J-2.1443
G1 X442.2201 Y-445.7198
G3 X445.383 Y-448.618 I3.1629 J0.2768
G1 X1070.67
G3 X1073.5798 Y-444.1729 J3.175
G1 X1072.2399 Y-441.1029
G3 X1070.4569 Y-439.4047 I-2.9099 J-1.2701
G2 X1071.0568 Y-437.8693 I0.2926 J0.7706
G3 X1073.5135 Y-437.8314 I1.1832 J2.9463
G1 X1081.6135 Y-434.2844
G3 X1083.3085 Y-432.5023 I-1.2736 J2.9084
G2 X1084.8448 Y-433.103 I0.7712 J-0.2926
G3 X1084.8834 Y-435.5667 I2.9452 J-1.186
G1 X1085.8331 Y-437.7269
G3 X1091.3137 Y-439.8767 I3.8199 J1.6777
G1 X1091.3234 Y-439.8725
X1135.3033 Y-420.6175
X1135.308 Y-420.6154
G3 X1137.4456 Y-415.1119 I-1.6793 J3.8191
G1 X1136.5989 Y-413.1765
G3 X1134.817 Y-411.4807 I-2.9089 J-1.2725
G2 X1135.417 Y-409.9444 I0.2927 J0.771
G3 X1137.8748 Y-409.9059 I1.183 J2.9464
G1 X1151.0348 Y-404.1369
G3 X1152.6678 Y-399.9543 I-1.2748 J2.9079
G1 X1148.5779 Y-390.6243
G3 X1145.2057 Y-388.7581 I-2.9078 J-1.2747
G1 X1060.3959 Y-401.2971
G2 X1058.6698 Y-401.424 I-1.7277 J11.698
G1 X441.809
G3 X439.4675 Y-402.4547 J-3.175
G1 Z-19.05
G3 X438.6461 Y-404.8758 I2.3415 J-2.1443
G1 X442.2201 Y-445.7198
G3 X445.383 Y-448.618 I3.1629 J0.2768
G1 X596.665
Z-16.51
X608.095
Z-19.05
X917.631
Z-16.51
X929.061
Z-19.05
X1070.67
G3 X1073.5798 Y-444.1729 J3.175
G1 X1072.2399 Y-441.1029
G3 X1070.4569 Y-439.4047 I-2.9099 J-1.2701
G2 X1071.0568 Y-437.8693 I0.2926 J0.7706
G3 X1073.5135 Y-437.8314 I1.1832 J2.9463
G1 X1081.6135 Y-434.2844
G3 X1083.3085 Y-432.5023 I-1.2736 J2.9084
G2 X1084.8448 Y-433.103 I0.7712 J-0.2926
G3 X1084.8834 Y-435.5667 I2.9452 J-1.186
G1 X1085.8331 Y-437.7269
G3 X1091.3137 Y-439.8767 I3.8199 J1.6777
G1 X1091.3234 Y-439.8725
X1135.3033 Y-420.6175
X1135.308 Y-420.6154
G3 X1137.4456 Y-415.1119 I-1.6793 J3.8191
G1 X1136.5989 Y-413.1765
G3 X1134.817 Y-411.4807 I-2.9089 J-1.2725
G2 X1135.417 Y-409.9444 I0.2927 J0.771
G3 X1137.8748 Y-409.9059 I1.183 J2.9464
G1 X1151.0348 Y-404.1369
G3 X1152.6678 Y-399.9543 I-1.2748 J2.9079
G1 X1148.5779 Y-390.6243
G3 X1145.2057 Y-388.7581 I-2.9078 J-1.2747
G1 X1060.3959 Y-401.2971
G2 X1058.6698 Y-401.424 I-1.7277 J11.698
G1 X787.755
Z-16.51
X776.325
Z-19.05
X441.809
G3 X439.4675 Y-402.4547 J-3.175
G0 Z6.096

(Operation 2 of 4 : 2D Pocket1)

G54
S5000 M3
X560.8102 Y-141.6744
Z11.176
Z6.096
G1 Z3.556 F508
G2 X560.899 Y-142.1926 Z2.9126 I3.006 J0.248
X561.0764 Y-142.6876 Z2.2692 I2.9173 J0.7662
X561.337 Y-143.1442 Z1.6257 I2.7399 J1.2612
X561.6729 Y-143.5486 Z0.9823 I2.4793 J1.7178
X562.074 Y-143.8886 Z0.3389 I2.1433 J2.1222
X562.528 Y-144.1537 Z-0.3045 I1.7423 J2.4622
X563.0212 Y-144.336 Z-0.948 I1.2882 J2.7273
X563.5385 Y-144.4298 Z-1.5914 I0.7951 J2.9096
X564.0643 Y-144.4324 Z-2.2348 I0.2778 J3.0034
X564.5825 Y-144.3437 Z-2.8782 I-0.248 J3.006
X565.0774 Y-144.1663 Z-3.5217 I-0.7662 J2.9173
X566.8325 Y-141.4423 Z-4.064 I-1.2612 J2.7399
X561.4325 Y-141.4138 I-2.7 J0.0142
G1 X561.6535 Y-99.4835
X561.6613 Y-99.4408
X561.6832 Y-99.4033
X561.7166 Y-99.3755
X561.7575 Y-99.3609
X561.801 Y-99.3611
X561.8418 Y-99.3762
X561.8749 Y-99.4043
X561.8964 Y-99.442
X561.9037 Y-99.4848
X561.6826 Y-141.4424
X561.6749 Y-141.4798
X561.6535 Y-141.5114
X561.6217 Y-141.5325
X561.5842 Y-141.5397
X561.5297 Y-141.5395
X561.4923 Y-141.5318
X561.4607 Y-141.5104
X561.4396 Y-141.4785
X561.4324 Y-141.441
X561.4325 Y-141.4138
G3 X558.859 Y-137.5092 I-4.2152 J0.0222
G2 X556.2856 Y-133.6046 I1.6418 J3.8824
G1 X556.4839 Y-95.9706
G3 X555.3929 Y-93.3346 I-3.6829 J0.0194
G1 X555.3505 Y-93.2826
X555.32 Y-93.2228
X555.3027 Y-93.158
X555.2995 Y-93.091
X555.3104 Y-93.0248
X555.3351 Y-92.9624
X555.3723 Y-92.9066
X555.4204 Y-92.8599
X555.4773 Y-92.8243
X555.5404 Y-92.8015
X555.6069 Y-92.7925
X555.6737 Y-92.7977
X555.738 Y-92.8168
X555.7969 Y-92.849
X555.8476 Y-92.8929
G3 X558.5196 Y-94.0618 I2.6914 J2.5141
G1 X565.0946 Y-94.0964
G3 X567.7787 Y-92.9558 I0.0194 J3.683
G1 X567.8299 Y-92.9125
X567.889 Y-92.8808
X567.9535 Y-92.8624
X568.0205 Y-92.8579
X568.0869 Y-92.8676
X568.1497 Y-92.891
X568.2062 Y-92.9272
X568.2539 Y-92.9745
X568.2905 Y-93.0307
X568.3145 Y-93.0933
X568.3248 Y-93.1596
X568.3208 Y-93.2266
X568.3029 Y-93.2913
X568.2718 Y-93.3507
X568.2288 Y-93.4023
G3 X567.11 Y-96.0266 I2.5642 J-2.6437
G1 X566.853 Y-144.7826
G3 X567.9437 Y-147.4182 I3.683 J-0.0194
G1 X567.9858 Y-147.4698
X568.0162 Y-147.5291
X568.0336 Y-147.5934
X568.037 Y-147.6599
X568.0265 Y-147.7257
X568.0025 Y-147.7878
X567.966 Y-147.8435
X567.9186 Y-147.8904
X567.8625 Y-147.9263
X567.8002 Y-147.9497
X567.7343 Y-147.9595
X567.6678 Y-147.9553
X567.6037 Y-147.9373
X567.5447 Y-147.9063
X567.4936 Y-147.8636
G3 X564.8693 Y-146.7451 I-2.6436 J-2.5644
G1 X558.1903 Y-146.7101
G3 X555.5543 Y-147.8012 I-0.0193 J-3.683
G1 X555.5027 Y-147.8434
X555.4433 Y-147.8738
X555.3789 Y-147.8912
X555.3123 Y-147.8947
X555.2465 Y-147.8841
X555.1843 Y-147.8601
X555.1285 Y-147.8235
X555.0816 Y-147.7761
X555.0456 Y-147.72
X555.0222 Y-147.6575
X555.0124 Y-147.5916
X555.0166 Y-147.525
X555.0346 Y-147.4608
X555.0657 Y-147.4018
X555.1084 Y-147.3506
G3 X556.2269 Y-144.7264 I-2.5644 J2.6436
G1 X556.2856 Y-133.6046
G0 Z6.096
X562.5115 Y-138.707
G1 Z-1.524 F508
G2 X562.0591 Y-138.9749 Z-2.1674 I1.3048 J-2.7194
X561.6601 Y-139.3173 Z-2.8108 I1.7572 J-2.4515
X561.3266 Y-139.7237 Z-3.4543 I2.1562 J-2.1091
X561.0687 Y-140.1819 Z-4.0977 I2.4897 J-1.7027
X560.8944 Y-140.678 Z-4.7411 I2.7475 J-1.2445
X560.8088 Y-141.1967 Z-5.3845 I2.9219 J-0.7485
X560.8146 Y-141.7224 Z-6.028 I3.0075 J-0.2297
X560.9116 Y-142.2392 Z-6.6714 I3.0017 J0.296
X561.0969 Y-142.7312 Z-7.3148 I2.9047 J0.8128
X561.3648 Y-143.1836 Z-7.9582 I2.7194 J1.3048
X561.7072 Y-143.5826 Z-8.6017 I2.4515 J1.7572
X566.8325 Y-141.4423 Z-9.017 I2.1091 J2.1562
X561.4325 Y-141.4138 I-2.7 J0.0142
G1 X561.6535 Y-99.4835
X561.6613 Y-99.4408
X561.6832 Y-99.4033
X561.7166 Y-99.3755
X561.7575 Y-99.3609
X561.801 Y-99.3611
X561.8418 Y-99.3762
X561.8749 Y-99.4043
X561.8964 Y-99.442
X561.9037 Y-99.4848
X561.6826 Y-141.4424
X561.6749 Y-141.4798
X561.6535 Y-141.5114
X561.6217 Y-141.5325
X561.5842 Y-141.5397
X561.5297 Y-141.5395
X561.4923 Y-141.5318
X561.4607 Y-141.5104
X561.4396 Y-141.4785
X561.4324 Y-141.441
X561.4325 Y-141.4138
G3 X558.859 Y-137.5092 I-4.2152 J0.0222
G2 X556.2856 Y-133.6046 I1.6418 J3.8824
G1 X556.4839 Y-95.9706
G3 X555.3929 Y-93.3346 I-3.6829 J0.0194
G1 X555.3505 Y-93.2826
X555.32 Y-93.2228
X555.3027 Y-93.158
X555.2995 Y-93.091
X555.3104 Y-93.0248
X555.3351 Y-92.9624
X555.3723 Y-92.9066
X555.4204 Y-92.8599
X555.4773 Y-92.8243
X555.5404 Y-92.8015
X555.6069 Y-92.7925
X555.6737 Y-92.7977
X555.738 Y-92.8168
X555.7969 Y-92.849
X555.8476 Y-92.8929
G3 X558.5196 Y-94.0618 I2.6914 J2.5141
G1 X565.0946 Y-94.0964
G3 X567.7787 Y-92.9558 I0.0194 J3.683
G1 X567.8299 Y-92.9125
X567.889 Y-92.8808
X567.9535 Y-92.8624
X568.0205 Y-92.8579
X568.0869 Y-92.8676
X568.1497 Y-92.891
X568.2062 Y-92.9272
X568.2539 Y-92.9745
X568.2905 Y-93.0307
X568.3145 Y-93.0933
X568.3248 Y-93.1596
X568.3208 Y-93.2266
X568.3029 Y-93.2913
X568.2718 Y-93.3507
X568.2288 Y-93.4023
G3 X567.11 Y-96.0266 I2.5642 J-2.6437
G1 X566.853 Y-144.7826
G3 X567.9437 Y-147.4182 I3.683 J-0.0194
G1 X567.9858 Y-147.4698
X568.0162 Y-147.5291
X568.0336 Y-147.5934
X568.037 Y-147.6599
X568.0265 Y-147.7257
X568.0025 Y-147.7878
X567.966 Y-147.8435
X567.9186 Y-147.8904
X567.8625 Y-147.9263
X567.8002 Y-147.9497
X567.7343 Y-147.9595
X567.6678 Y-147.9553
X567.6037 Y-147.9373
X567.5447 Y-147.9063
X567.4936 Y-147.8636
G3 X564.8693 Y-146.7451 I-2.6436 J-2.5644
G1 X558.1903 Y-146.7101
G3 X555.5543 Y-147.8012 I-0.0193 J-3.683
G1 X555.5027 Y-147.8434
X555.4433 Y-147.8738
X555.3789 Y-147.8912
X555.3123 Y-147.8947
X555.2465 Y-147.8841
X555.1843 Y-147.8601
X555.1285 Y-147.8235
X555.0816 Y-147.7761
X555.0456 Y-147.72
X555.0222 Y-147.6575
X555.0124 Y-147.5916
X555.0166 Y-147.525
X555.0346 Y-147.4608
X555.0657 Y-147.4018
X555.1084 Y-147.3506
G3 X556.2269 Y-144.7264 I-2.5644 J2.6436
G1 X556.2856 Y-133.6046
G0 Z6.096
X501.3361 Y-50.1682
G1 Z3.556 F508
G2 X501.8536 Y-50.0757 Z2.9126 I-0.27 J3.0041
X502.3473 Y-49.8947 Z2.2692 I-0.7876 J2.9116
X502.802 Y-49.6308 Z1.6257 I-1.2812 J2.7306
X503.2039 Y-49.2918 Z0.9823 I-1.7359 J2.4667
X503.5409 Y-48.8883 Z0.3389 I-2.1378 J2.1278
X503.8027 Y-48.4323 Z-0.3045 I-2.4749 J1.7242
X503.9814 Y-47.9379 Z-0.948 I-2.7367 J1.2683
X504.0715 Y-47.4199 Z-1.5914 I-2.9153 J0.7738
X504.0702 Y-46.8941 Z-2.2348 I-3.0054 J0.2558
X503.9777 Y-46.3765 Z-2.8782 I-3.0041 J-0.27
X503.7967 Y-45.8829 Z-3.5217 I-2.9116 J-0.7876
X501.0599 Y-44.1478 Z-4.064 I-2.7306 J-1.2812
X501.0713 Y-49.7417 I0.0057 J-2.7969
G1 X501.0405
X501.0402
X500.9941 Y-49.7357
X500.9512 Y-49.7179
X500.9143 Y-49.6896
X500.886 Y-49.6528
X500.8682 Y-49.6098
X500.8622 Y-49.5638
X500.8621 Y-49.5022
Y-49.5021
X500.8682 Y-49.4561
X500.886 Y-49.4131
X500.9142 Y-49.3763
X500.9511 Y-49.348
X500.994 Y-49.3302
X501.0401 Y-49.3241
X512.8485 Y-49.3217
X512.8486
X512.8998 Y-49.3284
X512.9475 Y-49.3482
X512.9885 Y-49.3797
X513.02 Y-49.4206
X513.0398 Y-49.4684
X513.0465 Y-49.5196
X513.0398 Y-49.5708
X513.0201 Y-49.6185
X512.9887 Y-49.6595
X512.9478 Y-49.691
X512.9001 Y-49.7108
X512.8489 Y-49.7176
X501.0713 Y-49.7417
G3 X498.4863 Y-51.1317 I0.0063 J-3.1105
G2 X495.6762 Y-50.2842 I-1.2771 J0.8479
G1 X495.675 Y-46.1125
G3 X494.5693 Y-43.4826 I-3.683 J-0.0011
G1 X494.5268 Y-43.4312
X494.4961 Y-43.3721
X494.4784 Y-43.3078
X494.4745 Y-43.2412
X494.4847 Y-43.1753
X494.5084 Y-43.113
X494.5446 Y-43.057
X494.5917 Y-43.0099
X494.6477 Y-42.9736
X494.71 Y-42.9499
X494.7759 Y-42.9397
X494.8424 Y-42.9435
X494.9067 Y-42.9612
X494.9659 Y-42.9919
X495.0173 Y-43.0343
G3 X497.6478 Y-44.1387 I2.6297 J2.5786
G1 X516.3238 Y-44.1348
G3 X518.9537 Y-43.0294 I-0.0008 J3.683
G1 X519.0051 Y-42.987
X519.0643 Y-42.9562
X519.1286 Y-42.9385
X519.1952 Y-42.9346
X519.2611 Y-42.9448
X519.3234 Y-42.9685
X519.3794 Y-43.0047
X519.4266 Y-43.0519
X519.4628 Y-43.1079
X519.4866 Y-43.1702
X519.4968 Y-43.2361
X519.4929 Y-43.3027
X519.4753 Y-43.367
X519.4445 Y-43.4262
X519.4021 Y-43.4776
G3 X518.298 Y-46.1081 I2.5789 J-2.6294
G1 X518.3 Y-52.9267
G3 X519.4057 Y-55.5566 I3.683 J0.0011
G1 X519.4482 Y-55.608
X519.479 Y-55.6672
X519.4967 Y-55.7316
X519.5005 Y-55.7982
X519.4903 Y-55.8641
X519.4665 Y-55.9265
X519.4303 Y-55.9825
X519.3831 Y-56.0296
X519.327 Y-56.0659
X519.2647 Y-56.0896
X519.1987 Y-56.0997
X519.1321 Y-56.0958
X519.0678 Y-56.078
X519.0086 Y-56.0472
X518.9572 Y-56.0047
G3 X516.3165 Y-54.8967 I-2.6332 J-2.575
G1 X497.6405 Y-54.9348
G3 X495.0201 Y-56.0374 I0.0075 J-3.683
G1 X494.9687 Y-56.0797
X494.9096 Y-56.1104
X494.8453 Y-56.128
X494.7788 Y-56.1318
X494.713 Y-56.1216
X494.6508 Y-56.0979
X494.5949 Y-56.0617
X494.5478 Y-56.0146
X494.5116 Y-55.9586
X494.4879 Y-55.8964
X494.4778 Y-55.8306
X494.4817 Y-55.7641
X494.4993 Y-55.6999
X494.53 Y-55.6408
X494.5724 Y-55.5894
G3 X495.677 Y-52.9584 I-2.5784 J2.6299
G1 X495.6762 Y-50.2842
G0 Z6.096
X498.3563 Y-48.4888
G1 Z-1.524 F508
G2 X498.6275 Y-48.9392 Z-2.1674 I2.7098 J1.3247
X498.9728 Y-49.3357 Z-2.8108 I2.4386 J1.7751
X499.3817 Y-49.6662 Z-3.4543 I2.0933 J2.1716
X499.8417 Y-49.9207 Z-4.0977 I1.6844 J2.5021
X500.339 Y-50.0914 Z-4.7411 I1.2243 J2.7566
X500.8584 Y-50.1732 Z-5.3845 I0.727 J2.9273
X501.3841 Y-50.1635 Z-6.028 I0.2077 J3.0091
X501.9001 Y-50.0627 Z-6.6714 I-0.318 J2.9994
X502.3908 Y-49.8739 Z-7.3148 I-0.834 J2.8986
X502.8412 Y-49.6027 Z-7.9582 I-1.3247 J2.7098
X503.2377 Y-49.2574 Z-8.6017 I-1.7751 J2.4386
X501.0599 Y-44.1478 Z-9.017 I-2.1716 J2.0933
X501.0713 Y-49.7417 I0.0057 J-2.7969
G1 X501.0405
X501.0402
X500.9941 Y-49.7357
X500.9512 Y-49.7179
X500.9143 Y-49.6896
X500.886 Y-49.6528
X500.8682 Y-49.6098
X500.8622 Y-49.5638
X500.8621 Y-49.5022
Y-49.5021
X500.8682 Y-49.4561
X500.886 Y-49.4131
X500.9142 Y-49.3763
X500.9511 Y-49.348
X500.994 Y-49.3302
X501.0401 Y-49.3241
X512.8485 Y-49.3217
X512.8486
X512.8998 Y-49.3284
X512.9475 Y-49.3482
X512.9885 Y-49.3797
X513.02 Y-49.4206
X513.0398 Y-49.4684
X513.0465 Y-49.5196
X513.0398 Y-49.5708
X513.0201 Y-49.6185
X512.9887 Y-49.6595
X512.9478 Y-49.691
X512.9001 Y-49.7108
X512.8489 Y-49.7176
X501.0713 Y-49.7417
G3 X498.4863 Y-51.1317 I0.0063 J-3.1105
G2 X495.6762 Y-50.2842 I-1.2771 J0.8479
G1 X495.675 Y-46.1125
G3 X494.5693 Y-43.4826 I-3.683 J-0.0011
G1 X494.5268 Y-43.4312
X494.4961 Y-43.3721
X494.4784 Y-43.3078
X494.4745 Y-43.2412
X494.4847 Y-43.1753
X494.5084 Y-43.113
X494.5446 Y-43.057
X494.5917 Y-43.0099
X494.6477 Y-42.9736
X494.71 Y-42.9499
X494.7759 Y-42.9397
X494.8424 Y-42.9435
X494.9067 Y-42.9612
X494.9659 Y-42.9919
X495.0173 Y-43.0343
G3 X497.6478 Y-44.1387 I2.6297 J2.5786
G1 X516.3238 Y-44.1348
G3 X518.9537 Y-43.0294 I-0.0008 J3.683
G1 X519.0051 Y-42.987
X519.0643 Y-42.9562
X519.1286 Y-42.9385
X519.1952 Y-42.9346
X519.2611 Y-42.9448
X519.3234 Y-42.9685
X519.3794 Y-43.0047
X519.4266 Y-43.0519
X519.4628 Y-43.1079
X519.4866 Y-43.1702
X519.4968 Y-43.2361
X519.4929 Y-43.3027
X519.4753 Y-43.367
X519.4445 Y-43.4262
X519.4021 Y-43.4776
G3 X518.298 Y-46.1081 I2.5789 J-2.6294
G1 X518.3 Y-52.9267
G3 X519.4057 Y-55.5566 I3.683 J0.0011
G1 X519.4482 Y-55.608
X519.479 Y-55.6672
X519.4967 Y-55.7316
X519.5005 Y-55.7982
X519.4903 Y-55.8641
X519.4665 Y-55.9265
X519.4303 Y-55.9825
X519.3831 Y-56.0296
X519.327 Y-56.0659
X519.2647 Y-56.0896
X519.1987 Y-56.0997
X519.1321 Y-56.0958
X519.0678 Y-56.078
X519.0086 Y-56.0472
X518.9572 Y-56.0047
G3 X516.3165 Y-54.8967 I-2.6332 J-2.575
G1 X497.6405 Y-54.9348
G3 X495.0201 Y-56.0374 I0.0075 J-3.683
G1 X494.9687 Y-56.0797
X494.9096 Y-56.1104
X494.8453 Y-56.128
X494.7788 Y-56.1318
X494.713 Y-56.1216
X494.6508 Y-56.0979
X494.5949 Y-56.0617
X494.5478 Y-56.0146
X494.5116 Y-55.9586
X494.4879 Y-55.8964
X494.4778 Y-55.8306
X494.4817 Y-55.7641
X494.4993 Y-55.6999
X494.53 Y-55.6408
X494.5724 Y-55.5894
G3 X495.677 Y-52.9584 I-2.5784 J2.6299
G1 X495.6762 Y-50.2842
G0 Z6.096
X345.0948 Y-50.4401
G1 Z3.556 F508
G2 X345.1883 Y-50.9574 Z2.9126 I3.0036 J0.276
X345.3703 Y-51.4507 Z2.2692 I2.91 J0.7934
X345.6352 Y-51.9049 Z1.6257 I2.7281 J1.2866
X345.9749 Y-52.3062 Z0.9823 I2.4632 J1.7408
X346.3791 Y-52.6424 Z0.3389 I2.1235 J2.1421
X346.8356 Y-52.9033 Z-0.3045 I1.7193 J2.4783
X347.3304 Y-53.0809 Z-0.948 I1.2628 J2.7392
X347.8486 Y-53.17 Z-1.5914 I0.7679 J2.9169
X348.3744 Y-53.1677 Z-2.2348 I0.2498 J3.0059
X348.8918 Y-53.0741 Z-2.8782 I-0.276 J3.0036
X349.385 Y-52.8921 Z-3.5217 I-0.7934 J2.91
X351.1146 Y-50.1519 Z-4.064 I-1.2866 J2.7281
G1 X351.1147 Y-50.1803
Y-50.1807
X351.1073 Y-50.2181
X351.0862 Y-50.2498
X351.0546 Y-50.271
X351.0172 Y-50.2786
X269.1103 Y-50.6141
X269.1097
X269.0709 Y-50.6079
X269.0359 Y-50.5901
X269.008 Y-50.5624
X268.9901 Y-50.5274
X268.9838 Y-50.4886
Y-50.4881
X268.9899 Y-50.4492
X269.0077 Y-50.4142
X269.0354 Y-50.3863
X269.0704 Y-50.3684
X269.1092 Y-50.3621
X351.0162 Y-50.026
X351.0166
X351.054 Y-50.0334
X351.0857 Y-50.0545
X351.1069 Y-50.0861
X351.1145 Y-50.1235
X351.1146 Y-50.1519
G3 X352.4487 Y-52.7112 I3.1464 J0.0127
G2 X351.5824 Y-55.4643 I-0.8725 J-1.2383
G1 X265.6989 Y-55.816
G3 X263.0733 Y-56.9317 I0.0151 J-3.683
G1 X263.0221 Y-56.9743
X262.9631 Y-57.0053
X262.8989 Y-57.0232
X262.8324 Y-57.0273
X262.7665 Y-57.0174
X262.7041 Y-56.994
X262.648 Y-56.958
X262.6007 Y-56.9111
X262.5643 Y-56.8553
X262.5403 Y-56.7931
X262.5299 Y-56.7273
X262.5334 Y-56.6607
X262.5509 Y-56.5964
X262.5814 Y-56.5371
X262.6236 Y-56.4856
G3 X263.718 Y-53.8503 I-2.5886 J2.6199
G1 X263.69 Y-47.1697
G3 X262.5746 Y-44.5447 I-3.683 J-0.0154
G1 X262.5319 Y-44.4934
X262.5009 Y-44.4343
X262.4829 Y-44.37
X262.4788 Y-44.3034
X262.4887 Y-44.2374
X262.5122 Y-44.1749
X262.5483 Y-44.1187
X262.5953 Y-44.0713
X262.6512 Y-44.0348
X262.7134 Y-44.0108
X262.7794 Y-44.0004
X262.846 Y-44.0039
X262.9104 Y-44.0214
X262.9698 Y-44.0519
X263.0215 Y-44.0942
G3 X265.6561 Y-45.1883 I2.6195 J2.5889
G1 X354.3071 Y-44.8245
G3 X356.9327 Y-43.7088 I-0.0151 J3.683
G1 X356.984 Y-43.6661
X357.0431 Y-43.6351
X357.1073 Y-43.6171
X357.1739 Y-43.613
X357.2399 Y-43.6229
X357.3023 Y-43.6464
X357.3585 Y-43.6824
X357.4058 Y-43.7294
X357.4423 Y-43.7853
X357.4663 Y-43.8475
X357.4768 Y-43.9134
X357.4732 Y-43.98
X357.4558 Y-44.0444
X357.4252 Y-44.1037
X357.383 Y-44.1553
G3 X356.289 Y-46.7897 I2.589 J-2.6195
G1 X356.316 Y-53.471
G3 X357.4319 Y-56.097 I3.683 J0.0149
G1 X357.4745 Y-56.1482
X357.5055 Y-56.2073
X357.5235 Y-56.2715
X357.5276 Y-56.338
X357.5177 Y-56.404
X357.4942 Y-56.4664
X357.4582 Y-56.5225
X357.4113 Y-56.5698
X357.3554 Y-56.6063
X357.2932 Y-56.6303
X357.2274 Y-56.6407
X357.1608 Y-56.6371
X357.0965 Y-56.6197
X357.0372 Y-56.5892
X356.9856 Y-56.547
G3 X354.3509 Y-55.4529 I-2.6196 J-2.5889
G1 X351.5824 Y-55.4643
G0 Z6.096
X346.7683 Y-47.4569
G1 Z-1.524 F508
G2 X346.3184 Y-47.729 Z-2.1674 I1.3301 J-2.7071
X345.9226 Y-48.0751 Z-2.8108 I1.78 J-2.435
X345.5929 Y-48.4847 Z-3.4543 I2.1758 J-2.089
X345.3393 Y-48.9453 Z-4.0977 I2.5055 J-1.6794
X345.1696 Y-49.4429 Z-4.7411 I2.759 J-1.2188
X345.0889 Y-49.9624 Z-5.3845 I2.9288 J-0.7212
X345.0996 Y-50.4881 Z-6.028 I3.0095 J-0.2017
X345.2014 Y-51.0039 Z-6.6714 I2.9988 J0.324
X345.3912 Y-51.4942 Z-7.3148 I2.897 J0.8398
X345.6633 Y-51.9441 Z-7.9582 I2.7071 J1.3301
X346.0094 Y-52.3399 Z-8.6017 I2.435 J1.78
X351.1146 Y-50.1519 Z-9.017 I2.089 J2.1758
G1 X351.1147 Y-50.1803
Y-50.1807
X351.1073 Y-50.2181
X351.0862 Y-50.2498
X351.0546 Y-50.271
X351.0172 Y-50.2786
X269.1103 Y-50.6141
X269.1097
X269.0709 Y-50.6079
X269.0359 Y-50.5901
X269.008 Y-50.5624
X268.9901 Y-50.5274
X268.9838 Y-50.4886
Y-50.4881
X268.9899 Y-50.4492
X269.0077 Y-50.4142
X269.0354 Y-50.3863
X269.0704 Y-50.3684
X269.1092 Y-50.3621
X351.0162 Y-50.026
X351.0166
X351.054 Y-50.0334
X351.0857 Y-50.0545
X351.1069 Y-50.0861
X351.1145 Y-50.1235
X351.1146 Y-50.1519
G3 X352.4487 Y-52.7112 I3.1464 J0.0127
G2 X351.5824 Y-55.4643 I-0.8725 J-1.2383
G1 X265.6989 Y-55.816
G3 X263.0733 Y-56.9317 I0.0151 J-3.683
G1 X263.0221 Y-56.9743
X262.9631 Y-57.0053
X262.8989 Y-57.0232
X262.8324 Y-57.0273
X262.7665 Y-57.0174
X262.7041 Y-56.994
X262.648 Y-56.958
X262.6007 Y-56.9111
X262.5643 Y-56.8553
X262.5403 Y-56.7931
X262.5299 Y-56.7273
X262.5334 Y-56.6607
X262.5509 Y-56.5964
X262.5814 Y-56.5371
X262.6236 Y-56.4856
G3 X263.718 Y-53.8503 I-2.5886 J2.6199
G1 X263.69 Y-47.1697
G3 X262.5746 Y-44.5447 I-3.683 J-0.0154
G1 X262.5319 Y-44.4934
X262.5009 Y-44.4343
X262.4829 Y-44.37
X262.4788 Y-44.3034
X262.4887 Y-44.2374
X262.5122 Y-44.1749
X262.5483 Y-44.1187
X262.5953 Y-44.0713
X262.6512 Y-44.0348
X262.7134 Y-44.0108
X262.7794 Y-44.0004
X262.846 Y-44.0039
X262.9104 Y-44.0214
X262.9698 Y-44.0519
X263.0215 Y-44.0942
G3 X265.6561 Y-45.1883 I2.6195 J2.5889
G1 X354.3071 Y-44.8245
G3 X356.9327 Y-43.7088 I-0.0151 J3.683
G1 X356.984 Y-43.6661
X357.0431 Y-43.6351
X357.1073 Y-43.6171
X357.1739 Y-43.613
X357.2399 Y-43.6229
X357.3023 Y-43.6464
X357.3585 Y-43.6824
X357.4058 Y-43.7294
X357.4423 Y-43.7853
X357.4663 Y-43.8475
X357.4768 Y-43.9134
X357.4732 Y-43.98
X357.4558 Y-44.0444
X357.4252 Y-44.1037
X357.383 Y-44.1553
G3 X356.289 Y-46.7897 I2.589 J-2.6195
G1 X356.316 Y-53.471
G3 X357.4319 Y-56.097 I3.683 J0.0149
G1 X357.4745 Y-56.1482
X357.5055 Y-56.2073
X357.5235 Y-56.2715
X357.5276 Y-56.338
X357.5177 Y-56.404
X357.4942 Y-56.4664
X357.4582 Y-56.5225
X357.4113 Y-56.5698
X357.3554 Y-56.6063
X357.2932 Y-56.6303
X357.2274 Y-56.6407
X357.1608 Y-56.6371
X357.0965 Y-56.6197
X357.0372 Y-56.5892
X356.9856 Y-56.547
G3 X354.3509 Y-55.4529 I-2.6196 J-2.5889
G1 X351.5824 Y-55.4643
G0 Z6.096
X232.0979 Y-119.2841
G1 Z3.556 F508
G2 X231.5797 Y-119.373 Z2.9126 I0.249 J-3.006
X231.0848 Y-119.5506 Z2.2692 I0.7672 J-2.917
X230.6283 Y-119.8114 Z1.6257 I1.2621 J-2.7395
X230.224 Y-120.1475 Z0.9823 I1.7186 J-2.4787
X229.8842 Y-120.5487 Z0.3389 I2.123 J-2.1426
X229.6192 Y-121.0028 Z-0.3045 I2.4628 J-1.7414
X229.4371 Y-121.496 Z-0.948 I2.7277 J-1.2873
X229.3434 Y-122.0133 Z-1.5914 I2.9098 J-0.7941
X229.341 Y-122.5391 Z-2.2348 I3.0035 J-0.2767
X229.4299 Y-123.0573 Z-2.8782 I3.006 J0.249
X229.6074 Y-123.5522 Z-3.5217 I2.917 J0.7672
X232.3321 Y-125.3063 Z-4.064 I2.7395 J1.2621
X232.3587 Y-119.9025 I0.0133 J2.7019
G1 X232.8593 Y-119.9049
X232.9034 Y-119.9121
X232.943 Y-119.9326
X232.9744 Y-119.9643
X232.9944 Y-120.0041
X233.0012 Y-120.0482
X232.994 Y-120.0922
X232.9736 Y-120.1319
X232.9419 Y-120.1633
X232.902 Y-120.1833
X232.8579 Y-120.1901
X232.347 Y-120.1876
X232.3061 Y-120.1809
X232.2694 Y-120.1619
X232.2402 Y-120.1325
X232.2216 Y-120.0956
X232.2154 Y-120.0547
X232.2155 Y-120.034
X232.2222 Y-119.9932
X232.2411 Y-119.9564
X232.2705 Y-119.9273
X232.3075 Y-119.9087
X232.3484 Y-119.9024
X232.3587 Y-119.9025
G3 X235.1089 Y-118.1646 I0.0149 J3.0215
G2 X238.2824 Y-118.8804 I1.5079 J-0.7076
G1 X238.26 Y-123.4319
G3 X239.3517 Y-126.0671 I3.683 J-0.0181
G1 X239.3938 Y-126.1187
X239.4242 Y-126.178
X239.4416 Y-126.2423
X239.4451 Y-126.3088
X239.4346 Y-126.3746
X239.4106 Y-126.4367
X239.3741 Y-126.4925
X239.3267 Y-126.5393
X239.2707 Y-126.5753
X239.2083 Y-126.5987
X239.1424 Y-126.6085
X239.0759 Y-126.6043
X239.0118 Y-126.5863
X238.9528 Y-126.5553
X238.9017 Y-126.5127
G3 X236.2772 Y-125.395 I-2.6427 J-2.5653
G1 X228.9742 Y-125.359
G3 X226.3384 Y-126.4511 I-0.0182 J-3.683
G1 X226.2868 Y-126.4933
X226.2274 Y-126.5238
X226.163 Y-126.5412
X226.0964 Y-126.5447
X226.0305 Y-126.5342
X225.9683 Y-126.5101
X225.9125 Y-126.4736
X225.8656 Y-126.4262
X225.8296 Y-126.37
X225.8062 Y-126.3076
X225.7964 Y-126.2416
X225.8006 Y-126.175
X225.8186 Y-126.1108
X225.8497 Y-126.0518
X225.8924 Y-126.0006
G3 X227.011 Y-123.3751 I-2.5644 J2.6436
G1 X227.044 Y-116.6621
G3 X225.9519 Y-114.0264 I-3.683 J0.0181
G1 X225.9097 Y-113.9748
X225.8792 Y-113.9154
X225.8618 Y-113.8511
X225.8583 Y-113.7845
X225.8688 Y-113.7186
X225.8928 Y-113.6564
X225.9294 Y-113.6006
X225.9768 Y-113.5537
X226.0329 Y-113.5177
X226.0954 Y-113.4943
X226.1613 Y-113.4844
X226.2279 Y-113.4886
X226.2921 Y-113.5066
X226.3511 Y-113.5376
X226.4023 Y-113.5803
G3 X229.0268 Y-114.698 I2.6427 J2.5653
G1 X236.3288 Y-114.734
G3 X238.9646 Y-113.6419 I0.0182 J3.683
G1 X239.0163 Y-113.5996
X239.0757 Y-113.5691
X239.1401 Y-113.5517
X239.2068 Y-113.5482
X239.2728 Y-113.5587
X239.335 Y-113.5828
X239.3909 Y-113.6194
X239.4379 Y-113.6668
X239.4739 Y-113.723
X239.4974 Y-113.7856
X239.5072 Y-113.8516
X239.503 Y-113.9182
X239.485 Y-113.9825
X239.4539 Y-114.0416
X239.4111 Y-114.0929
G3 X238.293 Y-116.7179 I2.5648 J-2.6431
G1 X238.2824 Y-118.8804
G0 Z6.096
X235.0659 Y-120.9843
G1 Z-1.524 F508
G2 X234.7978 Y-120.532 Z-2.1674 I-2.719 J-1.3058
X234.4553 Y-120.1331 Z-2.8108 I-2.4509 J-1.7581
X234.0487 Y-119.7998 Z-3.4543 I-2.1084 J-2.157
X233.5904 Y-119.5421 Z-4.0977 I-1.7018 J-2.4903
X233.0944 Y-119.3679 Z-4.7411 I-1.2435 J-2.748
X232.5756 Y-119.2825 Z-5.3845 I-0.7474 J-2.9222
X232.0498 Y-119.2885 Z-6.028 I-0.2287 J-3.0076
X231.5331 Y-119.3857 Z-6.6714 I0.2971 J-3.0016
X231.0412 Y-119.5711 Z-7.3148 I0.8138 J-2.9044
X230.5889 Y-119.8392 Z-7.9582 I1.3058 J-2.719
X230.19 Y-120.1817 Z-8.6017 I1.7581 J-2.4509
X232.3321 Y-125.3063 Z-9.017 I2.157 J-2.1084
X232.3587 Y-119.9025 I0.0133 J2.7019
G1 X232.8593 Y-119.9049
X232.9034 Y-119.9121
X232.943 Y-119.9326
X232.9744 Y-119.9643
X232.9944 Y-120.0041
X233.0012 Y-120.0482
X232.994 Y-120.0922
X232.9736 Y-120.1319
X232.9419 Y-120.1633
X232.902 Y-120.1833
X232.8579 Y-120.1901
X232.347 Y-120.1876
X232.3061 Y-120.1809
X232.2694 Y-120.1619
X232.2402 Y-120.1325
X232.2216 Y-120.0956
X232.2154 Y-120.0547
X232.2155 Y-120.034
X232.2222 Y-119.9932
X232.2411 Y-119.9564
X232.2705 Y-119.9273
X232.3075 Y-119.9087
X232.3484 Y-119.9024
X232.3587 Y-119.9025
G3 X235.1089 Y-118.1646 I0.0149 J3.0215
G2 X238.2824 Y-118.8804 I1.5079 J-0.7076
G1 X238.26 Y-123.4319
G3 X239.3517 Y-126.0671 I3.683 J-0.0181
G1 X239.3938 Y-126.1187
X239.4242 Y-126.178
X239.4416 Y-126.2423
X239.4451 Y-126.3088
X239.4346 Y-126.3746
X239.4106 Y-126.4367
X239.3741 Y-126.4925
X239.3267 Y-126.5393
X239.2707 Y-126.5753
X239.2083 Y-126.5987
X239.1424 Y-126.6085
X239.0759 Y-126.6043
X239.0118 Y-126.5863
X238.9528 Y-126.5553
X238.9017 Y-126.5127
G3 X236.2772 Y-125.395 I-2.6427 J-2.5653
G1 X228.9742 Y-125.359
G3 X226.3384 Y-126.4511 I-0.0182 J-3.683
G1 X226.2868 Y-126.4933
X226.2274 Y-126.5238
X226.163 Y-126.5412
X226.0964 Y-126.5447
X226.0305 Y-126.5342
X225.9683 Y-126.5101
X225.9125 Y-126.4736
X225.8656 Y-126.4262
X225.8296 Y-126.37
X225.8062 Y-126.3076
X225.7964 Y-126.2416
X225.8006 Y-126.175
X225.8186 Y-126.1108
X225.8497 Y-126.0518
X225.8924 Y-126.0006
G3 X227.011 Y-123.3751 I-2.5644 J2.6436
G1 X227.044 Y-116.6621
G3 X225.9519 Y-114.0264 I-3.683 J0.0181
G1 X225.9097 Y-113.9748
X225.8792 Y-113.9154
X225.8618 Y-113.8511
X225.8583 Y-113.7845
X225.8688 Y-113.7186
X225.8928 Y-113.6564
X225.9294 Y-113.6006
X225.9768 Y-113.5537
X226.0329 Y-113.5177
X226.0954 Y-113.4943
X226.1613 Y-113.4844
X226.2279 Y-113.4886
X226.2921 Y-113.5066
X226.3511 Y-113.5376
X226.4023 Y-113.5803
G3 X229.0268 Y-114.698 I2.6427 J2.5653
G1 X236.3288 Y-114.734
G3 X238.9646 Y-113.6419 I0.0182 J3.683
G1 X239.0163 Y-113.5996
X239.0757 Y-113.5691
X239.1401 Y-113.5517
X239.2068 Y-113.5482
X239.2728 Y-113.5587
X239.335 Y-113.5828
X239.3909 Y-113.6194
X239.4379 Y-113.6668
X239.4739 Y-113.723
X239.4974 Y-113.7856
X239.5072 Y-113.8516
X239.503 Y-113.9182
X239.485 Y-113.9825
X239.4539 Y-114.0416
X239.4111 Y-114.0929
G3 X238.293 Y-116.7179 I2.5648 J-2.6431
G1 X238.2824 Y-118.8804
G0 Z6.096
X196.4711 Y-290.3702
G1 Z3.556 F508
G2 X195.9561 Y-290.4759 Z2.9126 I0.3465 J-2.9963
X195.4673 Y-290.6694 Z2.2692 I0.8615 J-2.8906
X195.0194 Y-290.9449 Z1.6257 I1.3504 J-2.6971
X194.6262 Y-291.294 Z0.9823 I1.7982 J-2.4216
X194.2996 Y-291.706 Z0.3389 I2.1914 J-2.0726
X194.0495 Y-292.1685 Z-0.3045 I2.518 J-1.6605
X193.8836 Y-292.6673 Z-0.948 I2.7681 J-1.1981
X193.8067 Y-293.1875 Z-1.5914 I2.9341 J-0.6992
X193.8214 Y-293.713 Z-2.2348 I3.0109 J-0.1791
X193.9271 Y-294.228 Z-2.8782 I2.9963 J0.3465
X194.1206 Y-294.7169 Z-3.5217 I2.8906 J0.8615
X196.9007 Y-296.3816 Z-4.064 I2.6971 J1.3504
G1 X196.7463 Y-296.3859
X196.6828 Y-296.3814
X196.6215 Y-296.3646
X196.5646 Y-296.3362
X196.5143 Y-296.2972
X196.4726 Y-296.2492
X196.4411 Y-296.1939
X196.421 Y-296.1336
X196.413 Y-296.0705
X195.5434 Y-264.4735
X195.5478 Y-264.41
X195.5646 Y-264.3487
X195.593 Y-264.2918
X195.632 Y-264.2415
X195.6801 Y-264.1998
X195.7353 Y-264.1683
X195.7957 Y-264.1482
X195.8588 Y-264.1402
X196.1669 Y-264.1317
X196.2303 Y-264.1362
X196.2917 Y-264.153
X196.3486 Y-264.1814
X196.3989 Y-264.2204
X196.4406 Y-264.2684
X196.4721 Y-264.3237
X196.4922 Y-264.384
X196.5002 Y-264.4471
X197.3705 Y-296.0441
X197.366 Y-296.1075
X197.3492 Y-296.1689
X197.3208 Y-296.2258
X197.2818 Y-296.276
X197.2338 Y-296.3177
X197.1785 Y-296.3492
X197.1182 Y-296.3694
X197.0551 Y-296.3773
X196.9007 Y-296.3816
G3 X194.1976 Y-297.8499 I0.0935 J-3.3944
G2 X191.248 Y-296.9768 I-1.3324 J0.9176
G1 X190.2636 Y-261.2127
G3 X189.144 Y-258.6682 I-3.6816 J-0.1013
G1 X189.0999 Y-258.6149
X189.0684 Y-258.5532
X189.051 Y-258.4862
X189.0486 Y-258.4171
X189.0614 Y-258.349
X189.0886 Y-258.2854
X189.129 Y-258.2292
X189.1807 Y-258.1831
X189.2411 Y-258.1494
X189.3075 Y-258.1297
X189.3765 Y-258.1248
X189.4449 Y-258.135
X189.5095 Y-258.16
X189.5671 Y-258.1983
G3 X192.0324 Y-259.0556 I2.3639 J2.8243
G1 X199.5834 Y-258.8476
G3 X202.1669 Y-257.687 I-0.1014 J3.6816
G1 X202.2174 Y-257.6436
X202.2758 Y-257.6116
X202.3395 Y-257.5925
X202.4059 Y-257.5872
X202.4719 Y-257.5958
X202.5347 Y-257.6181
X202.5914 Y-257.6529
X202.6396 Y-257.6989
X202.6771 Y-257.7539
X202.7023 Y-257.8155
X202.7141 Y-257.881
X202.7119 Y-257.9476
X202.6959 Y-258.0122
X202.6667 Y-258.0721
X202.6256 Y-258.1245
G3 X201.5894 Y-260.7884 I2.6454 J-2.5625
G1 X202.6534 Y-299.4174
G3 X203.834 Y-302.0196 I3.6816 J0.1014
G1 X203.8779 Y-302.0697
X203.9103 Y-302.1279
X203.9299 Y-302.1915
X203.9357 Y-302.2579
X203.9275 Y-302.324
X203.9058 Y-302.3869
X203.8713 Y-302.4439
X203.8257 Y-302.4925
X203.771 Y-302.5304
X203.7095 Y-302.5561
X203.6441 Y-302.5684
X203.5775 Y-302.5667
X203.5127 Y-302.5512
X203.4526 Y-302.5224
X203.3999 Y-302.4818
G3 X200.7566 Y-301.4654 I-2.5419 J-2.6652
G1 X193.2056 Y-301.6734
G3 X190.7917 Y-302.6647 I0.1014 J-3.6816
G1 X190.7361 Y-302.7063
X190.6729 Y-302.7347
X190.605 Y-302.7488
X190.5357 Y-302.7477
X190.4682 Y-302.7316
X190.4059 Y-302.7011
X190.3517 Y-302.6579
X190.3082 Y-302.6039
X190.2775 Y-302.5418
X190.261 Y-302.4744
X190.2596 Y-302.4051
X190.2732 Y-302.3371
X190.3014 Y-302.2738
X190.3426 Y-302.218
G3 X191.3206 Y-299.6157 I-2.7036 J2.501
G1 X191.248 Y-296.9768
G0 Z6.096
X199.4928 Y-291.9732
G1 Z-1.524 F508
G2 X199.2102 Y-291.5298 Z-2.1674 I-2.6751 J-1.3933
X198.8549 Y-291.1423 Z-2.8108 I-2.3925 J-1.8367
X198.4377 Y-290.8223 Z-3.4543 I-2.0372 J-2.2243
X197.9713 Y-290.5796 Z-4.0977 I-1.6201 J-2.5442
X197.4698 Y-290.4216 Z-4.7411 I-1.1536 J-2.7869
X196.9485 Y-290.3531 Z-5.3845 I-0.6522 J-2.9449
X196.4233 Y-290.3762 Z-6.028 I-0.1309 J-3.0134
X195.91 Y-290.4901 Z-6.6714 I0.3944 J-2.9904
X195.4243 Y-290.6914 Z-7.3148 I0.9076 J-2.8764
X194.9809 Y-290.974 Z-7.9582 I1.3933 J-2.6751
X194.5934 Y-291.3293 Z-8.6017 I1.8367 J-2.3925
X196.9007 Y-296.3816 Z-9.017 I2.2243 J-2.0373
G1 X196.7463 Y-296.3859
X196.6828 Y-296.3814
X196.6215 Y-296.3646
X196.5646 Y-296.3362
X196.5143 Y-296.2972
X196.4726 Y-296.2492
X196.4411 Y-296.1939
X196.421 Y-296.1336
X196.413 Y-296.0705
X195.5434 Y-264.4735
X195.5478 Y-264.41
X195.5646 Y-264.3487
X195.593 Y-264.2918
X195.632 Y-264.2415
X195.6801 Y-264.1998
X195.7353 Y-264.1683
X195.7957 Y-264.1482
X195.8588 Y-264.1402
X196.1669 Y-264.1317
X196.2303 Y-264.1362
X196.2917 Y-264.153
X196.3486 Y-264.1814
X196.3989 Y-264.2204
X196.4406 Y-264.2684
X196.4721 Y-264.3237
X196.4922 Y-264.384
X196.5002 Y-264.4471
X197.3705 Y-296.0441
X197.366 Y-296.1075
X197.3492 Y-296.1689
X197.3208 Y-296.2258
X197.2818 Y-296.276
X197.2338 Y-296.3177
X197.1785 Y-296.3492
X197.1182 Y-296.3694
X197.0551 Y-296.3773
X196.9007 Y-296.3816
G3 X194.1976 Y-297.8499 I0.0935 J-3.3944
G2 X191.248 Y-296.9768 I-1.3324 J0.9176
G1 X190.2636 Y-261.2127
G3 X189.144 Y-258.6682 I-3.6816 J-0.1013
G1 X189.0999 Y-258.6149
X189.0684 Y-258.5532
X189.051 Y-258.4862
X189.0486 Y-258.4171
X189.0614 Y-258.349
X189.0886 Y-258.2854
X189.129 Y-258.2292
X189.1807 Y-258.1831
X189.2411 Y-258.1494
X189.3075 Y-258.1297
X189.3765 Y-258.1248
X189.4449 Y-258.135
X189.5095 Y-258.16
X189.5671 Y-258.1983
G3 X192.0324 Y-259.0556 I2.3639 J2.8243
G1 X199.5834 Y-258.8476
G3 X202.1669 Y-257.687 I-0.1014 J3.6816
G1 X202.2174 Y-257.6436
X202.2758 Y-257.6116
X202.3395 Y-257.5925
X202.4059 Y-257.5872
X202.4719 Y-257.5958
X202.5347 Y-257.6181
X202.5914 Y-257.6529
X202.6396 Y-257.6989
X202.6771 Y-257.7539
X202.7023 Y-257.8155
X202.7141 Y-257.881
X202.7119 Y-257.9476
X202.6959 Y-258.0122
X202.6667 Y-258.0721
X202.6256 Y-258.1245
G3 X201.5894 Y-260.7884 I2.6454 J-2.5625
G1 X202.6534 Y-299.4174
G3 X203.834 Y-302.0196 I3.6816 J0.1014
G1 X203.8779 Y-302.0697
X203.9103 Y-302.1279
X203.9299 Y-302.1915
X203.9357 Y-302.2579
X203.9275 Y-302.324
X203.9058 Y-302.3869
X203.8713 Y-302.4439
X203.8257 Y-302.4925
X203.771 Y-302.5304
X203.7095 Y-302.5561
X203.6441 Y-302.5684
X203.5775 Y-302.5667
X203.5127 Y-302.5512
X203.4526 Y-302.5224
X203.3999 Y-302.4818
G3 X200.7566 Y-301.4654 I-2.5419 J-2.6652
G1 X193.2056 Y-301.6734
G3 X190.7917 Y-302.6647 I0.1014 J-3.6816
G1 X190.7361 Y-302.7063
X190.6729 Y-302.7347
X190.605 Y-302.7488
X190.5357 Y-302.7477
X190.4682 Y-302.7316
X190.4059 Y-302.7011
X190.3517 Y-302.6579
X190.3082 Y-302.6039
X190.2775 Y-302.5418
X190.261 Y-302.4744
X190.2596 Y-302.4051
X190.2732 Y-302.3371
X190.3014 Y-302.2738
X190.3426 Y-302.218
G3 X191.3206 Y-299.6157 I-2.7036 J2.501
G1 X191.248 Y-296.9768
G0 Z6.096
X15.605 Y-324.8842
G1 Z3.556 F508
G2 X15.093 Y-325.0034 Z2.9126 I0.4253 J-2.9861
X14.6094 Y-325.2097 Z2.2692 I0.9374 J-2.8669
X14.1689 Y-325.4969 Z1.6257 I1.421 J-2.6606
X13.7851 Y-325.8561 Z0.9823 I1.8614 J-2.3734
X13.4694 Y-326.2766 Z0.3389 I2.2452 J-2.0141
X13.2316 Y-326.7455 Z-0.3045 I2.5609 J-1.5936
X13.0788 Y-327.2486 Z-0.948 I2.7987 J-1.1247
X13.0157 Y-327.7706 Z-1.5914 I2.9515 J-0.6217
X13.0442 Y-328.2956 Z-2.2348 I3.0146 J-0.0997
X13.1634 Y-328.8076 Z-2.8782 I2.9861 J0.4253
X13.3697 Y-329.2912 Z-3.5217 I2.8669 J0.9374
X16.1928 Y-330.8821 Z-4.064 I2.6606 J1.421
G1 X14.8162 Y-330.9564
X14.7527 Y-330.9536
X14.691 Y-330.9384
X14.6334 Y-330.9115
X14.5822 Y-330.8738
X14.5393 Y-330.8269
X14.5065 Y-330.7725
X14.4849 Y-330.7128
X14.4753 Y-330.6499
X14.3313 Y-327.9019
X14.3342 Y-327.8383
X14.3495 Y-327.7765
X14.3765 Y-327.7189
X14.4142 Y-327.6676
X14.4612 Y-327.6247
X14.5157 Y-327.5917
X14.5755 Y-327.57
X14.6384 Y-327.5603
X39.8546 Y-326.2005
X39.9182 Y-326.2033
X39.9799 Y-326.2184
X40.0376 Y-326.2454
X40.0888 Y-326.283
X40.1318 Y-326.3299
X40.1647 Y-326.3843
X40.1864 Y-326.4441
X40.1961 Y-326.507
X40.3443 Y-329.2546
X40.3415 Y-329.3181
X40.3263 Y-329.3799
X40.2994 Y-329.4375
X40.2617 Y-329.4888
X40.2148 Y-329.5317
X40.1604 Y-329.5647
X40.1006 Y-329.5864
X40.0378 Y-329.596
X16.1928 Y-330.8821
G3 X13.8333 Y-332.436 I0.1509 J-2.7974
G2 X11.0666 Y-331.8643 I-1.3085 J0.6482
G1 X10.6868 Y-324.6175
X10.6911 Y-324.5467
X10.711 Y-324.4787
X10.7455 Y-324.4168
X10.7929 Y-324.3641
X10.8508 Y-324.3233
X10.9164 Y-324.2964
X10.9863 Y-324.2847
X41.0632 Y-322.6627
G3 X43.8105 Y-321.1959 I-0.1983 J3.6777
G1 X43.8559 Y-321.1471
X43.9104 Y-321.1089
X43.9718 Y-321.0829
X44.0373 Y-321.0704
X44.1039 Y-321.0719
X44.1688 Y-321.0872
X44.229 Y-321.1158
X44.2819 Y-321.1563
X44.3251 Y-321.207
X44.3568 Y-321.2657
X44.3755 Y-321.3296
X44.3804 Y-321.3961
X44.3713 Y-321.4621
X44.3486 Y-321.5248
X44.3133 Y-321.5813
G3 X43.5361 Y-324.0494 I2.9005 J-2.2697
G1 X43.9292 Y-331.3374
G3 X44.9676 Y-333.7077 I3.6777 J0.1984
G1 X45.0088 Y-333.7602
X45.0382 Y-333.8201
X45.0544 Y-333.8848
X45.0566 Y-333.9515
X45.0449 Y-334.0172
X45.0197 Y-334.079
X44.9821 Y-334.1342
X44.9338 Y-334.1802
X44.877 Y-334.2152
X44.8141 Y-334.2375
X44.7479 Y-334.2461
X44.6814 Y-334.2407
X44.6175 Y-334.2215
X44.559 Y-334.1893
X44.5085 Y-334.1456
G3 X41.6199 Y-332.9833 I-2.6902 J-2.5154
G1 X11.5284 Y-334.6063
X11.4575 Y-334.6021
X11.3892 Y-334.5823
X11.3271 Y-334.5477
X11.2742 Y-334.5001
X11.2332 Y-334.442
X11.2063 Y-334.3763
X11.1946 Y-334.3061
X11.0666 Y-331.8643
G0 Z6.096
X18.6678 Y-326.4069
G1 Z-1.524 F508
G2 X18.3736 Y-325.9712 Z-2.1674 I-2.6375 J-1.4633
X18.0083 Y-325.5931 Z-2.8108 I-2.3433 J-1.8991
X17.5828 Y-325.2842 Z-3.4543 I-1.978 J-2.2772
X17.1101 Y-325.0539 Z-4.0977 I-1.5525 J-2.586
X16.6047 Y-324.9092 Z-4.7411 I-1.0798 J-2.8163
X16.0818 Y-324.8545 Z-5.3845 I-0.5744 J-2.9611
X15.5573 Y-324.8913 Z-6.028 I-0.0515 J-3.0158
X15.0472 Y-325.0187 Z-6.6714 I0.473 J-2.9789
X14.567 Y-325.2328 Z-7.3148 I0.9831 J-2.8515
X14.1312 Y-325.5269 Z-7.9582 I1.4633 J-2.6375
X13.7531 Y-325.8923 Z-8.6017 I1.8991 J-2.3433
X16.1928 Y-330.8821 Z-9.017 I2.2772 J-1.9779
G1 X14.8162 Y-330.9564
X14.7527 Y-330.9536
X14.691 Y-330.9384
X14.6334 Y-330.9115
X14.5822 Y-330.8738
X14.5393 Y-330.8269
X14.5065 Y-330.7725
X14.4849 Y-330.7128
X14.4753 Y-330.6499
X14.3313 Y-327.9019
X14.3342 Y-327.8383
X14.3495 Y-327.7765
X14.3765 Y-327.7189
X14.4142 Y-327.6676
X14.4612 Y-327.6247
X14.5157 Y-327.5917
X14.5755 Y-327.57
X14.6384 Y-327.5603
X39.8546 Y-326.2005
X39.9182 Y-326.2033
X39.9799 Y-326.2184
X40.0376 Y-326.2454
X40.0888 Y-326.283
X40.1318 Y-326.3299
X40.1647 Y-326.3843
X40.1864 Y-326.4441
X40.1961 Y-326.507
X40.3443 Y-329.2546
X40.3415 Y-329.3181
X40.3263 Y-329.3799
X40.2994 Y-329.4375
X40.2617 Y-329.4888
X40.2148 Y-329.5317
X40.1604 Y-329.5647
X40.1006 Y-329.5864
X40.0378 Y-329.596
X16.1928 Y-330.8821
G3 X13.8333 Y-332.436 I0.1509 J-2.7974
G2 X11.0666 Y-331.8643 I-1.3085 J0.6482
G1 X10.6868 Y-324.6175
X10.6911 Y-324.5467
X10.711 Y-324.4787
X10.7455 Y-324.4168
X10.7929 Y-324.3641
X10.8508 Y-324.3233
X10.9164 Y-324.2964
X10.9863 Y-324.2847
X41.0632 Y-322.6627
G3 X43.8105 Y-321.1959 I-0.1983 J3.6777
G1 X43.8559 Y-321.1471
X43.9104 Y-321.1089
X43.9718 Y-321.0829
X44.0373 Y-321.0704
X44.1039 Y-321.0719
X44.1688 Y-321.0872
X44.229 Y-321.1158
X44.2819 Y-321.1563
X44.3251 Y-321.207
X44.3568 Y-321.2657
X44.3755 Y-321.3296
X44.3804 Y-321.3961
X44.3713 Y-321.4621
X44.3486 Y-321.5248
X44.3133 Y-321.5813
G3 X43.5361 Y-324.0494 I2.9005 J-2.2697
G1 X43.9292 Y-331.3374
G3 X44.9676 Y-333.7077 I3.6777 J0.1984
G1 X45.0088 Y-333.7602
X45.0382 Y-333.8201
X45.0544 Y-333.8848
X45.0566 Y-333.9515
X45.0449 Y-334.0172
X45.0197 Y-334.079
X44.9821 Y-334.1342
X44.9338 Y-334.1802
X44.877 Y-334.2152
X44.8141 Y-334.2375
X44.7479 Y-334.2461
X44.6814 Y-334.2407
X44.6175 Y-334.2215
X44.559 Y-334.1893
X44.5085 Y-334.1456
G3 X41.6199 Y-332.9833 I-2.6902 J-2.5154
G1 X11.5284 Y-334.6063
X11.4575 Y-334.6021
X11.3892 Y-334.5823
X11.3271 Y-334.5477
X11.2742 Y-334.5001
X11.2332 Y-334.442
X11.2063 Y-334.3763
X11.1946 Y-334.3061
X11.0666 Y-331.8643
G0 Z6.096
X486.9029 Y-268.4282
G1 Z3.556 F508
G2 X487.422 Y-268.3449 Z2.9126 I-0.2169 J3.0084
X487.9188 Y-268.1726 Z2.2692 I-0.736 J2.9251
X488.3781 Y-267.9167 Z1.6257 I-1.2328 J2.7528
X488.7859 Y-267.585 Z0.9823 I-1.692 J2.4969
X489.13 Y-267.1874 Z0.3389 I-2.0999 J2.1652
X489.3998 Y-266.7362 Z-0.3045 I-2.444 J1.7676
X489.5872 Y-266.2449 Z-0.948 I-2.7138 J1.3164
X489.6864 Y-265.7286 Z-1.5914 I-2.9012 J0.8251
X489.6945 Y-265.2029 Z-2.2348 I-3.0004 J0.3088
X489.6111 Y-264.6838 Z-2.8782 I-3.0085 J-0.2169
X489.4388 Y-264.187 Z-3.5217 I-2.9251 J-0.736
X486.7331 Y-262.4039 Z-4.064 I-2.7528 J-1.2328
G1 X486.8877 Y-262.4063
X486.9509 Y-262.4135
X487.0114 Y-262.4329
X487.0671 Y-262.4638
X487.1156 Y-262.5049
X487.1552 Y-262.5547
X487.1843 Y-262.6113
X487.2018 Y-262.6724
X487.207 Y-262.7358
X486.7142 Y-294.3407
X486.707 Y-294.4039
X486.6876 Y-294.4644
X486.6567 Y-294.5201
X486.6156 Y-294.5686
X486.5658 Y-294.6082
X486.5092 Y-294.6373
X486.4481 Y-294.6548
X486.3847 Y-294.6601
X486.076 Y-294.6553
X486.0128 Y-294.6481
X485.9523 Y-294.6287
X485.8966 Y-294.5978
X485.8481 Y-294.5567
X485.8085 Y-294.5069
X485.7794 Y-294.4504
X485.7619 Y-294.3892
X485.7567 Y-294.3258
X486.2491 Y-262.7208
X486.2563 Y-262.6576
X486.2757 Y-262.5971
X486.3066 Y-262.5415
X486.3477 Y-262.4929
X486.3975 Y-262.4533
X486.454 Y-262.4242
X486.5152 Y-262.4067
X486.5786 Y-262.4015
X486.7331 Y-262.4039
G3 X489.4971 Y-261.0538 I0.0531 J3.3958
G2 X492.4063 Y-262.0536 I1.2914 J-0.9745
G1 X491.8484 Y-297.8256
G3 X492.8568 Y-300.4154 I3.6826 J-0.0574
G1 X492.8986 Y-300.4706
X492.9275 Y-300.5336
X492.9419 Y-300.6014
X492.9413 Y-300.6707
X492.9256 Y-300.7382
X492.8956 Y-300.8006
X492.8528 Y-300.8551
X492.7991 Y-300.8989
X492.7372 Y-300.93
X492.67 Y-300.9469
X492.6008 Y-300.9488
X492.5328 Y-300.9356
X492.4692 Y-300.9079
X492.4133 Y-300.8671
G3 X489.987 Y-299.9044 I-2.4833 J-2.7199
G1 X482.4341 Y-299.7874
G3 X479.8037 Y-300.8351 I-0.057 J-3.6826
G1 X479.7515 Y-300.8763
X479.6918 Y-300.9058
X479.6272 Y-300.9221
X479.5607 Y-300.9245
X479.4951 Y-300.913
X479.4334 Y-300.8881
X479.3782 Y-300.8508
X479.332 Y-300.8028
X479.2969 Y-300.7462
X479.2744 Y-300.6836
X479.2655 Y-300.6176
X479.2706 Y-300.5512
X479.2894 Y-300.4873
X479.3211 Y-300.4288
X479.3644 Y-300.3782
G3 X480.5146 Y-297.7614 I-2.5324 J2.6742
G1 X481.1165 Y-259.1224
G3 X480.0488 Y-256.4713 I-3.6826 J0.0574
G1 X480.0072 Y-256.4194
X479.9773 Y-256.36
X479.9605 Y-256.2956
X479.9575 Y-256.2291
X479.9685 Y-256.1634
X479.993 Y-256.1015
X480.0298 Y-256.0461
X480.0774 Y-255.9996
X480.1337 Y-255.9641
X480.1962 Y-255.9411
X480.2621 Y-255.9316
X480.3285 Y-255.9362
X480.3924 Y-255.9545
X480.4512 Y-255.9858
X480.5021 Y-256.0287
G3 X483.0995 Y-257.1585 I2.6549 J2.5527
G1 X490.6525 Y-257.2766
G3 X493.1073 Y-256.39 I0.0575 J3.6826
G1 X493.1645 Y-256.351
X493.2288 Y-256.3253
X493.2972 Y-256.3142
X493.3663 Y-256.3182
X493.4329 Y-256.3372
X493.4938 Y-256.3702
X493.5461 Y-256.4157
X493.5872 Y-256.4715
X493.6152 Y-256.5348
X493.6288 Y-256.6027
X493.6272 Y-256.672
X493.6107 Y-256.7392
X493.5799 Y-256.8013
X493.5363 Y-256.8552
G3 X492.4474 Y-259.4126 I2.5937 J-2.6148
G1 X492.4063 Y-262.0536
G0 Z6.096
X483.9532 Y-266.6964
G1 Z-1.524 F508
G2 X484.2164 Y-267.1516 Z-2.1674 I2.7328 J1.2766
X484.5547 Y-267.5541 Z-2.8108 I2.4696 J1.7318
X484.9577 Y-267.8918 Z-3.4543 I2.1313 J2.1343
X485.4132 Y-268.1543 Z-4.0977 I1.7283 J2.472
X485.9074 Y-268.3338 Z-4.7411 I1.2728 J2.7345
X486.4252 Y-268.4248 Z-5.3845 I0.7786 J2.914
X486.951 Y-268.4244 Z-6.028 I0.2608 J3.005
X487.4687 Y-268.3327 Z-6.6714 I-0.265 J3.0046
X487.9626 Y-268.1526 Z-7.3148 I-0.7827 J2.9129
X488.4178 Y-267.8894 Z-7.9582 I-1.2766 J2.7328
X488.8203 Y-267.5511 Z-8.6017 I-1.7318 J2.4696
X486.7331 Y-262.4039 Z-9.017 I-2.1343 J2.1313
G1 X486.8877 Y-262.4063
X486.9509 Y-262.4135
X487.0114 Y-262.4329
X487.0671 Y-262.4638
X487.1156 Y-262.5049
X487.1552 Y-262.5547
X487.1843 Y-262.6113
X487.2018 Y-262.6724
X487.207 Y-262.7358
X486.7142 Y-294.3407
X486.707 Y-294.4039
X486.6876 Y-294.4644
X486.6567 Y-294.5201
X486.6156 Y-294.5686
X486.5658 Y-294.6082
X486.5092 Y-294.6373
X486.4481 Y-294.6548
X486.3847 Y-294.6601
X486.076 Y-294.6553
X486.0128 Y-294.6481
X485.9523 Y-294.6287
X485.8966 Y-294.5978
X485.8481 Y-294.5567
X485.8085 Y-294.5069
X485.7794 Y-294.4504
X485.7619 Y-294.3892
X485.7567 Y-294.3258
X486.2491 Y-262.7208
X486.2563 Y-262.6576
X486.2757 Y-262.5971
X486.3066 Y-262.5415
X486.3477 Y-262.4929
X486.3975 Y-262.4533
X486.454 Y-262.4242
X486.5152 Y-262.4067
X486.5786 Y-262.4015
X486.7331 Y-262.4039
G3 X489.4971 Y-261.0538 I0.0531 J3.3958
G2 X492.4063 Y-262.0536 I1.2914 J-0.9745
G1 X491.8484 Y-297.8256
G3 X492.8568 Y-300.4154 I3.6826 J-0.0574
G1 X492.8986 Y-300.4706
X492.9275 Y-300.5336
X492.9419 Y-300.6014
X492.9413 Y-300.6707
X492.9256 Y-300.7382
X492.8956 Y-300.8006
X492.8528 Y-300.8551
X492.7991 Y-300.8989
X492.7372 Y-300.93
X492.67 Y-300.9469
X492.6008 Y-300.9488
X492.5328 Y-300.9356
X492.4692 Y-300.9079
X492.4133 Y-300.8671
G3 X489.987 Y-299.9044 I-2.4833 J-2.7199
G1 X482.4341 Y-299.7874
G3 X479.8037 Y-300.8351 I-0.057 J-3.6826
G1 X479.7515 Y-300.8763
X479.6918 Y-300.9058
X479.6272 Y-300.9221
X479.5607 Y-300.9245
X479.4951 Y-300.913
X479.4334 Y-300.8881
X479.3782 Y-300.8508
X479.332 Y-300.8028
X479.2969 Y-300.7462
X479.2744 Y-300.6836
X479.2655 Y-300.6176
X479.2706 Y-300.5512
X479.2894 Y-300.4873
X479.3211 Y-300.4288
X479.3644 Y-300.3782
G3 X480.5146 Y-297.7614 I-2.5324 J2.6742
G1 X481.1165 Y-259.1224
G3 X480.0488 Y-256.4713 I-3.6826 J0.0574
G1 X480.0072 Y-256.4194
X479.9773 Y-256.36
X479.9605 Y-256.2956
X479.9575 Y-256.2291
X479.9685 Y-256.1634
X479.993 Y-256.1015
X480.0298 Y-256.0461
X480.0774 Y-255.9996
X480.1337 Y-255.9641
X480.1962 Y-255.9411
X480.2621 Y-255.9316
X480.3285 Y-255.9362
X480.3924 Y-255.9545
X480.4512 Y-255.9858
X480.5021 Y-256.0287
G3 X483.0995 Y-257.1585 I2.6549 J2.5527
G1 X490.6525 Y-257.2766
G3 X493.1073 Y-256.39 I0.0575 J3.6826
G1 X493.1645 Y-256.351
X493.2288 Y-256.3253
X493.2972 Y-256.3142
X493.3663 Y-256.3182
X493.4329 Y-256.3372
X493.4938 Y-256.3702
X493.5461 Y-256.4157
X493.5872 Y-256.4715
X493.6152 Y-256.5348
X493.6288 Y-256.6027
X493.6272 Y-256.672
X493.6107 Y-256.7392
X493.5799 Y-256.8013
X493.5363 Y-256.8552
G3 X492.4474 Y-259.4126 I2.5937 J-2.6148
G1 X492.4063 Y-262.0536
G0 Z6.096
X648.1503 Y-290.1711
G1 Z3.556 F508
G2 X648.6758 Y-290.1534 Z2.9126 I0.1615 J3.0119
X649.1902 Y-290.0447 Z2.2692 I-0.364 J2.9942
X649.6779 Y-289.8484 Z1.6257 I-0.8784 J2.8855
X650.1241 Y-289.5703 Z0.9823 I-1.3661 J2.6891
X650.5153 Y-289.219 Z0.3389 I-1.8123 J2.4111
X650.8395 Y-288.8051 Z-0.3045 I-2.2035 J2.0597
X651.0869 Y-288.3411 Z-0.948 I-2.5277 J1.6458
X651.25 Y-287.8413 Z-1.5914 I-2.7751 J1.1819
X651.3238 Y-287.3207 Z-2.2348 I-2.9381 J0.6821
X651.3061 Y-286.7953 Z-2.8782 I-3.0119 J0.1615
X651.1974 Y-286.2809 Z-3.5216 I-2.9942 J-0.364
X648.7363 Y-284.173 Z-4.064 I-2.8855 J-0.8784
G1 X672.3775 Y-287.5327
X672.4394 Y-287.5478
X672.4971 Y-287.5747
X672.5485 Y-287.6123
X672.5915 Y-287.6592
X672.6247 Y-287.7135
X672.6465 Y-287.7733
X672.6563 Y-287.8362
X672.6537 Y-287.8998
X672.2708 Y-290.6241
X672.2558 Y-290.6859
X672.2291 Y-290.7435
X672.1916 Y-290.7948
X672.1448 Y-290.8378
X672.0905 Y-290.8709
X672.0308 Y-290.8927
X671.968 Y-290.9024
X671.9045 Y-290.8997
X646.8962 Y-287.3457
X646.8344 Y-287.3306
X646.7767 Y-287.3038
X646.7254 Y-287.2662
X646.6824 Y-287.2193
X646.6493 Y-287.165
X646.6275 Y-287.1052
X646.6178 Y-287.0424
X646.6205 Y-286.9788
X647.0073 Y-284.255
X647.0224 Y-284.1932
X647.0492 Y-284.1355
X647.0868 Y-284.0842
X647.1337 Y-284.0412
X647.188 Y-284.0082
X647.2478 Y-283.9864
X647.3106 Y-283.9767
X647.3741 Y-283.9794
X648.7363 Y-284.173
G3 X651.5545 Y-282.8226 I0.3963 J2.7889
G2 X654.3728 Y-281.4722 I2.4219 J-1.4385
G1 X676.2998 Y-284.5883
X676.3686 Y-284.606
X676.4317 Y-284.6384
X676.4861 Y-284.6842
X676.5288 Y-284.7409
X676.5579 Y-284.8056
X676.5718 Y-284.8753
X676.5699 Y-284.9463
X675.2198 Y-294.5514
X675.2053 Y-294.6119
X675.1792 Y-294.6685
X675.1425 Y-294.7188
X675.0967 Y-294.761
X675.0436 Y-294.7934
X674.9851 Y-294.8148
X674.9236 Y-294.8243
X674.8614 Y-294.8217
X645.0252 Y-290.5816
G3 X642.0464 Y-291.4875 I-0.5182 J-3.6464
G1 X641.9925 Y-291.5265
X641.9316 Y-291.5534
X641.8664 Y-291.567
X641.7998 Y-291.5666
X641.7347 Y-291.5522
X641.6742 Y-291.5246
X641.6207 Y-291.485
X641.5767 Y-291.435
X641.5441 Y-291.3769
X641.5244 Y-291.3133
X641.5185 Y-291.247
X641.5265 Y-291.1809
X641.5482 Y-291.1179
X641.5826 Y-291.0609
X641.6282 Y-291.0123
G3 X642.8684 Y-288.7418 I-2.4062 J2.7883
G1 X643.8944 Y-281.5168
G3 X643.3353 Y-278.9908 I-3.6464 J0.5178
G1 X643.305 Y-278.9314
X643.2879 Y-278.8669
X643.2845 Y-278.8003
X643.2952 Y-278.7345
X643.3195 Y-278.6723
X643.3562 Y-278.6166
X643.4037 Y-278.5698
X643.46 Y-278.534
X643.5225 Y-278.5108
X643.5885 Y-278.5011
X643.6551 Y-278.5055
X643.7192 Y-278.5237
X643.7782 Y-278.5549
X643.8293 Y-278.5978
X643.8703 Y-278.6504
G3 X646.4788 Y-280.3504 I3.1267 J1.9464
G1 X654.3728 Y-281.4722
G0 Z6.096
X645.4407 Y-288.0836
G1 Z-1.524 F508
G2 X645.6449 Y-288.5681 Z-2.1674 I2.8711 J0.9244
X645.93 Y-289.0098 Z-2.8108 I2.667 J1.4089
X646.2876 Y-289.3953 Z-3.4543 I2.3818 J1.8506
X646.7066 Y-289.7129 Z-4.0977 I2.0243 J2.2361
X647.1744 Y-289.9528 Z-4.7411 I1.6052 J2.5536
X647.6768 Y-290.1079 Z-5.3845 I1.1374 J2.7936
X648.1985 Y-290.1734 Z-6.028 I0.635 J2.9487
X648.7236 Y-290.1473 Z-6.6714 I0.1133 J3.0141
X649.2362 Y-290.0304 Z-7.3148 I-0.4118 J2.988
X649.7207 Y-289.8262 Z-7.9582 I-0.9244 J2.8711
X650.1625 Y-289.5411 Z-8.6017 I-1.4089 J2.667
X648.7363 Y-284.173 Z-9.017 I-1.8506 J2.3818
G1 X672.3775 Y-287.5327
X672.4394 Y-287.5478
X672.4971 Y-287.5747
X672.5485 Y-287.6123
X672.5915 Y-287.6592
X672.6247 Y-287.7135
X672.6465 Y-287.7733
X672.6563 Y-287.8362
X672.6537 Y-287.8998
X672.2708 Y-290.6241
X672.2558 Y-290.6859
X672.2291 Y-290.7435
X672.1916 Y-290.7948
X672.1448 Y-290.8378
X672.0905 Y-290.8709
X672.0308 Y-290.8927
X671.968 Y-290.9024
X671.9045 Y-290.8997
X646.8962 Y-287.3457
X646.8344 Y-287.3306
X646.7767 Y-287.3038
X646.7254 Y-287.2662
X646.6824 Y-287.2193
X646.6493 Y-287.165
X646.6275 Y-287.1052
X646.6178 Y-287.0424
X646.6205 Y-286.9788
X647.0073 Y-284.255
X647.0224 Y-284.1932
X647.0492 Y-284.1355
X647.0868 Y-284.0842
X647.1337 Y-284.0412
X647.188 Y-284.0082
X647.2478 Y-283.9864
X647.3106 Y-283.9767
X647.3741 Y-283.9794
X648.7363 Y-284.173
G3 X651.5545 Y-282.8226 I0.3963 J2.7889
G2 X654.3728 Y-281.4722 I2.4219 J-1.4385
G1 X676.2998 Y-284.5883
X676.3686 Y-284.606
X676.4317 Y-284.6384
X676.4861 Y-284.6842
X676.5288 Y-284.7409
X676.5579 Y-284.8056
X676.5718 Y-284.8753
X676.5699 Y-284.9463
X675.2198 Y-294.5514
X675.2053 Y-294.6119
X675.1792 Y-294.6685
X675.1425 Y-294.7188
X675.0967 Y-294.761
X675.0436 Y-294.7934
X674.9851 Y-294.8148
X674.9236 Y-294.8243
X674.8614 Y-294.8217
X645.0252 Y-290.5816
G3 X642.0464 Y-291.4875 I-0.5182 J-3.6464
G1 X641.9925 Y-291.5265
X641.9316 Y-291.5534
X641.8664 Y-291.567
X641.7998 Y-291.5666
X641.7347 Y-291.5522
X641.6742 Y-291.5246
X641.6207 Y-291.485
X641.5767 Y-291.435
X641.5441 Y-291.3769
X641.5244 Y-291.3133
X641.5185 Y-291.247
X641.5265 Y-291.1809
X641.5482 Y-291.1179
X641.5826 Y-291.0609
X641.6282 Y-291.0123
G3 X642.8684 Y-288.7418 I-2.4062 J2.7883
G1 X643.8944 Y-281.5168
G3 X643.3353 Y-278.9908 I-3.6464 J0.5178
G1 X643.305 Y-278.9314
X643.2879 Y-278.8669
X643.2845 Y-278.8003
X643.2952 Y-278.7345
X643.3195 Y-278.6723
X643.3562 Y-278.6166
X643.4037 Y-278.5698
X643.46 Y-278.534
X643.5225 Y-278.5108
X643.5885 Y-278.5011
X643.6551 Y-278.5055
X643.7192 Y-278.5237
X643.7782 Y-278.5549
X643.8293 Y-278.5978
X643.8703 Y-278.6504
G3 X646.4788 Y-280.3504 I3.1267 J1.9464
G1 X654.3728 Y-281.4722
G0 Z6.096
X762.5381 Y-332.9635
G1 Z3.556 F508
G2 X762.0166 Y-333.0304 Z2.9126 I0.1218 J-3.0138
X761.5147 Y-333.1869 Z2.2692 I0.6433 J-2.9468
X761.0475 Y-333.4282 Z1.6257 I1.1452 J-2.7904
X760.6294 Y-333.7469 Z0.9823 I1.6124 J-2.5491
X760.2729 Y-334.1334 Z0.3389 I2.0305 J-2.2304
X759.989 Y-334.5759 Z-0.3045 I2.387 J-1.8439
X759.7862 Y-335.061 Z-0.948 I2.6709 J-1.4014
X759.6707 Y-335.5739 Z-1.5914 I2.8737 J-0.9163
X759.6461 Y-336.0991 Z-2.2348 I2.9892 J-0.4034
X759.7131 Y-336.6206 Z-2.8782 I3.0138 J0.1218
X759.8695 Y-337.1225 Z-3.5217 I2.9469 J0.6433
X762.5176 Y-338.9902 Z-4.064 I2.7904 J1.1453
X762.7724 Y-333.5953 I0.1274 J2.6974
G1 X763.9802 Y-333.6523
X764.0239 Y-333.6622
X764.0615 Y-333.6864
X764.0886 Y-333.7219
X764.1019 Y-333.7646
X764.0998 Y-333.8093
X764.0825 Y-333.8506
X764.0522 Y-333.8835
X764.0124 Y-333.904
X763.9681 Y-333.9097
X762.7293 Y-333.8513
X762.6922 Y-333.8421
X762.6615 Y-333.8194
X762.6418 Y-333.7866
X762.6361 Y-333.7489
X762.639 Y-333.687
X762.6482 Y-333.6499
X762.6709 Y-333.6192
X762.7037 Y-333.5995
X762.7415 Y-333.5938
X762.7724 Y-333.5953
G3 X765.8771 Y-331.6469 I0.1514 J3.2065
G2 X769.4502 Y-332.4644 I1.7131 J-0.7298
G1 X769.2151 Y-337.4495
G3 X770.1301 Y-340.0573 I3.6789 J-0.1735
G1 X770.1707 Y-340.1153
X770.1974 Y-340.1809
X770.2088 Y-340.2508
X770.2044 Y-340.3215
X770.1845 Y-340.3895
X770.1499 Y-340.4513
X770.1025 Y-340.5039
X770.0446 Y-340.5447
X769.979 Y-340.5716
X769.9092 Y-340.5832
X769.8385 Y-340.5791
X769.7705 Y-340.5593
X769.7085 Y-340.5249
X769.6558 Y-340.4777
G3 X767.0804 Y-339.2501 I-2.7488 J-2.4513
G1 X759.1034 Y-338.8741
G3 X756.4208 Y-339.8569 I-0.1734 J-3.6789
G1 X756.367 Y-339.8973
X756.306 Y-339.9253
X756.2403 Y-339.9399
X756.1731 Y-339.9402
X756.1073 Y-339.9264
X756.0459 Y-339.899
X755.9917 Y-339.8593
X755.9471 Y-339.809
X755.914 Y-339.7504
X755.8941 Y-339.6862
X755.8882 Y-339.6192
X755.8966 Y-339.5525
X755.9188 Y-339.489
X755.9539 Y-339.4317
X756.0004 Y-339.3831
G3 X757.3009 Y-336.7448 I-2.3784 J2.8121
G1 X757.6099 Y-330.2018
G3 X756.6949 Y-327.5938 I-3.6789 J0.1737
G1 X756.6549 Y-327.5368
X756.6283 Y-327.4725
X756.6165 Y-327.4039
X756.6199 Y-327.3344
X756.6384 Y-327.2673
X756.6711 Y-327.2059
X756.7165 Y-327.1531
X756.7723 Y-327.1115
X756.8358 Y-327.0831
X756.904 Y-327.0693
X756.9736 Y-327.0707
X757.0412 Y-327.0873
X757.1035 Y-327.1182
X757.1576 Y-327.162
G3 X759.6033 Y-328.2519 I2.6194 J2.5891
G1 X767.5862 Y-328.6289
G3 X770.1947 Y-327.7134 I0.1738 J3.6789
G1 X770.2517 Y-327.6734
X770.3161 Y-327.6468
X770.3848 Y-327.6349
X770.4543 Y-327.6383
X770.5215 Y-327.6568
X770.583 Y-327.6896
X770.6358 Y-327.735
X770.6775 Y-327.7908
X770.7059 Y-327.8544
X770.7198 Y-327.9227
X770.7184 Y-327.9924
X770.7018 Y-328.06
X770.6708 Y-328.1224
X770.627 Y-328.1766
G3 X769.5371 Y-330.6225 I2.5891 J-2.6194
G1 X769.4502 Y-332.4644
G0 Z6.096
X765.4316 Y-334.7875
G1 Z-1.524 F508
G2 X765.1829 Y-334.3243 Z-2.1674 I-2.7717 J-1.1897
X764.8575 Y-333.9113 Z-2.8108 I-2.523 J-1.653
X764.4654 Y-333.5611 Z-3.4543 I-2.1976 J-2.066
X764.0184 Y-333.2843 Z-4.0977 I-1.8055 J-2.4162
X763.5301 Y-333.0893 Z-4.7411 I-1.3585 J-2.693
X763.0154 Y-332.982 Z-5.3845 I-0.8702 J-2.888
X762.4899 Y-332.9658 Z-6.028 I-0.3555 J-2.9952
X761.9695 Y-333.0411 Z-6.6714 I0.17 J-3.0115
X761.4702 Y-333.2056 Z-7.3148 I0.6904 J-2.9362
X761.0069 Y-333.4543 Z-7.9582 I1.1897 J-2.7717
X760.5939 Y-333.7796 Z-8.6017 I1.653 J-2.523
X762.5176 Y-338.9902 Z-9.017 I2.066 J-2.1976
X762.7724 Y-333.5953 I0.1274 J2.6974
G1 X763.9802 Y-333.6523
X764.0239 Y-333.6622
X764.0615 Y-333.6864
X764.0886 Y-333.7219
X764.1019 Y-333.7646
X764.0998 Y-333.8093
X764.0825 Y-333.8506
X764.0522 Y-333.8835
X764.0124 Y-333.904
X763.9681 Y-333.9097
X762.7293 Y-333.8513
X762.6922 Y-333.8421
X762.6615 Y-333.8194
X762.6418 Y-333.7866
X762.6361 Y-333.7489
X762.639 Y-333.687
X762.6482 Y-333.6499
X762.6709 Y-333.6192
X762.7037 Y-333.5995
X762.7415 Y-333.5938
X762.7724 Y-333.5953
G3 X765.8771 Y-331.6469 I0.1514 J3.2065
G2 X769.4502 Y-332.4644 I1.7131 J-0.7298
G1 X769.2151 Y-337.4495
G3 X770.1301 Y-340.0573 I3.6789 J-0.1735
G1 X770.1707 Y-340.1153
X770.1974 Y-340.1809
X770.2088 Y-340.2508
X770.2044 Y-340.3215
X770.1845 Y-340.3895
X770.1499 Y-340.4513
X770.1025 Y-340.5039
X770.0446 Y-340.5447
X769.979 Y-340.5716
X769.9092 Y-340.5832
X769.8385 Y-340.5791
X769.7705 Y-340.5593
X769.7085 Y-340.5249
X769.6558 Y-340.4777
G3 X767.0804 Y-339.2501 I-2.7488 J-2.4513
G1 X759.1034 Y-338.8741
G3 X756.4208 Y-339.8569 I-0.1734 J-3.6789
G1 X756.367 Y-339.8973
X756.306 Y-339.9253
X756.2403 Y-339.9399
X756.1731 Y-339.9402
X756.1073 Y-339.9264
X756.0459 Y-339.899
X755.9917 Y-339.8593
X755.9471 Y-339.809
X755.914 Y-339.7504
X755.8941 Y-339.6862
X755.8882 Y-339.6192
X755.8966 Y-339.5525
X755.9188 Y-339.489
X755.9539 Y-339.4317
X756.0004 Y-339.3831
G3 X757.3009 Y-336.7448 I-2.3784 J2.8121
G1 X757.6099 Y-330.2018
G3 X756.6949 Y-327.5938 I-3.6789 J0.1737
G1 X756.6549 Y-327.5368
X756.6283 Y-327.4725
X756.6165 Y-327.4039
X756.6199 Y-327.3344
X756.6384 Y-327.2673
X756.6711 Y-327.2059
X756.7165 Y-327.1531
X756.7723 Y-327.1115
X756.8358 Y-327.0831
X756.904 Y-327.0693
X756.9736 Y-327.0707
X757.0412 Y-327.0873
X757.1035 Y-327.1182
X757.1576 Y-327.162
G3 X759.6033 Y-328.2519 I2.6194 J2.5891
G1 X767.5862 Y-328.6289
G3 X770.1947 Y-327.7134 I0.1738 J3.6789
G1 X770.2517 Y-327.6734
X770.3161 Y-327.6468
X770.3848 Y-327.6349
X770.4543 Y-327.6383
X770.5215 Y-327.6568
X770.583 Y-327.6896
X770.6358 Y-327.735
X770.6775 Y-327.7908
X770.7059 Y-327.8544
X770.7198 Y-327.9227
X770.7184 Y-327.9924
X770.7018 Y-328.06
X770.6708 Y-328.1224
X770.627 Y-328.1766
G3 X769.5371 Y-330.6225 I2.5891 J-2.6194
G1 X769.4502 Y-332.4644
G0 Z6.096
X787.5867 Y-279.1104
G1 Z3.556 F508
G2 X787.0692 Y-279.2029 Z2.9126 I0.2695 J-3.0042
X786.5755 Y-279.3838 Z2.2692 I0.787 J-2.9117
X786.1207 Y-279.6477 Z1.6257 I1.2807 J-2.7308
X785.7187 Y-279.9865 Z0.9823 I1.7355 J-2.467
X785.3817 Y-280.39 Z0.3389 I2.1375 J-2.1281
X785.1198 Y-280.8459 Z-0.3045 I2.4745 J-1.7246
X784.941 Y-281.3404 Z-0.948 I2.7364 J-1.2687
X784.8509 Y-281.8583 Z-1.5914 I2.9152 J-0.7743
X784.852 Y-282.3841 Z-2.2348 I3.0053 J-0.2563
X784.9445 Y-282.9017 Z-2.8782 I3.0042 J0.2695
X785.1254 Y-283.3953 Z-3.5217 I2.9117 J0.787
X787.8618 Y-285.1309 Z-4.064 I2.7308 J1.2807
X787.8517 Y-279.7307 I-0.0051 J2.7001
G1 X869.7322 Y-279.5783
X869.7324
X869.771 Y-279.5844
X869.8058 Y-279.6022
X869.8335 Y-279.6298
X869.8513 Y-279.6646
X869.8575 Y-279.7032
Y-279.7034
X869.8514 Y-279.742
X869.8336 Y-279.7769
X869.806 Y-279.8045
X869.7712 Y-279.8223
X869.7326 Y-279.8285
X787.8246 Y-279.9818
X787.8244
X787.787 Y-279.9744
X787.7552 Y-279.9532
X787.734 Y-279.9215
X787.7265 Y-279.8841
X787.7264 Y-279.8289
Y-279.8287
X787.7338 Y-279.7913
X787.755 Y-279.7595
X787.7867 Y-279.7383
X787.8241 Y-279.7308
X787.8517 Y-279.7307
G3 X791.7379 Y-277.1295 I-0.0078 J4.2152
G2 X795.624 Y-274.5283 I3.894 J-1.614
G1 X873.1539 Y-274.384
G3 X875.7824 Y-273.2738 I-0.0069 J3.683
G1 X875.8338 Y-273.2312
X875.8929 Y-273.2004
X875.9572 Y-273.1825
X876.0237 Y-273.1786
X876.0897 Y-273.1886
X876.152 Y-273.2122
X876.2081 Y-273.2484
X876.2553 Y-273.2955
X876.2917 Y-273.3514
X876.3155 Y-273.4137
X876.3258 Y-273.4796
X876.322 Y-273.5461
X876.3045 Y-273.6105
X876.2738 Y-273.6697
X876.2314 Y-273.7212
G3 X875.131 Y-276.3542 I2.5826 J-2.6258
G1 X875.144 Y-283.0332
G3 X876.2538 Y-285.6609 I3.683 J0.0072
G1 X876.2963 Y-285.7123
X876.3272 Y-285.7714
X876.345 Y-285.8357
X876.3489 Y-285.9022
X876.3389 Y-285.9682
X876.3152 Y-286.0305
X876.2791 Y-286.0865
X876.232 Y-286.1338
X876.1761 Y-286.1701
X876.1139 Y-286.194
X876.048 Y-286.2042
X875.9814 Y-286.2005
X875.9171 Y-286.183
X875.8579 Y-286.1523
X875.8064 Y-286.11
G3 X873.1741 Y-285.01 I-2.6254 J-2.583
G1 X784.5221 Y-285.176
G3 X781.894 Y-286.2858 I0.0069 J-3.683
G1 X781.8427 Y-286.3283
X781.7836 Y-286.3592
X781.7193 Y-286.377
X781.6528 Y-286.3809
X781.5868 Y-286.3709
X781.5245 Y-286.3473
X781.4685 Y-286.3111
X781.4212 Y-286.2641
X781.3849 Y-286.2081
X781.361 Y-286.1459
X781.3507 Y-286.08
X781.3545 Y-286.0134
X781.372 Y-285.9491
X781.4027 Y-285.8899
X781.445 Y-285.8384
G3 X782.545 Y-283.2058 I-2.583 J2.6254
G1 X782.532 Y-276.5258
G3 X781.4222 Y-273.8981 I-3.683 J-0.0072
G1 X781.3797 Y-273.8467
X781.3488 Y-273.7876
X781.331 Y-273.7233
X781.3271 Y-273.6568
X781.3371 Y-273.5909
X781.3607 Y-273.5285
X781.3968 Y-273.4725
X781.4439 Y-273.4252
X781.4998 Y-273.3889
X781.5621 Y-273.365
X781.628 Y-273.3547
X781.6946 Y-273.3584
X781.7589 Y-273.376
X781.8181 Y-273.4067
X781.8696 Y-273.449
G3 X784.5018 Y-274.549 I2.6254 J2.583
G1 X795.624 Y-274.5283
G0 Z6.096
X790.5662 Y-280.7904
G1 Z-1.524 F508
G2 X790.2951 Y-280.34 Z-2.1674 I-2.71 J-1.3242
X789.9499 Y-279.9434 Z-2.8108 I-2.4389 J-1.7747
X789.5411 Y-279.6128 Z-3.4543 I-2.0937 J-2.1712
X789.081 Y-279.3583 Z-4.0977 I-1.6849 J-2.5018
X788.5838 Y-279.1875 Z-4.7411 I-1.2248 J-2.7564
X788.0644 Y-279.1056 Z-5.3845 I-0.7276 J-2.9272
X787.5388 Y-279.1151 Z-6.028 I-0.2082 J-3.009
X787.0227 Y-279.2158 Z-6.6714 I0.3174 J-2.9995
X786.532 Y-279.4046 Z-7.3148 I0.8335 J-2.8988
X786.0815 Y-279.6757 Z-7.9582 I1.3242 J-2.71
X785.685 Y-280.0209 Z-8.6017 I1.7747 J-2.4389
X787.8618 Y-285.1309 Z-9.017 I2.1712 J-2.0937
X787.8517 Y-279.7307 I-0.0051 J2.7001
G1 X869.7322 Y-279.5783
X869.7324
X869.771 Y-279.5844
X869.8058 Y-279.6022
X869.8335 Y-279.6298
X869.8513 Y-279.6646
X869.8575 Y-279.7032
Y-279.7034
X869.8514 Y-279.742
X869.8336 Y-279.7769
X869.806 Y-279.8045
X869.7712 Y-279.8223
X869.7326 Y-279.8285
X787.8246 Y-279.9818
X787.8244
X787.787 Y-279.9744
X787.7552 Y-279.9532
X787.734 Y-279.9215
X787.7265 Y-279.8841
X787.7264 Y-279.8289
Y-279.8287
X787.7338 Y-279.7913
X787.755 Y-279.7595
X787.7867 Y-279.7383
X787.8241 Y-279.7308
X787.8517 Y-279.7307
G3 X791.7379 Y-277.1295 I-0.0078 J4.2152
G2 X795.624 Y-274.5283 I3.894 J-1.614
G1 X873.1539 Y-274.384
G3 X875.7824 Y-273.2738 I-0.0069 J3.683
G1 X875.8338 Y-273.2312
X875.8929 Y-273.2004
X875.9572 Y-273.1825
X876.0237 Y-273.1786
X876.0897 Y-273.1886
X876.152 Y-273.2122
X876.2081 Y-273.2484
X876.2553 Y-273.2955
X876.2917 Y-273.3514
X876.3155 Y-273.4137
X876.3258 Y-273.4796
X876.322 Y-273.5461
X876.3045 Y-273.6105
X876.2738 Y-273.6697
X876.2314 Y-273.7212
G3 X875.131 Y-276.3542 I2.5826 J-2.6258
G1 X875.144 Y-283.0332
G3 X876.2538 Y-285.6609 I3.683 J0.0072
G1 X876.2963 Y-285.7123
X876.3272 Y-285.7714
X876.345 Y-285.8357
X876.3489 Y-285.9022
X876.3389 Y-285.9682
X876.3152 Y-286.0305
X876.2791 Y-286.0865
X876.232 Y-286.1338
X876.1761 Y-286.1701
X876.1139 Y-286.194
X876.048 Y-286.2042
X875.9814 Y-286.2005
X875.9171 Y-286.183
X875.8579 Y-286.1523
X875.8064 Y-286.11
G3 X873.1741 Y-285.01 I-2.6254 J-2.583
G1 X784.5221 Y-285.176
G3 X781.894 Y-286.2858 I0.0069 J-3.683
G1 X781.8427 Y-286.3283
X781.7836 Y-286.3592
X781.7193 Y-286.377
X781.6528 Y-286.3809
X781.5868 Y-286.3709
X781.5245 Y-286.3473
X781.4685 Y-286.3111
X781.4212 Y-286.2641
X781.3849 Y-286.2081
X781.361 Y-286.1459
X781.3507 Y-286.08
X781.3545 Y-286.0134
X781.372 Y-285.9491
X781.4027 Y-285.8899
X781.445 Y-285.8384
G3 X782.545 Y-283.2058 I-2.583 J2.6254
G1 X782.532 Y-276.5258
G3 X781.4222 Y-273.8981 I-3.683 J-0.0072
G1 X781.3797 Y-273.8467
X781.3488 Y-273.7876
X781.331 Y-273.7233
X781.3271 Y-273.6568
X781.3371 Y-273.5909
X781.3607 Y-273.5285
X781.3968 Y-273.4725
X781.4439 Y-273.4252
X781.4998 Y-273.3889
X781.5621 Y-273.365
X781.628 Y-273.3547
X781.6946 Y-273.3584
X781.7589 Y-273.376
X781.8181 Y-273.4067
X781.8696 Y-273.449
G3 X784.5018 Y-274.549 I2.6254 J2.583
G1 X795.624 Y-274.5283
G0 Z6.096
X751.6382 Y-211.2695
G1 Z3.556 F508
G2 X752.1549 Y-211.1723 Z2.9126 I-0.2968 J3.0016
X752.6469 Y-210.987 Z2.2692 I-0.8135 J2.9045
X753.0992 Y-210.719 Z1.6257 I-1.3055 J2.7191
X753.4982 Y-210.3765 Z0.9823 I-1.7578 J2.4511
X753.8316 Y-209.9699 Z0.3389 I-2.1567 J2.1086
X754.0893 Y-209.5117 Z-0.3045 I-2.4901 J1.7021
X754.2635 Y-209.0156 Z-0.948 I-2.7479 J1.2438
X754.349 Y-208.4968 Z-1.5914 I-2.9221 J0.7478
X754.343 Y-207.9711 Z-2.2348 I-3.0075 J0.229
X754.2459 Y-207.4544 Z-2.8782 I-3.0016 J-0.2968
X754.0605 Y-206.9624 Z-3.5217 I-2.9045 J-0.8135
X751.3083 Y-205.2518 Z-4.064 I-2.7191 J-1.3055
X751.3676 Y-210.6553 I0.0296 J-2.7018
G1 X750.8665 Y-210.6608
X750.8223 Y-210.6543
X750.7824 Y-210.6345
X750.7505 Y-210.6033
X750.7298 Y-210.5638
X750.7223 Y-210.5199
X750.7288 Y-210.4757
X750.7486 Y-210.4358
X750.7798 Y-210.4039
X750.8193 Y-210.3832
X750.8633 Y-210.3757
X751.3748 Y-210.3701
X751.4157 Y-210.3761
X751.4528 Y-210.3945
X751.4823 Y-210.4234
X751.5015 Y-210.4601
X751.5084 Y-210.5009
X751.5087 Y-210.5215
X751.5027 Y-210.5625
X751.4843 Y-210.5995
X751.4554 Y-210.6291
X751.4187 Y-210.6483
X751.3779 Y-210.6552
X751.3676 Y-210.6553
G3 X748.6451 Y-212.4369 I0.0331 J-3.0215
G2 X745.4603 Y-211.7715 I-1.5191 J0.6836
G1 X745.4108 Y-207.2209
G3 X744.2774 Y-204.603 I-3.6827 J-0.0401
G1 X744.2344 Y-204.552
X744.203 Y-204.4931
X744.1846 Y-204.429
X744.18 Y-204.3624
X744.1894 Y-204.2963
X744.2125 Y-204.2337
X744.2482 Y-204.1773
X744.2948 Y-204.1296
X744.3504 Y-204.0928
X744.4125 Y-204.0683
X744.4784 Y-204.0574
X744.545 Y-204.0606
X744.6095 Y-204.0776
X744.6691 Y-204.1077
X744.721 Y-204.1496
G3 X747.3633 Y-205.2258 I2.602 J2.6066
G1 X754.6644 Y-205.1458
G3 X757.282 Y-204.0124 I-0.0403 J3.6828
G1 X757.333 Y-203.9694
X757.3919 Y-203.938
X757.456 Y-203.9196
X757.5226 Y-203.915
X757.5887 Y-203.9245
X757.6513 Y-203.9475
X757.7077 Y-203.9832
X757.7554 Y-204.0298
X757.7922 Y-204.0855
X757.8167 Y-204.1475
X757.8276 Y-204.2134
X757.8244 Y-204.28
X757.8074 Y-204.3446
X757.7773 Y-204.4041
X757.7354 Y-204.456
G3 X756.6592 Y-207.0986 I2.6066 J-2.602
G1 X756.7332 Y-213.8116
G3 X757.8666 Y-216.429 I3.6828 J0.0406
G1 X757.9097 Y-216.48
X757.9411 Y-216.5389
X757.9595 Y-216.6031
X757.964 Y-216.6696
X757.9546 Y-216.7357
X757.9315 Y-216.7983
X757.8958 Y-216.8547
X757.8492 Y-216.9024
X757.7935 Y-216.9393
X757.7314 Y-216.9637
X757.6656 Y-216.9746
X757.599 Y-216.9715
X757.5344 Y-216.9545
X757.4749 Y-216.9243
X757.423 Y-216.8824
G3 X754.7806 Y-215.8062 I-2.602 J-2.6066
G1 X747.4786 Y-215.8862
G3 X744.861 Y-217.0196 I0.0403 J-3.6828
G1 X744.81 Y-217.0626
X744.7511 Y-217.094
X744.687 Y-217.1124
X744.6204 Y-217.117
X744.5543 Y-217.1076
X744.4917 Y-217.0845
X744.4353 Y-217.0488
X744.3876 Y-217.0022
X744.3508 Y-216.9466
X744.3263 Y-216.8845
X744.3154 Y-216.8186
X744.3186 Y-216.752
X744.3356 Y-216.6874
X744.3657 Y-216.6279
X744.4076 Y-216.576
G3 X745.4838 Y-213.9339 I-2.6066 J2.602
G1 X745.4603 Y-211.7715
G0 Z6.096
