%
(Made in : Autodesk CAM Post Processor)
(G Code optimized for OpenBuilds OX CNC 1000 x 750 with GRBL V0.9j controller)

(Program Name : 1001)
(4 Operations :)
(1 : 2D Contour2)
(  Tool : Flat End Mill 2 Flutes, Diam = 6.35mm, Len = 25.4mm)
(  Spindle : RPM = 5000, set router dial to 1)
(  Machining time : 25 min 45 sec)
(2 : 2D Pocket1)
(  Tool : Flat End Mill 2 Flutes, Diam = 6.35mm, Len = 25.4mm)
(  Spindle : RPM = 5000, set router dial to 1)
(  Machining time : 14 min 42 sec)
(3 : Drill2)
(  Tool : Flat End Mill 2 Flutes, Diam = 6.35mm, Len = 25.4mm)
(  Spindle : RPM = 5000, set router dial to 1)
(  Machining time : 28 sec)
(4 : Drill1)
(  Tool : Flat End Mill 2 Flutes, Diam = 6.35mm, Len = 25.4mm)
(  Spindle : RPM = 5000, set router dial to 1)
(  Machining time : 11 sec)

G90 G94
G17
G21

(Operation 1 of 4 : 2D Contour2)

G53 G0 Z-10
G54
S5000 M3
G4 P1.0
X-55.8045 Y-171.6714
Z6.096
G1 F508
Z4.191
Z-6.604
G2 X-47.1052 Y-164.331 I8.6992 J-1.4847
G1 X342.3629
X331.0145 Y-318.8575
G2 X294.7685 Y-352.609 I-36.3214 J2.6676
G1 X169.5302 Y-352.8658
X-31.638 Y-339.9975
G2 X-39.8546 Y-332.0807 I0.5636 J8.8073
G1 X-55.8852 Y-174.0466
G2 X-55.8045 Y-171.6714 I8.78 J0.8905
G1 Z-14.224
G2 X-47.1052 Y-164.331 I8.6992 J-1.4847
G1 X342.3629
X331.0145 Y-318.8575
G2 X294.7685 Y-352.609 I-36.3214 J2.6676
G1 X169.5302 Y-352.8658
X-31.638 Y-339.9975
G2 X-39.8546 Y-332.0807 I0.5636 J8.8073
G1 X-55.8852 Y-174.0466
G2 X-55.8045 Y-171.6714 I8.78 J0.8905
G1 Z-16.51
G2 X-51.8517 Y-165.7161 I8.6992 J-1.4847
G1 Z-19.05
G2 X-47.1052 Y-164.331 I4.7465 J-7.4399
G1 X36.2785
Z-16.51
X47.7085
Z-19.05
X293.658
Z-16.51
X305.088
Z-19.05
X342.3629
X333.0944 Y-290.5368
Z-16.51
X332.2572 Y-301.9361
Z-19.05
X331.0145 Y-318.8575
G2 X294.7685 Y-352.609 I-36.3214 J2.6676
G1 X269.7535 Y-352.6603
Z-16.51
X258.3235 Y-352.6837
Z-19.05
X169.5302 Y-352.8658
X24.7616 Y-343.6053
Z-16.51
X13.3549 Y-342.8756
Z-19.05
X-31.638 Y-339.9975
G2 X-35.9004 Y-338.579 I0.5636 J8.8073
G1 Z-16.51
G2 X-39.8546 Y-332.0807 I4.826 J7.3888
G1 X-40.4141 Y-326.5645
Z-19.05
X-40.8092 Y-322.6704
Z-16.51
X-41.9627 Y-311.2988
Z-19.05
X-45.4906 Y-276.5194
Z-16.51
X-46.6441 Y-265.1478
Z-19.05
X-47.93 Y-252.4714
Z-16.51
X-49.2469 Y-239.4888
Z-19.05
X-50.3143 Y-228.9664
Z-16.51
X-51.4678 Y-217.5948
Z-19.05
X-54.5336 Y-187.3714
Z-16.51
X-55.8852 Y-174.0466
G2 X-55.8045 Y-171.6714 I8.78 J0.8905
G0 Z6.096
X-36.8007 Y-109.9517
G1 Z4.191 F508
Z-6.604
G3 X-31.9874 Y-107.836 I-0.2798 J7.1697
X-31.2757 Y-98.5638 I-5.0927 J5.0543
G1 X-31.5152 Y-88.7629
X287.5585
X287.3191 Y-98.5639
G3 X287.7617 Y-107.5502 I5.804 J-4.2182
X295.8547 Y-109.4171 I5.3617 J4.768
G1 X295.2935 Y-132.3824
X246.0264 Y-131.1791
G3 X237.0399 Y-131.6214 I-4.2184 J-5.804
X235.2604 Y-139.9183 I4.7679 J-5.3619
G1 X224.6769 Y-139.6595
G3 X223.5742 Y-131.7749 I-6.4632 J3.1155
X214.4931 Y-130.4085 I-5.3609 J-4.7686
G1 X128.0996 Y-128.297
X127.9444
X41.5511 Y-130.4085
G3 X32.5661 Y-131.6675 I-3.7211 J-6.1347
X31.3664 Y-139.6595 I5.2634 J-4.8762
G1 X20.7829 Y-139.9183
G3 X19.1107 Y-131.719 I-6.5474 J2.9348
X10.0171 Y-131.1791 I-4.8754 J-5.2641
G1 X-39.2505 Y-132.3824
X-39.8118 Y-109.417
G3 X-36.8007 Y-109.9517 I2.7313 J6.635
G1 Z-14.224
G3 X-31.9874 Y-107.836 I-0.2798 J7.1697
X-31.2757 Y-98.5638 I-5.0927 J5.0543
G1 X-31.5152 Y-88.7629
X287.5585
X287.3191 Y-98.5639
G3 X287.7617 Y-107.5502 I5.804 J-4.2182
X295.8547 Y-109.4171 I5.3617 J4.768
G1 X295.2935 Y-132.3824
X246.0264 Y-131.1791
G3 X237.0399 Y-131.6214 I-4.2184 J-5.804
X235.2604 Y-139.9183 I4.7679 J-5.3619
G1 X224.6769 Y-139.6595
G3 X223.5742 Y-131.7749 I-6.4632 J3.1155
X214.4931 Y-130.4085 I-5.3609 J-4.7686
G1 X128.0996 Y-128.297
X127.9444
X41.5511 Y-130.4085
G3 X32.5661 Y-131.6675 I-3.7211 J-6.1347
X31.3664 Y-139.6595 I5.2634 J-4.8762
G1 X20.7829 Y-139.9183
G3 X19.1107 Y-131.719 I-6.5474 J2.9348
X10.0171 Y-131.1791 I-4.8754 J-5.2641
G1 X-39.2505 Y-132.3824
X-39.8118 Y-109.417
G3 X-36.8007 Y-109.9517 I2.7313 J6.635
G1 Z-16.51
G3 X-36.4734 Y-109.9314 I-0.2798 J7.1697
G1 Z-19.05
G3 X-31.9874 Y-107.836 I-0.6072 J7.1495
X-31.2757 Y-98.5638 I-5.0927 J5.0543
G1 X-31.4221 Y-92.5729
Z-16.51
X-31.5152 Y-88.7629
X-29.0538
Z-19.05
X44.3532
Z-16.51
X55.7832
Z-19.05
X178.594
Z-16.51
X190.024
Z-19.05
X287.5585
X287.3191 Y-98.5639
G3 X287.7617 Y-107.5502 I5.804 J-4.2182
X295.8547 Y-109.4171 I5.3617 J4.768
G1 X295.2935 Y-132.3824
X246.0264 Y-131.1791
G3 X237.0399 Y-131.6214 I-4.2184 J-5.804
X235.2604 Y-139.9183 I4.7679 J-5.3619
G1 X224.6769 Y-139.6595
G3 X223.5742 Y-131.7749 I-6.4632 J3.1155
X214.4931 Y-130.4085 I-5.3609 J-4.7686
G1 X143.7729 Y-128.68
Z-16.51
X132.3463 Y-128.4007
Z-19.05
X128.0996 Y-128.297
X127.9444
X41.5511 Y-130.4085
G3 X32.5661 Y-131.6675 I-3.7211 J-6.1347
X31.3664 Y-139.6595 I5.2634 J-4.8762
G1 X20.7829 Y-139.9183
G3 X19.1107 Y-131.719 I-6.5474 J2.9348
X10.0171 Y-131.1791 I-4.8754 J-5.2641
G1 X-3.8171 Y-131.517
Z-16.51
X-15.2437 Y-131.7961
Z-19.05
X-39.2505 Y-132.3824
X-39.3107 Y-129.9187
Z-16.51
X-39.59 Y-118.4921
Z-19.05
X-39.7035 Y-113.8469
Z-16.51
X-39.8118 Y-109.417
G3 X-36.8007 Y-109.9517 I2.7313 J6.635
G0 Z6.096
X-5.7337 Y-33.9568
G1 Z4.191 F508
Z-6.604
G3 X-2.9703 Y-37.0404 I3.1743 J0.0647
G1 X352.429 Y-83.4359
G2 X367.0355 Y-101.4307 I-2.179 J-16.6942
G1 X367.0345 Y-101.4435
X348.4555 Y-354.4465
X348.4546 Y-354.4592
G2 X331.3755 Y-370.1274 I-16.7955 J1.1653
G1 X169.2411 Y-367.4038
X-26.9887 Y-364.1075
G3 X-30.2089 Y-367.056 I-0.0533 J-3.1746
G1 X-32.6281 Y-400.959
G3 X-29.6113 Y-404.3564 I3.1669 J-0.226
G1 X394.9559 Y-424.4485
G3 X398.2774 Y-421.4271 I0.1501 J3.1714
G1 X400.8455 Y-367.1711
G3 X399.9451 Y-364.8023 I-3.1714 J0.1501
G2 X401.1366 Y-363.6615 I0.59 J0.5764
G3 X403.3027 Y-364.6605 I2.3154 J2.1725
G1 X405.7659 Y-364.7765
G3 X410.1334 Y-360.8048 I0.1977 J4.1699
G1 X412.8754 Y-302.8812
G3 X408.9011 Y-298.5115 I-4.1704 J0.1992
G1 X406.7069 Y-298.4085
G3 X404.3397 Y-299.3085 I-0.1489 J-3.1715
G2 X403.1985 Y-298.1164 I-0.5766 J0.5904
G3 X404.1974 Y-295.9511 I-2.1725 J2.3154
G1 X407.2445 Y-231.5806
X413.6344 Y-167.4548
G3 X412.9621 Y-165.1665 I-3.1594 J0.3148
G2 X414.2647 Y-164.1541 I0.6462 J0.5127
G3 X416.4759 Y-165.3903 I2.5263 J1.9231
G1 X418.6619 Y-165.6083
G3 X423.2304 Y-161.8676 I0.4141 J4.1543
G1 X428.9803 Y-104.1648
G3 X425.2398 Y-99.5966 I-4.1544 J0.4138
G1 X422.7853 Y-99.3517
G3 X420.4972 Y-100.0233 I-0.3153 J-3.1593
G2 X419.4851 Y-98.7208 I-0.5125 J0.6462
G3 X420.7213 Y-96.5093 I-1.9231 J2.5263
G1 X426.1074 Y-42.4595
G3 X423.2628 Y-38.9853 I-3.1594 J0.3148
G1 X0.3148 Y3.1594
G3 X-3.166 Y0.2391 I-0.3148 J-3.1594
G1 X-5.7253 Y-33.653
G3 X-5.7337 Y-33.9568 I3.166 J-0.2391
G1 Z-14.224
G3 X-2.9703 Y-37.0404 I3.1743 J0.0647
G1 X352.429 Y-83.4359
G2 X367.0355 Y-101.4307 I-2.179 J-16.6942
G1 X367.0345 Y-101.4435
X348.4555 Y-354.4465
X348.4546 Y-354.4592
G2 X331.3755 Y-370.1274 I-16.7955 J1.1653
G1 X169.2411 Y-367.4038
X-26.9887 Y-364.1075
G3 X-30.2089 Y-367.056 I-0.0533 J-3.1746
G1 X-32.6281 Y-400.959
G3 X-29.6113 Y-404.3564 I3.1669 J-0.226
G1 X394.9559 Y-424.4485
G3 X398.2774 Y-421.4271 I0.1501 J3.1714
G1 X400.8455 Y-367.1711
G3 X399.9451 Y-364.8023 I-3.1714 J0.1501
G2 X401.1366 Y-363.6615 I0.59 J0.5764
G3 X403.3027 Y-364.6605 I2.3154 J2.1725
G1 X405.7659 Y-364.7765
G3 X410.1334 Y-360.8048 I0.1977 J4.1699
G1 X412.8754 Y-302.8812
G3 X408.9011 Y-298.5115 I-4.1704 J0.1992
G1 X406.7069 Y-298.4085
G3 X404.3397 Y-299.3085 I-0.1489 J-3.1715
G2 X403.1985 Y-298.1164 I-0.5766 J0.5904
G3 X404.1974 Y-295.9511 I-2.1725 J2.3154
G1 X407.2445 Y-231.5806
X413.6344 Y-167.4548
G3 X412.9621 Y-165.1665 I-3.1594 J0.3148
G2 X414.2647 Y-164.1541 I0.6462 J0.5127
G3 X416.4759 Y-165.3903 I2.5263 J1.9231
G1 X418.6619 Y-165.6083
G3 X423.2304 Y-161.8676 I0.4141 J4.1543
G1 X428.9803 Y-104.1648
G3 X425.2398 Y-99.5966 I-4.1544 J0.4138
G1 X422.7853 Y-99.3517
G3 X420.4972 Y-100.0233 I-0.3153 J-3.1593
G2 X419.4851 Y-98.7208 I-0.5125 J0.6462
G3 X420.7213 Y-96.5093 I-1.9231 J2.5263
G1 X426.1074 Y-42.4595
G3 X423.2628 Y-38.9853 I-3.1594 J0.3148
G1 X0.3148 Y3.1594
G3 X-3.166 Y0.2391 I-0.3148 J-3.1594
G1 X-5.7253 Y-33.653
G3 X-5.7337 Y-33.9568 I3.166 J-0.2391
G1 Z-19.05
G3 X-2.9703 Y-37.0404 I3.1743 J0.0647
G1 X260.2791 Y-71.4062
Z-16.51
X271.6129 Y-72.8858
Z-19.05
X352.429 Y-83.4359
G2 X367.0355 Y-101.4307 I-2.179 J-16.6942
G1 X367.0345 Y-101.4435
X357.6262 Y-229.5628
Z-16.51
X356.7891 Y-240.9621
Z-19.05
X348.4555 Y-354.4465
X348.4546 Y-354.4592
G2 X331.3755 Y-370.1274 I-16.7955 J1.1653
G1 X169.2411 Y-367.4038
X-26.9887 Y-364.1075
G3 X-30.2089 Y-367.056 I-0.0533 J-3.1746
G1 X-32.4075 Y-397.867
Z-16.51
X-32.6281 Y-400.959
G3 X-29.6113 Y-404.3564 I3.1669 J-0.226
G1 X-23.9027 Y-404.6266
Z-19.05
X7.2666 Y-406.1017
Z-16.51
X18.6838 Y-406.6419
Z-19.05
X108.8113 Y-410.9071
Z-16.51
X120.2285 Y-411.4474
Z-19.05
X150.1853 Y-412.8651
Z-16.51
X161.6025 Y-413.4054
Z-19.05
X315.9953 Y-420.7118
Z-16.51
X327.4125 Y-421.2521
Z-19.05
X394.9559 Y-424.4485
G3 X398.2774 Y-421.4271 I0.1501 J3.1714
G1 X400.8455 Y-367.1711
G3 X399.9451 Y-364.8023 I-3.1714 J0.1501
G2 X401.1366 Y-363.6615 I0.59 J0.5764
G3 X403.3027 Y-364.6605 I2.3154 J2.1725
G1 X405.7659 Y-364.7765
G3 X410.1334 Y-360.8048 I0.1977 J4.1699
G1 X412.8754 Y-302.8812
G3 X408.9011 Y-298.5115 I-4.1704 J0.1992
G1 X406.7069 Y-298.4085
G3 X404.3397 Y-299.3085 I-0.1489 J-3.1715
G2 X403.1985 Y-298.1164 I-0.5766 J0.5904
G3 X404.1974 Y-295.9511 I-2.1725 J2.3154
G1 X406.97 Y-237.3796
Z-16.51
X407.2445 Y-231.5806
X407.803 Y-225.976
Z-19.05
X413.6344 Y-167.4548
G3 X412.9621 Y-165.1665 I-3.1594 J0.3148
G2 X414.2647 Y-164.1541 I0.6462 J0.5127
G3 X416.4759 Y-165.3903 I2.5263 J1.9231
G1 X418.6619 Y-165.6083
G3 X423.2304 Y-161.8676 I0.4141 J4.1543
G1 X428.9803 Y-104.1648
G3 X425.2398 Y-99.5966 I-4.1544 J0.4138
G1 X422.7853 Y-99.3517
G3 X420.4972 Y-100.0233 I-0.3153 J-3.1593
G2 X419.4851 Y-98.7208 I-0.5125 J0.6462
G3 X420.7213 Y-96.5093 I-1.9231 J2.5263
G1 X426.1074 Y-42.4595
G3 X423.2628 Y-38.9853 I-3.1594 J0.3148
G1 X210.5107 Y-17.7856
Z-16.51
X199.137 Y-16.6523
Z-19.05
X198.0257 Y-16.5416
Z-16.51
X184.114 Y-15.1553
Z-19.05
X6.0017 Y2.5927
Z-16.51
X0.3148 Y3.1594
G3 X-3.166 Y0.2391 I-0.3148 J-3.1594
G1 X-3.3994 Y-2.852
Z-19.05
X-5.7253 Y-33.653
G3 X-5.7337 Y-33.9568 I3.166 J-0.2391
G0 Z6.096

(Operation 2 of 4 : 2D Pocket1)

G54
S5000 M3
X308.8842 Y-242.6415
Z11.176
Z6.096
G1 Z3.556 F508
G2 X309.4009 Y-242.5443 Z2.9126 I-0.2976 J3.0015
X309.8929 Y-242.3587 Z2.2692 I-0.8143 J2.9043
X310.3451 Y-242.0906 Z1.6257 I-1.3062 J2.7187
X310.7439 Y-241.748 Z0.9823 I-1.7585 J2.4506
X311.0772 Y-241.3414 Z0.3389 I-2.1573 J2.108
X311.3348 Y-240.8831 Z-0.3045 I-2.4906 J1.7014
X311.5089 Y-240.387 Z-0.948 I-2.7482 J1.2431
X311.5943 Y-239.8682 Z-1.5914 I-2.9223 J0.747
X311.5882 Y-239.3424 Z-2.2348 I-3.0076 J0.2282
X311.4909 Y-238.8257 Z-2.8782 I-3.0015 J-0.2976
X311.3054 Y-238.3338 Z-3.5217 I-2.9043 J-0.8143
X308.5528 Y-236.6239 Z-4.064 I-2.7187 J-1.3062
G1 X308.5799 Y-236.6236
X308.6175 Y-236.6307
X308.6495 Y-236.6515
X308.6711 Y-236.683
X308.6789 Y-236.7204
X309.1536 Y-278.7953
X309.1466 Y-278.8328
X309.1257 Y-278.8648
X309.0942 Y-278.8864
X309.0568 Y-278.8943
X309.0024 Y-278.8949
X308.9649 Y-278.8878
X308.9329 Y-278.867
X308.9113 Y-278.8355
X308.9034 Y-278.7981
X308.4288 Y-236.7233
X308.4358 Y-236.6857
X308.4567 Y-236.6537
X308.4882 Y-236.6321
X308.5256 Y-236.6242
X308.5528 Y-236.6239
G3 X311.102 Y-235.2722 I-0.0353 J3.1463
G2 X313.8605 Y-236.1188 I1.244 J-0.8637
G1 X314.3792 Y-282.1035
G3 X315.5135 Y-284.7209 I3.6828 J0.0415
G1 X315.5568 Y-284.7722
X315.5882 Y-284.8314
X315.6065 Y-284.8959
X315.6109 Y-284.9628
X315.601 Y-285.0291
X315.5774 Y-285.0918
X315.5412 Y-285.1482
X315.4938 Y-285.1957
X315.4376 Y-285.2322
X315.3749 Y-285.256
X315.3087 Y-285.2661
X315.2417 Y-285.262
X315.1772 Y-285.244
X315.1179 Y-285.2127
X315.0665 Y-285.1697
G3 X312.3755 Y-284.0452 I-2.6495 J-2.5583
G1 X305.8015 Y-284.1192
G3 X303.1359 Y-285.3048 I0.0414 J-3.6828
G1 X303.0854 Y-285.349
X303.0268 Y-285.3816
X302.9626 Y-285.4012
X302.8958 Y-285.4068
X302.8292 Y-285.3982
X302.766 Y-285.3758
X302.7089 Y-285.3406
X302.6605 Y-285.2941
X302.623 Y-285.2385
X302.5979 Y-285.1763
X302.5866 Y-285.1102
X302.5894 Y-285.0432
X302.6063 Y-284.9782
X302.6364 Y-284.9183
X302.6785 Y-284.8661
G3 X303.7538 Y-282.2234 I-2.6075 J2.601
G1 X303.2038 Y-233.4695
G3 X302.0695 Y-230.8521 I-3.6828 J-0.0415
G1 X302.0264 Y-230.8011
X301.995 Y-230.7422
X301.9766 Y-230.6781
X301.972 Y-230.6115
X301.9814 Y-230.5454
X302.0044 Y-230.4828
X302.0401 Y-230.4264
X302.0867 Y-230.3787
X302.1423 Y-230.3418
X302.2044 Y-230.3173
X302.2703 Y-230.3064
X302.3369 Y-230.3095
X302.4014 Y-230.3265
X302.461 Y-230.3566
X302.5129 Y-230.3985
G3 X305.1554 Y-231.4738 I2.6011 J2.6075
G1 X311.8334 Y-231.3988
G3 X314.4514 Y-230.264 I-0.0414 J3.6828
G1 X314.5023 Y-230.2209
X314.5611 Y-230.1895
X314.6252 Y-230.1711
X314.6917 Y-230.1665
X314.7577 Y-230.1759
X314.8203 Y-230.199
X314.8766 Y-230.2346
X314.9243 Y-230.2812
X314.9612 Y-230.3367
X314.9856 Y-230.3987
X314.9965 Y-230.4645
X314.9934 Y-230.5311
X314.9764 Y-230.5956
X314.9464 Y-230.6551
X314.9045 Y-230.707
G3 X313.8292 Y-233.3495 I2.6075 J-2.601
G1 X313.8605 Y-236.1188
G0 Z6.096
X305.8891 Y-240.9895
G1 Z-1.524 F508
G2 X306.1645 Y-241.4374 Z-2.1674 I2.6975 J1.3495
X306.5134 Y-241.8307 Z-2.8108 I2.4222 J1.7974
X306.9253 Y-242.1575 Z-3.4543 I2.0733 J2.1907
X307.3877 Y-242.4077 Z-4.0977 I1.6614 J2.5175
X307.8865 Y-242.5739 Z-4.7411 I1.199 J2.7677
X308.4066 Y-242.6509 Z-5.3845 I0.7001 J2.9339
X308.9322 Y-242.6364 Z-6.028 I0.18 J3.0109
X309.4472 Y-242.5309 Z-6.6714 I-0.3455 J2.9964
X309.9362 Y-242.3375 Z-7.3148 I-0.8606 J2.8909
X310.3841 Y-242.0622 Z-7.9582 I-1.3495 J2.6975
X310.7774 Y-241.7133 Z-8.6017 I-1.7974 J2.4222
X308.5528 Y-236.6239 Z-9.017 I-2.1907 J2.0733
G1 X308.5799 Y-236.6236
X308.6175 Y-236.6307
X308.6495 Y-236.6515
X308.6711 Y-236.683
X308.6789 Y-236.7204
X309.1536 Y-278.7953
X309.1466 Y-278.8328
X309.1257 Y-278.8648
X309.0942 Y-278.8864
X309.0568 Y-278.8943
X309.0024 Y-278.8949
X308.9649 Y-278.8878
X308.9329 Y-278.867
X308.9113 Y-278.8355
X308.9034 Y-278.7981
X308.4288 Y-236.7233
X308.4358 Y-236.6857
X308.4567 Y-236.6537
X308.4882 Y-236.6321
X308.5256 Y-236.6242
X308.5528 Y-236.6239
G3 X311.102 Y-235.2722 I-0.0353 J3.1463
G2 X313.8605 Y-236.1188 I1.244 J-0.8637
G1 X314.3792 Y-282.1035
G3 X315.5135 Y-284.7209 I3.6828 J0.0415
G1 X315.5568 Y-284.7722
X315.5882 Y-284.8314
X315.6065 Y-284.8959
X315.6109 Y-284.9628
X315.601 Y-285.0291
X315.5774 Y-285.0918
X315.5412 Y-285.1482
X315.4938 Y-285.1957
X315.4376 Y-285.2322
X315.3749 Y-285.256
X315.3087 Y-285.2661
X315.2417 Y-285.262
X315.1772 Y-285.244
X315.1179 Y-285.2127
X315.0665 Y-285.1697
G3 X312.3755 Y-284.0452 I-2.6495 J-2.5583
G1 X305.8015 Y-284.1192
G3 X303.1359 Y-285.3048 I0.0414 J-3.6828
G1 X303.0854 Y-285.349
X303.0268 Y-285.3816
X302.9626 Y-285.4012
X302.8958 Y-285.4068
X302.8292 Y-285.3982
X302.766 Y-285.3758
X302.7089 Y-285.3406
X302.6605 Y-285.2941
X302.623 Y-285.2385
X302.5979 Y-285.1763
X302.5866 Y-285.1102
X302.5894 Y-285.0432
X302.6063 Y-284.9782
X302.6364 Y-284.9183
X302.6785 Y-284.8661
G3 X303.7538 Y-282.2234 I-2.6075 J2.601
G1 X303.2038 Y-233.4695
G3 X302.0695 Y-230.8521 I-3.6828 J-0.0415
G1 X302.0264 Y-230.8011
X301.995 Y-230.7422
X301.9766 Y-230.6781
X301.972 Y-230.6115
X301.9814 Y-230.5454
X302.0044 Y-230.4828
X302.0401 Y-230.4264
X302.0867 Y-230.3787
X302.1423 Y-230.3418
X302.2044 Y-230.3173
X302.2703 Y-230.3064
X302.3369 Y-230.3095
X302.4014 Y-230.3265
X302.461 Y-230.3566
X302.5129 Y-230.3985
G3 X305.1554 Y-231.4738 I2.6011 J2.6075
G1 X311.8334 Y-231.3988
G3 X314.4514 Y-230.264 I-0.0414 J3.6828
G1 X314.5023 Y-230.2209
X314.5611 Y-230.1895
X314.6252 Y-230.1711
X314.6917 Y-230.1665
X314.7577 Y-230.1759
X314.8203 Y-230.199
X314.8766 Y-230.2346
X314.9243 Y-230.2812
X314.9612 Y-230.3367
X314.9856 Y-230.3987
X314.9965 Y-230.4645
X314.9934 Y-230.5311
X314.9764 Y-230.5956
X314.9464 Y-230.6551
X314.9045 Y-230.707
G3 X313.8292 Y-233.3495 I2.6075 J-2.601
G1 X313.8605 Y-236.1188
G0 Z6.096
X260.6945 Y-329.641
G1 Z3.556 F508
G2 X261.2117 Y-329.5465 Z2.9126 I-0.2811 J3.0031
X261.7047 Y-329.3637 Z2.2692 I-0.7983 J2.9087
X262.1584 Y-329.0981 Z1.6257 I-1.2913 J2.7259
X262.5591 Y-328.7577 Z0.9823 I-1.745 J2.4603
X262.8947 Y-328.3529 Z0.3389 I-2.1457 J2.1199
X263.1548 Y-327.896 Z-0.3045 I-2.4812 J1.7151
X263.3316 Y-327.4008 Z-0.948 I-2.7413 J1.2582
X263.4198 Y-326.8825 Z-1.5914 I-2.9182 J0.763
X263.4166 Y-326.3568 Z-2.2348 I-3.0063 J0.2447
X263.3222 Y-325.8395 Z-2.8782 I-3.0031 J-0.2811
X263.1393 Y-325.3466 Z-3.5217 I-2.9087 J-0.7983
X260.3962 Y-323.6216 Z-4.064 I-2.7259 J-1.2912
X260.4277 Y-329.1247 I0.0157 J-2.7515
G1 X248.6348 Y-329.1923
X248.5804 Y-329.1848
X248.5304 Y-329.1622
X248.4887 Y-329.1266
X248.4588 Y-329.0806
X248.4431 Y-329.028
X248.4427 Y-328.9731
X248.4579 Y-328.9204
X248.4873 Y-328.8741
X248.5286 Y-328.8379
X248.5783 Y-328.8149
X248.6326 Y-328.8067
X260.4406 Y-328.7385
X260.4867 Y-328.7443
X260.5297 Y-328.7618
X260.5667 Y-328.7899
X260.5952 Y-328.8266
X260.6132 Y-328.8694
X260.6196 Y-328.9154
X260.6198 Y-328.9456
X260.6139 Y-328.9917
X260.5964 Y-329.0347
X260.5683 Y-329.0718
X260.5316 Y-329.1003
X260.4888 Y-329.1183
X260.4427 Y-329.1246
X260.4277 Y-329.1247
G3 X256.5516 Y-331.7409 I0.0241 J-4.2151
G2 X252.6756 Y-334.3572 I-3.9002 J1.5989
G1 X245.1889 Y-334.4001
G3 X242.5651 Y-335.52 I0.0211 J-3.683
G1 X242.5139 Y-335.5628
X242.4549 Y-335.5939
X242.3907 Y-335.6119
X242.3241 Y-335.6161
X242.2581 Y-335.6063
X242.1957 Y-335.583
X242.1395 Y-335.547
X242.0921 Y-335.5002
X242.0555 Y-335.4444
X242.0314 Y-335.3822
X242.0209 Y-335.3163
X242.0243 Y-335.2497
X242.0416 Y-335.1853
X242.072 Y-335.126
X242.1142 Y-335.0743
G3 X243.2039 Y-332.4379 I-2.5932 J2.6153
G1 X243.1649 Y-325.6239
G3 X242.045 Y-323.0001 I-3.6829 J-0.0211
G1 X242.0022 Y-322.9489
X241.9711 Y-322.8899
X241.9531 Y-322.8257
X241.9489 Y-322.7591
X241.9587 Y-322.6931
X241.982 Y-322.6307
X242.018 Y-322.5745
X242.0648 Y-322.5271
X242.1206 Y-322.4905
X242.1828 Y-322.4664
X242.2487 Y-322.4558
X242.3153 Y-322.4593
X242.3797 Y-322.4766
X242.439 Y-322.507
X242.4907 Y-322.5492
G3 X245.1273 Y-323.6389 I2.6153 J2.5932
G1 X263.8033 Y-323.5309
G3 X266.4269 Y-322.411 I-0.0213 J3.683
G1 X266.4781 Y-322.3682
X266.5371 Y-322.3371
X266.6013 Y-322.3191
X266.6679 Y-322.3149
X266.7339 Y-322.3247
X266.7963 Y-322.348
X266.8525 Y-322.384
X266.8999 Y-322.4308
X266.9365 Y-322.4866
X266.9606 Y-322.5488
X266.9712 Y-322.6147
X266.9677 Y-322.6813
X266.9504 Y-322.7457
X266.92 Y-322.805
X266.8778 Y-322.8567
G3 X265.7881 Y-325.4931 I2.5932 J-2.6153
G1 X265.8271 Y-332.3081
G3 X266.9475 Y-334.9324 I3.683 J0.0211
G1 X266.9902 Y-334.9836
X267.0214 Y-335.0426
X267.0394 Y-335.1068
X267.0437 Y-335.1733
X267.0339 Y-335.2393
X267.0105 Y-335.3018
X266.9746 Y-335.358
X266.9277 Y-335.4054
X266.8719 Y-335.442
X266.8097 Y-335.4661
X266.7438 Y-335.4767
X266.6772 Y-335.4732
X266.6128 Y-335.4559
X266.5535 Y-335.4254
X266.5018 Y-335.3833
G3 X263.8649 Y-334.2931 I-2.6158 J-2.5927
G1 X252.6756 Y-334.3572
G0 Z6.096
X257.7086 Y-327.9725
G1 Z-1.524 F508
G2 X257.9814 Y-328.4219 Z-2.1674 I2.7049 J1.3347
X258.3282 Y-328.8171 Z-2.8108 I2.432 J1.7841
X258.7383 Y-329.1461 Z-3.4543 I2.0853 J2.1793
X259.1993 Y-329.3989 Z-4.0977 I1.6752 J2.5083
X259.6972 Y-329.5678 Z-4.7411 I1.2142 J2.7611
X260.2169 Y-329.6477 Z-5.3845 I0.7163 J2.93
X260.7425 Y-329.6361 Z-6.028 I0.1966 J3.0098
X261.2581 Y-329.5334 Z-6.6714 I-0.329 J2.9983
X261.7481 Y-329.3427 Z-7.3148 I-0.8447 J2.8956
X262.1975 Y-329.0699 Z-7.9582 I-1.3347 J2.7049
X262.5927 Y-328.7231 Z-8.6017 I-1.7841 J2.432
X260.3962 Y-323.6216 Z-9.017 I-2.1793 J2.0853
X260.4277 Y-329.1247 I0.0157 J-2.7515
G1 X248.6348 Y-329.1923
X248.5804 Y-329.1848
X248.5304 Y-329.1622
X248.4887 Y-329.1266
X248.4588 Y-329.0806
X248.4431 Y-329.028
X248.4427 Y-328.9731
X248.4579 Y-328.9204
X248.4873 Y-328.8741
X248.5286 Y-328.8379
X248.5783 Y-328.8149
X248.6326 Y-328.8067
X260.4406 Y-328.7385
X260.4867 Y-328.7443
X260.5297 Y-328.7618
X260.5667 Y-328.7899
X260.5952 Y-328.8266
X260.6132 Y-328.8694
X260.6196 Y-328.9154
X260.6198 Y-328.9456
X260.6139 Y-328.9917
X260.5964 Y-329.0347
X260.5683 Y-329.0718
X260.5316 Y-329.1003
X260.4888 Y-329.1183
X260.4427 Y-329.1246
X260.4277 Y-329.1247
G3 X256.5516 Y-331.7409 I0.0241 J-4.2151
G2 X252.6756 Y-334.3572 I-3.9002 J1.5989
G1 X245.1889 Y-334.4001
G3 X242.5651 Y-335.52 I0.0211 J-3.683
G1 X242.5139 Y-335.5628
X242.4549 Y-335.5939
X242.3907 Y-335.6119
X242.3241 Y-335.6161
X242.2581 Y-335.6063
X242.1957 Y-335.583
X242.1395 Y-335.547
X242.0921 Y-335.5002
X242.0555 Y-335.4444
X242.0314 Y-335.3822
X242.0209 Y-335.3163
X242.0243 Y-335.2497
X242.0416 Y-335.1853
X242.072 Y-335.126
X242.1142 Y-335.0743
G3 X243.2039 Y-332.4379 I-2.5932 J2.6153
G1 X243.1649 Y-325.6239
G3 X242.045 Y-323.0001 I-3.6829 J-0.0211
G1 X242.0022 Y-322.9489
X241.9711 Y-322.8899
X241.9531 Y-322.8257
X241.9489 Y-322.7591
X241.9587 Y-322.6931
X241.982 Y-322.6307
X242.018 Y-322.5745
X242.0648 Y-322.5271
X242.1206 Y-322.4905
X242.1828 Y-322.4664
X242.2487 Y-322.4558
X242.3153 Y-322.4593
X242.3797 Y-322.4766
X242.439 Y-322.507
X242.4907 Y-322.5492
G3 X245.1273 Y-323.6389 I2.6153 J2.5932
G1 X263.8033 Y-323.5309
G3 X266.4269 Y-322.411 I-0.0213 J3.683
G1 X266.4781 Y-322.3682
X266.5371 Y-322.3371
X266.6013 Y-322.3191
X266.6679 Y-322.3149
X266.7339 Y-322.3247
X266.7963 Y-322.348
X266.8525 Y-322.384
X266.8999 Y-322.4308
X266.9365 Y-322.4866
X266.9606 Y-322.5488
X266.9712 Y-322.6147
X266.9677 Y-322.6813
X266.9504 Y-322.7457
X266.92 Y-322.805
X266.8778 Y-322.8567
G3 X265.7881 Y-325.4931 I2.5932 J-2.6153
G1 X265.8271 Y-332.3081
G3 X266.9475 Y-334.9324 I3.683 J0.0211
G1 X266.9902 Y-334.9836
X267.0214 Y-335.0426
X267.0394 Y-335.1068
X267.0437 Y-335.1733
X267.0339 Y-335.2393
X267.0105 Y-335.3018
X266.9746 Y-335.358
X266.9277 Y-335.4054
X266.8719 Y-335.442
X266.8097 Y-335.4661
X266.7438 Y-335.4767
X266.6772 Y-335.4732
X266.6128 Y-335.4559
X266.5535 Y-335.4254
X266.5018 Y-335.3833
G3 X263.8649 Y-334.2931 I-2.6158 J-2.5927
G1 X252.6756 Y-334.3572
G0 Z6.096
X184.1927 Y-392.7169
G1 Z3.556 F508
G2 X184.2607 Y-393.2382 Z2.9126 I3.0135 J0.1278
X184.4181 Y-393.7398 Z2.2692 I2.9456 J0.6491
X184.6603 Y-394.2065 Z1.6257 I2.7881 J1.1508
X184.9799 Y-394.624 Z0.9823 I2.5459 J1.6174
X185.367 Y-394.9797 Z0.3389 I2.2264 J2.0349
X185.8101 Y-395.2628 Z-0.3045 I1.8392 J2.3906
X186.2956 Y-395.4646 Z-0.948 I1.3961 J2.6737
X186.8088 Y-395.579 Z-1.5914 I0.9106 J2.8755
X187.334 Y-395.6026 Z-2.2348 I0.3975 J2.9899
X187.8554 Y-395.5347 Z-2.8782 I-0.1278 J3.0135
X188.357 Y-395.3772 Z-3.5217 I-0.6491 J2.9456
X190.2194 Y-392.7254 Z-4.064 I-1.1508 J2.7881
G1 X190.218 Y-392.7565
X190.2088 Y-392.7936
X190.1862 Y-392.8244
X190.1535 Y-392.8442
X190.1158 Y-392.8499
X178.1877 Y-392.3105
X178.144 Y-392.3007
X178.1062 Y-392.2766
X178.079 Y-392.241
X178.0656 Y-392.1982
X178.0676 Y-392.1534
X178.0848 Y-392.112
X178.1151 Y-392.0791
X178.1549 Y-392.0584
X178.1994 Y-392.0526
X190.1274 Y-392.5921
X190.1645 Y-392.6012
X190.1953 Y-392.6238
X190.215 Y-392.6565
X190.2208 Y-392.6943
X190.2194 Y-392.7254
G3 X191.3543 Y-395.3748 I3.3103 J-0.1497
G2 X190.2834 Y-398.0508 I-1.0019 J-1.1513
G1 X174.2074 Y-397.3238
G3 X171.6801 Y-398.1762 I-0.1664 J-3.6792
G1 X171.6247 Y-398.2134
X171.5627 Y-398.2381
X171.4969 Y-398.2493
X171.4302 Y-398.2465
X171.3656 Y-398.2299
X171.3058 Y-398.2
X171.2537 Y-398.1584
X171.2114 Y-398.1067
X171.1809 Y-398.0473
X171.1634 Y-397.9829
X171.1599 Y-397.9162
X171.1703 Y-397.8503
X171.1943 Y-397.788
X171.2308 Y-397.7322
X171.2782 Y-397.6852
G3 X172.6532 Y-394.9785 I-2.3042 J2.8731
G1 X172.9562 Y-388.2825
G3 X172.1033 Y-385.7546 I-3.6792 J0.1665
G1 X172.0662 Y-385.6992
X172.0415 Y-385.6373
X172.0303 Y-385.5716
X172.033 Y-385.5049
X172.0497 Y-385.4404
X172.0795 Y-385.3807
X172.1211 Y-385.3286
X172.1727 Y-385.2864
X172.232 Y-385.2559
X172.2963 Y-385.2385
X172.3629 Y-385.2349
X172.4288 Y-385.2453
X172.491 Y-385.2693
X172.5468 Y-385.3058
X172.5938 Y-385.3531
G3 X175.3006 Y-386.7282 I2.8732 J2.3041
G1 X193.9856 Y-387.5732
G3 X196.5129 Y-386.7208 I0.1664 J3.6792
G1 X196.5683 Y-386.6837
X196.6302 Y-386.659
X196.6959 Y-386.6478
X196.7625 Y-386.6505
X196.827 Y-386.6672
X196.8867 Y-386.697
X196.9388 Y-386.7386
X196.981 Y-386.7902
X197.0115 Y-386.8495
X197.0289 Y-386.9138
X197.0325 Y-386.9804
X197.0221 Y-387.0462
X196.9981 Y-387.1084
X196.9616 Y-387.1643
X196.9143 Y-387.2112
G3 X195.5398 Y-389.9175 I2.3047 J-2.8728
G1 X195.2368 Y-396.6145
G3 X196.0424 Y-399.0847 I3.6792 J-0.1665
G1 X196.0802 Y-399.1443
X196.1038 Y-399.2109
X196.1121 Y-399.281
X196.1047 Y-399.3512
X196.082 Y-399.418
X196.0451 Y-399.4782
X195.9958 Y-399.5287
X195.9365 Y-399.567
X195.8702 Y-399.5913
X195.8002 Y-399.6004
X195.7299 Y-399.5937
X195.6629 Y-399.5717
X195.6023 Y-399.5354
X195.5513 Y-399.4866
G3 X192.8914 Y-398.1688 I-2.8263 J-2.3614
G1 X190.2834 Y-398.0508
G0 Z6.096
X186.011 Y-389.8198
G1 Z-1.524 F508
G2 X185.5483 Y-390.0694 Z-2.1674 I1.1952 J-2.7693
X185.1359 Y-390.3956 Z-2.8108 I1.6579 J-2.5197
X184.7865 Y-390.7884 Z-3.4543 I2.0703 J-2.1935
X184.5106 Y-391.2359 Z-4.0977 I2.4197 J-1.8007
X184.3165 Y-391.7246 Z-4.7411 I2.6957 J-1.3532
X184.2103 Y-392.2395 Z-5.3845 I2.8897 J-0.8645
X184.1951 Y-392.765 Z-6.028 I2.9959 J-0.3496
X184.2714 Y-393.2852 Z-6.6714 I3.0111 J0.176
X184.4369 Y-393.7843 Z-7.3148 I2.9348 J0.6962
X184.6865 Y-394.247 Z-7.9582 I2.7693 J1.1952
X185.0127 Y-394.6594 Z-8.6017 I2.5197 J1.6579
X190.2194 Y-392.7254 Z-9.017 I2.1935 J2.0703
G1 X190.218 Y-392.7565
X190.2088 Y-392.7936
X190.1862 Y-392.8244
X190.1535 Y-392.8442
X190.1158 Y-392.8499
X178.1877 Y-392.3105
X178.144 Y-392.3007
X178.1062 Y-392.2766
X178.079 Y-392.241
X178.0656 Y-392.1982
X178.0676 Y-392.1534
X178.0848 Y-392.112
X178.1151 Y-392.0791
X178.1549 Y-392.0584
X178.1994 Y-392.0526
X190.1274 Y-392.5921
X190.1645 Y-392.6012
X190.1953 Y-392.6238
X190.215 Y-392.6565
X190.2208 Y-392.6943
X190.2194 Y-392.7254
G3 X191.3543 Y-395.3748 I3.3103 J-0.1497
G2 X190.2834 Y-398.0508 I-1.0019 J-1.1513
G1 X174.2074 Y-397.3238
G3 X171.6801 Y-398.1762 I-0.1664 J-3.6792
G1 X171.6247 Y-398.2134
X171.5627 Y-398.2381
X171.4969 Y-398.2493
X171.4302 Y-398.2465
X171.3656 Y-398.2299
X171.3058 Y-398.2
X171.2537 Y-398.1584
X171.2114 Y-398.1067
X171.1809 Y-398.0473
X171.1634 Y-397.9829
X171.1599 Y-397.9162
X171.1703 Y-397.8503
X171.1943 Y-397.788
X171.2308 Y-397.7322
X171.2782 Y-397.6852
G3 X172.6532 Y-394.9785 I-2.3042 J2.8731
G1 X172.9562 Y-388.2825
G3 X172.1033 Y-385.7546 I-3.6792 J0.1665
G1 X172.0662 Y-385.6992
X172.0415 Y-385.6373
X172.0303 Y-385.5716
X172.033 Y-385.5049
X172.0497 Y-385.4404
X172.0795 Y-385.3807
X172.1211 Y-385.3286
X172.1727 Y-385.2864
X172.232 Y-385.2559
X172.2963 Y-385.2385
X172.3629 Y-385.2349
X172.4288 Y-385.2453
X172.491 Y-385.2693
X172.5468 Y-385.3058
X172.5938 Y-385.3531
G3 X175.3006 Y-386.7282 I2.8732 J2.3041
G1 X193.9856 Y-387.5732
G3 X196.5129 Y-386.7208 I0.1664 J3.6792
G1 X196.5683 Y-386.6837
X196.6302 Y-386.659
X196.6959 Y-386.6478
X196.7625 Y-386.6505
X196.827 Y-386.6672
X196.8867 Y-386.697
X196.9388 Y-386.7386
X196.981 Y-386.7902
X197.0115 Y-386.8495
X197.0289 Y-386.9138
X197.0325 Y-386.9804
X197.0221 Y-387.0462
X196.9981 Y-387.1084
X196.9616 Y-387.1643
X196.9143 Y-387.2112
G3 X195.5398 Y-389.9175 I2.3047 J-2.8728
G1 X195.2368 Y-396.6145
G3 X196.0424 Y-399.0847 I3.6792 J-0.1665
G1 X196.0802 Y-399.1443
X196.1038 Y-399.2109
X196.1121 Y-399.281
X196.1047 Y-399.3512
X196.082 Y-399.418
X196.0451 Y-399.4782
X195.9958 Y-399.5287
X195.9365 Y-399.567
X195.8702 Y-399.5913
X195.8002 Y-399.6004
X195.7299 Y-399.5937
X195.6629 Y-399.5717
X195.6023 Y-399.5354
X195.5513 Y-399.4866
G3 X192.8914 Y-398.1688 I-2.8263 J-2.3614
G1 X190.2834 Y-398.0508
G0 Z6.096
X372.6987 Y-400.6796
G1 Z3.556 F508
G2 X372.1772 Y-400.7462 Z2.9126 I0.12 J-3.0139
X371.6752 Y-400.9024 Z2.2692 I0.6415 J-2.9472
X371.2079 Y-401.1434 Z1.6257 I1.1436 J-2.7911
X370.7895 Y-401.4618 Z0.9823 I1.6108 J-2.5501
X370.4328 Y-401.8481 Z0.3389 I2.0292 J-2.2316
X370.1486 Y-402.2904 Z-0.3045 I2.3859 J-1.8454
X369.9456 Y-402.7754 Z-0.948 I2.6701 J-1.403
X369.8298 Y-403.2883 Z-1.5914 I2.8731 J-0.918
X369.8049 Y-403.8134 Z-2.2348 I2.9889 J-0.4052
X369.8715 Y-404.335 Z-2.8782 I3.0139 J0.12
X370.0277 Y-404.837 Z-3.5217 I2.9472 J0.6415
X372.6747 Y-406.7063 Z-4.064 I2.7911 J1.1436
X372.9326 Y-401.3115 I0.129 J2.6974
G1 X396.9185 Y-402.4586
X396.9571 Y-402.4683
X396.99 Y-402.4905
X397.0135 Y-402.5225
X397.0247 Y-402.5606
X397.0224 Y-402.6003
X397.0067 Y-402.6368
X396.9795 Y-402.6658
X396.9441 Y-402.6839
X396.9047 Y-402.6889
X372.8892 Y-401.5682
X372.8521 Y-401.559
X372.8213 Y-401.5363
X372.8016 Y-401.5036
X372.7959 Y-401.4658
X372.7988 Y-401.4032
X372.808 Y-401.3661
X372.8307 Y-401.3354
X372.8634 Y-401.3157
X372.9012 Y-401.31
X372.9326 Y-401.3115
G3 X376.9434 Y-398.9018 I0.2012 J4.2077
G2 X380.9541 Y-396.4922 I3.814 J-1.8055
G1 X396.1982 Y-397.2037
X402.2363 Y-397.6471
X402.305 Y-397.6598
X402.3692 Y-397.6872
X402.4259 Y-397.7281
X402.4723 Y-397.7804
X402.5061 Y-397.8415
X402.5257 Y-397.9086
X402.5301 Y-397.9783
X402.0671 Y-407.8063
X402.0558 Y-407.8764
X402.0291 Y-407.9421
X401.9886 Y-408.0004
X401.9361 Y-408.0481
X401.8743 Y-408.083
X401.8063 Y-408.1033
X401.7355 Y-408.108
X369.1857 Y-406.589
G3 X366.5797 Y-407.5042 I-0.1717 J-3.679
G1 X366.5253 Y-407.5427
X366.464 Y-407.5691
X366.3986 Y-407.582
X366.3319 Y-407.581
X366.2669 Y-407.566
X366.2064 Y-407.5377
X366.1532 Y-407.4975
X366.1096 Y-407.447
X366.0776 Y-407.3885
X366.0585 Y-407.3245
X366.0532 Y-407.258
X366.0619 Y-407.1919
X366.0842 Y-407.1291
X366.1193 Y-407.0723
X366.1654 Y-407.0241
G3 X367.466 Y-404.3838 I-2.3784 J2.8121
G1 X367.764 Y-398.0018
G3 X366.7149 Y-395.2516 I-3.679 J0.1718
G1 X366.6735 Y-395.1994
X366.6439 Y-395.1396
X366.6275 Y-395.0749
X366.625 Y-395.0083
X366.6365 Y-394.9426
X366.6615 Y-394.8807
X366.6988 Y-394.8255
X366.7469 Y-394.7793
X366.8036 Y-394.7441
X366.8664 Y-394.7216
X366.9325 Y-394.7128
X366.999 Y-394.718
X367.0629 Y-394.7369
X367.1215 Y-394.7688
X367.1721 Y-394.8123
G3 X369.6813 Y-395.966 I2.6809 J2.5253
G1 X380.9541 Y-396.4922
G0 Z6.096
X375.5912 Y-402.5054
G1 Z-1.524 F508
G2 X375.3427 Y-402.042 Z-2.1674 I-2.7724 J-1.1881
X375.0176 Y-401.6288 Z-2.8108 I-2.524 J-1.6515
X374.6257 Y-401.2783 Z-3.4543 I-2.1989 J-2.0647
X374.1788 Y-401.0012 Z-4.0977 I-1.807 J-2.4151
X373.6907 Y-400.806 Z-4.7411 I-1.3601 J-2.6922
X373.176 Y-400.6984 Z-5.3845 I-0.872 J-2.8875
X372.6505 Y-400.6819 Z-6.028 I-0.3573 J-2.995
X372.1301 Y-400.7568 Z-6.6714 I0.1682 J-3.0116
X371.6306 Y-400.921 Z-7.3148 I0.6886 J-2.9366
X371.1673 Y-401.1695 Z-7.9582 I1.1881 J-2.7724
X370.7541 Y-401.4946 Z-8.6017 I1.6515 J-2.524
X372.6747 Y-406.7063 Z-9.017 I2.0646 J-2.1989
X372.9326 Y-401.3115 I0.129 J2.6974
G1 X396.9185 Y-402.4586
X396.9571 Y-402.4683
X396.99 Y-402.4905
X397.0135 Y-402.5225
X397.0247 Y-402.5606
X397.0224 Y-402.6003
X397.0067 Y-402.6368
X396.9795 Y-402.6658
X396.9441 Y-402.6839
X396.9047 Y-402.6889
X372.8892 Y-401.5682
X372.8521 Y-401.559
X372.8213 Y-401.5363
X372.8016 Y-401.5036
X372.7959 Y-401.4658
X372.7988 Y-401.4032
X372.808 Y-401.3661
X372.8307 Y-401.3354
X372.8634 Y-401.3157
X372.9012 Y-401.31
X372.9326 Y-401.3115
G3 X376.9434 Y-398.9018 I0.2012 J4.2077
G2 X380.9541 Y-396.4922 I3.814 J-1.8055
G1 X396.1982 Y-397.2037
X402.2363 Y-397.6471
X402.305 Y-397.6598
X402.3692 Y-397.6872
X402.4259 Y-397.7281
X402.4723 Y-397.7804
X402.5061 Y-397.8415
X402.5257 Y-397.9086
X402.5301 Y-397.9783
X402.0671 Y-407.8063
X402.0558 Y-407.8764
X402.0291 Y-407.9421
X401.9886 Y-408.0004
X401.9361 Y-408.0481
X401.8743 Y-408.083
X401.8063 Y-408.1033
X401.7355 Y-408.108
X369.1857 Y-406.589
G3 X366.5797 Y-407.5042 I-0.1717 J-3.679
G1 X366.5253 Y-407.5427
X366.464 Y-407.5691
X366.3986 Y-407.582
X366.3319 Y-407.581
X366.2669 Y-407.566
X366.2064 Y-407.5377
X366.1532 Y-407.4975
X366.1096 Y-407.447
X366.0776 Y-407.3885
X366.0585 Y-407.3245
X366.0532 Y-407.258
X366.0619 Y-407.1919
X366.0842 Y-407.1291
X366.1193 Y-407.0723
X366.1654 Y-407.0241
G3 X367.466 Y-404.3838 I-2.3784 J2.8121
G1 X367.764 Y-398.0018
G3 X366.7149 Y-395.2516 I-3.679 J0.1718
G1 X366.6735 Y-395.1994
X366.6439 Y-395.1396
X366.6275 Y-395.0749
X366.625 Y-395.0083
X366.6365 Y-394.9426
X366.6615 Y-394.8807
X366.6988 Y-394.8255
X366.7469 Y-394.7793
X366.8036 Y-394.7441
X366.8664 Y-394.7216
X366.9325 Y-394.7128
X366.999 Y-394.718
X367.0629 Y-394.7369
X367.1215 Y-394.7688
X367.1721 Y-394.8123
G3 X369.6813 Y-395.966 I2.6809 J2.5253
G1 X380.9541 Y-396.4922
G0 Z6.096
X422.2684 Y-61.7054
G1 Z3.556 F508
G2 X422.7927 Y-61.666 Z2.9126 I0.0374 J3.016
X423.3022 Y-61.5363 Z2.2692 I-0.4869 J2.9767
X423.7814 Y-61.32 Z1.6257 I-0.9964 J2.8469
X424.2158 Y-61.0238 Z0.9823 I-1.4757 J2.6306
X424.5922 Y-60.6566 Z0.3389 I-1.91 J2.3344
X424.899 Y-60.2297 Z-0.3045 I-2.2864 J1.9673
X425.1271 Y-59.756 Z-0.948 I-2.5933 J1.5404
X425.2695 Y-59.2499 Z-1.5914 I-2.8214 J1.0666
X425.3218 Y-58.7267 Z-2.2348 I-2.9637 J0.5605
X425.2824 Y-58.2024 Z-2.8782 I-3.016 J0.0374
X425.1527 Y-57.6929 Z-3.5217 I-2.9767 J-0.4869
X422.6068 Y-55.6882 Z-4.064 I-2.8469 J-0.9964
X422.0677 Y-61.0622 I-0.2695 J-2.687
G1 X398.1856 Y-58.6668
X398.1423 Y-58.6546
X398.1058 Y-58.6283
X398.0804 Y-58.5911
X398.0694 Y-58.5475
X398.0739 Y-58.5027
X398.0934 Y-58.4622
X398.1256 Y-58.4308
X398.1666 Y-58.4123
X398.2115 Y-58.4089
X422.1252 Y-60.8075
X422.1617 Y-60.8186
X422.1911 Y-60.8429
X422.2091 Y-60.8766
X422.2128 Y-60.9146
X422.2065 Y-60.9777
X422.1954 Y-61.0143
X422.1711 Y-61.0438
X422.1373 Y-61.0617
X422.0993 Y-61.0654
X422.0677 Y-61.0622
G3 X417.9378 Y-63.2547 I-0.4207 J-4.1937
G2 X413.8078 Y-65.4472 I-3.7094 J2.0012
G1 X394.0986 Y-63.4703
G3 X391.4475 Y-64.2452 I-0.3676 J-3.6646
G1 X391.3911 Y-64.2809
X391.3285 Y-64.3039
X391.2625 Y-64.3133
X391.196 Y-64.3087
X391.1319 Y-64.2903
X391.073 Y-64.2589
X391.0221 Y-64.2159
X390.9813 Y-64.1631
X390.9524 Y-64.103
X390.9367 Y-64.0382
X390.9349 Y-63.9715
X390.9471 Y-63.906
X390.9728 Y-63.8444
X391.0108 Y-63.7896
X391.0594 Y-63.7439
G3 X392.4986 Y-61.1771 I-2.2254 J2.9346
G1 X393.1366 Y-54.8197
G3 X392.2355 Y-52.0173 I-3.6646 J0.3678
G1 X392.197 Y-51.9629
X392.1707 Y-51.9017
X392.1577 Y-51.8363
X392.1588 Y-51.7697
X392.1737 Y-51.7048
X392.2019 Y-51.6444
X392.2421 Y-51.5912
X392.2926 Y-51.5477
X392.351 Y-51.5157
X392.4149 Y-51.4966
X392.4813 Y-51.4913
X392.5474 Y-51.5
X392.6102 Y-51.5223
X392.6669 Y-51.5573
X392.7151 Y-51.6033
G3 X395.1595 Y-52.8894 I2.812 J2.3785
G1 X427.5832 Y-56.1415
X427.6526 Y-56.1565
X427.7169 Y-56.1865
X427.7729 Y-56.2301
X427.8178 Y-56.285
X427.8495 Y-56.3485
X427.8662 Y-56.4175
X427.8671 Y-56.4884
X426.8752 Y-66.4389
X426.8603 Y-66.5084
X426.8304 Y-66.5727
X426.7868 Y-66.6288
X426.7319 Y-66.6738
X426.6684 Y-66.7055
X426.5994 Y-66.7222
X426.5284 Y-66.7231
X413.8078 Y-65.4472
G0 Z6.096
X419.4751 Y-59.7312
G1 Z-1.524 F508
G2 X419.699 Y-60.2069 Z-2.1674 I2.8306 J1.0419
X420.0022 Y-60.6365 Z-2.8108 I2.6067 J1.5176
X420.3753 Y-61.0069 Z-3.4543 I2.3036 J1.9472
X420.8071 Y-61.3069 Z-4.0977 I1.9305 J2.3176
X421.2844 Y-61.5274 Z-4.7411 I1.4987 J2.6176
X421.7927 Y-61.6617 Z-5.3845 I1.0214 J2.8381
X422.3166 Y-61.7056 Z-6.028 I0.513 J2.9723
X422.8402 Y-61.6579 Z-6.6714 I-0.0109 J3.0162
X423.3476 Y-61.52 Z-7.3148 I-0.5345 J2.9685
X423.8233 Y-61.296 Z-7.9582 I-1.0418 J2.8306
X424.2529 Y-60.9929 Z-8.6017 I-1.5175 J2.6067
X422.6068 Y-55.6882 Z-9.017 I-1.9471 J2.3036
X422.0677 Y-61.0622 I-0.2695 J-2.687
G1 X398.1856 Y-58.6668
X398.1423 Y-58.6546
X398.1058 Y-58.6283
X398.0804 Y-58.5911
X398.0694 Y-58.5475
X398.0739 Y-58.5027
X398.0934 Y-58.4622
X398.1256 Y-58.4308
X398.1666 Y-58.4123
X398.2115 Y-58.4089
X422.1252 Y-60.8075
X422.1617 Y-60.8186
X422.1911 Y-60.8429
X422.2091 Y-60.8766
X422.2128 Y-60.9146
X422.2065 Y-60.9777
X422.1954 Y-61.0143
X422.1711 Y-61.0438
X422.1373 Y-61.0617
X422.0993 Y-61.0654
X422.0677 Y-61.0622
G3 X417.9378 Y-63.2547 I-0.4207 J-4.1937
G2 X413.8078 Y-65.4472 I-3.7094 J2.0012
G1 X394.0986 Y-63.4703
G3 X391.4475 Y-64.2452 I-0.3676 J-3.6646
G1 X391.3911 Y-64.2809
X391.3285 Y-64.3039
X391.2625 Y-64.3133
X391.196 Y-64.3087
X391.1319 Y-64.2903
X391.073 Y-64.2589
X391.0221 Y-64.2159
X390.9813 Y-64.1631
X390.9524 Y-64.103
X390.9367 Y-64.0382
X390.9349 Y-63.9715
X390.9471 Y-63.906
X390.9728 Y-63.8444
X391.0108 Y-63.7896
X391.0594 Y-63.7439
G3 X392.4986 Y-61.1771 I-2.2254 J2.9346
G1 X393.1366 Y-54.8197
G3 X392.2355 Y-52.0173 I-3.6646 J0.3678
G1 X392.197 Y-51.9629
X392.1707 Y-51.9017
X392.1577 Y-51.8363
X392.1588 Y-51.7697
X392.1737 Y-51.7048
X392.2019 Y-51.6444
X392.2421 Y-51.5912
X392.2926 Y-51.5477
X392.351 Y-51.5157
X392.4149 Y-51.4966
X392.4813 Y-51.4913
X392.5474 Y-51.5
X392.6102 Y-51.5223
X392.6669 Y-51.5573
X392.7151 Y-51.6033
G3 X395.1595 Y-52.8894 I2.812 J2.3785
G1 X427.5832 Y-56.1415
X427.6526 Y-56.1565
X427.7169 Y-56.1865
X427.7729 Y-56.2301
X427.8178 Y-56.285
X427.8495 Y-56.3485
X427.8662 Y-56.4175
X427.8671 Y-56.4884
X426.8752 Y-66.4389
X426.8603 Y-66.5084
X426.8304 Y-66.5727
X426.7868 Y-66.6288
X426.7319 Y-66.6738
X426.6684 Y-66.7055
X426.5994 Y-66.7222
X426.5284 Y-66.7231
X413.8078 Y-65.4472
G0 Z6.096
X215.773 Y-39.6752
G1 Z3.556 F508
G2 X215.2486 Y-39.7138 Z2.9126 I-0.0417 J-3.016
X214.7389 Y-39.8429 Z2.2692 I0.4827 J-2.9774
X214.2594 Y-40.0584 Z1.6257 I0.9923 J-2.8483
X213.8246 Y-40.354 Z0.9823 I1.4719 J-2.6327
X213.4477 Y-40.7206 Z0.3389 I1.9067 J-2.3372
X213.1402 Y-41.1471 Z-0.3045 I2.2836 J-1.9706
X212.9115 Y-41.6205 Z-0.948 I2.5911 J-1.5441
X212.7684 Y-42.1264 Z-1.5914 I2.8198 J-1.0707
X212.7153 Y-42.6495 Z-2.2348 I2.9629 J-0.5648
X212.7539 Y-43.1739 Z-2.8782 I3.016 J-0.0417
X212.8829 Y-43.6835 Z-3.5217 I2.9774 J0.4827
X215.4259 Y-45.6919 Z-4.064 I2.8483 J0.9923
X215.9727 Y-40.3188 I0.2734 J2.6866
G1 X216.0037 Y-40.3219
X216.0402 Y-40.3331
X216.0696 Y-40.3575
X216.0875 Y-40.3912
X216.0912 Y-40.4292
X216.0848 Y-40.4912
X216.0736 Y-40.5277
X216.0493 Y-40.5572
X216.0156 Y-40.575
X215.9775 Y-40.5787
X204.099 Y-39.3699
X204.0559 Y-39.3577
X204.0195 Y-39.3315
X203.9944 Y-39.2944
X203.9834 Y-39.251
X203.9879 Y-39.2064
X204.0074 Y-39.166
X204.0395 Y-39.1348
X204.0804 Y-39.1165
X204.1251 Y-39.1132
X215.9727 Y-40.3188
G3 X218.6816 Y-39.3342 I0.3354 J3.2962
G2 X221.2933 Y-40.5537 I1.0933 J-1.0648
G1 X220.9409 Y-44.0145
G3 X221.9061 Y-46.8935 I3.664 J-0.3731
G1 X221.9461 Y-46.9469
X221.974 Y-47.0075
X221.9886 Y-47.0726
X221.9894 Y-47.1393
X221.9761 Y-47.2047
X221.9494 Y-47.2658
X221.9106 Y-47.3201
X221.8612 Y-47.365
X221.8036 Y-47.3985
X221.7402 Y-47.4193
X221.6738 Y-47.4264
X221.6075 Y-47.4194
X221.5441 Y-47.3987
X221.4864 Y-47.3652
X221.437 Y-47.3203
G3 X219.0609 Y-46.1072 I-2.749 J-2.451
G1 X200.4539 Y-44.2137
G3 X197.575 Y-45.1789 I-0.3729 J-3.6641
G1 X197.5216 Y-45.2189
X197.461 Y-45.2468
X197.3959 Y-45.2615
X197.3292 Y-45.2622
X197.2638 Y-45.2489
X197.2027 Y-45.2223
X197.1484 Y-45.1834
X197.1035 Y-45.1341
X197.0699 Y-45.0764
X197.0492 Y-45.013
X197.0421 Y-44.9467
X197.0491 Y-44.8803
X197.0698 Y-44.8169
X197.1033 Y-44.7592
X197.1482 Y-44.7099
G3 X198.3611 Y-42.3341 I-2.4512 J2.7489
G1 X199.0401 Y-35.6651
G3 X198.075 Y-32.786 I-3.664 J0.3731
G1 X198.035 Y-32.7326
X198.0071 Y-32.6721
X197.9924 Y-32.6071
X197.9917 Y-32.5405
X198.005 Y-32.4752
X198.0316 Y-32.4141
X198.0704 Y-32.3599
X198.1197 Y-32.3151
X198.1773 Y-32.2815
X198.2406 Y-32.2608
X198.3069 Y-32.2537
X198.3731 Y-32.2607
X198.4365 Y-32.2813
X198.4941 Y-32.3148
X198.5434 Y-32.3596
G3 X200.9192 Y-33.5722 I2.7486 J2.4515
G1 X219.5272 Y-35.4657
G3 X222.351 Y-34.5506 I0.3728 J3.6641
G1 X222.4086 Y-34.5098
X222.4737 Y-34.4827
X222.5432 Y-34.4707
X222.6137 Y-34.4744
X222.6816 Y-34.4936
X222.7436 Y-34.5273
X222.7966 Y-34.5738
X222.8379 Y-34.631
X222.8657 Y-34.6959
X222.8784 Y-34.7653
X222.8754 Y-34.8357
X222.8569 Y-34.9038
X222.8238 Y-34.9661
X222.7778 Y-35.0196
G3 X221.6199 Y-37.3454 I2.5062 J-2.6988
G1 X221.2933 Y-40.5537
G0 Z6.096
X218.5634 Y-41.6534
G1 Z-1.524 F508
G2 X218.3401 Y-41.1774 Z-2.1674 I-2.8321 J-1.0378
X218.0376 Y-40.7474 Z-2.8108 I-2.6089 J-1.5138
X217.6651 Y-40.3764 Z-3.4543 I-2.3064 J-1.9438
X217.2337 Y-40.0758 Z-4.0977 I-1.9338 J-2.3148
X216.7567 Y-39.8546 Z-4.7411 I-1.5024 J-2.6154
X216.2486 Y-39.7196 Z-5.3845 I-1.0255 J-2.8366
X215.7247 Y-39.6749 Z-6.028 I-0.5173 J-2.9716
X215.2011 Y-39.7219 Z-6.6714 I0.0066 J-3.0162
X214.6935 Y-39.8591 Z-7.3148 I0.5302 J-2.9693
X214.2175 Y-40.0823 Z-7.9582 I1.0378 J-2.8321
X213.7874 Y-40.3848 Z-8.6017 I1.5138 J-2.6089
X215.4259 Y-45.6919 Z-9.017 I1.9438 J-2.3064
X215.9727 Y-40.3188 I0.2734 J2.6866
G1 X216.0037 Y-40.3219
X216.0402 Y-40.3331
X216.0696 Y-40.3575
X216.0875 Y-40.3912
X216.0912 Y-40.4292
X216.0848 Y-40.4912
X216.0736 Y-40.5277
X216.0493 Y-40.5572
X216.0156 Y-40.575
X215.9775 Y-40.5787
X204.099 Y-39.3699
X204.0559 Y-39.3577
X204.0195 Y-39.3315
X203.9944 Y-39.2944
X203.9834 Y-39.251
X203.9879 Y-39.2064
X204.0074 Y-39.166
X204.0395 Y-39.1348
X204.0804 Y-39.1165
X204.1251 Y-39.1132
X215.9727 Y-40.3188
G3 X218.6816 Y-39.3342 I0.3354 J3.2962
G2 X221.2933 Y-40.5537 I1.0933 J-1.0648
G1 X220.9409 Y-44.0145
G3 X221.9061 Y-46.8935 I3.664 J-0.3731
G1 X221.9461 Y-46.9469
X221.974 Y-47.0075
X221.9886 Y-47.0726
X221.9894 Y-47.1393
X221.9761 Y-47.2047
X221.9494 Y-47.2658
X221.9106 Y-47.3201
X221.8612 Y-47.365
X221.8036 Y-47.3985
X221.7402 Y-47.4193
X221.6738 Y-47.4264
X221.6075 Y-47.4194
X221.5441 Y-47.3987
X221.4864 Y-47.3652
X221.437 Y-47.3203
G3 X219.0609 Y-46.1072 I-2.749 J-2.451
G1 X200.4539 Y-44.2137
G3 X197.575 Y-45.1789 I-0.3729 J-3.6641
G1 X197.5216 Y-45.2189
X197.461 Y-45.2468
X197.3959 Y-45.2615
X197.3292 Y-45.2622
X197.2638 Y-45.2489
X197.2027 Y-45.2223
X197.1484 Y-45.1834
X197.1035 Y-45.1341
X197.0699 Y-45.0764
X197.0492 Y-45.013
X197.0421 Y-44.9467
X197.0491 Y-44.8803
X197.0698 Y-44.8169
X197.1033 Y-44.7592
X197.1482 Y-44.7099
G3 X198.3611 Y-42.3341 I-2.4512 J2.7489
G1 X199.0401 Y-35.6651
G3 X198.075 Y-32.786 I-3.664 J0.3731
G1 X198.035 Y-32.7326
X198.0071 Y-32.6721
X197.9924 Y-32.6071
X197.9917 Y-32.5405
X198.005 Y-32.4752
X198.0316 Y-32.4141
X198.0704 Y-32.3599
X198.1197 Y-32.3151
X198.1773 Y-32.2815
X198.2406 Y-32.2608
X198.3069 Y-32.2537
X198.3731 Y-32.2607
X198.4365 Y-32.2813
X198.4941 Y-32.3148
X198.5434 Y-32.3596
G3 X200.9192 Y-33.5722 I2.7486 J2.4515
G1 X219.5272 Y-35.4657
G3 X222.351 Y-34.5506 I0.3728 J3.6641
G1 X222.4086 Y-34.5098
X222.4737 Y-34.4827
X222.5432 Y-34.4707
X222.6137 Y-34.4744
X222.6816 Y-34.4936
X222.7436 Y-34.5273
X222.7966 Y-34.5738
X222.8379 Y-34.631
X222.8657 Y-34.6959
X222.8784 Y-34.7653
X222.8754 Y-34.8357
X222.8569 Y-34.9038
X222.8238 Y-34.9661
X222.7778 Y-35.0196
G3 X221.6199 Y-37.3454 I2.5062 J-2.6988
G1 X221.2933 Y-40.5537
G0 Z6.096
X17.873 Y-19.9937
G1 Z3.556 F508
G2 X17.3487 Y-20.0333 Z2.9126 I-0.0357 J-3.016
X16.8393 Y-20.1634 Z2.2692 I0.4885 J-2.9764
X16.3602 Y-20.3799 Z1.6257 I0.998 J-2.8464
X15.9259 Y-20.6764 Z0.9823 I1.4771 J-2.6298
X15.5498 Y-21.0437 Z0.3389 I1.9113 J-2.3334
X15.2431 Y-21.4708 Z-0.3045 I2.2875 J-1.966
X15.0153 Y-21.9447 Z-0.948 I2.5941 J-1.539
X14.8732 Y-22.4509 Z-1.5914 I2.8219 J-1.0651
X14.8212 Y-22.974 Z-2.2348 I2.964 J-0.5589
X14.8608 Y-23.4983 Z-2.8782 I3.016 J-0.0357
X14.9909 Y-24.0077 Z-3.5217 I2.9764 J0.4885
X17.5378 Y-26.0111 Z-4.064 I2.8464 J0.998
X18.074 Y-20.6369 I0.2681 J2.6871
G1 X19.2768 Y-20.7569
X19.3199 Y-20.769
X19.3563 Y-20.7951
X19.3815 Y-20.8321
X19.3926 Y-20.8755
X19.3881 Y-20.9201
X19.3687 Y-20.9604
X19.3367 Y-20.9917
X19.2959 Y-21.0102
X19.2512 Y-21.0135
X18.0175 Y-20.8905
X17.9809 Y-20.8793
X17.9514 Y-20.855
X17.9334 Y-20.8213
X17.9298 Y-20.7833
X17.9359 Y-20.7215
X17.9471 Y-20.685
X17.9713 Y-20.6555
X18.005 Y-20.6375
X18.0431 Y-20.6338
X18.074 Y-20.6369
G3 X21.4477 Y-19.4214 I0.4133 J4.1427
G2 X24.6928 Y-20.9475 I1.3525 J-1.3373
G1 X24.3062 Y-24.8227
G3 X25.0269 Y-27.4011 I3.6648 J-0.3656
G1 X25.0624 Y-27.4611
X25.0839 Y-27.5274
X25.0904 Y-27.5968
X25.0816 Y-27.6659
X25.058 Y-27.7314
X25.0205 Y-27.7902
X24.9712 Y-27.8394
X24.9122 Y-27.8766
X24.8466 Y-27.9
X24.7774 Y-27.9086
X24.7081 Y-27.9018
X24.6419 Y-27.88
X24.5821 Y-27.8442
X24.5315 Y-27.7963
G3 X22.0851 Y-26.51 I-2.812 J-2.3785
G1 X14.1332 Y-25.7168
G3 X11.5543 Y-26.4378 I-0.3656 J-3.6648
G1 X11.4943 Y-26.4733
X11.4281 Y-26.4949
X11.3587 Y-26.5014
X11.2895 Y-26.4926
X11.224 Y-26.4689
X11.1652 Y-26.4315
X11.116 Y-26.3821
X11.0788 Y-26.3232
X11.0553 Y-26.2575
X11.0468 Y-26.1884
X11.0536 Y-26.119
X11.0754 Y-26.0528
X11.1111 Y-25.9929
X11.1591 Y-25.9424
G3 X12.4453 Y-23.496 I-2.3785 J2.812
G1 X13.0955 Y-16.9788
G3 X12.1945 Y-14.1789 I-3.6648 J0.3656
G1 X12.1557 Y-14.124
X12.1293 Y-14.0621
X12.1165 Y-13.9961
X12.118 Y-13.9289
X12.1336 Y-13.8634
X12.1627 Y-13.8028
X12.204 Y-13.7496
X12.2555 Y-13.7064
X12.3149 Y-13.675
X12.3797 Y-13.6568
X12.4469 Y-13.6528
X12.5133 Y-13.663
X12.5762 Y-13.6869
X12.6325 Y-13.7236
X12.6799 Y-13.7714
G3 X15.1902 Y-15.1354 I2.8759 J2.3008
G1 X23.1361 Y-15.9281
G3 X25.863 Y-15.0897 I0.3656 J3.6648
G1 X25.9221 Y-15.0506
X25.9885 Y-15.0257
X26.0586 Y-15.0161
X26.1292 Y-15.0223
X26.1967 Y-15.044
X26.2576 Y-15.0802
X26.3089 Y-15.129
X26.3482 Y-15.188
X26.3733 Y-15.2542
X26.3832 Y-15.3244
X26.3772 Y-15.395
X26.3556 Y-15.4625
X26.3196 Y-15.5235
X26.271 Y-15.575
G3 X24.9847 Y-18.0214 I2.3785 J-2.812
G1 X24.6928 Y-20.9475
G0 Z6.096
X20.6673 Y-21.9664
G1 Z-1.524 F508
G2 X20.4431 Y-21.4908 Z-2.1674 I-2.83 J-1.0434
X20.1398 Y-21.0614 Z-2.8108 I-2.6059 J-1.5189
X19.7664 Y-20.6912 Z-3.4543 I-2.3025 J-1.9484
X19.3345 Y-20.3914 Z-4.0977 I-1.9292 J-2.3186
X18.8571 Y-20.1712 Z-4.7411 I-1.4973 J-2.6184
X18.3487 Y-20.0372 Z-5.3845 I-1.0199 J-2.8386
X17.8247 Y-19.9935 Z-6.028 I-0.5114 J-2.9726
X17.3012 Y-20.0415 Z-6.6714 I0.0125 J-3.0162
X16.7939 Y-20.1797 Z-7.3148 I0.5361 J-2.9682
X16.3183 Y-20.4039 Z-7.9582 I1.0434 J-2.83
X15.8889 Y-20.7073 Z-8.6017 I1.5189 J-2.6059
X17.5378 Y-26.0111 Z-9.017 I1.9484 J-2.3025
X18.074 Y-20.6369 I0.2681 J2.6871
G1 X19.2768 Y-20.7569
X19.3199 Y-20.769
X19.3563 Y-20.7951
X19.3815 Y-20.8321
X19.3926 Y-20.8755
X19.3881 Y-20.9201
X19.3687 Y-20.9604
X19.3367 Y-20.9917
X19.2959 Y-21.0102
X19.2512 Y-21.0135
X18.0175 Y-20.8905
X17.9809 Y-20.8793
X17.9514 Y-20.855
X17.9334 Y-20.8213
X17.9298 Y-20.7833
X17.9359 Y-20.7215
X17.9471 Y-20.685
X17.9713 Y-20.6555
X18.005 Y-20.6375
X18.0431 Y-20.6338
X18.074 Y-20.6369
G3 X21.4477 Y-19.4214 I0.4133 J4.1427
G2 X24.6928 Y-20.9475 I1.3525 J-1.3373
G1 X24.3062 Y-24.8227
G3 X25.0269 Y-27.4011 I3.6648 J-0.3656
G1 X25.0624 Y-27.4611
X25.0839 Y-27.5274
X25.0904 Y-27.5968
X25.0816 Y-27.6659
X25.058 Y-27.7314
X25.0205 Y-27.7902
X24.9712 Y-27.8394
X24.9122 Y-27.8766
X24.8466 Y-27.9
X24.7774 Y-27.9086
X24.7081 Y-27.9018
X24.6419 Y-27.88
X24.5821 Y-27.8442
X24.5315 Y-27.7963
G3 X22.0851 Y-26.51 I-2.812 J-2.3785
G1 X14.1332 Y-25.7168
G3 X11.5543 Y-26.4378 I-0.3656 J-3.6648
G1 X11.4943 Y-26.4733
X11.4281 Y-26.4949
X11.3587 Y-26.5014
X11.2895 Y-26.4926
X11.224 Y-26.4689
X11.1652 Y-26.4315
X11.116 Y-26.3821
X11.0788 Y-26.3232
X11.0553 Y-26.2575
X11.0468 Y-26.1884
X11.0536 Y-26.119
X11.0754 Y-26.0528
X11.1111 Y-25.9929
X11.1591 Y-25.9424
G3 X12.4453 Y-23.496 I-2.3785 J2.812
G1 X13.0955 Y-16.9788
G3 X12.1945 Y-14.1789 I-3.6648 J0.3656
G1 X12.1557 Y-14.124
X12.1293 Y-14.0621
X12.1165 Y-13.9961
X12.118 Y-13.9289
X12.1336 Y-13.8634
X12.1627 Y-13.8028
X12.204 Y-13.7496
X12.2555 Y-13.7064
X12.3149 Y-13.675
X12.3797 Y-13.6568
X12.4469 Y-13.6528
X12.5133 Y-13.663
X12.5762 Y-13.6869
X12.6325 Y-13.7236
X12.6799 Y-13.7714
G3 X15.1902 Y-15.1354 I2.8759 J2.3008
G1 X23.1361 Y-15.9281
G3 X25.863 Y-15.0897 I0.3656 J3.6648
G1 X25.9221 Y-15.0506
X25.9885 Y-15.0257
X26.0586 Y-15.0161
X26.1292 Y-15.0223
X26.1967 Y-15.044
X26.2576 Y-15.0802
X26.3089 Y-15.129
X26.3482 Y-15.188
X26.3733 Y-15.2542
X26.3832 Y-15.3244
X26.3772 Y-15.395
X26.3556 Y-15.4625
X26.3196 Y-15.5235
X26.271 Y-15.575
G3 X24.9847 Y-18.0214 I2.3785 J-2.812
G1 X24.6928 Y-20.9475
G0 Z6.096
X-14.6738 Y-259.7478
G1 Z3.556 F508
G2 X-14.7709 Y-259.231 Z2.9126 I-3.0016 J-0.2966
X-14.9562 Y-258.739 Z2.2692 I-2.9045 J-0.8133
X-15.2242 Y-258.2867 Z1.6257 I-2.7192 J-1.3053
X-15.5666 Y-257.8877 Z0.9823 I-2.4512 J-1.7577
X-15.9732 Y-257.5543 Z0.3389 I-2.1088 J-2.1566
X-16.4314 Y-257.2966 Z-0.3045 I-1.7022 J-2.49
X-16.9275 Y-257.1223 Z-0.948 I-1.244 J-2.7478
X-17.4462 Y-257.0368 Z-1.5914 I-0.7479 J-2.922
X-17.972 Y-257.0427 Z-2.2348 I-0.2292 J-3.0075
X-18.4887 Y-257.1398 Z-2.8782 I0.2966 J-3.0016
X-18.9807 Y-257.3252 Z-3.5217 I0.8133 J-2.9045
X-20.6915 Y-260.0772 Z-4.064 I1.3053 J-2.7192
G1 X-20.6916 Y-260.0669
X-20.6856 Y-260.026
X-20.6672 Y-259.9889
X-20.6382 Y-259.9593
X-20.6016 Y-259.9401
X-20.5608 Y-259.9332
X-20.0496 Y-259.9277
X-20.0055 Y-259.9342
X-19.9655 Y-259.954
X-19.9336 Y-259.9852
X-19.913 Y-260.0247
X-19.9055 Y-260.0687
X-19.912 Y-260.1128
X-19.9318 Y-260.1528
X-19.963 Y-260.1847
X-20.0025 Y-260.2054
X-20.0465 Y-260.2128
X-20.5577 Y-260.2184
X-20.5986 Y-260.2123
X-20.6357 Y-260.1939
X-20.6653 Y-260.165
X-20.6844 Y-260.1284
X-20.6914 Y-260.0876
X-20.6915 Y-260.0772
G3 X-22.0549 Y-257.5225 I-3.1392 J-0.0342
G2 X-21.2125 Y-254.752 I0.8589 J1.2522
G1 X-16.6624 Y-254.7028
G3 X-14.0438 Y-253.569 I-0.0398 J3.6828
G1 X-13.9928 Y-253.526
X-13.934 Y-253.4946
X-13.87 Y-253.4762
X-13.8035 Y-253.4716
X-13.7375 Y-253.4811
X-13.6749 Y-253.5041
X-13.6186 Y-253.5397
X-13.5709 Y-253.5863
X-13.5341 Y-253.6419
X-13.5097 Y-253.7039
X-13.4988 Y-253.7696
X-13.5019 Y-253.8362
X-13.5189 Y-253.9007
X-13.549 Y-253.9602
X-13.5909 Y-254.012
G3 X-14.6671 Y-256.6541 I2.6066 J-2.602
G1 X-14.5939 Y-263.3682
G3 X-13.4603 Y-265.9862 I3.6828 J0.0402
G1 X-13.4173 Y-266.0372
X-13.3859 Y-266.096
X-13.3675 Y-266.1601
X-13.363 Y-266.2267
X-13.3724 Y-266.2927
X-13.3955 Y-266.3553
X-13.4311 Y-266.4117
X-13.4778 Y-266.4593
X-13.5333 Y-266.4962
X-13.5954 Y-266.5206
X-13.6612 Y-266.5315
X-13.7278 Y-266.5284
X-13.7924 Y-266.5114
X-13.8519 Y-266.4813
X-13.9038 Y-266.4394
G3 X-16.5455 Y-265.3632 I-2.6019 J-2.6066
G1 X-23.8472 Y-265.4422
G3 X-26.4654 Y-266.5756 I0.0398 J-3.6828
G1 X-26.5163 Y-266.6185
X-26.5751 Y-266.6499
X-26.6392 Y-266.6683
X-26.7057 Y-266.6729
X-26.7716 Y-266.6634
X-26.8342 Y-266.6404
X-26.8905 Y-266.6048
X-26.9381 Y-266.5582
X-26.975 Y-266.5026
X-26.9994 Y-266.4406
X-27.0103 Y-266.3749
X-27.0072 Y-266.3083
X-26.9902 Y-266.2438
X-26.9601 Y-266.1844
X-26.9183 Y-266.1325
G3 X-25.8425 Y-263.4908 I-2.607 J2.6015
G1 X-25.9157 Y-256.7769
G3 X-27.0493 Y-254.1588 I-3.6828 J-0.0401
G1 X-27.0923 Y-254.1079
X-27.1237 Y-254.049
X-27.1421 Y-253.9849
X-27.1466 Y-253.9183
X-27.1372 Y-253.8523
X-27.1141 Y-253.7897
X-27.0785 Y-253.7333
X-27.0318 Y-253.6857
X-26.9762 Y-253.6488
X-26.9142 Y-253.6244
X-26.8484 Y-253.6135
X-26.7817 Y-253.6166
X-26.7172 Y-253.6336
X-26.6577 Y-253.6637
X-26.6058 Y-253.7056
G3 X-23.9641 Y-254.7818 I2.6019 J2.6066
G1 X-21.2125 Y-254.752
G0 Z6.096
X-16.3268 Y-262.7423
G1 Z-1.524 F508
G2 X-15.8787 Y-262.4671 Z-2.1674 I-1.3486 J2.698
X-15.4853 Y-262.1183 Z-2.8108 I-1.7967 J2.4228
X-15.1585 Y-261.7065 Z-3.4543 I-2.1901 J2.074
X-14.9081 Y-261.2442 Z-4.0977 I-2.5169 J1.6622
X-14.7418 Y-260.7454 Z-4.7411 I-2.7673 J1.1999
X-14.6646 Y-260.2254 Z-5.3845 I-2.9336 J0.7011
X-14.6789 Y-259.6998 Z-6.028 I-3.0108 J0.181
X-14.7842 Y-259.1847 Z-6.6714 I-2.9965 J-0.3446
X-14.9774 Y-258.6957 Z-7.3148 I-2.8912 J-0.8597
X-15.2526 Y-258.2477 Z-7.9582 I-2.698 J-1.3486
X-15.6014 Y-257.8543 Z-8.6017 I-2.4228 J-1.7966
X-20.6915 Y-260.0772 Z-9.017 I-2.074 J-2.1901
G1 X-20.6916 Y-260.0669
X-20.6856 Y-260.026
X-20.6672 Y-259.9889
X-20.6382 Y-259.9593
X-20.6016 Y-259.9401
X-20.5608 Y-259.9332
X-20.0496 Y-259.9277
X-20.0055 Y-259.9342
X-19.9655 Y-259.954
X-19.9336 Y-259.9852
X-19.913 Y-260.0247
X-19.9055 Y-260.0687
X-19.912 Y-260.1128
X-19.9318 Y-260.1528
X-19.963 Y-260.1847
X-20.0025 Y-260.2054
X-20.0465 Y-260.2128
X-20.5577 Y-260.2184
X-20.5986 Y-260.2123
X-20.6357 Y-260.1939
X-20.6653 Y-260.165
X-20.6844 Y-260.1284
X-20.6914 Y-260.0876
X-20.6915 Y-260.0772
G3 X-22.0549 Y-257.5225 I-3.1392 J-0.0342
G2 X-21.2125 Y-254.752 I0.8589 J1.2522
G1 X-16.6624 Y-254.7028
G3 X-14.0438 Y-253.569 I-0.0398 J3.6828
G1 X-13.9928 Y-253.526
X-13.934 Y-253.4946
X-13.87 Y-253.4762
X-13.8035 Y-253.4716
X-13.7375 Y-253.4811
X-13.6749 Y-253.5041
X-13.6186 Y-253.5397
X-13.5709 Y-253.5863
X-13.5341 Y-253.6419
X-13.5097 Y-253.7039
X-13.4988 Y-253.7696
X-13.5019 Y-253.8362
X-13.5189 Y-253.9007
X-13.549 Y-253.9602
X-13.5909 Y-254.012
G3 X-14.6671 Y-256.6541 I2.6066 J-2.602
G1 X-14.5939 Y-263.3682
G3 X-13.4603 Y-265.9862 I3.6828 J0.0402
G1 X-13.4173 Y-266.0372
X-13.3859 Y-266.096
X-13.3675 Y-266.1601
X-13.363 Y-266.2267
X-13.3724 Y-266.2927
X-13.3955 Y-266.3553
X-13.4311 Y-266.4117
X-13.4778 Y-266.4593
X-13.5333 Y-266.4962
X-13.5954 Y-266.5206
X-13.6612 Y-266.5315
X-13.7278 Y-266.5284
X-13.7924 Y-266.5114
X-13.8519 Y-266.4813
X-13.9038 Y-266.4394
G3 X-16.5455 Y-265.3632 I-2.6019 J-2.6066
G1 X-23.8472 Y-265.4422
G3 X-26.4654 Y-266.5756 I0.0398 J-3.6828
G1 X-26.5163 Y-266.6185
X-26.5751 Y-266.6499
X-26.6392 Y-266.6683
X-26.7057 Y-266.6729
X-26.7716 Y-266.6634
X-26.8342 Y-266.6404
X-26.8905 Y-266.6048
X-26.9381 Y-266.5582
X-26.975 Y-266.5026
X-26.9994 Y-266.4406
X-27.0103 Y-266.3749
X-27.0072 Y-266.3083
X-26.9902 Y-266.2438
X-26.9601 Y-266.1844
X-26.9183 Y-266.1325
G3 X-25.8425 Y-263.4908 I-2.607 J2.6015
G1 X-25.9157 Y-256.7769
G3 X-27.0493 Y-254.1588 I-3.6828 J-0.0401
G1 X-27.0923 Y-254.1079
X-27.1237 Y-254.049
X-27.1421 Y-253.9849
X-27.1466 Y-253.9183
X-27.1372 Y-253.8523
X-27.1141 Y-253.7897
X-27.0785 Y-253.7333
X-27.0318 Y-253.6857
X-26.9762 Y-253.6488
X-26.9142 Y-253.6244
X-26.8484 Y-253.6135
X-26.7817 Y-253.6166
X-26.7172 Y-253.6336
X-26.6577 Y-253.6637
X-26.6058 Y-253.7056
G3 X-23.9641 Y-254.7818 I2.6019 J2.6066
G1 X-21.2125 Y-254.752
G0 Z6.096
X16.7905 Y-330.1591
G1 Z3.556 F508
G2 X17.3081 Y-330.0667 Z2.9126 I-0.2695 J3.0042
X17.8018 Y-329.8857 Z2.2692 I-0.7871 J2.9118
X18.2565 Y-329.6219 Z1.6257 I-1.2807 J2.7309
X18.6585 Y-329.283 Z0.9823 I-1.7355 J2.467
X18.9956 Y-328.8795 Z0.3389 I-2.1375 J2.1281
X19.2575 Y-328.4236 Z-0.3045 I-2.4746 J1.7246
X19.4362 Y-327.9291 Z-0.948 I-2.7364 J1.2687
X19.5264 Y-327.4112 Z-1.5914 I-2.9152 J0.7743
X19.5252 Y-326.8854 Z-2.2348 I-3.0053 J0.2563
X19.4328 Y-326.3678 Z-2.8782 I-3.0042 J-0.2695
X19.2519 Y-325.8742 Z-3.5217 I-2.9118 J-0.787
X16.5154 Y-324.1386 Z-4.064 I-2.7308 J-1.2807
X16.5255 Y-329.5388 I0.0051 J-2.7001
G1 X16.4979
X16.4977
X16.4603 Y-329.5314
X16.4285 Y-329.5102
X16.4073 Y-329.4785
X16.3998 Y-329.4411
X16.3997 Y-329.3858
Y-329.3857
X16.4071 Y-329.3482
X16.4283 Y-329.3165
X16.46 Y-329.2953
X16.4974 Y-329.2878
X98.4053 Y-329.1344
X98.4055
X98.4443 Y-329.1405
X98.4792 Y-329.1583
X98.507 Y-329.186
X98.5249 Y-329.221
X98.5311 Y-329.2597
Y-329.2599
X98.5249 Y-329.2987
X98.5071 Y-329.3336
X98.4794 Y-329.3614
X98.4445 Y-329.3793
X98.4057 Y-329.3855
X16.5255 Y-329.5388
G3 X13.9634 Y-330.8666 I0.0059 J-3.1472
G2 X11.2128 Y-329.9938 I-1.2359 J0.8756
G1 X11.2055 Y-326.0831
G3 X10.0956 Y-323.4549 I-3.683 J-0.0069
G1 X10.0531 Y-323.4036
X10.0222 Y-323.3444
X10.0044 Y-323.2802
X10.0005 Y-323.2136
X10.0105 Y-323.1477
X10.0341 Y-323.0854
X10.0702 Y-323.0293
X10.1173 Y-322.9821
X10.1732 Y-322.9457
X10.2355 Y-322.9219
X10.3014 Y-322.9116
X10.3679 Y-322.9153
X10.4323 Y-322.9329
X10.4915 Y-322.9635
X10.543 Y-323.0059
G3 X13.1754 Y-324.106 I2.6255 J2.5829
G1 X101.8279 Y-323.94
G3 X104.4555 Y-322.8307 I-0.0069 J3.683
G1 X104.5068 Y-322.7882
X104.5659 Y-322.7573
X104.6302 Y-322.7395
X104.6967 Y-322.7356
X104.7626 Y-322.7456
X104.825 Y-322.7692
X104.881 Y-322.8054
X104.9283 Y-322.8524
X104.9646 Y-322.9083
X104.9885 Y-322.9706
X104.9988 Y-323.0365
X104.995 Y-323.103
X104.9775 Y-323.1673
X104.9469 Y-323.2266
X104.9045 Y-323.2781
G3 X103.805 Y-325.9096 I2.5835 J-2.6249
G1 X103.817 Y-332.5896
G3 X104.9272 Y-335.2184 I3.683 J0.0066
G1 X104.9698 Y-335.2697
X105.0006 Y-335.3289
X105.0185 Y-335.3931
X105.0224 Y-335.4597
X105.0124 Y-335.5256
X104.9888 Y-335.588
X104.9526 Y-335.644
X104.9056 Y-335.6913
X104.8497 Y-335.7276
X104.7874 Y-335.7515
X104.7215 Y-335.7618
X104.6549 Y-335.758
X104.5906 Y-335.7405
X104.5313 Y-335.7098
X104.4798 Y-335.6674
G3 X101.8471 Y-334.567 I-2.6258 J-2.5826
G1 X13.1953 Y-334.733
G3 X10.5674 Y-335.8427 I0.0069 J-3.683
G1 X10.516 Y-335.8852
X10.4569 Y-335.9161
X10.3926 Y-335.9339
X10.326 Y-335.9378
X10.2601 Y-335.9278
X10.1977 Y-335.9042
X10.1417 Y-335.868
X10.0944 Y-335.821
X10.0581 Y-335.765
X10.0342 Y-335.7028
X10.0239 Y-335.6369
X10.0277 Y-335.5703
X10.0452 Y-335.506
X10.0759 Y-335.4467
X10.1182 Y-335.3952
G3 X11.218 Y-332.7631 I-2.5832 J2.6252
G1 X11.2128 Y-329.9938
G0 Z6.096
X13.811 Y-328.4791
G1 Z-1.524 F508
G2 X14.0822 Y-328.9296 Z-2.1674 I2.71 J1.3242
X14.4274 Y-329.3261 Z-2.8108 I2.4389 J1.7747
X14.8362 Y-329.6567 Z-3.4543 I2.0937 J2.1713
X15.2963 Y-329.9113 Z-4.0977 I1.6848 J2.5018
X15.7935 Y-330.0821 Z-4.7411 I1.2248 J2.7564
X16.3129 Y-330.1639 Z-5.3845 I0.7275 J2.9272
X16.8386 Y-330.1544 Z-6.028 I0.2082 J3.0091
X17.3546 Y-330.0537 Z-6.6714 I-0.3175 J2.9995
X17.8453 Y-329.8649 Z-7.3148 I-0.8335 J2.8988
X18.2958 Y-329.5938 Z-7.9582 I-1.3242 J2.71
X18.6923 Y-329.2485 Z-8.6017 I-1.7747 J2.4389
X16.5154 Y-324.1386 Z-9.017 I-2.1713 J2.0937
X16.5255 Y-329.5388 I0.0051 J-2.7001
G1 X16.4979
X16.4977
X16.4603 Y-329.5314
X16.4285 Y-329.5102
X16.4073 Y-329.4785
X16.3998 Y-329.4411
X16.3997 Y-329.3858
Y-329.3857
X16.4071 Y-329.3482
X16.4283 Y-329.3165
X16.46 Y-329.2953
X16.4974 Y-329.2878
X98.4053 Y-329.1344
X98.4055
X98.4443 Y-329.1405
X98.4792 Y-329.1583
X98.507 Y-329.186
X98.5249 Y-329.221
X98.5311 Y-329.2597
Y-329.2599
X98.5249 Y-329.2987
X98.5071 Y-329.3336
X98.4794 Y-329.3614
X98.4445 Y-329.3793
X98.4057 Y-329.3855
X16.5255 Y-329.5388
G3 X13.9634 Y-330.8666 I0.0059 J-3.1472
G2 X11.2128 Y-329.9938 I-1.2359 J0.8756
G1 X11.2055 Y-326.0831
G3 X10.0956 Y-323.4549 I-3.683 J-0.0069
G1 X10.0531 Y-323.4036
X10.0222 Y-323.3444
X10.0044 Y-323.2802
X10.0005 Y-323.2136
X10.0105 Y-323.1477
X10.0341 Y-323.0854
X10.0702 Y-323.0293
X10.1173 Y-322.9821
X10.1732 Y-322.9457
X10.2355 Y-322.9219
X10.3014 Y-322.9116
X10.3679 Y-322.9153
X10.4323 Y-322.9329
X10.4915 Y-322.9635
X10.543 Y-323.0059
G3 X13.1754 Y-324.106 I2.6255 J2.5829
G1 X101.8279 Y-323.94
G3 X104.4555 Y-322.8307 I-0.0069 J3.683
G1 X104.5068 Y-322.7882
X104.5659 Y-322.7573
X104.6302 Y-322.7395
X104.6967 Y-322.7356
X104.7626 Y-322.7456
X104.825 Y-322.7692
X104.881 Y-322.8054
X104.9283 Y-322.8524
X104.9646 Y-322.9083
X104.9885 Y-322.9706
X104.9988 Y-323.0365
X104.995 Y-323.103
X104.9775 Y-323.1673
X104.9469 Y-323.2266
X104.9045 Y-323.2781
G3 X103.805 Y-325.9096 I2.5835 J-2.6249
G1 X103.817 Y-332.5896
G3 X104.9272 Y-335.2184 I3.683 J0.0066
G1 X104.9698 Y-335.2697
X105.0006 Y-335.3289
X105.0185 Y-335.3931
X105.0224 Y-335.4597
X105.0124 Y-335.5256
X104.9888 Y-335.588
X104.9526 Y-335.644
X104.9056 Y-335.6913
X104.8497 Y-335.7276
X104.7874 Y-335.7515
X104.7215 Y-335.7618
X104.6549 Y-335.758
X104.5906 Y-335.7405
X104.5313 Y-335.7098
X104.4798 Y-335.6674
G3 X101.8471 Y-334.567 I-2.6258 J-2.5826
G1 X13.1953 Y-334.733
G3 X10.5674 Y-335.8427 I0.0069 J-3.683
G1 X10.516 Y-335.8852
X10.4569 Y-335.9161
X10.3926 Y-335.9339
X10.326 Y-335.9378
X10.2601 Y-335.9278
X10.1977 Y-335.9042
X10.1417 Y-335.868
X10.0944 Y-335.821
X10.0581 Y-335.765
X10.0342 Y-335.7028
X10.0239 Y-335.6369
X10.0277 Y-335.5703
X10.0452 Y-335.506
X10.0759 Y-335.4467
X10.1182 Y-335.3952
G3 X11.218 Y-332.7631 I-2.5832 J2.6252
G1 X11.2128 Y-329.9938
G0 Z6.096
X-7.0336 Y-384.1023
G1 Z3.556 F508
G2 X-6.5121 Y-384.0353 Z2.9126 I-0.1217 J3.0138
X-6.0102 Y-383.8789 Z2.2692 I-0.6432 J2.9469
X-5.543 Y-383.6376 Z1.6257 I-1.1451 J2.7904
X-5.1248 Y-383.3189 Z0.9823 I-1.6123 J2.5492
X-4.7684 Y-382.9325 Z0.3389 I-2.0305 J2.2305
X-4.4844 Y-382.49 Z-0.3045 I-2.3869 J1.844
X-4.2816 Y-382.0049 Z-0.948 I-2.6709 J1.4015
X-4.1662 Y-381.492 Z-1.5914 I-2.8737 J0.9164
X-4.1415 Y-380.9668 Z-2.2348 I-2.9891 J0.4035
X-4.2084 Y-380.4453 Z-2.8782 I-3.0138 J-0.1217
X-4.3649 Y-379.9433 Z-3.5217 I-2.9469 J-0.6432
X-7.0129 Y-378.0756 Z-4.064 I-2.7904 J-1.1451
X-7.2679 Y-383.4705 I-0.1275 J-2.6974
G1 X-8.4753 Y-383.4134
X-8.519 Y-383.4036
X-8.5567 Y-383.3794
X-8.5838 Y-383.3437
X-8.5972 Y-383.3009
X-8.5951 Y-383.2562
X-8.5778 Y-383.2148
X-8.5474 Y-383.1819
X-8.5075 Y-383.1613
X-8.4631 Y-383.1556
X-7.2246 Y-383.2141
X-7.1875 Y-383.2233
X-7.1568 Y-383.246
X-7.1371 Y-383.2788
X-7.1314 Y-383.3165
X-7.1343 Y-383.3788
X-7.1436 Y-383.4159
X-7.1663 Y-383.4466
X-7.199 Y-383.4663
X-7.2368 Y-383.472
X-7.2679 Y-383.4705
G3 X-10.5338 Y-384.9708 I-0.1845 J-3.9033
G2 X-13.9041 Y-383.7224 I-1.4868 J1.1595
G1 X-13.7169 Y-379.7587
G3 X-14.6321 Y-377.1506 I-3.6789 J0.1737
G1 X-14.6722 Y-377.0935
X-14.6988 Y-377.0291
X-14.7107 Y-376.9603
X-14.7073 Y-376.8907
X-14.6887 Y-376.8235
X-14.6559 Y-376.7619
X-14.6105 Y-376.7091
X-14.5546 Y-376.6674
X-14.491 Y-376.6389
X-14.4226 Y-376.6251
X-14.3529 Y-376.6265
X-14.2852 Y-376.6431
X-14.2227 Y-376.6741
X-14.1686 Y-376.718
G3 X-11.7228 Y-377.8079 I2.6195 J2.589
G1 X-3.7403 Y-378.1849
G3 X-1.1324 Y-377.2699 I0.1737 J3.6789
G1 X-1.0753 Y-377.2299
X-1.0109 Y-377.2032
X-0.9421 Y-377.1914
X-0.8725 Y-377.1948
X-0.8052 Y-377.2133
X-0.7437 Y-377.2461
X-0.6908 Y-377.2916
X-0.6491 Y-377.3475
X-0.6206 Y-377.4112
X-0.6068 Y-377.4795
X-0.6082 Y-377.5492
X-0.6248 Y-377.617
X-0.6558 Y-377.6795
X-0.6997 Y-377.7336
G3 X-1.7895 Y-380.1793 I2.5891 J-2.6194
G1 X-2.1118 Y-387.0063
G3 X-1.1967 Y-389.6144 I3.6789 J-0.1737
G1 X-1.1561 Y-389.6725
X-1.1294 Y-389.7381
X-1.118 Y-389.808
X-1.1223 Y-389.8787
X-1.1423 Y-389.9467
X-1.1769 Y-390.0085
X-1.2243 Y-390.0612
X-1.2822 Y-390.1019
X-1.3478 Y-390.1288
X-1.4177 Y-390.1405
X-1.4884 Y-390.1363
X-1.5564 Y-390.1166
X-1.6184 Y-390.0822
X-1.6712 Y-390.0349
G3 X-4.2462 Y-388.8071 I-2.7489 J-2.4511
G1 X-12.2226 Y-388.4301
G3 X-14.9056 Y-389.4129 I-0.1739 J-3.6789
G1 X-14.9594 Y-389.4533
X-15.0206 Y-389.4813
X-15.0862 Y-389.4959
X-15.1535 Y-389.4962
X-15.2193 Y-389.4824
X-15.2807 Y-389.455
X-15.3349 Y-389.4152
X-15.3796 Y-389.3649
X-15.4126 Y-389.3064
X-15.4325 Y-389.2421
X-15.4384 Y-389.1751
X-15.43 Y-389.1084
X-15.4078 Y-389.045
X-15.3727 Y-388.9876
X-15.3262 Y-388.939
G3 X-14.0258 Y-386.3007 I-2.3785 J2.812
G1 X-13.9041 Y-383.7224
G0 Z6.096
X-9.927 Y-382.2781
G1 Z-1.524 F508
G2 X-9.6784 Y-382.7413 Z-2.1674 I2.7717 J1.1896
X-9.353 Y-383.1544 Z-2.8108 I2.5231 J1.6529
X-8.9609 Y-383.5046 Z-3.4543 I2.1977 J2.0659
X-8.5139 Y-383.7814 Z-4.0977 I1.8056 J2.4161
X-8.0256 Y-383.9764 Z-4.7411 I1.3586 J2.693
X-7.5109 Y-384.0837 Z-5.3845 I0.8703 J2.888
X-6.9854 Y-384.0999 Z-6.028 I0.3556 J2.9952
X-6.465 Y-384.0247 Z-6.6714 I-0.1699 J3.0115
X-5.9657 Y-383.8602 Z-7.3148 I-0.6903 J2.9362
X-5.5024 Y-383.6115 Z-7.9582 I-1.1896 J2.7717
X-5.0894 Y-383.2862 Z-8.6017 I-1.6529 J2.523
X-7.0129 Y-378.0756 Z-9.017 I-2.0659 J2.1977
X-7.2679 Y-383.4705 I-0.1275 J-2.6974
G1 X-8.4753 Y-383.4134
X-8.519 Y-383.4036
X-8.5567 Y-383.3794
X-8.5838 Y-383.3437
X-8.5972 Y-383.3009
X-8.5951 Y-383.2562
X-8.5778 Y-383.2148
X-8.5474 Y-383.1819
X-8.5075 Y-383.1613
X-8.4631 Y-383.1556
X-7.2246 Y-383.2141
X-7.1875 Y-383.2233
X-7.1568 Y-383.246
X-7.1371 Y-383.2788
X-7.1314 Y-383.3165
X-7.1343 Y-383.3788
X-7.1436 Y-383.4159
X-7.1663 Y-383.4466
X-7.199 Y-383.4663
X-7.2368 Y-383.472
X-7.2679 Y-383.4705
G3 X-10.5338 Y-384.9708 I-0.1845 J-3.9033
G2 X-13.9041 Y-383.7224 I-1.4868 J1.1595
G1 X-13.7169 Y-379.7587
G3 X-14.6321 Y-377.1506 I-3.6789 J0.1737
G1 X-14.6722 Y-377.0935
X-14.6988 Y-377.0291
X-14.7107 Y-376.9603
X-14.7073 Y-376.8907
X-14.6887 Y-376.8235
X-14.6559 Y-376.7619
X-14.6105 Y-376.7091
X-14.5546 Y-376.6674
X-14.491 Y-376.6389
X-14.4226 Y-376.6251
X-14.3529 Y-376.6265
X-14.2852 Y-376.6431
X-14.2227 Y-376.6741
X-14.1686 Y-376.718
G3 X-11.7228 Y-377.8079 I2.6195 J2.589
G1 X-3.7403 Y-378.1849
G3 X-1.1324 Y-377.2699 I0.1737 J3.6789
G1 X-1.0753 Y-377.2299
X-1.0109 Y-377.2032
X-0.9421 Y-377.1914
X-0.8725 Y-377.1948
X-0.8052 Y-377.2133
X-0.7437 Y-377.2461
X-0.6908 Y-377.2916
X-0.6491 Y-377.3475
X-0.6206 Y-377.4112
X-0.6068 Y-377.4795
X-0.6082 Y-377.5492
X-0.6248 Y-377.617
X-0.6558 Y-377.6795
X-0.6997 Y-377.7336
G3 X-1.7895 Y-380.1793 I2.5891 J-2.6194
G1 X-2.1118 Y-387.0063
G3 X-1.1967 Y-389.6144 I3.6789 J-0.1737
G1 X-1.1561 Y-389.6725
X-1.1294 Y-389.7381
X-1.118 Y-389.808
X-1.1223 Y-389.8787
X-1.1423 Y-389.9467
X-1.1769 Y-390.0085
X-1.2243 Y-390.0612
X-1.2822 Y-390.1019
X-1.3478 Y-390.1288
X-1.4177 Y-390.1405
X-1.4884 Y-390.1363
X-1.5564 Y-390.1166
X-1.6184 Y-390.0822
X-1.6712 Y-390.0349
G3 X-4.2462 Y-388.8071 I-2.7489 J-2.4511
G1 X-12.2226 Y-388.4301
G3 X-14.9056 Y-389.4129 I-0.1739 J-3.6789
G1 X-14.9594 Y-389.4533
X-15.0206 Y-389.4813
X-15.0862 Y-389.4959
X-15.1535 Y-389.4962
X-15.2193 Y-389.4824
X-15.2807 Y-389.455
X-15.3349 Y-389.4152
X-15.3796 Y-389.3649
X-15.4126 Y-389.3064
X-15.4325 Y-389.2421
X-15.4384 Y-389.1751
X-15.43 Y-389.1084
X-15.4078 Y-389.045
X-15.3727 Y-388.9876
X-15.3262 Y-388.939
G3 X-14.0258 Y-386.3007 I-2.3785 J2.812
G1 X-13.9041 Y-383.7224
G0 Z11.176

(Operation 3 of 4 : Drill2)

G54
S5000 M3
X-743.2757 Y-450.5145
Z6.096
G1 Z-13.984 F508
G0 Z6.096
X-673.0741 Y-456.895
G1 Z-13.984 F508
G0 Z6.096
X-593.6593 Y-464.0733
G1 Z-13.984 F508
G0 Z6.096
X-520.1552 Y-470.8118
G1 Z-13.984 F508
G0 Z6.096
X-510.088 Y-410.3421
G1 Z-13.984 F508
G0 Z6.096
X-353.499 Y-485.9252
G1 Z-13.984 F508
G0 Z6.096
X-441.0693 Y-477.9615
G1 Z-13.984 F508
G0 Z6.096
X-422.1568 Y-410.041
G1 Z-13.984 F508
G0 Z6.096
X-342.7488 Y-409.8113
G1 Z-13.984 F508
G0 Z6.096
X-268.9371 Y-409.5047
G1 Z-13.984 F508
G0 Z6.096
X-189.1988 Y-409.2752
G1 Z-13.984 F508
G0 Z6.096
X-118.7083 Y-409.0374
G1 Z-13.984 F508
G0 Z6.096

(Operation 4 of 4 : Drill1)

G54
S5000 M3
X71.7134 Y38.985
Z6.096
G1 Z-19.05 F508
G0 Z6.096
X1.2224 Y38.752
G1 Z-19.05 F508
G0 Z6.096
X1.5019 Y-476.015
G1 Z-19.05 F508
G0 Z6.096
X71.993 Y-476.248
G1 Z-19.05 F508
G0 Z6.096

G53 Z-10
M5
G4 P1.0
G53 X-10 Y-10
M30
%
