(1001)
(T1  D=6.35 CR=0 - ZMIN=-20.574 - FLAT END MILL)
G0 G40 G90 G17
G21

(2D CONTOUR2)
T1 M6
M3 S5000
G0 X-0.166 Y3.171
G0 Z6.096
G1 Z4.191 F508.
G1 Z-6.604
G3 X-3.171 Y-0.166 I0.166 J-3.171
G1 X-1.394 Y-34.062
G3 X-0.141 Y-36.426 I3.171 J0.166
G2 X0.018 Y-37.582 I-0.498 J-0.658
G2 X-0.535 Y-37.902 I-0.658 J0.498
G2 X-1.151 Y-37.731 I-0.104 J0.818
G3 X-3.285 Y-37.052 I-1.968 J-2.491
G1 X-5.868 Y-37.187
G3 X-8.752 Y-38.563 I0.218 J-4.169
G3 X-9.819 Y-41.575 I3.103 J-2.794
G1 X-8.354 Y-69.524
G3 X-6.978 Y-72.408 I4.169 J0.218
G3 X-3.966 Y-73.474 I2.794 J3.103
G1 X-2.224 Y-73.383
G3 X0.14 Y-72.13 I-0.166 J3.171
G2 X1.296 Y-71.971 I0.658 J-0.498
G2 X1.616 Y-72.524 I-0.498 J-0.658
G2 X1.445 Y-73.14 I-0.818 J-0.104
G3 X0.766 Y-75.274 I2.491 J-1.968
G1 X7.069 Y-195.548
G3 X8.322 Y-197.912 I3.171 J0.166
G2 X8.481 Y-199.069 I-0.498 J-0.658
G2 X7.928 Y-199.389 I-0.658 J0.498
G2 X7.312 Y-199.218 I-0.104 J0.819
G3 X5.178 Y-198.538 I-1.968 J-2.491
G1 X2.406 Y-198.683
G3 X-1.545 Y-203.071 I0.218 J-4.169
G1 X3.585 Y-300.948
G3 X4.959 Y-303.833 I4.17 J0.217
G3 X7.972 Y-304.901 I2.795 J3.102
G1 X7.974
G1 X9.905 Y-304.799
G3 X12.268 Y-303.546 I-0.167 J3.171
G2 X13.424 Y-303.386 I0.658 J-0.498
G2 X13.744 Y-303.94 I-0.498 J-0.658
G2 X13.573 Y-304.556 I-0.818 J-0.104
G3 X12.894 Y-306.69 I2.491 J-1.968
G1 X18.979 Y-422.811
G3 X21.873 Y-425.808 I3.171 J0.166
G1 X425.83 Y-461.149
G3 X428.252 Y-460.327 I0.277 J3.163
G3 X429.282 Y-457.986 I-2.145 J2.341
G1 Y-416.986
G3 X426.384 Y-413.823 I-3.175 J0
G1 X88.974 Y-384.304
G2 X72.706 Y-367.46 I1.556 J17.78
G1 X56.147 Y-52.327
G2 X72.791 Y-33.51 I17.896 J0.94
G1 X424.847 Y-8.866
G3 X427.8 Y-5.7 I-0.222 J3.167
G1 X427.807 Y13.315
G3 X426.818 Y15.618 I-3.175 J0.001
G3 X424.466 Y16.486 I-2.186 J-2.303
G1 X420.149 Y16.26
G3 X417.934 Y15.19 I0.166 J-3.171
G2 X416.77 Y15.117 I-0.619 J0.546
G2 X416.491 Y15.693 I0.546 J0.619
G2 X416.708 Y16.294 I0.824 J0.043
G3 X417.541 Y18.608 I-2.338 J2.148
G1 X417.424 Y20.841
G3 X413.036 Y24.792 I-4.169 J-0.219
G1 X395.536 Y23.875
G1 X395.534
G3 X391.585 Y19.488 I0.221 J-4.169
G1 Y19.487
G1 X391.685 Y17.582
G3 X392.938 Y15.218 I3.171 J0.166
G2 X393.098 Y14.062 I-0.498 J-0.658
G2 X392.544 Y13.742 I-0.658 J0.498
G2 X391.928 Y13.913 I-0.104 J0.818
G3 X389.794 Y14.593 I-1.968 J-2.491
G1 X233.476 Y6.4
G3 X231.261 Y5.33 I0.166 J-3.171
G2 X230.097 Y5.258 I-0.619 J0.546
G2 X229.819 Y5.833 I0.546 J0.619
G2 X230.035 Y6.434 I0.824 J0.043
G3 X230.868 Y8.749 I-2.338 J2.148
G1 X230.745 Y11.091
G3 X229.369 Y13.976 I-4.169 J-0.218
G3 X226.356 Y15.042 I-2.793 J-3.103
G1 X198.397 Y13.577
G3 X195.512 Y12.202 I0.217 J-4.17
G3 X194.444 Y9.19 I3.102 J-2.795
G1 X194.568 Y6.819
G3 X195.639 Y4.604 I3.171 J0.166
G2 X195.711 Y3.44 I-0.546 J-0.618
G2 X195.136 Y3.162 I-0.618 J0.546
G2 X194.535 Y3.378 I-0.043 J0.824
G3 X192.221 Y4.211 I-2.148 J-2.338
G1 X38.76 Y-3.832
G3 X36.396 Y-5.085 I0.166 J-3.171
G2 X35.24 Y-5.244 I-0.658 J0.498
G2 X34.92 Y-4.691 I0.498 J0.658
G2 X35.091 Y-4.075 I0.818 J0.104
G3 X35.77 Y-1.94 I-2.491 J1.968
G1 X35.623 Y0.865
G3 X34.247 Y3.75 I-4.169 J-0.218
G3 X31.235 Y4.816 I-2.794 J-3.103
G1 X-0.166 Y3.171
G1 Z-14.224
G3 X-3.171 Y-0.166 I0.166 J-3.171
G1 X-1.394 Y-34.062
G3 X-0.141 Y-36.426 I3.171 J0.166
G2 X0.018 Y-37.582 I-0.498 J-0.658
G2 X-0.535 Y-37.902 I-0.658 J0.498
G2 X-1.151 Y-37.731 I-0.104 J0.818
G3 X-3.285 Y-37.052 I-1.968 J-2.491
G1 X-5.868 Y-37.187
G3 X-8.752 Y-38.563 I0.218 J-4.169
G3 X-9.819 Y-41.575 I3.103 J-2.794
G1 X-8.354 Y-69.524
G3 X-6.978 Y-72.408 I4.169 J0.218
G3 X-3.966 Y-73.474 I2.794 J3.103
G1 X-2.224 Y-73.383
G3 X0.14 Y-72.13 I-0.166 J3.171
G2 X1.296 Y-71.971 I0.658 J-0.498
G2 X1.616 Y-72.524 I-0.498 J-0.658
G2 X1.445 Y-73.14 I-0.818 J-0.104
G3 X0.766 Y-75.274 I2.491 J-1.968
G1 X7.069 Y-195.548
G3 X8.322 Y-197.912 I3.171 J0.166
G2 X8.481 Y-199.069 I-0.498 J-0.658
G2 X7.928 Y-199.389 I-0.658 J0.498
G2 X7.312 Y-199.218 I-0.104 J0.819
G3 X5.178 Y-198.538 I-1.968 J-2.491
G1 X2.406 Y-198.683
G3 X-1.545 Y-203.071 I0.218 J-4.169
G1 X3.585 Y-300.948
G3 X4.959 Y-303.833 I4.17 J0.217
G3 X7.972 Y-304.901 I2.795 J3.102
G1 X7.974
G1 X9.905 Y-304.799
G3 X12.268 Y-303.546 I-0.167 J3.171
G2 X13.424 Y-303.386 I0.658 J-0.498
G2 X13.744 Y-303.94 I-0.498 J-0.658
G2 X13.573 Y-304.556 I-0.818 J-0.104
G3 X12.894 Y-306.69 I2.491 J-1.968
G1 X18.979 Y-422.811
G3 X21.873 Y-425.808 I3.171 J0.166
G1 X425.83 Y-461.149
G3 X428.252 Y-460.327 I0.277 J3.163
G3 X429.282 Y-457.986 I-2.145 J2.341
G1 Y-416.986
G3 X426.384 Y-413.823 I-3.175 J0
G1 X88.974 Y-384.304
G2 X72.706 Y-367.46 I1.556 J17.78
G1 X56.147 Y-52.327
G2 X72.791 Y-33.51 I17.896 J0.94
G1 X424.847 Y-8.866
G3 X427.8 Y-5.7 I-0.222 J3.167
G1 X427.807 Y13.315
G3 X426.818 Y15.618 I-3.175 J0.001
G3 X424.466 Y16.486 I-2.186 J-2.303
G1 X420.149 Y16.26
G3 X417.934 Y15.19 I0.166 J-3.171
G2 X416.77 Y15.117 I-0.619 J0.546
G2 X416.491 Y15.693 I0.546 J0.619
G2 X416.708 Y16.294 I0.824 J0.043
G3 X417.541 Y18.608 I-2.338 J2.148
G1 X417.424 Y20.841
G3 X413.036 Y24.792 I-4.169 J-0.219
G1 X395.536 Y23.875
G1 X395.534
G3 X391.585 Y19.488 I0.221 J-4.169
G1 Y19.487
G1 X391.685 Y17.582
G3 X392.938 Y15.218 I3.171 J0.166
G2 X393.098 Y14.062 I-0.498 J-0.658
G2 X392.544 Y13.742 I-0.658 J0.498
G2 X391.928 Y13.913 I-0.104 J0.818
G3 X389.794 Y14.593 I-1.968 J-2.491
G1 X233.476 Y6.4
G3 X231.261 Y5.33 I0.166 J-3.171
G2 X230.097 Y5.258 I-0.619 J0.546
G2 X229.819 Y5.833 I0.546 J0.619
G2 X230.035 Y6.434 I0.824 J0.043
G3 X230.868 Y8.749 I-2.338 J2.148
G1 X230.745 Y11.091
G3 X229.369 Y13.976 I-4.169 J-0.218
G3 X226.356 Y15.042 I-2.793 J-3.103
G1 X198.397 Y13.577
G3 X195.512 Y12.202 I0.217 J-4.17
G3 X194.444 Y9.19 I3.102 J-2.795
G1 X194.568 Y6.819
G3 X195.639 Y4.604 I3.171 J0.166
G2 X195.711 Y3.44 I-0.546 J-0.618
G2 X195.136 Y3.162 I-0.618 J0.546
G2 X194.535 Y3.378 I-0.043 J0.824
G3 X192.221 Y4.211 I-2.148 J-2.338
G1 X38.76 Y-3.832
G3 X36.396 Y-5.085 I0.166 J-3.171
G2 X35.24 Y-5.244 I-0.658 J0.498
G2 X34.92 Y-4.691 I0.498 J0.658
G2 X35.091 Y-4.075 I0.818 J0.104
G3 X35.77 Y-1.94 I-2.491 J1.968
G1 X35.623 Y0.865
G3 X34.247 Y3.75 I-4.169 J-0.218
G3 X31.235 Y4.816 I-2.794 J-3.103
G1 X-0.166 Y3.171
G1 Z-20.574
G3 X-3.171 Y-0.166 I0.166 J-3.171
G1 X-1.394 Y-34.062
G3 X-0.141 Y-36.426 I3.171 J0.166
G2 X0.018 Y-37.582 I-0.498 J-0.658
G2 X-0.535 Y-37.902 I-0.658 J0.498
G2 X-1.151 Y-37.731 I-0.104 J0.818
G3 X-3.285 Y-37.052 I-1.968 J-2.491
G1 X-5.868 Y-37.187
G3 X-8.752 Y-38.563 I0.218 J-4.169
G3 X-9.819 Y-41.575 I3.103 J-2.794
G1 X-8.354 Y-69.524
G3 X-6.978 Y-72.408 I4.169 J0.218
G3 X-3.966 Y-73.474 I2.794 J3.103
G1 X-2.224 Y-73.383
G3 X0.14 Y-72.13 I-0.166 J3.171
G2 X1.296 Y-71.971 I0.658 J-0.498
G2 X1.616 Y-72.524 I-0.498 J-0.658
G2 X1.445 Y-73.14 I-0.818 J-0.104
G3 X0.766 Y-75.274 I2.491 J-1.968
G1 X2.039 Y-99.574
G1 Z-18.034
G1 X2.637 Y-110.988
G1 Z-20.574
G1 X4.069 Y-138.311
G1 Z-18.034
G1 X4.667 Y-149.725
G1 Z-20.574
G1 X5.863 Y-172.54
G1 Z-18.034
G1 X6.461 Y-183.954
G1 Z-20.574
G1 X7.069 Y-195.548
G3 X8.322 Y-197.912 I3.171 J0.166
G2 X8.481 Y-199.069 I-0.498 J-0.658
G2 X7.928 Y-199.389 I-0.658 J0.498
G2 X7.312 Y-199.218 I-0.104 J0.819
G3 X5.178 Y-198.538 I-1.968 J-2.491
G1 X2.406 Y-198.683
G3 X-1.545 Y-203.071 I0.218 J-4.169
G1 X1.215 Y-255.728
G1 Z-18.034
G1 X1.813 Y-267.142
G1 Z-20.574
G1 X3.585 Y-300.948
G3 X4.959 Y-303.833 I4.17 J0.217
G3 X7.972 Y-304.901 I2.795 J3.102
G1 X7.974
G1 X9.905 Y-304.799
G3 X12.268 Y-303.546 I-0.167 J3.171
G2 X13.424 Y-303.386 I0.658 J-0.498
G2 X13.744 Y-303.94 I-0.498 J-0.658
G2 X13.573 Y-304.556 I-0.818 J-0.104
G3 X12.894 Y-306.69 I2.491 J-1.968
G1 X15.784 Y-361.841
G1 Z-18.034
G1 X16.382 Y-373.255
G1 Z-20.574
G1 X18.979 Y-422.811
G3 X21.873 Y-425.808 I3.171 J0.166
G1 X58.478 Y-429.01
G1 Z-18.034
G1 X69.864 Y-430.007
G1 Z-20.574
G1 X103.648 Y-432.962
G1 Z-18.034
G1 X115.035 Y-433.958
G1 Z-20.574
G1 X229.83 Y-444.001
G1 Z-18.034
G1 X241.217 Y-444.998
G1 Z-20.574
G1 X332.647 Y-452.997
G1 Z-18.034
G1 X344.034 Y-453.993
G1 Z-20.574
G1 X425.83 Y-461.149
G3 X428.252 Y-460.327 I0.277 J3.163
G3 X429.282 Y-457.986 I-2.145 J2.341
G1 Y-451.158
G1 Z-18.034
G1 Y-439.728
G1 Z-20.574
G1 Y-420.451
G1 Z-18.034
G1 Y-416.986
G3 X426.384 Y-413.823 I-3.175 J0
G1 X420.69 Y-413.325
G1 Z-20.574
G1 X383.885 Y-410.105
G1 Z-18.034
G1 X372.498 Y-409.109
G1 Z-20.574
G1 X361.453 Y-408.142
G1 Z-18.034
G1 X350.067 Y-407.146
G1 Z-20.574
G1 X342.42 Y-406.477
G1 Z-18.034
G1 X326.845 Y-405.115
G1 Z-20.574
G1 X304.575 Y-403.166
G1 Z-18.034
G1 X293.188 Y-402.17
G1 Z-20.574
G1 X266.905 Y-399.871
G1 Z-18.034
G1 X255.518 Y-398.875
G1 Z-20.574
G1 X194.517 Y-393.538
G1 Z-18.034
G1 X183.131 Y-392.542
G1 Z-20.574
G1 X88.974 Y-384.304
G2 X72.706 Y-367.46 I1.556 J17.78
G1 X69.217 Y-301.064
G1 Z-18.034
G1 X68.617 Y-289.649
G1 Z-20.574
G1 X68.593 Y-289.188
G1 Z-18.034
G1 X67.993 Y-277.773
G1 Z-20.574
G1 X63.753 Y-197.081
G1 Z-18.034
G1 X63.153 Y-185.666
G1 Z-20.574
G1 X60.403 Y-133.321
G1 Z-18.034
G1 X59.803 Y-121.906
G1 Z-20.574
G1 X56.147 Y-52.327
G2 X72.791 Y-33.51 I17.896 J0.94
G1 X107.429 Y-31.085
G1 Z-18.034
G1 X118.831 Y-30.287
G1 Z-20.574
G1 X178.928 Y-26.08
G1 Z-18.034
G1 X190.33 Y-25.282
G1 Z-20.574
G1 X190.639 Y-25.261
G1 Z-18.034
G1 X202.041 Y-24.463
G1 Z-20.574
G1 X251.94 Y-20.97
G1 Z-18.034
G1 X263.342 Y-20.171
G1 Z-20.574
G1 X306.415 Y-17.156
G1 Z-18.034
G1 X317.817 Y-16.358
G1 Z-20.574
G1 X358.001 Y-13.545
G1 Z-18.034
G1 X369.403 Y-12.747
G1 Z-20.574
G1 X421.449 Y-9.104
G1 Z-18.034
G1 X424.847 Y-8.866
G3 X427.8 Y-5.7 I-0.222 J3.167
G1 X427.802 Y0.015
G1 Z-20.574
G1 X427.806 Y10.303
G1 Z-18.034
G1 X427.807 Y13.315
G3 X426.818 Y15.618 I-3.175 J0.001
G3 X424.466 Y16.486 I-2.186 J-2.303
G1 X420.149 Y16.26
G3 X418.775 Y15.866 I0.166 J-3.171
G1 Z-20.574
G3 X417.934 Y15.19 I1.54 J-2.777
G2 X416.77 Y15.117 I-0.619 J0.546
G2 X416.503 Y15.592 I0.546 J0.619
G1 Z-18.034
G2 X416.708 Y16.294 I0.812 J0.144
G3 X417.541 Y18.608 I-2.338 J2.148
G1 X417.424 Y20.841
G3 X413.036 Y24.792 I-4.169 J-0.219
G1 X409.117 Y24.587
G1 Z-20.574
G1 X395.536 Y23.875
G1 X395.534
G3 X391.585 Y19.488 I0.221 J-4.169
G1 Y19.487
G1 X391.685 Y17.582
G3 X392.938 Y15.218 I3.171 J0.166
G2 X393.098 Y14.062 I-0.498 J-0.658
G2 X392.544 Y13.742 I-0.658 J0.498
G2 X391.928 Y13.913 I-0.104 J0.818
G3 X389.794 Y14.593 I-1.968 J-2.491
G1 X373.848 Y13.757
G1 Z-18.034
G1 X362.434 Y13.159
G1 Z-20.574
G1 X306.155 Y10.209
G1 Z-18.034
G1 X294.741 Y9.611
G1 Z-20.574
G1 X233.476 Y6.4
G3 X231.261 Y5.33 I0.166 J-3.171
G2 X230.097 Y5.258 I-0.619 J0.546
G2 X229.819 Y5.833 I0.546 J0.619
G2 X230.035 Y6.434 I0.824 J0.043
G3 X230.868 Y8.749 I-2.338 J2.148
G1 X230.745 Y11.091
G3 X229.369 Y13.976 I-4.169 J-0.218
G3 X226.356 Y15.042 I-2.793 J-3.103
G1 X198.397 Y13.577
G3 X195.512 Y12.202 I0.217 J-4.17
G3 X194.444 Y9.19 I3.102 J-2.795
G1 X194.568 Y6.819
G3 X195.639 Y4.604 I3.171 J0.166
G2 X195.711 Y3.44 I-0.546 J-0.618
G2 X195.136 Y3.162 I-0.618 J0.546
G2 X194.535 Y3.378 I-0.043 J0.824
G3 X192.221 Y4.211 I-2.148 J-2.338
G1 X148.034 Y1.895
G1 Z-18.034
G1 X136.62 Y1.297
G1 Z-20.574
G1 X78.215 Y-1.764
G1 Z-18.034
G1 X66.801 Y-2.362
G1 Z-20.574
G1 X38.76 Y-3.832
G3 X36.396 Y-5.085 I0.166 J-3.171
G2 X35.24 Y-5.244 I-0.658 J0.498
G2 X34.92 Y-4.691 I0.498 J0.658
G2 X35.091 Y-4.075 I0.818 J0.104
G3 X35.77 Y-1.94 I-2.491 J1.968
G1 X35.623 Y0.865
G3 X34.247 Y3.75 I-4.169 J-0.218
G3 X31.235 Y4.816 I-2.794 J-3.103
G1 X-0.166 Y3.171
G0 Z6.096

(2D POCKET1)
G0 Z11.176
G0 X16.597 Y-333.484
G0 Z6.096
G1 Z3.556 F508.
G1 X16.379 Y-333.507 Z3.548
G1 X16.16 Y-333.514 Z3.541
G1 X15.94 Y-333.506 Z3.533
G1 X15.722 Y-333.481 Z3.525
G1 X15.507 Y-333.44 Z3.518
G1 X15.294 Y-333.384 Z3.51
G1 X15.087 Y-333.313 Z3.502
G1 X14.885 Y-333.226 Z3.495
G1 X14.69 Y-333.125 Z3.487
G1 X14.503 Y-333.011 Z3.479
G1 X14.325 Y-332.883 Z3.472
G1 X14.156 Y-332.742 Z3.464
G1 X13.998 Y-332.59 Z3.456
G1 X13.852 Y-332.426 Z3.449
G1 X13.718 Y-332.252 Z3.441
G1 X13.597 Y-332.069 Z3.433
G1 X13.49 Y-331.878 Z3.426
G1 X13.396 Y-331.679 Z3.418
G1 X13.318 Y-331.474 Z3.41
G1 X13.255 Y-331.264 Z3.403
G1 X13.207 Y-331.05 Z3.395
G1 X13.174 Y-330.833 Z3.387
G1 X13.158 Y-330.614 Z3.38
G1 Y-330.394 Z3.372
G1 X13.173 Y-330.175 Z3.364
G1 X13.205 Y-329.958 Z3.357
G1 X13.252 Y-329.744 Z3.349
G1 X13.314 Y-329.533 Z3.341
G1 X13.392 Y-329.328 Z3.334
G1 X13.484 Y-329.129 Z3.326
G1 X13.591 Y-328.937 Z3.318
G1 X13.711 Y-328.754 Z3.311
G1 X13.845 Y-328.579 Z3.303
G1 X13.991 Y-328.415 Z3.295
G1 X14.148 Y-328.262 Z3.288
G1 X14.316 Y-328.121 Z3.28
G1 X14.494 Y-327.992 Z3.272
G1 X14.68 Y-327.877 Z3.265
G1 X14.875 Y-327.775 Z3.257
G1 X15.076 Y-327.688 Z3.249
G1 X15.283 Y-327.616 Z3.242
G1 X15.495 Y-327.559 Z3.234
G1 X15.711 Y-327.517 Z3.226
G1 X15.929 Y-327.492 Z3.219
G1 X16.148 Y-327.482 Z3.211
G1 X16.368 Y-327.488 Z3.203
G1 X16.586 Y-327.511 Z3.196
G1 X16.802 Y-327.549 Z3.188
G1 X17.015 Y-327.602 Z3.18
G1 X17.223 Y-327.671 Z3.173
G1 X17.426 Y-327.755 Z3.165
G1 X17.622 Y-327.854 Z3.157
G1 X17.811 Y-327.966 Z3.15
G1 X17.99 Y-328.092 Z3.142
G1 X18.161 Y-328.23 Z3.134
G1 X18.32 Y-328.381 Z3.127
G1 X18.469 Y-328.543 Z3.119
G1 X18.605 Y-328.715 Z3.111
G1 X18.728 Y-328.897 Z3.104
G1 X18.838 Y-329.087 Z3.096
G1 X18.933 Y-329.284 Z3.088
G1 X19.014 Y-329.488 Z3.081
G1 X19.08 Y-329.698 Z3.073
G1 X19.131 Y-329.911 Z3.065
G1 X19.165 Y-330.128 Z3.058
G1 X19.184 Y-330.347 Z3.05
G1 X19.188 Y-330.566 Z3.042
G1 X19.175 Y-330.785 Z3.035
G1 X19.146 Y-331.003 Z3.027
G1 X19.101 Y-331.218 Z3.019
G1 X19.041 Y-331.429 Z3.012
G1 X18.966 Y-331.635 Z3.004
G1 X18.876 Y-331.835 Z2.996
G1 X18.772 Y-332.028 Z2.989
G1 X18.653 Y-332.213 Z2.981
G1 X18.522 Y-332.389 Z2.973
G1 X18.378 Y-332.555 Z2.966
G1 X18.223 Y-332.71 Z2.958
G1 X18.057 Y-332.853 Z2.95
G1 X17.881 Y-332.984 Z2.943
G1 X17.695 Y-333.102 Z2.935
G1 X17.502 Y-333.205 Z2.927
G1 X17.302 Y-333.295 Z2.92
G1 X17.095 Y-333.37 Z2.912
G1 X16.884 Y-333.429 Z2.904
G1 X16.669 Y-333.473 Z2.897
G1 X16.451 Y-333.502 Z2.889
G1 X16.232 Y-333.514 Z2.881
G1 X16.013 Y-333.51 Z2.874
G1 X15.794 Y-333.491 Z2.866
G1 X15.578 Y-333.455 Z2.858
G1 X15.364 Y-333.404 Z2.851
G1 X15.155 Y-333.338 Z2.843
G1 X14.951 Y-333.256 Z2.835
G1 X14.754 Y-333.16 Z2.828
G1 X14.564 Y-333.05 Z2.82
G1 X14.383 Y-332.926 Z2.812
G1 X14.211 Y-332.79 Z2.805
G1 X14.049 Y-332.641 Z2.797
G1 X13.899 Y-332.481 Z2.789
G1 X13.761 Y-332.311 Z2.782
G1 X13.636 Y-332.13 Z2.774
G1 X13.524 Y-331.942 Z2.766
G1 X13.426 Y-331.745 Z2.759
G1 X13.342 Y-331.542 Z2.751
G1 X13.274 Y-331.334 Z2.743
G1 X13.221 Y-331.121 Z2.736
G1 X13.183 Y-330.905 Z2.728
G1 X13.162 Y-330.686 Z2.72
G1 X13.156 Y-330.467 Z2.713
G1 X13.166 Y-330.247 Z2.705
G1 X13.192 Y-330.03 Z2.697
G1 X13.234 Y-329.814 Z2.69
G1 X13.292 Y-329.602 Z2.682
G1 X13.365 Y-329.395 Z2.674
G1 X13.452 Y-329.194 Z2.667
G1 X13.554 Y-329 Z2.659
G1 X13.67 Y-328.813 Z2.651
G1 X13.799 Y-328.636 Z2.644
G1 X13.941 Y-328.468 Z2.636
G1 X14.095 Y-328.311 Z2.628
G1 X14.259 Y-328.166 Z2.621
G1 X14.434 Y-328.033 Z2.613
G1 X14.618 Y-327.913 Z2.605
G1 X14.81 Y-327.807 Z2.598
G1 X15.009 Y-327.715 Z2.59
G1 X15.214 Y-327.638 Z2.582
G1 X15.425 Y-327.576 Z2.575
G1 X15.639 Y-327.529 Z2.567
G1 X15.857 Y-327.499 Z2.559
G1 X16.076 Y-327.484 Z2.552
G1 X16.295 Y-327.485 Z2.544
G1 X16.514 Y-327.501 Z2.536
G1 X16.731 Y-327.534 Z2.529
G1 X16.945 Y-327.583 Z2.521
G1 X17.155 Y-327.647 Z2.513
G1 X17.36 Y-327.726 Z2.506
G1 X17.558 Y-327.819 Z2.498
G1 X17.749 Y-327.927 Z2.49
G1 X17.932 Y-328.049 Z2.483
G1 X18.106 Y-328.183 Z2.475
G1 X18.269 Y-328.33 Z2.467
G1 X18.421 Y-328.488 Z2.46
G1 X18.561 Y-328.657 Z2.452
G1 X18.689 Y-328.836 Z2.444
G1 X18.803 Y-329.023 Z2.437
G1 X18.903 Y-329.218 Z2.429
G1 X18.989 Y-329.42 Z2.421
G1 X19.06 Y-329.628 Z2.414
G1 X19.116 Y-329.84 Z2.406
G1 X19.156 Y-330.056 Z2.398
G1 X19.18 Y-330.274 Z2.391
G1 X19.188 Y-330.494 Z2.383
G1 X19.181 Y-330.713 Z2.375
G1 X19.157 Y-330.931 Z2.368
G1 X19.118 Y-331.147 Z2.36
G1 X19.063 Y-331.36 Z2.352
G1 X18.992 Y-331.567 Z2.345
G1 X18.907 Y-331.77 Z2.337
G1 X18.808 Y-331.965 Z2.329
G1 X18.694 Y-332.153 Z2.322
G1 X18.567 Y-332.332 Z2.314
G1 X18.427 Y-332.501 Z2.306
G1 X18.276 Y-332.66 Z2.299
G1 X18.113 Y-332.807 Z2.291
G1 X17.94 Y-332.942 Z2.283
G1 X17.757 Y-333.064 Z2.276
G1 X17.567 Y-333.173 Z2.268
G1 X17.368 Y-333.267 Z2.26
G1 X17.164 Y-333.347 Z2.253
G1 X16.954 Y-333.411 Z2.245
G1 X16.74 Y-333.46 Z2.237
G1 X16.523 Y-333.494 Z2.23
G1 X16.305 Y-333.512 Z2.222
G1 X16.085 Y-333.513 Z2.214
G1 X15.866 Y-333.499 Z2.207
G1 X15.649 Y-333.469 Z2.199
G1 X15.434 Y-333.423 Z2.191
G1 X15.223 Y-333.361 Z2.184
G1 X15.018 Y-333.285 Z2.176
G1 X14.818 Y-333.194 Z2.168
G1 X14.626 Y-333.088 Z2.161
G1 X14.441 Y-332.969 Z2.153
G1 X14.266 Y-332.836 Z2.145
G1 X14.101 Y-332.692 Z2.138
G1 X13.947 Y-332.535 Z2.13
G1 X13.805 Y-332.368 Z2.122
G1 X13.676 Y-332.191 Z2.115
G1 X13.559 Y-332.005 Z2.107
G1 X13.456 Y-331.811 Z2.099
G1 X13.368 Y-331.61 Z2.092
G1 X13.295 Y-331.403 Z2.084
G1 X13.237 Y-331.192 Z2.076
G1 X13.194 Y-330.976 Z2.069
G1 X13.167 Y-330.758 Z2.061
G1 X13.156 Y-330.539 Z2.053
G1 X13.161 Y-330.32 Z2.046
G1 X13.182 Y-330.101 Z2.038
G1 X13.219 Y-329.885 Z2.03
G1 X13.271 Y-329.672 Z2.023
G1 X13.339 Y-329.463 Z2.015
G1 X13.422 Y-329.26 Z2.007
G1 X13.519 Y-329.063 Z2
G1 X13.631 Y-328.874 Z1.992
G1 X13.755 Y-328.693 Z1.984
G1 X13.893 Y-328.523 Z1.977
G1 X14.043 Y-328.362 Z1.969
G1 X14.204 Y-328.213 Z1.961
G1 X14.375 Y-328.076 Z1.954
G1 X14.556 Y-327.951 Z1.946
G1 X14.745 Y-327.841 Z1.938
G1 X14.942 Y-327.744 Z1.931
G1 X15.146 Y-327.662 Z1.923
G1 X15.355 Y-327.595 Z1.915
G1 X15.568 Y-327.543 Z1.908
G1 X15.785 Y-327.507 Z1.9
G1 X16.003 Y-327.487 Z1.892
G1 X16.223 Y-327.482 Z1.885
G1 X16.442 Y-327.494 Z1.877
G1 X16.66 Y-327.522 Z1.869
G1 X16.875 Y-327.565 Z1.862
G1 X17.086 Y-327.624 Z1.854
G1 X17.293 Y-327.698 Z1.846
G1 X17.493 Y-327.787 Z1.839
G1 X17.687 Y-327.89 Z1.831
G1 X17.873 Y-328.007 Z1.823
G1 X18.049 Y-328.138 Z1.816
G1 X18.216 Y-328.28 Z1.808
G1 X18.372 Y-328.435 Z1.8
G1 X18.516 Y-328.6 Z1.793
G1 X18.648 Y-328.776 Z1.785
G1 X18.767 Y-328.96 Z1.777
G1 X18.872 Y-329.153 Z1.77
G1 X18.962 Y-329.353 Z1.762
G1 X19.038 Y-329.559 Z1.754
G1 X19.099 Y-329.77 Z1.747
G1 X19.144 Y-329.985 Z1.739
G1 X19.174 Y-330.202 Z1.731
G1 X19.187 Y-330.421 Z1.724
G1 X19.185 Y-330.641 Z1.716
G1 X19.167 Y-330.859 Z1.708
G1 X19.132 Y-331.076 Z1.701
G1 X19.083 Y-331.29 Z1.693
G1 X19.017 Y-331.499 Z1.685
G1 X18.937 Y-331.704 Z1.678
G1 X18.842 Y-331.901 Z1.67
G1 X18.733 Y-332.092 Z1.662
G1 X18.61 Y-332.274 Z1.655
G1 X18.475 Y-332.446 Z1.647
G1 X18.327 Y-332.609 Z1.64
G1 X18.168 Y-332.76 Z1.632
G1 X17.998 Y-332.899 Z1.624
G1 X17.819 Y-333.025 Z1.617
G1 X17.63 Y-333.138 Z1.609
G1 X17.435 Y-333.238 Z1.601
G1 X17.232 Y-333.322 Z1.594
G1 X17.024 Y-333.392 Z1.586
G1 X16.811 Y-333.446 Z1.578
G1 X16.595 Y-333.485 Z1.571
G1 X16.377 Y-333.508 Z1.563
G1 X16.158 Y-333.514 Z1.555
G1 X15.938 Y-333.505 Z1.548
G1 X15.72 Y-333.48 Z1.54
G1 X15.505 Y-333.44 Z1.532
G1 X15.292 Y-333.383 Z1.525
G1 X15.085 Y-333.312 Z1.517
G1 X14.883 Y-333.225 Z1.509
G1 X14.688 Y-333.124 Z1.502
G1 X14.501 Y-333.01 Z1.494
G1 X14.323 Y-332.881 Z1.486
G1 X14.155 Y-332.741 Z1.479
G1 X13.997 Y-332.588 Z1.471
G1 X13.851 Y-332.424 Z1.463
G1 X13.717 Y-332.25 Z1.456
G1 X13.596 Y-332.067 Z1.448
G1 X13.489 Y-331.876 Z1.44
G1 X13.396 Y-331.677 Z1.433
G1 X13.317 Y-331.472 Z1.425
G1 X13.254 Y-331.262 Z1.417
G1 X13.206 Y-331.048 Z1.41
G1 X13.174 Y-330.831 Z1.402
G1 X13.158 Y-330.612 Z1.394
G1 Y-330.392 Z1.387
G1 X13.173 Y-330.173 Z1.379
G1 X13.205 Y-329.956 Z1.371
G1 X13.252 Y-329.742 Z1.364
G1 X13.315 Y-329.531 Z1.356
G1 X13.393 Y-329.326 Z1.348
G1 X13.485 Y-329.127 Z1.341
G1 X13.592 Y-328.935 Z1.333
G1 X13.713 Y-328.752 Z1.325
G1 X13.846 Y-328.578 Z1.318
G1 X13.992 Y-328.414 Z1.31
G1 X14.149 Y-328.261 Z1.302
G1 X14.317 Y-328.12 Z1.295
G1 X14.495 Y-327.991 Z1.287
G1 X14.682 Y-327.876 Z1.279
G1 X14.877 Y-327.774 Z1.272
G1 X15.078 Y-327.687 Z1.264
G1 X15.285 Y-327.615 Z1.256
G1 X15.497 Y-327.558 Z1.249
G1 X15.713 Y-327.517 Z1.241
G1 X15.931 Y-327.492 Z1.233
G1 X16.15 Y-327.482 Z1.226
G1 X16.37 Y-327.488 Z1.218
G1 X16.588 Y-327.511 Z1.21
G1 X16.804 Y-327.549 Z1.203
G1 X17.017 Y-327.603 Z1.195
G1 X17.225 Y-327.672 Z1.187
G1 X17.428 Y-327.756 Z1.18
G1 X17.624 Y-327.855 Z1.172
G1 X17.812 Y-327.967 Z1.164
G1 X17.992 Y-328.093 Z1.157
G1 X18.162 Y-328.232 Z1.149
G1 X18.322 Y-328.383 Z1.141
G1 X18.47 Y-328.544 Z1.134
G1 X18.606 Y-328.717 Z1.126
G1 X18.729 Y-328.898 Z1.118
G1 X18.839 Y-329.089 Z1.111
G1 X18.934 Y-329.286 Z1.103
G1 X19.015 Y-329.49 Z1.095
G1 X19.081 Y-329.7 Z1.088
G1 X19.131 Y-329.913 Z1.08
G1 X19.166 Y-330.13 Z1.072
G1 X19.185 Y-330.349 Z1.065
G1 X19.187 Y-330.568 Z1.057
G1 X19.174 Y-330.787 Z1.049
G1 X19.145 Y-331.005 Z1.042
G1 X19.101 Y-331.22 Z1.034
G1 X19.041 Y-331.431 Z1.026
G1 X18.965 Y-331.637 Z1.019
G1 X18.875 Y-331.837 Z1.011
G1 X18.77 Y-332.03 Z1.003
G1 X18.652 Y-332.215 Z0.996
G1 X18.521 Y-332.391 Z0.988
G1 X18.377 Y-332.556 Z0.98
G1 X18.221 Y-332.711 Z0.973
G1 X18.055 Y-332.854 Z0.965
G1 X17.879 Y-332.985 Z0.957
G1 X17.693 Y-333.103 Z0.95
G1 X17.5 Y-333.206 Z0.942
G1 X17.3 Y-333.296 Z0.934
G1 X17.093 Y-333.37 Z0.927
G1 X16.882 Y-333.43 Z0.919
G1 X16.667 Y-333.474 Z0.911
G1 X16.449 Y-333.502 Z0.904
G1 X16.23 Y-333.514 Z0.896
G1 X16.011 Y-333.51 Z0.888
G1 X15.792 Y-333.49 Z0.881
G1 X15.575 Y-333.455 Z0.873
G1 X15.362 Y-333.404 Z0.865
G1 X15.153 Y-333.337 Z0.858
G1 X14.949 Y-333.255 Z0.85
G1 X14.752 Y-333.159 Z0.842
G1 X14.562 Y-333.049 Z0.835
G1 X14.381 Y-332.925 Z0.827
G1 X14.209 Y-332.788 Z0.819
G1 X14.048 Y-332.64 Z0.812
G1 X13.898 Y-332.48 Z0.804
G1 X13.76 Y-332.309 Z0.796
G1 X13.634 Y-332.129 Z0.789
G1 X13.523 Y-331.94 Z0.781
G1 X13.425 Y-331.743 Z0.773
G1 X13.342 Y-331.54 Z0.766
G1 X13.273 Y-331.332 Z0.758
G1 X13.22 Y-331.119 Z0.75
G1 X13.183 Y-330.902 Z0.743
G1 X13.162 Y-330.684 Z0.735
G1 X13.156 Y-330.465 Z0.727
G1 X13.166 Y-330.245 Z0.72
G1 X13.193 Y-330.028 Z0.712
G1 X13.235 Y-329.812 Z0.704
G1 X13.293 Y-329.6 Z0.697
G1 X13.365 Y-329.393 Z0.689
G1 X13.453 Y-329.192 Z0.681
G1 X13.555 Y-328.998 Z0.674
G1 X13.671 Y-328.812 Z0.666
G1 X13.801 Y-328.634 Z0.658
G1 X13.943 Y-328.467 Z0.651
G1 X14.096 Y-328.31 Z0.643
G1 X14.261 Y-328.165 Z0.635
G1 X14.436 Y-328.032 Z0.628
G1 X14.619 Y-327.912 Z0.62
G1 X14.812 Y-327.806 Z0.612
G1 X15.011 Y-327.714 Z0.605
G1 X15.216 Y-327.637 Z0.597
G1 X15.427 Y-327.575 Z0.589
G1 X15.642 Y-327.529 Z0.582
G1 X15.859 Y-327.498 Z0.574
G1 X16.078 Y-327.483 Z0.566
G1 X16.297 Y-327.485 Z0.559
G1 X16.516 Y-327.502 Z0.551
G1 X16.733 Y-327.535 Z0.543
G1 X16.947 Y-327.583 Z0.536
G1 X17.157 Y-327.647 Z0.528
G1 X17.362 Y-327.727 Z0.52
G1 X17.56 Y-327.82 Z0.513
G1 X17.751 Y-327.928 Z0.505
G1 X17.934 Y-328.05 Z0.497
G1 X18.107 Y-328.185 Z0.49
G1 X18.27 Y-328.331 Z0.482
G1 X18.422 Y-328.49 Z0.474
G1 X18.562 Y-328.659 Z0.467
G1 X18.69 Y-328.837 Z0.459
G1 X18.804 Y-329.025 Z0.451
G1 X18.904 Y-329.22 Z0.444
G1 X18.99 Y-329.422 Z0.436
G1 X19.061 Y-329.63 Z0.428
G1 X19.116 Y-329.842 Z0.421
G1 X19.156 Y-330.058 Z0.413
G1 X19.18 Y-330.276 Z0.405
G1 X19.188 Y-330.496 Z0.398
G1 X19.18 Y-330.715 Z0.39
G1 X19.157 Y-330.933 Z0.382
G1 X19.117 Y-331.149 Z0.375
G1 X19.062 Y-331.362 Z0.367
G1 X18.992 Y-331.569 Z0.359
G1 X18.906 Y-331.772 Z0.352
G1 X18.807 Y-331.967 Z0.344
G1 X18.693 Y-332.155 Z0.336
G1 X18.566 Y-332.334 Z0.329
G1 X18.426 Y-332.503 Z0.321
G1 X18.274 Y-332.661 Z0.313
G1 X18.111 Y-332.809 Z0.306
G1 X17.938 Y-332.943 Z0.298
G1 X17.756 Y-333.065 Z0.29
G1 X17.565 Y-333.174 Z0.283
G1 X17.366 Y-333.268 Z0.275
G1 X17.162 Y-333.347 Z0.267
G1 X16.952 Y-333.412 Z0.26
G1 X16.738 Y-333.461 Z0.252
G1 X16.521 Y-333.494 Z0.244
G1 X16.302 Y-333.512 Z0.237
G1 X16.083 Y-333.513 Z0.229
G1 X15.864 Y-333.499 Z0.221
G1 X15.647 Y-333.468 Z0.214
G1 X15.432 Y-333.422 Z0.206
G1 X15.221 Y-333.361 Z0.198
G1 X15.016 Y-333.284 Z0.191
G1 X14.816 Y-333.193 Z0.183
G1 X14.624 Y-333.087 Z0.175
G1 X14.44 Y-332.967 Z0.168
G1 X14.265 Y-332.835 Z0.16
G1 X14.1 Y-332.69 Z0.152
G1 X13.946 Y-332.534 Z0.145
G1 X13.804 Y-332.366 Z0.137
G1 X13.674 Y-332.189 Z0.129
G1 X13.558 Y-332.003 Z0.122
G1 X13.455 Y-331.809 Z0.114
G1 X13.367 Y-331.608 Z0.106
G1 X13.294 Y-331.401 Z0.099
G1 X13.236 Y-331.189 Z0.091
G1 X13.194 Y-330.974 Z0.083
G1 X13.167 Y-330.756 Z0.076
G1 X13.156 Y-330.537 Z0.068
G1 X13.161 Y-330.318 Z0.06
G1 X13.182 Y-330.099 Z0.053
G1 X13.219 Y-329.883 Z0.045
G1 X13.272 Y-329.67 Z0.037
G1 X13.34 Y-329.461 Z0.03
G1 X13.423 Y-329.258 Z0.022
G1 X13.52 Y-329.061 Z0.014
G1 X13.632 Y-328.872 Z0.007
G1 X13.757 Y-328.692 Z-0.001
G1 X13.894 Y-328.521 Z-0.009
G1 X14.044 Y-328.361 Z-0.016
G1 X14.205 Y-328.211 Z-0.024
G1 X14.377 Y-328.074 Z-0.032
G1 X14.558 Y-327.95 Z-0.039
G1 X14.747 Y-327.84 Z-0.047
G1 X14.944 Y-327.743 Z-0.055
G1 X15.148 Y-327.661 Z-0.062
G1 X15.357 Y-327.594 Z-0.07
G1 X15.57 Y-327.543 Z-0.078
G1 X15.787 Y-327.507 Z-0.085
G1 X16.005 Y-327.487 Z-0.093
G1 X16.225 Y-327.482 Z-0.101
G1 X16.444 Y-327.494 Z-0.108
G1 X16.662 Y-327.522 Z-0.116
G1 X16.877 Y-327.566 Z-0.124
G1 X17.088 Y-327.625 Z-0.131
G1 X17.295 Y-327.699 Z-0.139
G1 X17.495 Y-327.788 Z-0.147
G1 X17.689 Y-327.891 Z-0.154
G1 X17.875 Y-328.008 Z-0.162
G1 X18.051 Y-328.139 Z-0.17
G1 X18.218 Y-328.282 Z-0.177
G1 X18.373 Y-328.436 Z-0.185
G1 X18.518 Y-328.602 Z-0.193
G1 X18.649 Y-328.777 Z-0.2
G1 X18.768 Y-328.962 Z-0.208
G1 X18.873 Y-329.155 Z-0.216
G1 X18.963 Y-329.355 Z-0.223
G1 X19.039 Y-329.561 Z-0.231
G1 X19.1 Y-329.772 Z-0.239
G1 X19.145 Y-329.987 Z-0.246
G1 X19.174 Y-330.204 Z-0.254
G1 X19.187 Y-330.423 Z-0.262
G1 X19.185 Y-330.643 Z-0.269
G1 X19.166 Y-330.861 Z-0.277
G1 X19.132 Y-331.078 Z-0.285
G1 X19.082 Y-331.292 Z-0.292
G1 X19.017 Y-331.501 Z-0.3
G1 X18.936 Y-331.706 Z-0.308
G1 X18.841 Y-331.903 Z-0.315
G1 X18.732 Y-332.094 Z-0.323
G1 X18.609 Y-332.276 Z-0.331
G1 X18.473 Y-332.448 Z-0.338
G1 X18.325 Y-332.61 Z-0.346
G1 X18.166 Y-332.761 Z-0.354
G1 X17.996 Y-332.9 Z-0.361
G1 X17.817 Y-333.027 Z-0.369
G1 X17.629 Y-333.14 Z-0.377
G1 X17.433 Y-333.238 Z-0.384
G1 X17.23 Y-333.323 Z-0.392
G1 X17.022 Y-333.392 Z-0.4
G1 X16.809 Y-333.446 Z-0.407
G1 X16.593 Y-333.485 Z-0.415
G1 X16.375 Y-333.508 Z-0.423
G1 X16.155 Y-333.514 Z-0.43
G1 X15.936 Y-333.505 Z-0.438
G1 X15.718 Y-333.48 Z-0.446
G1 X15.503 Y-333.439 Z-0.453
G1 X15.29 Y-333.383 Z-0.461
G1 X15.083 Y-333.311 Z-0.469
G1 X14.881 Y-333.224 Z-0.476
G1 X14.687 Y-333.123 Z-0.484
G1 X14.5 Y-333.008 Z-0.492
G1 X14.321 Y-332.88 Z-0.499
G1 X14.153 Y-332.739 Z-0.507
G1 X13.996 Y-332.586 Z-0.515
G1 X13.849 Y-332.423 Z-0.522
G1 X13.716 Y-332.249 Z-0.53
G1 X13.595 Y-332.065 Z-0.538
G1 X13.488 Y-331.874 Z-0.545
G1 X13.395 Y-331.675 Z-0.553
G1 X13.317 Y-331.47 Z-0.561
G1 X13.254 Y-331.26 Z-0.568
G1 X13.206 Y-331.046 Z-0.576
G1 X13.174 Y-330.828 Z-0.584
G1 X13.158 Y-330.61 Z-0.591
G1 Y-330.39 Z-0.599
G1 X13.174 Y-330.171 Z-0.607
G1 X13.205 Y-329.954 Z-0.614
G1 X13.253 Y-329.74 Z-0.622
G1 X13.316 Y-329.529 Z-0.63
G1 X13.394 Y-329.324 Z-0.637
G1 X13.486 Y-329.125 Z-0.645
G1 X13.593 Y-328.934 Z-0.653
G1 X13.714 Y-328.75 Z-0.66
G1 X13.848 Y-328.576 Z-0.668
G1 X13.993 Y-328.412 Z-0.676
G1 X14.151 Y-328.259 Z-0.683
G1 X14.319 Y-328.118 Z-0.691
G1 X14.497 Y-327.99 Z-0.699
G1 X14.684 Y-327.875 Z-0.706
G1 X14.879 Y-327.773 Z-0.714
G1 X15.08 Y-327.687 Z-0.722
G1 X15.287 Y-327.615 Z-0.729
G1 X15.5 Y-327.558 Z-0.737
G1 X15.715 Y-327.517 Z-0.745
G1 X15.933 Y-327.491 Z-0.752
G1 X16.152 Y-327.482 Z-0.76
G1 X16.372 Y-327.489 Z-0.768
G1 X16.59 Y-327.511 Z-0.775
G1 X16.806 Y-327.549 Z-0.783
G1 X17.019 Y-327.603 Z-0.791
G1 X17.227 Y-327.673 Z-0.798
G1 X17.43 Y-327.757 Z-0.806
G1 X17.626 Y-327.856 Z-0.814
G1 X17.814 Y-327.968 Z-0.821
G1 X17.994 Y-328.094 Z-0.829
G1 X18.164 Y-328.233 Z-0.837
G1 X18.323 Y-328.384 Z-0.844
G1 X18.471 Y-328.546 Z-0.852
G1 X18.607 Y-328.718 Z-0.86
G1 X18.73 Y-328.9 Z-0.867
G1 X18.84 Y-329.09 Z-0.875
G1 X18.935 Y-329.288 Z-0.883
G1 X19.016 Y-329.492 Z-0.89
G1 X19.081 Y-329.702 Z-0.898
G1 X19.131 Y-329.915 Z-0.906
G1 X19.166 Y-330.132 Z-0.913
G1 X19.185 Y-330.351 Z-0.921
G1 X19.187 Y-330.57 Z-0.929
G1 X19.174 Y-330.789 Z-0.936
G1 X19.145 Y-331.007 Z-0.944
G1 X19.1 Y-331.222 Z-0.952
G1 X19.04 Y-331.433 Z-0.959
G1 X18.964 Y-331.639 Z-0.967
G1 X18.874 Y-331.839 Z-0.975
G1 X18.769 Y-332.032 Z-0.982
G1 X18.651 Y-332.217 Z-0.99
G1 X18.519 Y-332.392 Z-0.998
G1 X18.376 Y-332.558 Z-1.005
G1 X18.22 Y-332.713 Z-1.013
G1 X18.053 Y-332.856 Z-1.021
G1 X17.877 Y-332.986 Z-1.028
G1 X17.692 Y-333.104 Z-1.036
G1 X17.498 Y-333.207 Z-1.044
G1 X17.298 Y-333.297 Z-1.051
G1 X17.091 Y-333.371 Z-1.059
G1 X16.88 Y-333.43 Z-1.067
G1 X16.665 Y-333.474 Z-1.074
G1 X16.447 Y-333.502 Z-1.082
G1 X16.228 Y-333.514 Z-1.09
G1 X16.009 Y-333.51 Z-1.097
G1 X15.79 Y-333.49 Z-1.105
G1 X15.573 Y-333.454 Z-1.113
G1 X15.36 Y-333.403 Z-1.12
G1 X15.151 Y-333.336 Z-1.128
G1 X14.947 Y-333.255 Z-1.136
G1 X14.75 Y-333.158 Z-1.143
G1 X14.56 Y-333.048 Z-1.151
G1 X14.379 Y-332.924 Z-1.159
G1 X14.208 Y-332.787 Z-1.166
G1 X14.046 Y-332.638 Z-1.174
G1 X13.896 Y-332.478 Z-1.182
G1 X13.758 Y-332.307 Z-1.189
G1 X13.633 Y-332.127 Z-1.197
G1 X13.522 Y-331.938 Z-1.205
G1 X13.424 Y-331.741 Z-1.212
G1 X13.341 Y-331.538 Z-1.22
G1 X13.273 Y-331.33 Z-1.228
G1 X13.22 Y-331.117 Z-1.235
G1 X13.183 Y-330.9 Z-1.243
G1 X13.161 Y-330.682 Z-1.251
G1 X13.156 Y-330.463 Z-1.258
G1 X13.167 Y-330.243 Z-1.266
G1 X13.193 Y-330.025 Z-1.274
G1 X13.235 Y-329.81 Z-1.281
G1 X13.293 Y-329.598 Z-1.289
G1 X13.366 Y-329.391 Z-1.297
G1 X13.454 Y-329.19 Z-1.304
G1 X13.556 Y-328.996 Z-1.312
G1 X13.673 Y-328.81 Z-1.32
G1 X13.802 Y-328.633 Z-1.327
G1 X13.944 Y-328.465 Z-1.335
G1 X14.098 Y-328.309 Z-1.343
G1 X14.262 Y-328.164 Z-1.35
G1 X14.437 Y-328.031 Z-1.358
G1 X14.621 Y-327.911 Z-1.366
G1 X14.813 Y-327.805 Z-1.373
G1 X15.013 Y-327.714 Z-1.381
G1 X15.218 Y-327.637 Z-1.389
G1 X15.429 Y-327.575 Z-1.396
G1 X15.644 Y-327.529 Z-1.404
G1 X15.861 Y-327.498 Z-1.412
G1 X16.08 Y-327.483 Z-1.419
G1 X16.299 Y-327.485 Z-1.427
G1 X16.518 Y-327.502 Z-1.435
G1 X16.735 Y-327.535 Z-1.442
G1 X16.949 Y-327.584 Z-1.45
G1 X17.159 Y-327.648 Z-1.458
G1 X17.364 Y-327.727 Z-1.465
G1 X17.562 Y-327.821 Z-1.473
G1 X17.753 Y-327.93 Z-1.481
G1 X17.936 Y-328.051 Z-1.488
G1 X18.109 Y-328.186 Z-1.496
G1 X18.272 Y-328.333 Z-1.504
G1 X18.424 Y-328.491 Z-1.511
G1 X18.564 Y-328.66 Z-1.519
G1 X18.691 Y-328.839 Z-1.527
G1 X18.805 Y-329.027 Z-1.534
G1 X18.905 Y-329.222 Z-1.542
G1 X18.991 Y-329.424 Z-1.55
G1 X19.061 Y-329.632 Z-1.557
G1 X19.117 Y-329.844 Z-1.565
G1 X19.156 Y-330.06 Z-1.573
G1 X19.18 Y-330.278 Z-1.58
G1 X19.188 Y-330.498 Z-1.588
G1 X19.18 Y-330.717 Z-1.596
G1 X19.156 Y-330.935 Z-1.603
G1 X19.117 Y-331.151 Z-1.611
G1 X19.062 Y-331.364 Z-1.619
G1 X18.991 Y-331.571 Z-1.626
G1 X18.905 Y-331.774 Z-1.634
G1 X18.805 Y-331.969 Z-1.642
G1 X18.692 Y-332.156 Z-1.649
G1 X18.564 Y-332.335 Z-1.657
G1 X18.424 Y-332.504 Z-1.665
G1 X18.273 Y-332.663 Z-1.672
G1 X18.11 Y-332.81 Z-1.68
G1 X17.936 Y-332.945 Z-1.688
G1 X17.754 Y-333.066 Z-1.695
G1 X17.563 Y-333.175 Z-1.703
G1 X17.365 Y-333.269 Z-1.711
G1 X17.16 Y-333.348 Z-1.718
G1 X16.95 Y-333.412 Z-1.726
G1 X16.736 Y-333.461 Z-1.734
G1 X16.519 Y-333.494 Z-1.741
G1 X16.3 Y-333.512 Z-1.749
G1 X16.081 Y-333.513 Z-1.757
G1 X15.862 Y-333.499 Z-1.764
G1 X15.645 Y-333.468 Z-1.772
G1 X15.43 Y-333.422 Z-1.78
G1 X15.219 Y-333.36 Z-1.787
G1 X15.014 Y-333.283 Z-1.795
G1 X14.814 Y-333.192 Z-1.803
G1 X14.622 Y-333.086 Z-1.81
G1 X14.438 Y-332.966 Z-1.818
G1 X14.263 Y-332.834 Z-1.826
G1 X14.098 Y-332.689 Z-1.833
G1 X13.945 Y-332.532 Z-1.841
G1 X13.803 Y-332.365 Z-1.849
G1 X13.673 Y-332.187 Z-1.856
G1 X13.557 Y-332.001 Z-1.864
G1 X13.455 Y-331.807 Z-1.872
G1 X13.367 Y-331.606 Z-1.879
G1 X13.293 Y-331.399 Z-1.887
G1 X13.236 Y-331.187 Z-1.895
G1 X13.193 Y-330.972 Z-1.902
G1 X13.167 Y-330.754 Z-1.91
G1 X13.156 Y-330.535 Z-1.918
G1 X13.161 Y-330.316 Z-1.925
G1 X13.183 Y-330.097 Z-1.933
G1 X13.22 Y-329.881 Z-1.941
G1 X13.272 Y-329.668 Z-1.948
G1 X13.34 Y-329.459 Z-1.956
G1 X13.424 Y-329.256 Z-1.964
G1 X13.521 Y-329.059 Z-1.971
G1 X13.633 Y-328.87 Z-1.979
G1 X13.758 Y-328.69 Z-1.987
G1 X13.896 Y-328.519 Z-1.994
G1 X14.046 Y-328.359 Z-2.002
G1 X14.207 Y-328.21 Z-2.01
G1 X14.378 Y-328.073 Z-2.017
G1 X14.56 Y-327.949 Z-2.025
G1 X14.749 Y-327.839 Z-2.033
G1 X14.946 Y-327.742 Z-2.04
G1 X15.15 Y-327.66 Z-2.048
G1 X15.359 Y-327.594 Z-2.056
G1 X15.572 Y-327.542 Z-2.063
G1 X15.789 Y-327.506 Z-2.071
G1 X16.008 Y-327.487 Z-2.079
G1 X16.227 Y-327.483 Z-2.086
G1 X16.446 Y-327.494 Z-2.094
G1 X16.664 Y-327.522 Z-2.102
G1 X16.879 Y-327.566 Z-2.109
G1 X17.09 Y-327.625 Z-2.117
G1 X17.297 Y-327.7 Z-2.125
G1 X17.497 Y-327.789 Z-2.132
G1 X17.691 Y-327.892 Z-2.14
G1 X17.876 Y-328.01 Z-2.148
G1 X18.053 Y-328.14 Z-2.155
G1 X18.219 Y-328.283 Z-2.163
G1 X18.375 Y-328.438 Z-2.17
G1 X18.519 Y-328.603 Z-2.178
G1 X18.65 Y-328.779 Z-2.186
G1 X18.769 Y-328.964 Z-2.193
G1 X18.874 Y-329.157 Z-2.201
G1 X18.964 Y-329.357 Z-2.209
G1 X19.04 Y-329.563 Z-2.216
G1 X19.1 Y-329.774 Z-2.224
G1 X19.145 Y-329.989 Z-2.232
G1 X19.174 Y-330.206 Z-2.239
G1 X19.187 Y-330.425 Z-2.247
G1 X19.185 Y-330.645 Z-2.255
G1 X19.166 Y-330.863 Z-2.262
G1 X19.132 Y-331.08 Z-2.27
G1 X19.081 Y-331.294 Z-2.278
G1 X19.016 Y-331.503 Z-2.285
G1 X18.935 Y-331.707 Z-2.293
G1 X18.84 Y-331.905 Z-2.301
G1 X18.731 Y-332.095 Z-2.308
G1 X18.608 Y-332.277 Z-2.316
G1 X18.472 Y-332.45 Z-2.324
G1 X18.324 Y-332.612 Z-2.331
G1 X18.165 Y-332.763 Z-2.339
G1 X17.995 Y-332.902 Z-2.347
G1 X17.815 Y-333.028 Z-2.354
G1 X17.627 Y-333.141 Z-2.362
G1 X17.431 Y-333.239 Z-2.37
G1 X17.228 Y-333.324 Z-2.377
G1 X17.02 Y-333.393 Z-2.385
G1 X16.807 Y-333.447 Z-2.393
G1 X16.591 Y-333.485 Z-2.4
G1 X16.373 Y-333.508 Z-2.408
G1 X16.153 Y-333.514 Z-2.416
G1 X15.934 Y-333.505 Z-2.423
G1 X15.716 Y-333.48 Z-2.431
G1 X15.5 Y-333.439 Z-2.439
G1 X15.288 Y-333.382 Z-2.446
G1 X15.081 Y-333.31 Z-2.454
G1 X14.879 Y-333.224 Z-2.462
G1 X14.685 Y-333.122 Z-2.469
G1 X14.498 Y-333.007 Z-2.477
G1 X14.32 Y-332.879 Z-2.485
G1 X14.152 Y-332.738 Z-2.492
G1 X13.994 Y-332.585 Z-2.5
G1 X13.848 Y-332.421 Z-2.508
G1 X13.714 Y-332.247 Z-2.515
G1 X13.594 Y-332.064 Z-2.523
G1 X13.487 Y-331.872 Z-2.531
G1 X13.394 Y-331.673 Z-2.538
G1 X13.316 Y-331.468 Z-2.546
G1 X13.253 Y-331.258 Z-2.554
G1 X13.205 Y-331.043 Z-2.561
G1 X13.174 Y-330.826 Z-2.569
G1 X13.158 Y-330.607 Z-2.577
G1 Y-330.388 Z-2.584
G1 X13.174 Y-330.169 Z-2.592
G1 X13.206 Y-329.952 Z-2.6
G1 X13.253 Y-329.738 Z-2.607
G1 X13.316 Y-329.527 Z-2.615
G1 X13.394 Y-329.322 Z-2.623
G1 X13.487 Y-329.123 Z-2.63
G1 X13.594 Y-328.932 Z-2.638
G1 X13.715 Y-328.749 Z-2.646
G1 X13.849 Y-328.575 Z-2.653
G1 X13.995 Y-328.411 Z-2.661
G1 X14.152 Y-328.258 Z-2.669
G1 X14.321 Y-328.117 Z-2.676
G1 X14.499 Y-327.989 Z-2.684
G1 X14.686 Y-327.874 Z-2.692
G1 X14.88 Y-327.773 Z-2.699
G1 X15.082 Y-327.686 Z-2.707
G1 X15.289 Y-327.614 Z-2.715
G1 X15.502 Y-327.557 Z-2.722
G1 X15.717 Y-327.517 Z-2.73
G1 X15.935 Y-327.491 Z-2.738
G1 X16.154 Y-327.482 Z-2.745
G1 X16.374 Y-327.489 Z-2.753
G1 X16.592 Y-327.511 Z-2.761
G1 X16.808 Y-327.55 Z-2.768
G1 X17.021 Y-327.604 Z-2.776
G1 X17.229 Y-327.673 Z-2.784
G1 X17.432 Y-327.758 Z-2.791
G1 X17.628 Y-327.857 Z-2.799
G1 X17.816 Y-327.969 Z-2.807
G1 X17.996 Y-328.096 Z-2.814
G1 X18.165 Y-328.235 Z-2.822
G1 X18.325 Y-328.386 Z-2.83
G1 X18.473 Y-328.548 Z-2.837
G1 X18.608 Y-328.72 Z-2.845
G1 X18.731 Y-328.902 Z-2.853
G1 X18.841 Y-329.092 Z-2.86
G1 X18.936 Y-329.29 Z-2.868
G1 X19.016 Y-329.494 Z-2.876
G1 X19.082 Y-329.704 Z-2.883
G1 X19.132 Y-329.917 Z-2.891
G1 X19.166 Y-330.134 Z-2.899
G1 X19.185 Y-330.353 Z-2.906
G1 X19.187 Y-330.572 Z-2.914
G1 X19.174 Y-330.791 Z-2.922
G1 X19.145 Y-331.009 Z-2.929
G1 X19.1 Y-331.224 Z-2.937
G1 X19.039 Y-331.435 Z-2.945
G1 X18.964 Y-331.641 Z-2.952
G1 X18.873 Y-331.841 Z-2.96
G1 X18.768 Y-332.034 Z-2.968
G1 X18.65 Y-332.218 Z-2.975
G1 X18.518 Y-332.394 Z-2.983
G1 X18.374 Y-332.559 Z-2.991
G1 X18.218 Y-332.714 Z-2.998
G1 X18.052 Y-332.857 Z-3.006
G1 X17.875 Y-332.988 Z-3.014
G1 X17.69 Y-333.105 Z-3.021
G1 X17.496 Y-333.208 Z-3.029
G1 X17.296 Y-333.297 Z-3.037
G1 X17.089 Y-333.372 Z-3.044
G1 X16.878 Y-333.431 Z-3.052
G1 X16.663 Y-333.474 Z-3.06
G1 X16.445 Y-333.502 Z-3.067
G1 X16.226 Y-333.514 Z-3.075
G1 X16.006 Y-333.51 Z-3.083
G1 X15.788 Y-333.49 Z-3.09
G1 X15.571 Y-333.454 Z-3.098
G1 X15.358 Y-333.403 Z-3.106
G1 X15.149 Y-333.336 Z-3.113
G1 X14.945 Y-333.254 Z-3.121
G1 X14.748 Y-333.157 Z-3.129
G1 X14.559 Y-333.047 Z-3.136
G1 X14.378 Y-332.923 Z-3.144
G1 X14.206 Y-332.786 Z-3.152
G1 X14.045 Y-332.637 Z-3.159
G1 X13.895 Y-332.476 Z-3.167
G1 X13.757 Y-332.306 Z-3.175
G1 X13.632 Y-332.125 Z-3.182
G1 X13.521 Y-331.936 Z-3.19
G1 X13.423 Y-331.74 Z-3.198
G1 X13.34 Y-331.536 Z-3.205
G1 X13.272 Y-331.328 Z-3.213
G1 X13.219 Y-331.115 Z-3.221
G1 X13.182 Y-330.898 Z-3.228
G1 X13.161 Y-330.68 Z-3.236
G1 X13.156 Y-330.46 Z-3.244
G1 X13.167 Y-330.241 Z-3.251
G1 X13.193 Y-330.023 Z-3.259
G1 X13.236 Y-329.808 Z-3.267
G1 X13.294 Y-329.596 Z-3.274
G1 X13.367 Y-329.389 Z-3.282
G1 X13.455 Y-329.188 Z-3.29
G1 X13.558 Y-328.994 Z-3.297
G1 X13.674 Y-328.808 Z-3.305
G1 X13.803 Y-328.631 Z-3.313
G1 X13.945 Y-328.464 Z-3.32
G1 X14.099 Y-328.307 Z-3.328
G1 X14.264 Y-328.162 Z-3.336
G1 X14.439 Y-328.03 Z-3.343
G1 X14.623 Y-327.91 Z-3.351
G1 X14.815 Y-327.804 Z-3.359
G1 X15.015 Y-327.713 Z-3.366
G1 X15.22 Y-327.636 Z-3.374
G1 X15.431 Y-327.574 Z-3.382
G1 X15.646 Y-327.528 Z-3.389
G1 X15.863 Y-327.498 Z-3.397
G1 X16.082 Y-327.483 Z-3.405
G1 X16.302 Y-327.485 Z-3.412
G1 X16.52 Y-327.502 Z-3.42
G1 X16.737 Y-327.535 Z-3.428
G1 X16.951 Y-327.584 Z-3.435
G1 X17.161 Y-327.649 Z-3.443
G1 X17.366 Y-327.728 Z-3.451
G1 X17.564 Y-327.822 Z-3.458
G1 X17.755 Y-327.931 Z-3.466
G1 X17.937 Y-328.053 Z-3.474
G1 X18.11 Y-328.187 Z-3.481
G1 X18.273 Y-328.334 Z-3.489
G1 X18.425 Y-328.493 Z-3.497
G1 X18.565 Y-328.662 Z-3.504
G1 X18.692 Y-328.841 Z-3.512
G1 X18.806 Y-329.029 Z-3.52
G1 X18.906 Y-329.224 Z-3.527
G1 X18.991 Y-329.426 Z-3.535
G1 X19.062 Y-329.634 Z-3.543
G1 X19.117 Y-329.846 Z-3.55
G1 X19.157 Y-330.062 Z-3.558
G1 X19.18 Y-330.281 Z-3.566
G1 X19.188 Y-330.5 Z-3.573
G1 X19.18 Y-330.719 Z-3.581
G1 X19.156 Y-330.937 Z-3.589
G1 X19.116 Y-331.153 Z-3.596
G1 X19.061 Y-331.366 Z-3.604
G1 X18.99 Y-331.573 Z-3.612
G1 X18.905 Y-331.775 Z-3.619
G1 X18.804 Y-331.971 Z-3.627
G1 X18.69 Y-332.158 Z-3.635
G1 X18.563 Y-332.337 Z-3.642
G1 X18.423 Y-332.506 Z-3.65
G1 X18.271 Y-332.664 Z-3.658
G1 X18.108 Y-332.811 Z-3.665
G1 X17.935 Y-332.946 Z-3.673
G1 X17.752 Y-333.068 Z-3.681
G1 X17.561 Y-333.176 Z-3.688
G1 X17.363 Y-333.27 Z-3.696
G1 X17.158 Y-333.349 Z-3.704
G1 X16.948 Y-333.413 Z-3.711
G1 X16.734 Y-333.462 Z-3.719
G1 X16.517 Y-333.495 Z-3.727
G1 X16.298 Y-333.512 Z-3.734
G1 X16.079 Y-333.513 Z-3.742
G1 X15.86 Y-333.498 Z-3.75
G1 X15.642 Y-333.468 Z-3.757
G1 X15.428 Y-333.421 Z-3.765
G1 X15.217 Y-333.359 Z-3.773
G1 X15.012 Y-333.282 Z-3.78
G1 X14.812 Y-333.191 Z-3.788
G1 X14.62 Y-333.085 Z-3.796
G1 X14.436 Y-332.965 Z-3.803
G1 X14.262 Y-332.832 Z-3.811
G1 X14.097 Y-332.687 Z-3.819
G1 X13.943 Y-332.53 Z-3.826
G1 X13.801 Y-332.363 Z-3.834
G1 X13.672 Y-332.186 Z-3.842
G1 X13.556 Y-331.999 Z-3.849
G1 X13.454 Y-331.805 Z-3.857
G1 X13.366 Y-331.604 Z-3.865
G1 X13.293 Y-331.397 Z-3.872
G1 X13.235 Y-331.185 Z-3.88
G1 X13.193 Y-330.97 Z-3.888
G1 X13.166 Y-330.752 Z-3.895
G1 X13.156 Y-330.533 Z-3.903
G1 X13.161 Y-330.313 Z-3.911
G1 X13.183 Y-330.095 Z-3.918
G1 X13.22 Y-329.879 Z-3.926
G1 X13.273 Y-329.666 Z-3.934
G1 X13.341 Y-329.457 Z-3.941
G1 X13.424 Y-329.254 Z-3.949
G1 X13.522 Y-329.058 Z-3.957
G1 X13.634 Y-328.869 Z-3.964
G1 X13.759 Y-328.688 Z-3.972
G1 X13.897 Y-328.518 Z-3.98
G1 X14.047 Y-328.358 Z-3.987
G1 X14.208 Y-328.209 Z-3.995
G1 X14.38 Y-328.072 Z-4.003
G1 X14.561 Y-327.948 Z-4.01
G1 X14.751 Y-327.838 Z-4.018
G1 X14.948 Y-327.741 Z-4.026
G1 X15.152 Y-327.66 Z-4.033
G1 X15.361 Y-327.593 Z-4.041
G1 X15.574 Y-327.542 Z-4.049
G1 X15.791 Y-327.506 Z-4.056
G1 X16.01 Y-327.486 Z-4.064
G1 X39.855 Y-326.2
G2 X40.196 Y-326.507 I0.017 J-0.324
G1 X40.344 Y-329.255
G2 X40.262 Y-329.489 I-0.324 J-0.017
G2 X40.038 Y-329.596 I-0.241 J0.217
G1 X14.816 Y-330.956
G2 X14.582 Y-330.874 I-0.017 J0.323
G2 X14.475 Y-330.65 I0.217 J0.241
G1 X14.331 Y-327.902
G2 X14.638 Y-327.56 I0.325 J0.017
G1 X16.01 Y-327.486
G3 X18.513 Y-325.615 I-0.152 J2.813
G2 X21.017 Y-323.744 I2.655 J-0.942
G1 X41.063 Y-322.663
G3 X43.81 Y-321.196 I-0.198 J3.678
G2 X44.254 Y-321.133 I0.253 J-0.19
G2 X44.378 Y-321.345 I-0.19 J-0.253
G2 X44.313 Y-321.581 I-0.314 J-0.042
G3 X43.536 Y-324.049 I2.901 J-2.27
G1 X43.929 Y-331.337
G3 X44.968 Y-333.708 I3.678 J0.198
G2 X44.961 Y-334.156 I-0.227 J-0.221
G2 X44.733 Y-334.246 I-0.221 J0.227
G2 X44.509 Y-334.146 I0.007 J0.317
G3 X41.62 Y-332.983 I-2.69 J-2.515
G1 X11.528 Y-334.606
G2 X11.299 Y-334.525 I-0.017 J0.317
G2 X11.195 Y-334.306 I0.212 J0.236
G1 X10.687 Y-324.617
G2 X10.986 Y-324.285 I0.316 J0.016
G1 X21.017 Y-323.744
G0 Z6.096
G0 X13.535 Y-331.962
G1 Z-1.524 F508.
G1 X13.435 Y-331.766 Z-1.532
G1 X13.35 Y-331.563 Z-1.539
G1 X13.28 Y-331.355 Z-1.547
G1 X13.225 Y-331.143 Z-1.555
G1 X13.186 Y-330.927 Z-1.562
G1 X13.163 Y-330.708 Z-1.57
G1 X13.156 Y-330.489 Z-1.578
G1 X13.164 Y-330.269 Z-1.585
G1 X13.189 Y-330.051 Z-1.593
G1 X13.23 Y-329.835 Z-1.601
G1 X13.286 Y-329.623 Z-1.608
G1 X13.357 Y-329.415 Z-1.616
G1 X13.443 Y-329.213 Z-1.624
G1 X13.544 Y-329.018 Z-1.631
G1 X13.658 Y-328.831 Z-1.639
G1 X13.786 Y-328.653 Z-1.647
G1 X13.927 Y-328.484 Z-1.654
G1 X14.08 Y-328.326 Z-1.662
G1 X14.243 Y-328.179 Z-1.67
G1 X14.417 Y-328.045 Z-1.677
G1 X14.6 Y-327.924 Z-1.685
G1 X14.791 Y-327.817 Z-1.693
G1 X14.99 Y-327.723 Z-1.7
G1 X15.195 Y-327.645 Z-1.708
G1 X15.405 Y-327.581 Z-1.716
G1 X15.62 Y-327.533 Z-1.723
G1 X15.837 Y-327.501 Z-1.731
G1 X16.056 Y-327.484 Z-1.739
G1 X16.275 Z-1.746
G1 X16.494 Y-327.499 Z-1.754
G1 X16.712 Y-327.531 Z-1.762
G1 X16.926 Y-327.578 Z-1.769
G1 X17.137 Y-327.64 Z-1.777
G1 X17.342 Y-327.718 Z-1.785
G1 X17.541 Y-327.811 Z-1.792
G1 X17.733 Y-327.917 Z-1.8
G1 X17.917 Y-328.038 Z-1.808
G1 X18.091 Y-328.171 Z-1.815
G1 X18.255 Y-328.317 Z-1.823
G1 X18.408 Y-328.474 Z-1.831
G1 X18.55 Y-328.642 Z-1.838
G1 X18.678 Y-328.82 Z-1.846
G1 X18.794 Y-329.007 Z-1.854
G1 X18.895 Y-329.202 Z-1.861
G1 X18.983 Y-329.403 Z-1.869
G1 X19.055 Y-329.611 Z-1.877
G1 X19.112 Y-329.823 Z-1.884
G1 X19.153 Y-330.038 Z-1.892
G1 X19.179 Y-330.256 Z-1.9
G1 X19.188 Y-330.476 Z-1.907
G1 X19.182 Y-330.695 Z-1.915
G1 X19.16 Y-330.914 Z-1.923
G1 X19.121 Y-331.13 Z-1.93
G1 X19.068 Y-331.343 Z-1.938
G1 X18.999 Y-331.551 Z-1.946
G1 X18.914 Y-331.754 Z-1.953
G1 X18.816 Y-331.95 Z-1.961
G1 X18.703 Y-332.139 Z-1.969
G1 X18.577 Y-332.319 Z-1.976
G1 X18.438 Y-332.489 Z-1.984
G1 X18.288 Y-332.648 Z-1.992
G1 X18.126 Y-332.796 Z-2
G1 X17.953 Y-332.932 Z-2.007
G1 X17.771 Y-333.056 Z-2.015
G1 X17.581 Y-333.165 Z-2.023
G1 X17.383 Y-333.261 Z-2.03
G1 X17.179 Y-333.341 Z-2.038
G1 X16.97 Y-333.407 Z-2.046
G1 X16.756 Y-333.457 Z-2.053
G1 X16.539 Y-333.492 Z-2.061
G1 X16.32 Y-333.511 Z-2.069
G1 X16.101 Y-333.514 Z-2.076
G1 X15.882 Y-333.5 Z-2.084
G1 X15.664 Y-333.471 Z-2.092
G1 X15.449 Y-333.427 Z-2.099
G1 X15.238 Y-333.366 Z-2.107
G1 X15.032 Y-333.291 Z-2.115
G1 X14.832 Y-333.2 Z-2.122
G1 X14.639 Y-333.096 Z-2.13
G1 X14.454 Y-332.977 Z-2.138
G1 X14.278 Y-332.846 Z-2.145
G1 X14.112 Y-332.702 Z-2.153
G1 X13.957 Y-332.546 Z-2.161
G1 X13.814 Y-332.379 Z-2.168
G1 X13.684 Y-332.203 Z-2.176
G1 X13.566 Y-332.017 Z-2.184
G1 X13.463 Y-331.824 Z-2.191
G1 X13.373 Y-331.623 Z-2.199
G1 X13.299 Y-331.416 Z-2.207
G1 X13.24 Y-331.205 Z-2.214
G1 X13.196 Y-330.99 Z-2.222
G1 X13.168 Y-330.772 Z-2.23
G1 X13.156 Y-330.553 Z-2.237
G1 X13.16 Y-330.333 Z-2.245
G1 X13.18 Y-330.115 Z-2.253
G1 X13.216 Y-329.898 Z-2.26
G1 X13.268 Y-329.685 Z-2.268
G1 X13.335 Y-329.475 Z-2.276
G1 X13.416 Y-329.272 Z-2.283
G1 X13.513 Y-329.074 Z-2.291
G1 X13.624 Y-328.885 Z-2.299
G1 X13.748 Y-328.704 Z-2.306
G1 X13.885 Y-328.532 Z-2.314
G1 X14.034 Y-328.371 Z-2.322
G1 X14.194 Y-328.221 Z-2.329
G1 X14.365 Y-328.083 Z-2.337
G1 X14.546 Y-327.958 Z-2.345
G1 X14.735 Y-327.846 Z-2.352
G1 X14.931 Y-327.749 Z-2.36
G1 X15.135 Y-327.666 Z-2.368
G1 X15.344 Y-327.598 Z-2.375
G1 X15.557 Y-327.545 Z-2.383
G1 X15.773 Y-327.508 Z-2.391
G1 X15.992 Y-327.487 Z-2.398
G1 X16.211 Y-327.482 Z-2.406
G1 X16.431 Y-327.493 Z-2.414
G1 X16.649 Y-327.52 Z-2.421
G1 X16.864 Y-327.562 Z-2.429
G1 X17.076 Y-327.621 Z-2.437
G1 X17.283 Y-327.694 Z-2.444
G1 X17.484 Y-327.782 Z-2.452
G1 X17.678 Y-327.885 Z-2.46
G1 X17.864 Y-328.001 Z-2.467
G1 X18.041 Y-328.131 Z-2.475
G1 X18.208 Y-328.273 Z-2.483
G1 X18.365 Y-328.427 Z-2.49
G1 X18.51 Y-328.592 Z-2.498
G1 X18.642 Y-328.767 Z-2.506
G1 X18.762 Y-328.952 Z-2.513
G1 X18.867 Y-329.144 Z-2.521
G1 X18.959 Y-329.344 Z-2.529
G1 X19.035 Y-329.55 Z-2.536
G1 X19.097 Y-329.76 Z-2.544
G1 X19.143 Y-329.975 Z-2.552
G1 X19.173 Y-330.193 Z-2.559
G1 X19.187 Y-330.412 Z-2.567
G1 X19.185 Y-330.631 Z-2.575
G1 X19.168 Y-330.85 Z-2.582
G1 X19.134 Y-331.067 Z-2.59
G1 X19.085 Y-331.281 Z-2.598
G1 X19.02 Y-331.491 Z-2.605
G1 X18.941 Y-331.695 Z-2.613
G1 X18.846 Y-331.894 Z-2.621
G1 X18.737 Y-332.085 Z-2.628
G1 X18.615 Y-332.267 Z-2.636
G1 X18.48 Y-332.44 Z-2.644
G1 X18.333 Y-332.603 Z-2.651
G1 X18.174 Y-332.754 Z-2.659
G1 X18.004 Y-332.894 Z-2.667
G1 X17.825 Y-333.021 Z-2.674
G1 X17.637 Y-333.135 Z-2.682
G1 X17.442 Y-333.234 Z-2.69
G1 X17.239 Y-333.319 Z-2.697
G1 X17.031 Y-333.39 Z-2.705
G1 X16.819 Y-333.444 Z-2.713
G1 X16.603 Y-333.484 Z-2.72
G1 X16.384 Y-333.507 Z-2.728
G1 X16.165 Y-333.515 Z-2.736
G1 X15.945 Y-333.506 Z-2.743
G1 X15.727 Y-333.482 Z-2.751
G1 X15.511 Y-333.441 Z-2.759
G1 X15.299 Y-333.385 Z-2.766
G1 X15.091 Y-333.314 Z-2.774
G1 X14.889 Y-333.228 Z-2.782
G1 X14.694 Y-333.128 Z-2.789
G1 X14.507 Y-333.013 Z-2.797
G1 X14.328 Y-332.885 Z-2.805
G1 X14.159 Y-332.745 Z-2.812
G1 X14.001 Y-332.592 Z-2.82
G1 X13.855 Y-332.429 Z-2.828
G1 X13.72 Y-332.255 Z-2.835
G1 X13.599 Y-332.072 Z-2.843
G1 X13.491 Y-331.881 Z-2.851
G1 X13.398 Y-331.682 Z-2.858
G1 X13.319 Y-331.477 Z-2.866
G1 X13.255 Y-331.267 Z-2.874
G1 X13.207 Y-331.053 Z-2.881
G1 X13.175 Y-330.836 Z-2.889
G1 X13.158 Y-330.617 Z-2.897
G1 X13.157 Y-330.397 Z-2.904
G1 X13.173 Y-330.178 Z-2.912
G1 X13.204 Y-329.961 Z-2.92
G1 X13.251 Y-329.746 Z-2.927
G1 X13.313 Y-329.536 Z-2.935
G1 X13.391 Y-329.331 Z-2.943
G1 X13.483 Y-329.131 Z-2.951
G1 X13.59 Y-328.939 Z-2.958
G1 X13.71 Y-328.756 Z-2.966
G1 X13.843 Y-328.581 Z-2.974
G1 X13.989 Y-328.417 Z-2.981
G1 X14.146 Y-328.263 Z-2.989
G1 X14.314 Y-328.122 Z-2.997
G1 X14.492 Y-327.993 Z-3.004
G1 X14.679 Y-327.878 Z-3.012
G1 X14.873 Y-327.776 Z-3.02
G1 X15.075 Y-327.689 Z-3.027
G1 X15.282 Y-327.616 Z-3.035
G1 X15.494 Y-327.559 Z-3.043
G1 X15.71 Y-327.518 Z-3.05
G1 X15.928 Y-327.492 Z-3.058
G1 X16.147 Y-327.482 Z-3.066
G1 X16.367 Y-327.488 Z-3.073
G1 X16.585 Y-327.51 Z-3.081
G1 X16.801 Y-327.548 Z-3.089
G1 X17.014 Y-327.602 Z-3.096
G1 X17.223 Y-327.671 Z-3.104
G1 X17.426 Y-327.755 Z-3.112
G1 X17.622 Y-327.853 Z-3.119
G1 X17.811 Y-327.966 Z-3.127
G1 X17.99 Y-328.092 Z-3.135
G1 X18.161 Y-328.23 Z-3.142
G1 X18.32 Y-328.381 Z-3.15
G1 X18.469 Y-328.543 Z-3.158
G1 X18.605 Y-328.715 Z-3.165
G1 X18.728 Y-328.897 Z-3.173
G1 X18.838 Y-329.087 Z-3.181
G1 X18.933 Y-329.285 Z-3.188
G1 X19.014 Y-329.489 Z-3.196
G1 X19.08 Y-329.698 Z-3.204
G1 X19.131 Y-329.912 Z-3.211
G1 X19.166 Y-330.129 Z-3.219
G1 X19.185 Y-330.348 Z-3.227
G1 X19.188 Y-330.567 Z-3.234
G1 X19.175 Y-330.786 Z-3.242
G1 X19.146 Y-331.004 Z-3.25
G1 X19.101 Y-331.219 Z-3.257
G1 X19.041 Y-331.43 Z-3.265
G1 X18.965 Y-331.636 Z-3.273
G1 X18.875 Y-331.837 Z-3.28
G1 X18.771 Y-332.03 Z-3.288
G1 X18.652 Y-332.215 Z-3.296
G1 X18.521 Y-332.391 Z-3.303
G1 X18.377 Y-332.556 Z-3.311
G1 X18.221 Y-332.711 Z-3.319
G1 X18.055 Y-332.855 Z-3.326
G1 X17.879 Y-332.985 Z-3.334
G1 X17.693 Y-333.103 Z-3.342
G1 X17.5 Y-333.207 Z-3.349
G1 X17.299 Y-333.296 Z-3.357
G1 X17.093 Y-333.371 Z-3.365
G1 X16.881 Y-333.43 Z-3.372
G1 X16.666 Y-333.474 Z-3.38
G1 X16.448 Y-333.502 Z-3.388
G1 X16.229 Y-333.514 Z-3.395
G1 X16.009 Y-333.51 Z-3.403
G1 X15.791 Y-333.49 Z-3.411
G1 X15.574 Y-333.455 Z-3.418
G1 X15.361 Y-333.403 Z-3.426
G1 X15.151 Y-333.337 Z-3.434
G1 X14.948 Y-333.255 Z-3.441
G1 X14.75 Y-333.158 Z-3.449
G1 X14.561 Y-333.048 Z-3.457
G1 X14.379 Y-332.924 Z-3.464
G1 X14.208 Y-332.787 Z-3.472
G1 X14.046 Y-332.638 Z-3.48
G1 X13.896 Y-332.478 Z-3.487
G1 X13.758 Y-332.307 Z-3.495
G1 X13.633 Y-332.127 Z-3.503
G1 X13.521 Y-331.938 Z-3.51
G1 X13.424 Y-331.741 Z-3.518
G1 X13.341 Y-331.538 Z-3.526
G1 X13.272 Y-331.329 Z-3.533
G1 X13.22 Y-331.116 Z-3.541
G1 X13.183 Y-330.899 Z-3.549
G1 X13.161 Y-330.681 Z-3.556
G1 X13.156 Y-330.461 Z-3.564
G1 X13.167 Y-330.242 Z-3.572
G1 X13.193 Y-330.024 Z-3.579
G1 X13.236 Y-329.809 Z-3.587
G1 X13.294 Y-329.597 Z-3.595
G1 X13.367 Y-329.39 Z-3.602
G1 X13.455 Y-329.189 Z-3.61
G1 X13.557 Y-328.995 Z-3.618
G1 X13.674 Y-328.808 Z-3.625
G1 X13.803 Y-328.631 Z-3.633
G1 X13.945 Y-328.464 Z-3.641
G1 X14.099 Y-328.307 Z-3.648
G1 X14.264 Y-328.162 Z-3.656
G1 X14.439 Y-328.029 Z-3.664
G1 X14.623 Y-327.91 Z-3.671
G1 X14.816 Y-327.804 Z-3.679
G1 X15.015 Y-327.713 Z-3.687
G1 X15.221 Y-327.636 Z-3.694
G1 X15.432 Y-327.574 Z-3.702
G1 X15.647 Y-327.528 Z-3.71
G1 X15.864 Y-327.498 Z-3.717
G1 X16.083 Y-327.483 Z-3.725
G1 X16.303 Y-327.485 Z-3.733
G1 X16.522 Y-327.502 Z-3.74
G1 X16.739 Y-327.536 Z-3.748
G1 X16.953 Y-327.585 Z-3.756
G1 X17.162 Y-327.649 Z-3.763
G1 X17.367 Y-327.729 Z-3.771
G1 X17.565 Y-327.823 Z-3.779
G1 X17.756 Y-327.932 Z-3.786
G1 X17.939 Y-328.054 Z-3.794
G1 X18.112 Y-328.189 Z-3.802
G1 X18.275 Y-328.336 Z-3.809
G1 X18.427 Y-328.495 Z-3.817
G1 X18.566 Y-328.664 Z-3.825
G1 X18.694 Y-328.843 Z-3.832
G1 X18.807 Y-329.031 Z-3.84
G1 X18.907 Y-329.226 Z-3.848
G1 X18.992 Y-329.429 Z-3.855
G1 X19.063 Y-329.637 Z-3.863
G1 X19.118 Y-329.849 Z-3.871
G1 X19.157 Y-330.065 Z-3.879
G1 X19.181 Y-330.284 Z-3.886
G1 X19.188 Y-330.503 Z-3.894
G1 X19.18 Y-330.723 Z-3.902
G1 X19.156 Y-330.941 Z-3.909
G1 X19.116 Y-331.157 Z-3.917
G1 X19.06 Y-331.369 Z-3.925
G1 X18.989 Y-331.577 Z-3.932
G1 X18.903 Y-331.779 Z-3.94
G1 X18.803 Y-331.974 Z-3.948
G1 X18.688 Y-332.162 Z-3.955
G1 X18.561 Y-332.34 Z-3.963
G1 X18.42 Y-332.509 Z-3.971
G1 X18.268 Y-332.667 Z-3.978
G1 X18.105 Y-332.814 Z-3.986
G1 X17.931 Y-332.949 Z-3.994
G1 X17.748 Y-333.07 Z-4.001
G1 X17.557 Y-333.178 Z-4.009
G1 X17.358 Y-333.271 Z-4.017
G1 X17.153 Y-333.35 Z-4.024
G1 X16.943 Y-333.414 Z-4.032
G1 X16.729 Y-333.463 Z-4.04
G1 X16.512 Y-333.495 Z-4.047
G1 X16.293 Y-333.512 Z-4.055
G1 X16.073 Y-333.513 Z-4.063
G1 X15.854 Y-333.498 Z-4.07
G1 X15.637 Y-333.467 Z-4.078
G1 X15.423 Y-333.42 Z-4.086
G1 X15.212 Y-333.358 Z-4.093
G1 X15.006 Y-333.28 Z-4.101
G1 X14.807 Y-333.188 Z-4.109
G1 X14.615 Y-333.082 Z-4.116
G1 X14.431 Y-332.962 Z-4.124
G1 X14.257 Y-332.828 Z-4.132
G1 X14.092 Y-332.683 Z-4.139
G1 X13.939 Y-332.526 Z-4.147
G1 X13.797 Y-332.358 Z-4.155
G1 X13.668 Y-332.18 Z-4.162
G1 X13.553 Y-331.994 Z-4.17
G1 X13.451 Y-331.799 Z-4.178
G1 X13.363 Y-331.598 Z-4.185
G1 X13.291 Y-331.39 Z-4.193
G1 X13.233 Y-331.178 Z-4.201
G1 X13.192 Y-330.963 Z-4.208
G1 X13.166 Y-330.745 Z-4.216
G1 X13.156 Y-330.525 Z-4.224
G1 X13.162 Y-330.306 Z-4.231
G1 X13.184 Y-330.088 Z-4.239
G1 X13.222 Y-329.871 Z-4.247
G1 X13.275 Y-329.658 Z-4.254
G1 X13.344 Y-329.45 Z-4.262
G1 X13.428 Y-329.247 Z-4.27
G1 X13.526 Y-329.05 Z-4.277
G1 X13.638 Y-328.862 Z-4.285
G1 X13.764 Y-328.682 Z-4.293
G1 X13.903 Y-328.511 Z-4.3
G1 X14.053 Y-328.352 Z-4.308
G1 X14.215 Y-328.203 Z-4.316
G1 X14.387 Y-328.067 Z-4.323
G1 X14.569 Y-327.943 Z-4.331
G1 X14.759 Y-327.834 Z-4.339
G1 X14.956 Y-327.738 Z-4.346
G1 X15.16 Y-327.657 Z-4.354
G1 X15.37 Y-327.591 Z-4.362
G1 X15.584 Y-327.54 Z-4.369
G1 X15.8 Y-327.505 Z-4.377
G1 X16.019 Y-327.486 Z-4.385
G1 X16.239 Y-327.483 Z-4.392
G1 X16.458 Y-327.496 Z-4.4
G1 X16.675 Y-327.524 Z-4.408
G1 X16.891 Y-327.569 Z-4.415
G1 X17.102 Y-327.629 Z-4.423
G1 X17.308 Y-327.704 Z-4.431
G1 X17.508 Y-327.794 Z-4.438
G1 X17.701 Y-327.899 Z-4.446
G1 X17.887 Y-328.017 Z-4.454
G1 X18.063 Y-328.148 Z-4.461
G1 X18.228 Y-328.292 Z-4.469
G1 X18.384 Y-328.447 Z-4.477
G1 X18.527 Y-328.613 Z-4.484
G1 X18.658 Y-328.79 Z-4.492
G1 X18.775 Y-328.975 Z-4.5
G1 X18.879 Y-329.169 Z-4.507
G1 X18.969 Y-329.369 Z-4.515
G1 X19.044 Y-329.576 Z-4.523
G1 X19.103 Y-329.787 Z-4.53
G1 X19.147 Y-330.002 Z-4.538
G1 X19.175 Y-330.22 Z-4.546
G1 X19.188 Y-330.439 Z-4.553
G1 X19.184 Y-330.659 Z-4.561
G1 X19.164 Y-330.877 Z-4.569
G1 X19.129 Y-331.094 Z-4.576
G1 X19.078 Y-331.307 Z-4.584
G1 X19.011 Y-331.517 Z-4.592
G1 X18.93 Y-331.721 Z-4.599
G1 X18.833 Y-331.918 Z-4.607
G1 X18.723 Y-332.108 Z-4.615
G1 X18.599 Y-332.289 Z-4.622
G1 X18.462 Y-332.461 Z-4.63
G1 X18.314 Y-332.622 Z-4.638
G1 X18.153 Y-332.772 Z-4.645
G1 X17.983 Y-332.911 Z-4.653
G1 X17.802 Y-333.036 Z-4.661
G1 X17.613 Y-333.148 Z-4.668
G1 X17.417 Y-333.246 Z-4.676
G1 X17.214 Y-333.329 Z-4.684
G1 X17.005 Y-333.397 Z-4.691
G1 X16.792 Y-333.45 Z-4.699
G1 X16.576 Y-333.487 Z-4.707
G1 X16.357 Y-333.509 Z-4.714
G1 X16.138 Y-333.514 Z-4.722
G1 X15.918 Y-333.504 Z-4.73
G1 X15.7 Y-333.477 Z-4.737
G1 X15.485 Y-333.435 Z-4.745
G1 X15.273 Y-333.377 Z-4.753
G1 X15.066 Y-333.304 Z-4.76
G1 X14.865 Y-333.216 Z-4.768
G1 X14.67 Y-333.114 Z-4.776
G1 X14.484 Y-332.998 Z-4.783
G1 X14.307 Y-332.869 Z-4.791
G1 X14.139 Y-332.727 Z-4.799
G1 X13.982 Y-332.573 Z-4.807
G1 X13.837 Y-332.408 Z-4.814
G1 X13.705 Y-332.233 Z-4.822
G1 X13.585 Y-332.049 Z-4.83
G1 X13.479 Y-331.857 Z-4.837
G1 X13.387 Y-331.657 Z-4.845
G1 X13.31 Y-331.451 Z-4.853
G1 X13.249 Y-331.241 Z-4.86
G1 X13.202 Y-331.026 Z-4.868
G1 X13.172 Y-330.809 Z-4.876
G1 X13.157 Y-330.59 Z-4.883
G1 X13.159 Y-330.37 Z-4.891
G1 X13.176 Y-330.151 Z-4.899
G1 X13.209 Y-329.934 Z-4.906
G1 X13.258 Y-329.72 Z-4.914
G1 X13.322 Y-329.51 Z-4.922
G1 X13.402 Y-329.305 Z-4.929
G1 X13.496 Y-329.107 Z-4.937
G1 X13.604 Y-328.916 Z-4.945
G1 X13.726 Y-328.733 Z-4.952
G1 X13.861 Y-328.56 Z-4.96
G1 X14.008 Y-328.397 Z-4.968
G1 X14.167 Y-328.245 Z-4.975
G1 X14.336 Y-328.105 Z-4.983
G1 X14.515 Y-327.978 Z-4.991
G1 X14.703 Y-327.864 Z-4.998
G1 X14.898 Y-327.764 Z-5.006
G1 X15.1 Y-327.679 Z-5.014
G1 X15.308 Y-327.608 Z-5.021
G1 X15.521 Y-327.553 Z-5.029
G1 X15.737 Y-327.514 Z-5.037
G1 X15.955 Y-327.49 Z-5.044
G1 X16.175 Y-327.482 Z-5.052
G1 X16.394 Y-327.49 Z-5.06
G1 X16.612 Y-327.514 Z-5.067
G1 X16.828 Y-327.554 Z-5.075
G1 X17.041 Y-327.61 Z-5.083
G1 X17.248 Y-327.681 Z-5.09
G1 X17.45 Y-327.766 Z-5.098
G1 X17.646 Y-327.867 Z-5.106
G1 X17.833 Y-327.981 Z-5.113
G1 X18.012 Y-328.108 Z-5.121
G1 X18.181 Y-328.249 Z-5.129
G1 X18.339 Y-328.401 Z-5.136
G1 X18.486 Y-328.564 Z-5.144
G1 X18.621 Y-328.737 Z-5.152
G1 X18.743 Y-328.92 Z-5.159
G1 X18.851 Y-329.111 Z-5.167
G1 X18.944 Y-329.31 Z-5.175
G1 X19.023 Y-329.515 Z-5.182
G1 X19.087 Y-329.725 Z-5.19
G1 X19.136 Y-329.939 Z-5.198
G1 X19.169 Y-330.156 Z-5.205
G1 X19.186 Y-330.375 Z-5.213
G1 X19.187 Y-330.594 Z-5.221
G1 X19.172 Y-330.814 Z-5.228
G1 X19.141 Y-331.031 Z-5.236
G1 X19.094 Y-331.246 Z-5.244
G1 X19.032 Y-331.456 Z-5.251
G1 X18.955 Y-331.662 Z-5.259
G1 X18.863 Y-331.861 Z-5.267
G1 X18.757 Y-332.053 Z-5.274
G1 X18.637 Y-332.237 Z-5.282
G1 X18.504 Y-332.412 Z-5.29
G1 X18.358 Y-332.576 Z-5.297
G1 X18.201 Y-332.73 Z-5.305
G1 X18.034 Y-332.872 Z-5.313
G1 X17.856 Y-333.001 Z-5.32
G1 X17.669 Y-333.117 Z-5.328
G1 X17.475 Y-333.219 Z-5.336
G1 X17.274 Y-333.306 Z-5.343
G1 X17.066 Y-333.379 Z-5.351
G1 X16.855 Y-333.436 Z-5.359
G1 X16.639 Y-333.478 Z-5.366
G1 X16.421 Y-333.504 Z-5.374
G1 X16.202 Y-333.514 Z-5.382
G1 X15.982 Y-333.509 Z-5.389
G1 X15.764 Y-333.487 Z-5.397
G1 X15.547 Y-333.449 Z-5.405
G1 X15.334 Y-333.396 Z-5.412
G1 X15.126 Y-333.327 Z-5.42
G1 X14.923 Y-333.244 Z-5.428
G1 X14.726 Y-333.145 Z-5.435
G1 X14.538 Y-333.033 Z-5.443
G1 X14.357 Y-332.908 Z-5.451
G1 X14.187 Y-332.769 Z-5.458
G1 X14.027 Y-332.619 Z-5.466
G1 X13.878 Y-332.457 Z-5.474
G1 X13.742 Y-332.285 Z-5.481
G1 X13.618 Y-332.104 Z-5.489
G1 X13.508 Y-331.914 Z-5.497
G1 X13.413 Y-331.716 Z-5.504
G1 X13.331 Y-331.512 Z-5.512
G1 X13.265 Y-331.303 Z-5.52
G1 X13.214 Y-331.089 Z-5.527
G1 X13.179 Y-330.872 Z-5.535
G1 X13.16 Y-330.654 Z-5.543
G1 X13.156 Y-330.434 Z-5.55
G1 X13.169 Y-330.215 Z-5.558
G1 X13.198 Y-329.997 Z-5.566
G1 X13.242 Y-329.782 Z-5.573
G1 X13.302 Y-329.571 Z-5.581
G1 X13.377 Y-329.364 Z-5.589
G1 X13.467 Y-329.164 Z-5.596
G1 X13.571 Y-328.971 Z-5.604
G1 X13.689 Y-328.786 Z-5.612
G1 X13.82 Y-328.61 Z-5.619
G1 X13.964 Y-328.444 Z-5.627
G1 X14.119 Y-328.288 Z-5.635
G1 X14.285 Y-328.145 Z-5.642
G1 X14.462 Y-328.014 Z-5.65
G1 X14.647 Y-327.896 Z-5.658
G1 X14.84 Y-327.792 Z-5.665
G1 X15.041 Y-327.702 Z-5.673
G1 X15.247 Y-327.627 Z-5.681
G1 X15.458 Y-327.568 Z-5.688
G1 X15.673 Y-327.524 Z-5.696
G1 X15.891 Y-327.495 Z-5.704
G1 X16.11 Y-327.483 Z-5.711
G1 X16.33 Y-327.486 Z-5.719
G1 X16.549 Y-327.506 Z-5.727
G1 X16.765 Y-327.541 Z-5.734
G1 X16.979 Y-327.592 Z-5.742
G1 X17.188 Y-327.658 Z-5.75
G1 X17.392 Y-327.74 Z-5.758
G1 X17.59 Y-327.836 Z-5.765
G1 X17.78 Y-327.946 Z-5.773
G1 X17.961 Y-328.07 Z-5.781
G1 X18.133 Y-328.206 Z-5.788
G1 X18.294 Y-328.355 Z-5.796
G1 X18.445 Y-328.515 Z-5.804
G1 X18.583 Y-328.686 Z-5.811
G1 X18.708 Y-328.866 Z-5.819
G1 X18.82 Y-329.055 Z-5.827
G1 X18.918 Y-329.251 Z-5.834
G1 X19.002 Y-329.454 Z-5.842
G1 X19.07 Y-329.663 Z-5.85
G1 X19.123 Y-329.876 Z-5.857
G1 X19.161 Y-330.092 Z-5.865
G1 X19.182 Y-330.311 Z-5.873
G1 X19.188 Y-330.53 Z-5.88
G1 X19.178 Y-330.75 Z-5.888
G1 X19.152 Y-330.968 Z-5.896
G1 X19.109 Y-331.183 Z-5.903
G1 X19.052 Y-331.395 Z-5.911
G1 X18.979 Y-331.602 Z-5.919
G1 X18.891 Y-331.804 Z-5.926
G1 X18.789 Y-331.998 Z-5.934
G1 X18.673 Y-332.184 Z-5.942
G1 X18.544 Y-332.362 Z-5.949
G1 X18.402 Y-332.529 Z-5.957
G1 X18.248 Y-332.686 Z-5.965
G1 X18.084 Y-332.831 Z-5.972
G1 X17.909 Y-332.964 Z-5.98
G1 X17.725 Y-333.084 Z-5.988
G1 X17.533 Y-333.19 Z-5.995
G1 X17.333 Y-333.282 Z-6.003
G1 X17.127 Y-333.359 Z-6.011
G1 X16.917 Y-333.421 Z-6.018
G1 X16.702 Y-333.468 Z-6.026
G1 X16.485 Y-333.498 Z-6.034
G1 X16.266 Y-333.513 Z-6.041
G1 X16.046 Y-333.512 Z-6.049
G1 X15.827 Y-333.495 Z-6.057
G1 X15.61 Y-333.462 Z-6.064
G1 X15.396 Y-333.413 Z-6.072
G1 X15.186 Y-333.349 Z-6.08
G1 X14.981 Y-333.27 Z-6.087
G1 X14.783 Y-333.176 Z-6.095
G1 X14.592 Y-333.067 Z-6.103
G1 X14.409 Y-332.946 Z-6.11
G1 X14.236 Y-332.811 Z-6.118
G1 X14.073 Y-332.664 Z-6.126
G1 X13.921 Y-332.505 Z-6.133
G1 X13.781 Y-332.336 Z-6.141
G1 X13.653 Y-332.157 Z-6.149
G1 X13.539 Y-331.97 Z-6.156
G1 X13.439 Y-331.774 Z-6.164
G1 X13.353 Y-331.572 Z-6.172
G1 X13.283 Y-331.364 Z-6.179
G1 X13.227 Y-331.152 Z-6.187
G1 X13.188 Y-330.936 Z-6.195
G1 X13.164 Y-330.718 Z-6.202
G1 X13.156 Y-330.498 Z-6.21
G1 X13.164 Y-330.279 Z-6.218
G1 X13.188 Y-330.06 Z-6.225
G1 X13.227 Y-329.845 Z-6.233
G1 X13.283 Y-329.632 Z-6.241
G1 X13.354 Y-329.424 Z-6.248
G1 X13.439 Y-329.222 Z-6.256
G1 X13.539 Y-329.027 Z-6.264
G1 X13.653 Y-328.839 Z-6.271
G1 X13.781 Y-328.66 Z-6.279
G1 X13.921 Y-328.491 Z-6.287
G1 X14.073 Y-328.332 Z-6.294
G1 X14.236 Y-328.185 Z-6.302
G1 X14.409 Y-328.051 Z-6.31
G1 X14.592 Y-327.929 Z-6.317
G1 X14.783 Y-327.821 Z-6.325
G1 X14.982 Y-327.727 Z-6.333
G1 X15.186 Y-327.648 Z-6.34
G1 X15.396 Y-327.583 Z-6.348
G1 X15.61 Y-327.535 Z-6.356
G1 X15.827 Y-327.502 Z-6.363
G1 X16.046 Y-327.485 Z-6.371
G1 X16.266 Y-327.483 Z-6.379
G1 X16.485 Y-327.498 Z-6.386
G1 X16.702 Y-327.529 Z-6.394
G1 X16.917 Y-327.575 Z-6.402
G1 X17.128 Y-327.637 Z-6.409
G1 X17.333 Y-327.714 Z-6.417
G1 X17.533 Y-327.806 Z-6.425
G1 X17.725 Y-327.912 Z-6.432
G1 X17.909 Y-328.032 Z-6.44
G1 X18.084 Y-328.165 Z-6.448
G1 X18.248 Y-328.31 Z-6.455
G1 X18.402 Y-328.467 Z-6.463
G1 X18.544 Y-328.635 Z-6.471
G1 X18.673 Y-328.812 Z-6.478
G1 X18.789 Y-328.999 Z-6.486
G1 X18.891 Y-329.193 Z-6.494
G1 X18.979 Y-329.394 Z-6.501
G1 X19.052 Y-329.602 Z-6.509
G1 X19.11 Y-329.813 Z-6.517
G1 X19.152 Y-330.029 Z-6.524
G1 X19.178 Y-330.247 Z-6.532
G1 X19.188 Y-330.466 Z-6.54
G1 X19.182 Y-330.686 Z-6.547
G1 X19.161 Y-330.904 Z-6.555
G1 X19.123 Y-331.121 Z-6.563
G1 X19.07 Y-331.334 Z-6.57
G1 X19.002 Y-331.542 Z-6.578
G1 X18.918 Y-331.745 Z-6.586
G1 X18.82 Y-331.942 Z-6.593
G1 X18.708 Y-332.131 Z-6.601
G1 X18.583 Y-332.311 Z-6.609
G1 X18.445 Y-332.482 Z-6.616
G1 X18.294 Y-332.642 Z-6.624
G1 X18.133 Y-332.79 Z-6.632
G1 X17.961 Y-332.927 Z-6.639
G1 X17.779 Y-333.051 Z-6.647
G1 X17.589 Y-333.161 Z-6.655
G1 X17.392 Y-333.257 Z-6.662
G1 X17.188 Y-333.338 Z-6.67
G1 X16.979 Y-333.405 Z-6.678
G1 X16.765 Y-333.456 Z-6.686
G1 X16.548 Y-333.491 Z-6.693
G1 X16.33 Y-333.51 Z-6.701
G1 X16.11 Y-333.514 Z-6.709
G1 X15.891 Y-333.501 Z-6.716
G1 X15.673 Y-333.473 Z-6.724
G1 X15.458 Y-333.429 Z-6.732
G1 X15.247 Y-333.369 Z-6.739
G1 X15.04 Y-333.294 Z-6.747
G1 X14.84 Y-333.204 Z-6.755
G1 X14.647 Y-333.1 Z-6.762
G1 X14.461 Y-332.983 Z-6.77
G1 X14.285 Y-332.852 Z-6.778
G1 X14.119 Y-332.708 Z-6.785
G1 X13.964 Y-332.553 Z-6.793
G1 X13.82 Y-332.387 Z-6.801
G1 X13.689 Y-332.211 Z-6.808
G1 X13.571 Y-332.025 Z-6.816
G1 X13.467 Y-331.832 Z-6.824
G1 X13.377 Y-331.632 Z-6.831
G1 X13.302 Y-331.425 Z-6.839
G1 X13.242 Y-331.214 Z-6.847
G1 X13.198 Y-330.999 Z-6.854
G1 X13.169 Y-330.781 Z-6.862
G1 X13.156 Y-330.562 Z-6.87
G1 X13.16 Y-330.343 Z-6.877
G1 X13.179 Y-330.124 Z-6.885
G1 X13.214 Y-329.907 Z-6.893
G1 X13.265 Y-329.694 Z-6.9
G1 X13.331 Y-329.484 Z-6.908
G1 X13.413 Y-329.28 Z-6.916
G1 X13.509 Y-329.083 Z-6.923
G1 X13.619 Y-328.893 Z-6.931
G1 X13.742 Y-328.711 Z-6.939
G1 X13.879 Y-328.539 Z-6.946
G1 X14.027 Y-328.378 Z-6.954
G1 X14.187 Y-328.227 Z-6.962
G1 X14.358 Y-328.089 Z-6.969
G1 X14.538 Y-327.963 Z-6.977
G1 X14.726 Y-327.851 Z-6.985
G1 X14.923 Y-327.753 Z-6.992
G1 X15.126 Y-327.669 Z-7
G1 X15.335 Y-327.601 Z-7.008
G1 X15.548 Y-327.547 Z-7.015
G1 X15.764 Y-327.51 Z-7.023
G1 X15.982 Y-327.488 Z-7.031
G1 X16.202 Y-327.482 Z-7.038
G1 X16.421 Y-327.492 Z-7.046
G1 X16.639 Y-327.518 Z-7.054
G1 X16.855 Y-327.56 Z-7.061
G1 X17.067 Y-327.618 Z-7.069
G1 X17.274 Y-327.69 Z-7.077
G1 X17.475 Y-327.778 Z-7.084
G1 X17.67 Y-327.88 Z-7.092
G1 X17.856 Y-327.996 Z-7.1
G1 X18.034 Y-328.125 Z-7.107
G1 X18.201 Y-328.267 Z-7.115
G1 X18.358 Y-328.42 Z-7.123
G1 X18.504 Y-328.585 Z-7.13
G1 X18.637 Y-328.76 Z-7.138
G1 X18.757 Y-328.944 Z-7.146
G1 X18.863 Y-329.136 Z-7.153
G1 X18.955 Y-329.335 Z-7.161
G1 X19.032 Y-329.541 Z-7.169
G1 X19.094 Y-329.751 Z-7.176
G1 X19.141 Y-329.966 Z-7.184
G1 X19.172 Y-330.183 Z-7.192
G1 X19.187 Y-330.402 Z-7.199
G1 X19.186 Y-330.622 Z-7.207
G1 X19.169 Y-330.841 Z-7.215
G1 X19.136 Y-331.058 Z-7.222
G1 X19.087 Y-331.272 Z-7.23
G1 X19.023 Y-331.482 Z-7.238
G1 X18.944 Y-331.687 Z-7.245
G1 X18.85 Y-331.885 Z-7.253
G1 X18.742 Y-332.077 Z-7.261
G1 X18.621 Y-332.259 Z-7.268
G1 X18.486 Y-332.433 Z-7.276
G1 X18.339 Y-332.596 Z-7.284
G1 X18.181 Y-332.748 Z-7.291
G1 X18.012 Y-332.888 Z-7.299
G1 X17.833 Y-333.016 Z-7.307
G1 X17.646 Y-333.13 Z-7.314
G1 X17.45 Y-333.23 Z-7.322
G1 X17.248 Y-333.316 Z-7.33
G1 X17.04 Y-333.387 Z-7.337
G1 X16.828 Y-333.442 Z-7.345
G1 X16.612 Y-333.482 Z-7.353
G1 X16.394 Y-333.506 Z-7.36
G1 X16.174 Y-333.515 Z-7.368
G1 X15.955 Y-333.507 Z-7.376
G1 X15.737 Y-333.483 Z-7.383
G1 X15.521 Y-333.443 Z-7.391
G1 X15.308 Y-333.388 Z-7.399
G1 X15.1 Y-333.318 Z-7.406
G1 X14.898 Y-333.232 Z-7.414
G1 X14.702 Y-333.132 Z-7.422
G1 X14.515 Y-333.018 Z-7.429
G1 X14.336 Y-332.891 Z-7.437
G1 X14.166 Y-332.751 Z-7.445
G1 X14.008 Y-332.599 Z-7.452
G1 X13.861 Y-332.436 Z-7.46
G1 X13.726 Y-332.263 Z-7.468
G1 X13.604 Y-332.08 Z-7.475
G1 X13.496 Y-331.889 Z-7.483
G1 X13.402 Y-331.691 Z-7.491
G1 X13.322 Y-331.486 Z-7.498
G1 X13.258 Y-331.276 Z-7.506
G1 X13.209 Y-331.062 Z-7.514
G1 X13.176 Y-330.845 Z-7.521
G1 X13.159 Y-330.626 Z-7.529
G1 X13.157 Y-330.407 Z-7.537
G1 X13.172 Y-330.188 Z-7.544
G1 X13.202 Y-329.97 Z-7.552
G1 X13.249 Y-329.756 Z-7.56
G1 X13.31 Y-329.545 Z-7.567
G1 X13.387 Y-329.339 Z-7.575
G1 X13.479 Y-329.14 Z-7.583
G1 X13.585 Y-328.947 Z-7.59
G1 X13.705 Y-328.763 Z-7.598
G1 X13.837 Y-328.588 Z-7.606
G1 X13.983 Y-328.424 Z-7.614
G1 X14.139 Y-328.27 Z-7.621
G1 X14.307 Y-328.128 Z-7.629
G1 X14.484 Y-327.998 Z-7.637
G1 X14.671 Y-327.882 Z-7.644
G1 X14.865 Y-327.78 Z-7.652
G1 X15.066 Y-327.692 Z-7.66
G1 X15.273 Y-327.619 Z-7.667
G1 X15.485 Y-327.561 Z-7.675
G1 X15.7 Y-327.519 Z-7.683
G1 X15.918 Y-327.493 Z-7.69
G1 X16.138 Y-327.482 Z-7.698
G1 X16.357 Y-327.488 Z-7.706
G1 X16.576 Y-327.509 Z-7.713
G1 X16.792 Y-327.546 Z-7.721
G1 X17.005 Y-327.599 Z-7.729
G1 X17.214 Y-327.668 Z-7.736
G1 X17.417 Y-327.751 Z-7.744
G1 X17.614 Y-327.849 Z-7.752
G1 X17.803 Y-327.961 Z-7.759
G1 X17.983 Y-328.086 Z-7.767
G1 X18.154 Y-328.224 Z-7.775
G1 X18.314 Y-328.374 Z-7.782
G1 X18.463 Y-328.536 Z-7.79
G1 X18.599 Y-328.708 Z-7.798
G1 X18.723 Y-328.889 Z-7.805
G1 X18.833 Y-329.079 Z-7.813
G1 X18.93 Y-329.276 Z-7.821
G1 X19.011 Y-329.48 Z-7.828
G1 X19.078 Y-329.689 Z-7.836
G1 X19.129 Y-329.903 Z-7.844
G1 X19.164 Y-330.119 Z-7.851
G1 X19.184 Y-330.338 Z-7.859
G1 X19.188 Y-330.558 Z-7.867
G1 X19.175 Y-330.777 Z-7.874
G1 X19.147 Y-330.995 Z-7.882
G1 X19.103 Y-331.21 Z-7.89
G1 X19.044 Y-331.421 Z-7.897
G1 X18.969 Y-331.628 Z-7.905
G1 X18.879 Y-331.828 Z-7.913
G1 X18.775 Y-332.022 Z-7.92
G1 X18.658 Y-332.207 Z-7.928
G1 X18.527 Y-332.383 Z-7.936
G1 X18.383 Y-332.55 Z-7.943
G1 X18.228 Y-332.705 Z-7.951
G1 X18.062 Y-332.849 Z-7.959
G1 X17.886 Y-332.98 Z-7.966
G1 X17.701 Y-333.098 Z-7.974
G1 X17.508 Y-333.202 Z-7.982
G1 X17.308 Y-333.293 Z-7.989
G1 X17.102 Y-333.368 Z-7.997
G1 X16.89 Y-333.428 Z-8.005
G1 X16.675 Y-333.472 Z-8.012
G1 X16.458 Y-333.501 Z-8.02
G1 X16.238 Y-333.514 Z-8.028
G1 X16.019 Y-333.511 Z-8.035
G1 X15.8 Y-333.491 Z-8.043
G1 X15.583 Y-333.456 Z-8.051
G1 X15.37 Y-333.406 Z-8.058
G1 X15.16 Y-333.34 Z-8.066
G1 X14.956 Y-333.259 Z-8.074
G1 X14.759 Y-333.163 Z-8.081
G1 X14.569 Y-333.053 Z-8.089
G1 X14.387 Y-332.93 Z-8.097
G1 X14.215 Y-332.793 Z-8.104
G1 X14.053 Y-332.645 Z-8.112
G1 X13.902 Y-332.485 Z-8.12
G1 X13.764 Y-332.315 Z-8.127
G1 X13.638 Y-332.135 Z-8.135
G1 X13.526 Y-331.946 Z-8.143
G1 X13.428 Y-331.75 Z-8.15
G1 X13.344 Y-331.547 Z-8.158
G1 X13.275 Y-331.338 Z-8.166
G1 X13.222 Y-331.125 Z-8.173
G1 X13.184 Y-330.909 Z-8.181
G1 X13.162 Y-330.69 Z-8.189
G1 X13.156 Y-330.471 Z-8.196
G1 X13.166 Y-330.251 Z-8.204
G1 X13.192 Y-330.033 Z-8.212
G1 X13.234 Y-329.818 Z-8.219
G1 X13.291 Y-329.606 Z-8.227
G1 X13.363 Y-329.399 Z-8.235
G1 X13.451 Y-329.197 Z-8.242
G1 X13.553 Y-329.003 Z-8.25
G1 X13.668 Y-328.816 Z-8.258
G1 X13.797 Y-328.638 Z-8.265
G1 X13.939 Y-328.471 Z-8.273
G1 X14.092 Y-328.314 Z-8.281
G1 X14.257 Y-328.168 Z-8.288
G1 X14.431 Y-328.035 Z-8.296
G1 X14.615 Y-327.915 Z-8.304
G1 X14.807 Y-327.808 Z-8.311
G1 X15.007 Y-327.716 Z-8.319
G1 X15.212 Y-327.639 Z-8.327
G1 X15.423 Y-327.577 Z-8.334
G1 X15.637 Y-327.53 Z-8.342
G1 X15.855 Y-327.499 Z-8.35
G1 X16.074 Y-327.484 Z-8.357
G1 X16.293 Z-8.365
G1 X16.512 Y-327.501 Z-8.373
G1 X16.729 Y-327.534 Z-8.38
G1 X16.943 Y-327.582 Z-8.388
G1 X17.154 Y-327.646 Z-8.396
G1 X17.358 Y-327.725 Z-8.403
G1 X17.557 Y-327.819 Z-8.411
G1 X17.748 Y-327.927 Z-8.419
G1 X17.931 Y-328.048 Z-8.426
G1 X18.105 Y-328.183 Z-8.434
G1 X18.268 Y-328.329 Z-8.442
G1 X18.42 Y-328.488 Z-8.449
G1 X18.561 Y-328.656 Z-8.457
G1 X18.688 Y-328.835 Z-8.465
G1 X18.803 Y-329.023 Z-8.472
G1 X18.903 Y-329.218 Z-8.48
G1 X18.989 Y-329.42 Z-8.488
G1 X19.06 Y-329.628 Z-8.495
G1 X19.116 Y-329.84 Z-8.503
G1 X19.156 Y-330.056 Z-8.511
G1 X19.18 Y-330.274 Z-8.518
G1 X19.188 Y-330.494 Z-8.526
G1 X19.181 Y-330.713 Z-8.534
G1 X19.157 Y-330.931 Z-8.541
G1 X19.118 Y-331.147 Z-8.549
G1 X19.063 Y-331.36 Z-8.557
G1 X18.992 Y-331.568 Z-8.565
G1 X18.907 Y-331.77 Z-8.572
G1 X18.807 Y-331.966 Z-8.58
G1 X18.693 Y-332.154 Z-8.588
G1 X18.566 Y-332.333 Z-8.595
G1 X18.426 Y-332.502 Z-8.603
G1 X18.275 Y-332.661 Z-8.611
G1 X18.112 Y-332.808 Z-8.618
G1 X17.939 Y-332.943 Z-8.626
G1 X17.756 Y-333.065 Z-8.634
G1 X17.565 Y-333.173 Z-8.641
G1 X17.367 Y-333.268 Z-8.649
G1 X17.162 Y-333.347 Z-8.657
G1 X16.952 Y-333.412 Z-8.664
G1 X16.738 Y-333.461 Z-8.672
G1 X16.521 Y-333.494 Z-8.68
G1 X16.302 Y-333.512 Z-8.687
G1 X16.083 Y-333.513 Z-8.695
G1 X15.864 Y-333.499 Z-8.703
G1 X15.646 Y-333.468 Z-8.71
G1 X15.432 Y-333.422 Z-8.718
G1 X15.221 Y-333.361 Z-8.726
G1 X15.015 Y-333.284 Z-8.733
G1 X14.816 Y-333.192 Z-8.741
G1 X14.623 Y-333.086 Z-8.749
G1 X14.439 Y-332.967 Z-8.756
G1 X14.264 Y-332.834 Z-8.764
G1 X14.099 Y-332.689 Z-8.772
G1 X13.945 Y-332.533 Z-8.779
G1 X13.803 Y-332.365 Z-8.787
G1 X13.674 Y-332.188 Z-8.795
G1 X13.557 Y-332.002 Z-8.802
G1 X13.455 Y-331.808 Z-8.81
G1 X13.367 Y-331.606 Z-8.818
G1 X13.294 Y-331.399 Z-8.825
G1 X13.236 Y-331.188 Z-8.833
G1 X13.193 Y-330.972 Z-8.841
G1 X13.167 Y-330.754 Z-8.848
G1 X13.156 Y-330.535 Z-8.856
G1 X13.161 Y-330.315 Z-8.864
G1 X13.183 Y-330.097 Z-8.871
G1 X13.22 Y-329.88 Z-8.879
G1 X13.273 Y-329.667 Z-8.887
G1 X13.341 Y-329.459 Z-8.894
G1 X13.424 Y-329.255 Z-8.902
G1 X13.521 Y-329.059 Z-8.91
G1 X13.633 Y-328.87 Z-8.917
G1 X13.758 Y-328.689 Z-8.925
G1 X13.896 Y-328.519 Z-8.933
G1 X14.046 Y-328.358 Z-8.94
G1 X14.208 Y-328.209 Z-8.948
G1 X14.38 Y-328.072 Z-8.956
G1 X14.561 Y-327.948 Z-8.963
G1 X14.751 Y-327.838 Z-8.971
G1 X14.948 Y-327.742 Z-8.979
G1 X15.152 Y-327.66 Z-8.986
G1 X15.361 Y-327.593 Z-8.994
G1 X15.574 Y-327.542 Z-9.002
G1 X15.791 Y-327.506 Z-9.009
G1 X16.01 Y-327.486 Z-9.017
G1 X39.855 Y-326.2
G2 X40.196 Y-326.507 I0.017 J-0.324
G1 X40.344 Y-329.255
G2 X40.262 Y-329.489 I-0.324 J-0.017
G2 X40.038 Y-329.596 I-0.241 J0.217
G1 X14.816 Y-330.956
G2 X14.582 Y-330.874 I-0.017 J0.323
G2 X14.475 Y-330.65 I0.217 J0.241
G1 X14.331 Y-327.902
G2 X14.638 Y-327.56 I0.325 J0.017
G1 X16.01 Y-327.486
G3 X18.513 Y-325.615 I-0.152 J2.813
G2 X21.017 Y-323.744 I2.655 J-0.942
G1 X41.063 Y-322.663
G3 X43.81 Y-321.196 I-0.198 J3.678
G2 X44.254 Y-321.133 I0.253 J-0.19
G2 X44.378 Y-321.345 I-0.19 J-0.253
G2 X44.313 Y-321.581 I-0.314 J-0.042
G3 X43.536 Y-324.049 I2.901 J-2.27
G1 X43.929 Y-331.337
G3 X44.968 Y-333.708 I3.678 J0.198
G2 X44.961 Y-334.156 I-0.227 J-0.221
G2 X44.733 Y-334.246 I-0.221 J0.227
G2 X44.509 Y-334.146 I0.007 J0.317
G3 X41.62 Y-332.983 I-2.69 J-2.515
G1 X11.528 Y-334.606
G2 X11.299 Y-334.525 I-0.017 J0.317
G2 X11.195 Y-334.306 I0.212 J0.236
G1 X10.687 Y-324.617
G2 X10.986 Y-324.285 I0.316 J0.016
G1 X21.017 Y-323.744
G0 Z11.176

(DRILL2)
G0 X28.051 Y-400.958
G0 Z6.096
G1 Z-13.984 F508.
G0 Z6.096
G0 X98.253 Y-407.338
G1 Z-13.984 F508.
G0 Z6.096
G0 X177.667 Y-414.517
G1 Z-13.984 F508.
G0 Z6.096
G0 X251.171 Y-421.255
G1 Z-13.984 F508.
G0 Z6.096

(DRILL1)
G0 X330.257 Y-428.405
G0 Z6.096
G1 Z-19.05 F508.
G0 Z6.096
G0 X417.828 Y-436.369
G1 Z-19.05 F508.
G0 Z6.096

G0 Z11.176
M5
M30
