(1001)
(T1  D=6.35 CR=0 - ZMIN=-20.066 - FLAT END MILL)
G0 G40 G90 G17
G21

(2D CONTOUR2)
T1 M6
M3 S5000
G0 X-2.342 Y2.144
G0 Z6.096
G1 Z4.191 F508.
G1 Z-6.604
G3 X-3.163 Y-0.277 I2.342 J-2.144
G1 X0.41 Y-41.121
G3 X3.573 Y-44.019 I3.163 J0.277
G1 X628.862
G3 X632.037 Y-40.844 I0 J3.175
G3 X631.77 Y-39.57 I-3.175 J0
G1 X630.425 Y-36.5
G3 X628.643 Y-34.805 I-2.908 J-1.274
G2 X628.165 Y-33.741 I0.293 J0.771
G2 X628.605 Y-33.278 I0.771 J-0.293
G2 X629.244 Y-33.268 I0.331 J-0.756
G3 X631.703 Y-33.232 I1.186 J2.945
G1 X639.803 Y-29.685
G3 X641.498 Y-27.903 I-1.273 J2.908
G2 X642.562 Y-27.424 I0.771 J-0.293
G2 X643.025 Y-27.865 I-0.293 J-0.771
G2 X643.035 Y-28.504 I-0.756 J-0.331
G3 X643.072 Y-30.963 I2.945 J-1.186
G1 X644.018 Y-33.123
G3 X649.516 Y-35.273 I3.824 J1.674
G1 X693.493 Y-16.018
G3 X695.707 Y-13.714 I-1.674 J3.825
G3 X695.643 Y-10.519 I-3.888 J1.52
G1 X694.792 Y-8.576
G3 X693.01 Y-6.881 I-2.908 J-1.274
G2 X692.532 Y-5.817 I0.293 J0.771
G2 X692.972 Y-5.354 I0.771 J-0.293
G2 X693.611 Y-5.344 I0.331 J-0.756
G3 X696.07 Y-5.306 I1.184 J2.946
G1 X709.228 Y0.463
G3 X710.911 Y2.216 I-1.275 J2.908
G3 X710.861 Y4.646 I-2.958 J1.155
G1 X706.77 Y13.975
G3 X703.398 Y15.841 I-2.908 J-1.275
G1 X618.588 Y3.302
G2 X616.858 Y3.175 I-1.729 J11.698
G1 X0
G3 X-2.342 Y2.144 I0 J-3.175
G1 Z-14.224
G3 X-3.163 Y-0.277 I2.342 J-2.144
G1 X0.41 Y-41.121
G3 X3.573 Y-44.019 I3.163 J0.277
G1 X628.862
G3 X632.037 Y-40.844 I0 J3.175
G3 X631.77 Y-39.57 I-3.175 J0
G1 X630.425 Y-36.5
G3 X628.643 Y-34.805 I-2.908 J-1.274
G2 X628.165 Y-33.741 I0.293 J0.771
G2 X628.605 Y-33.278 I0.771 J-0.293
G2 X629.244 Y-33.268 I0.331 J-0.756
G3 X631.703 Y-33.232 I1.186 J2.945
G1 X639.803 Y-29.685
G3 X641.498 Y-27.903 I-1.273 J2.908
G2 X642.562 Y-27.424 I0.771 J-0.293
G2 X643.025 Y-27.865 I-0.293 J-0.771
G2 X643.035 Y-28.504 I-0.756 J-0.331
G3 X643.072 Y-30.963 I2.945 J-1.186
G1 X644.018 Y-33.123
G3 X649.516 Y-35.273 I3.824 J1.674
G1 X693.493 Y-16.018
G3 X695.707 Y-13.714 I-1.674 J3.825
G3 X695.643 Y-10.519 I-3.888 J1.52
G1 X694.792 Y-8.576
G3 X693.01 Y-6.881 I-2.908 J-1.274
G2 X692.532 Y-5.817 I0.293 J0.771
G2 X692.972 Y-5.354 I0.771 J-0.293
G2 X693.611 Y-5.344 I0.331 J-0.756
G3 X696.07 Y-5.306 I1.184 J2.946
G1 X709.228 Y0.463
G3 X710.911 Y2.216 I-1.275 J2.908
G3 X710.861 Y4.646 I-2.958 J1.155
G1 X706.77 Y13.975
G3 X703.398 Y15.841 I-2.908 J-1.275
G1 X618.588 Y3.302
G2 X616.858 Y3.175 I-1.729 J11.698
G1 X0
G3 X-2.342 Y2.144 I0 J-3.175
G1 Z-17.526
G3 X-3.163 Y-0.277 I2.342 J-2.144
G1 X-2.665 Y-5.97
G1 Z-20.066
G1 X-0.474 Y-31.009
G1 Z-17.526
G1 X0.41 Y-41.121
G3 X0.79 Y-42.372 I3.163 J0.277
G1 Z-20.066
G3 X3.573 Y-44.019 I2.783 J1.528
G1 X154.855
G1 Z-17.526
G1 X166.285
G1 Z-20.066
G1 X475.822
G1 Z-17.526
G1 X487.252
G1 Z-20.066
G1 X628.862
G3 X632.037 Y-40.844 I0 J3.175
G3 X631.77 Y-39.57 I-3.175 J0
G1 X630.425 Y-36.5
G3 X628.643 Y-34.805 I-2.908 J-1.274
G2 X628.165 Y-33.741 I0.293 J0.771
G2 X628.605 Y-33.278 I0.771 J-0.293
G2 X629.244 Y-33.268 I0.331 J-0.756
G3 X631.703 Y-33.232 I1.186 J2.945
G1 X639.803 Y-29.685
G3 X641.498 Y-27.903 I-1.273 J2.908
G2 X642.562 Y-27.424 I0.771 J-0.293
G2 X643.025 Y-27.865 I-0.293 J-0.771
G2 X643.035 Y-28.504 I-0.756 J-0.331
G3 X643.072 Y-30.963 I2.945 J-1.186
G1 X644.018 Y-33.123
G3 X649.516 Y-35.273 I3.824 J1.674
G1 X693.493 Y-16.018
G3 X695.707 Y-13.714 I-1.674 J3.825
G3 X695.643 Y-10.519 I-3.888 J1.52
G1 X694.792 Y-8.576
G3 X693.01 Y-6.881 I-2.908 J-1.274
G2 X692.532 Y-5.817 I0.293 J0.771
G2 X692.972 Y-5.354 I0.771 J-0.293
G2 X693.611 Y-5.344 I0.331 J-0.756
G3 X696.07 Y-5.306 I1.184 J2.946
G1 X709.228 Y0.463
G3 X710.911 Y2.216 I-1.275 J2.908
G3 X710.861 Y4.646 I-2.958 J1.155
G1 X708.44 Y10.167
G1 Z-17.526
G1 X706.77 Y13.975
G3 X703.398 Y15.841 I-2.908 J-1.275
G1 X697.744 Y15.005
G1 Z-20.066
G1 X692.349 Y14.207
G1 Z-17.526
G1 X681.042 Y12.536
G1 Z-20.066
G1 X676.237 Y11.825
G1 Z-17.526
G1 X664.93 Y10.154
G1 Z-20.066
G1 X661.104 Y9.588
G1 Z-17.526
G1 X645.954 Y7.348
G1 Z-20.066
G1 X618.588 Y3.302
G2 X616.858 Y3.175 I-1.729 J11.698
G1 X599.277
G1 Z-17.526
G1 X587.847
G1 Z-20.066
G1 X543.765
G1 Z-17.526
G1 X508.111
G1 Z-20.066
G1 X473.215
G1 Z-17.526
G1 X461.785
G1 Z-20.066
G1 X449.902
G1 Z-17.526
G1 X438.472
G1 Z-20.066
G1 X385.301
G1 Z-17.526
G1 X365.796
G1 Z-20.066
G1 X354.088
G1 Z-17.526
G1 X334.516
G1 Z-20.066
G1 X325.78
G1 Z-17.526
G1 X314.35
G1 Z-20.066
G1 X283.567
G1 Z-17.526
G1 X272.137
G1 Z-20.066
G1 X268.218
G1 Z-17.526
G1 X252.111
G1 Z-20.066
G1 X210.687
G1 Z-17.526
G1 X192.388
G1 Z-20.066
G1 X154.588
G1 Z-17.526
G1 X143.158
G1 Z-20.066
G1 X134.942
G1 Z-17.526
G1 X123.512
G1 Z-20.066
G1 X104.513
G1 Z-17.526
G1 X93.083
G1 Z-20.066
G1 X87.589
G1 Z-17.526
G1 X61.159
G1 Z-20.066
G1 X47.692
G1 Z-17.526
G1 X36.262
G1 Z-20.066
G1 X14.579
G1 Z-17.526
G1 X3.149
G1 Z-20.066
G1 X2.909
G1 Z-17.526
G1 X0
G3 X-2.342 Y2.144 I0 J-3.175
G0 Z6.096

(DRILL1)
G0 X331.019 Y-21.859
G0 Z6.096
G1 Z-19.05 F508.
G0 Z6.096
G0 X401.51 Y-22.092
G1 Z-19.05 F508.
G0 Z6.096

(DRILL2)
G0 X10.13 Y-20.813
G0 Z6.096
G1 Z-13.984 F508.
G0 Z6.096
G0 X98.061 Y-21.109
G1 Z-13.984 F508.
G0 Z6.096
G0 X177.469 Y-21.333
G1 Z-13.984 F508.
G0 Z6.096
G0 X251.281 Y-21.635
G1 Z-13.984 F508.
G0 Z6.096

G0 Z6.096
M5
M30
