%
(Made in : Autodesk CAM Post Processor)
(G Code optimized for OpenBuilds OX CNC 1000 x 750 with GRBL V0.9j controller)

(Program Name : 1001)
(3 Operations :)
(1 : 2D Contour2)
(  Tool : Flat End Mill 2 Flutes, Diam = 6.35mm, Len = 25.4mm)
(  Spindle : RPM = 5000, set router dial to 1)
(  Machining time : 42 min 18 sec)
(2 : 2D Pocket1)
(  Tool : Flat End Mill 2 Flutes, Diam = 6.35mm, Len = 25.4mm)
(  Spindle : RPM = 5000, set router dial to 1)
(  Machining time : 12 min 57 sec)
(3 : Drill2)
(  Tool : Flat End Mill 2 Flutes, Diam = 6.35mm, Len = 25.4mm)
(  Spindle : RPM = 5000, set router dial to 1)
(  Machining time : 28 sec)

G90 G94
G17
G21

(Operation 1 of 3 : 2D Contour2)

G53 G0 Z-10
G54
S5000 M3
G4 P1.0
X-301.3182 Y-86.3836
Z6.096
G1 F508
Z4.191
Z-6.604
G3 X-304.3227 Y-89.7203 I0.1662 J-3.1706
G1 X-302.5467 Y-123.6161
G3 X-301.2937 Y-125.9804 I3.1707 J0.1661
G2 X-302.3033 Y-127.285 I-0.4982 J-0.6574
G3 X-304.439 Y-126.6054 I-1.9687 J-2.491
G1 X-307.0193 Y-126.7413
G3 X-310.9716 Y-131.1294 I0.2168 J-4.1693
G1 X-309.5067 Y-159.0782
X-309.5065 Y-159.0803
G3 X-305.1199 Y-163.0287 I4.1695 J0.2213
G1 X-303.3774 Y-162.9377
G3 X-301.0125 Y-161.6847 I-0.1656 J3.1707
G2 X-299.7077 Y-162.6942 I0.6575 J-0.4983
G3 X-300.3867 Y-164.8282 I2.4917 J-1.9678
G1 X-294.0836 Y-285.1031
G3 X-292.8307 Y-287.4674 I3.1707 J0.1661
G2 X-293.8398 Y-288.7716 I-0.498 J-0.6572
G3 X-295.9738 Y-288.0923 I-1.9682 J-2.4914
G1 X-298.7468 Y-288.2373
X-298.7493 Y-288.2375
G3 X-302.6977 Y-292.6241 I0.2213 J-4.1695
G1 Y-292.6252
X-297.5677 Y-390.5042
G3 X-293.1798 Y-394.4547 I4.1692 J0.2187
G1 X-291.2491 Y-394.3537
G3 X-288.8842 Y-393.1002 I-0.1659 J3.1707
G2 X-287.5793 Y-394.1097 I0.6576 J-0.4981
G3 X-288.2586 Y-396.2441 I2.4913 J-1.9683
G1 X-282.1736 Y-512.3652
G3 X-279.2797 Y-515.3619 I3.1707 J0.1662
G1 X124.6773 Y-550.7039
G3 X128.129 Y-547.541 I0.2767 J3.1629
G1 Y-506.541
G3 X125.2307 Y-503.3781 I-3.175
G1 X-212.1783 Y-473.8581
G2 X-228.4464 Y-457.0144 I1.5553 J17.7801
G1 X-245.0054 Y-141.8814
G2 X-228.3613 Y-123.0642 I17.8956 J0.9406
G1 X123.6937 Y-98.4201
G3 X126.647 Y-95.2541 I-0.2217 J3.1673
G1 X126.655 Y-76.2397
G3 X123.3138 Y-73.0677 I-3.175 J0.0013
G1 X118.9958 Y-73.2941
G3 X116.7815 Y-74.3638 I0.1662 J-3.1706
G2 X115.5552 Y-73.2597 I-0.6186 J0.5459
G3 X116.3876 Y-70.9458 I-2.3382 J2.1478
G1 X116.2707 Y-68.7134
G3 X111.8823 Y-64.7621 I-4.169 J-0.2176
G1 X94.3836 Y-65.6792
G3 X90.4328 Y-70.0666 I0.2185 J-4.1693
G1 X90.5328 Y-71.972
G3 X91.7859 Y-74.3363 I3.1706 J0.1663
G2 X90.7762 Y-75.6411 I-0.4982 J-0.6575
G3 X88.6416 Y-74.9617 I-1.9684 J-2.4912
G1 X-67.6768 Y-83.154
G3 X-69.8912 Y-84.2238 I0.1662 J-3.1706
G2 X-71.1174 Y-83.1199 I-0.6186 J0.5459
G3 X-70.2849 Y-80.8057 I-2.3381 J2.148
G1 X-70.4076 Y-78.4628
G3 X-74.7956 Y-74.512 I-4.1693 J-0.2184
G1 X-102.7572 Y-75.9773
G3 X-106.7076 Y-80.3656 I0.2185 J-4.169
G1 X-106.5837 Y-82.7349
G3 X-105.5139 Y-84.9495 I3.1707 J0.1659
G2 X-106.6181 Y-86.1757 I-0.546 J-0.6186
G3 X-108.9322 Y-85.3433 I-2.1479 J-2.3382
G1 X-262.3922 Y-93.3857
G3 X-264.7565 Y-94.6388 I0.1662 J-3.1706
G2 X-266.0616 Y-93.629 I-0.6576 J0.4984
G3 X-265.3824 Y-91.4947 I-2.4914 J1.9682
G1 X-265.5294 Y-88.6887
G3 X-269.9168 Y-84.7378 I-4.1694 J-0.2186
G1 X-301.3182 Y-86.3836
Z-14.224
G3 X-304.3227 Y-89.7203 I0.1662 J-3.1706
G1 X-302.5467 Y-123.6161
G3 X-301.2937 Y-125.9804 I3.1707 J0.1661
G2 X-302.3033 Y-127.285 I-0.4982 J-0.6574
G3 X-304.439 Y-126.6054 I-1.9687 J-2.491
G1 X-307.0193 Y-126.7413
G3 X-310.9716 Y-131.1294 I0.2168 J-4.1693
G1 X-309.5067 Y-159.0782
X-309.5065 Y-159.0803
G3 X-305.1199 Y-163.0287 I4.1695 J0.2213
G1 X-303.3774 Y-162.9377
G3 X-301.0125 Y-161.6847 I-0.1656 J3.1707
G2 X-299.7077 Y-162.6942 I0.6575 J-0.4983
G3 X-300.3867 Y-164.8282 I2.4917 J-1.9678
G1 X-294.0836 Y-285.1031
G3 X-292.8307 Y-287.4674 I3.1707 J0.1661
G2 X-293.8398 Y-288.7716 I-0.498 J-0.6572
G3 X-295.9738 Y-288.0923 I-1.9682 J-2.4914
G1 X-298.7468 Y-288.2373
X-298.7493 Y-288.2375
G3 X-302.6977 Y-292.6241 I0.2213 J-4.1695
G1 Y-292.6252
X-297.5677 Y-390.5042
G3 X-293.1798 Y-394.4547 I4.1692 J0.2187
G1 X-291.2491 Y-394.3537
G3 X-288.8842 Y-393.1002 I-0.1659 J3.1707
G2 X-287.5793 Y-394.1097 I0.6576 J-0.4981
G3 X-288.2586 Y-396.2441 I2.4913 J-1.9683
G1 X-282.1736 Y-512.3652
G3 X-279.2797 Y-515.3619 I3.1707 J0.1662
G1 X124.6773 Y-550.7039
G3 X128.129 Y-547.541 I0.2767 J3.1629
G1 Y-506.541
G3 X125.2307 Y-503.3781 I-3.175
G1 X-212.1783 Y-473.8581
G2 X-228.4464 Y-457.0144 I1.5553 J17.7801
G1 X-245.0054 Y-141.8814
G2 X-228.3613 Y-123.0642 I17.8956 J0.9406
G1 X123.6937 Y-98.4201
G3 X126.647 Y-95.2541 I-0.2217 J3.1673
G1 X126.655 Y-76.2397
G3 X123.3138 Y-73.0677 I-3.175 J0.0013
G1 X118.9958 Y-73.2941
G3 X116.7815 Y-74.3638 I0.1662 J-3.1706
G2 X115.5552 Y-73.2597 I-0.6186 J0.5459
G3 X116.3876 Y-70.9458 I-2.3382 J2.1478
G1 X116.2707 Y-68.7134
G3 X111.8823 Y-64.7621 I-4.169 J-0.2176
G1 X94.3836 Y-65.6792
G3 X90.4328 Y-70.0666 I0.2185 J-4.1693
G1 X90.5328 Y-71.972
G3 X91.7859 Y-74.3363 I3.1706 J0.1663
G2 X90.7762 Y-75.6411 I-0.4982 J-0.6575
G3 X88.6416 Y-74.9617 I-1.9684 J-2.4912
G1 X-67.6768 Y-83.154
G3 X-69.8912 Y-84.2238 I0.1662 J-3.1706
G2 X-71.1174 Y-83.1199 I-0.6186 J0.5459
G3 X-70.2849 Y-80.8057 I-2.3381 J2.148
G1 X-70.4076 Y-78.4628
G3 X-74.7956 Y-74.512 I-4.1693 J-0.2184
G1 X-102.7572 Y-75.9773
G3 X-106.7076 Y-80.3656 I0.2185 J-4.169
G1 X-106.5837 Y-82.7349
G3 X-105.5139 Y-84.9495 I3.1707 J0.1659
G2 X-106.6181 Y-86.1757 I-0.546 J-0.6186
G3 X-108.9322 Y-85.3433 I-2.1479 J-2.3382
G1 X-262.3922 Y-93.3857
G3 X-264.7565 Y-94.6388 I0.1662 J-3.1706
G2 X-266.0616 Y-93.629 I-0.6576 J0.4984
G3 X-265.3824 Y-91.4947 I-2.4914 J1.9682
G1 X-265.5294 Y-88.6887
G3 X-269.9168 Y-84.7378 I-4.1694 J-0.2186
G1 X-301.3182 Y-86.3836
Z-20.066
G3 X-304.3227 Y-89.7203 I0.1662 J-3.1706
G1 X-302.5467 Y-123.6161
G3 X-301.2937 Y-125.9804 I3.1707 J0.1661
G2 X-302.3033 Y-127.285 I-0.4982 J-0.6574
G3 X-304.439 Y-126.6054 I-1.9687 J-2.491
G1 X-307.0193 Y-126.7413
G3 X-310.9716 Y-131.1294 I0.2168 J-4.1693
G1 X-309.5067 Y-159.0782
X-309.5065 Y-159.0803
G3 X-305.1199 Y-163.0287 I4.1695 J0.2213
G1 X-303.3774 Y-162.9377
G3 X-301.0125 Y-161.6847 I-0.1656 J3.1707
G2 X-299.7077 Y-162.6942 I0.6575 J-0.4983
G3 X-300.3867 Y-164.8282 I2.4917 J-1.9678
G1 X-297.0832 Y-227.866
Z-17.526
X-296.485 Y-239.2804
Z-20.066
X-294.0836 Y-285.1031
G3 X-292.8307 Y-287.4674 I3.1707 J0.1661
G2 X-293.8398 Y-288.7716 I-0.498 J-0.6572
G3 X-295.9738 Y-288.0923 I-1.9682 J-2.4914
G1 X-298.7468 Y-288.2373
X-298.7493 Y-288.2375
G3 X-302.6977 Y-292.6241 I0.2213 J-4.1695
G1 Y-292.6252
X-297.5677 Y-390.5042
G3 X-293.1798 Y-394.4547 I4.1692 J0.2187
G1 X-291.2491 Y-394.3537
G3 X-288.8842 Y-393.1002 I-0.1659 J3.1707
G2 X-287.5793 Y-394.1097 I0.6576 J-0.4981
G3 X-288.2586 Y-396.2441 I2.4913 J-1.9683
G1 X-282.1736 Y-512.3652
G3 X-279.2797 Y-515.3619 I3.1707 J0.1662
G1 X-197.504 Y-522.5164
Z-17.526
X-186.1175 Y-523.5126
Z-20.066
X31.4949 Y-542.5515
Z-17.526
X42.8814 Y-543.5476
Z-20.066
X124.6773 Y-550.7039
G3 X128.129 Y-547.541 I0.2767 J3.1629
G1 Y-506.541
G3 X125.2307 Y-503.3781 I-3.175
G1 X-212.1783 Y-473.8581
G2 X-228.4464 Y-457.0144 I1.5553 J17.7801
G1 X-237.3992 Y-286.6345
Z-17.526
X-237.9989 Y-275.2202
Z-20.066
X-245.0054 Y-141.8814
G2 X-228.3613 Y-123.0642 I17.8956 J0.9406
G1 X-122.2253 Y-115.6346
Z-17.526
X-110.8232 Y-114.8365
Z-20.066
X123.6937 Y-98.4201
G3 X126.647 Y-95.2541 I-0.2217 J3.1673
G1 X126.655 Y-76.2397
G3 X123.3138 Y-73.0677 I-3.175 J0.0013
G1 X118.9958 Y-73.2941
G3 X116.7815 Y-74.3638 I0.1662 J-3.1706
G2 X115.5552 Y-73.2597 I-0.6186 J0.5459
G3 X116.3876 Y-70.9458 I-2.3382 J2.1478
G1 X116.2707 Y-68.7134
G3 X111.8823 Y-64.7621 I-4.169 J-0.2176
G1 X94.3836 Y-65.6792
G3 X90.4328 Y-70.0666 I0.2185 J-4.1693
G1 X90.5328 Y-71.972
G3 X91.7859 Y-74.3363 I3.1706 J0.1663
G2 X90.7762 Y-75.6411 I-0.4982 J-0.6575
G3 X88.6416 Y-74.9617 I-1.9684 J-2.4912
G1 X5.0022 Y-79.345
Z-17.526
X-6.4122 Y-79.9432
Z-20.066
X-67.6768 Y-83.154
G3 X-69.8912 Y-84.2238 I0.1662 J-3.1706
G2 X-71.1174 Y-83.1199 I-0.6186 J0.5459
G3 X-70.2849 Y-80.8057 I-2.3381 J2.148
G1 X-70.4076 Y-78.4628
G3 X-74.7956 Y-74.512 I-4.1693 J-0.2184
G1 X-102.7572 Y-75.9773
G3 X-106.7076 Y-80.3656 I0.2185 J-4.169
G1 X-106.5837 Y-82.7349
G3 X-105.5139 Y-84.9495 I3.1707 J0.1659
G2 X-106.6181 Y-86.1757 I-0.546 J-0.6186
G3 X-108.9322 Y-85.3433 I-2.1479 J-2.3382
G1 X-262.3922 Y-93.3857
G3 X-264.7565 Y-94.6388 I0.1662 J-3.1706
G2 X-266.0616 Y-93.629 I-0.6576 J0.4984
G3 X-265.3824 Y-91.4947 I-2.4914 J1.9682
G1 X-265.5294 Y-88.6887
G3 X-269.9168 Y-84.7378 I-4.1694 J-0.2186
G1 X-301.3182 Y-86.3836
G0 Z6.096
X-94.5608 Y-135.2701
G1 Z4.191 F508
Z-6.604
G3 X-94.8508 Y-137.1086 I14.8167 J-3.2787
G1 X-109.9317 Y-295.2375
G3 X-94.7353 Y-311.8529 I15.1063 J-1.4408
G1 X295.9829 Y-309.5249
G3 X301.1111 Y-303.9414 I-0.0308 J5.175
G1 X288.743 Y-148.2246
G3 X245.9398 Y-108.839 I-42.6385 J-3.3869
G1 X120.5988 Y-109.32
X120.3893 Y-109.3278
X-80.8039 Y-123.4108
G3 X-94.5608 Y-135.2701 I1.0598 J-15.1381
G1 Z-14.224
G3 X-94.8508 Y-137.1086 I14.8167 J-3.2787
G1 X-109.9317 Y-295.2375
G3 X-94.7353 Y-311.8529 I15.1063 J-1.4408
G1 X295.9829 Y-309.5249
G3 X301.1111 Y-303.9414 I-0.0308 J5.175
G1 X288.743 Y-148.2246
G3 X245.9398 Y-108.839 I-42.6385 J-3.3869
G1 X120.5988 Y-109.32
X120.3893 Y-109.3278
X-80.8039 Y-123.4108
G3 X-94.5608 Y-135.2701 I1.0598 J-15.1381
G1 Z-20.066
G3 X-94.8508 Y-137.1086 I14.8167 J-3.2787
G1 X-100.9475 Y-201.0354
Z-17.526
X-102.0327 Y-212.4138
Z-20.066
X-109.9317 Y-295.2375
G3 X-94.7353 Y-311.8529 I15.1063 J-1.4408
G1 X-29.83 Y-311.4662
Z-17.526
X-18.4002 Y-311.3981
Z-20.066
X201.835 Y-310.0859
Z-17.526
X213.2648 Y-310.0178
Z-20.066
X295.9829 Y-309.5249
G3 X301.1111 Y-303.9414 I-0.0308 J5.175
G1 X293.1476 Y-203.6787
Z-17.526
X292.2426 Y-192.2845
Z-20.066
X288.743 Y-148.2246
G3 X245.9398 Y-108.839 I-42.6385 J-3.3869
G1 X188.3368 Y-109.0601
Z-17.526
X176.9069 Y-109.1039
Z-20.066
X120.5988 Y-109.32
X120.3893 Y-109.3278
X17.4075 Y-116.5362
Z-17.526
X6.0054 Y-117.3343
Z-20.066
X-80.8039 Y-123.4108
G3 X-94.5608 Y-135.2701 I1.0598 J-15.1381
G0 Z6.096
X-12.2399 Y-21.4446
G1 Z4.191 F508
Z-6.604
G3 X-9.6465 Y-23.852 I3.0903 J0.7285
G1 X338.9211 Y-79.0862
G2 X353.862 Y-99.2824 I-2.805 J-17.6998
G1 X309.9 Y-411.7737
G2 X292.226 Y-427.135 I-17.674 J2.4867
G1 X-46.4722
G3 X-49.6351 Y-430.0333 J-3.175
G1 X-53.2085 Y-470.8773
G3 X-50.0456 Y-474.329 I3.1629 J-0.2767
G1 X355.454
G3 X358.5981 Y-471.5959 J3.175
G1 X374.7811 Y-356.4469
G3 X374.2903 Y-354.2613 I-3.1441 J0.4419
G2 X375.6786 Y-353.3691 I0.6896 J0.4532
G3 X377.9254 Y-354.8241 I2.6884 J1.6891
G1 X379.8403 Y-355.0931
G3 X384.5551 Y-351.5397 I0.5807 J4.1341
G1 X398.1961 Y-254.4809
G3 X394.643 Y-249.7659 I-4.1341 J0.5809
G1 X391.8946 Y-249.379
G3 X389.7079 Y-249.8699 I-0.4426 J-3.144
G2 X388.8161 Y-248.4824 I-0.4531 J0.6892
G3 X390.2711 Y-246.2359 I-1.6891 J2.6884
G1 X407.0321 Y-126.9688
G3 X406.5413 Y-124.7833 I-3.1441 J0.4418
G2 X407.9299 Y-123.8907 I0.6898 J0.4533
G3 X410.1756 Y-125.345 I2.6881 J1.6897
G1 X411.9023 Y-125.588
G3 X416.619 Y-122.0356 I0.5822 J4.1344
G1 X420.5141 Y-94.3201
G3 X416.9608 Y-89.6046 I-4.1342 J0.5813
G1 X414.3998 Y-89.2447
G3 X412.2142 Y-89.7355 I-0.4418 J-3.1441
G2 X411.3218 Y-88.3475 I-0.4532 J0.6895
G3 X412.7761 Y-86.1014 I-1.6898 J2.688
G1 X417.5001 Y-52.4896
G3 X414.7979 Y-48.9036 I-3.1441 J0.4419
G1 X383.6589 Y-44.5274
G3 X378.9439 Y-48.0809 I-0.5808 J-4.1342
G1 X378.5529 Y-50.8632
G3 X379.0437 Y-53.0487 I3.1441 J-0.4418
G2 X377.6559 Y-53.9408 I-0.6894 J-0.453
G3 X375.4099 Y-52.4865 I-2.688 J-1.6898
G1 X223.2339 Y-31.0996
G3 X220.856 Y-31.7272 I-0.4419 J-3.1441
G2 X219.8632 Y-30.4097 I-0.503 J0.6538
G3 X221.1222 Y-28.2965 I-1.8852 J2.5547
G1 X221.4521 Y-25.9467
G3 X217.8988 Y-21.2313 I-4.1342 J0.5812
G1 X190.1709 Y-17.3344
G3 X185.4559 Y-20.8875 I-0.5807 J-4.1343
G1 X185.129 Y-23.2104
G3 X185.7567 Y-25.5891 I3.144 J-0.4425
G2 X184.4395 Y-26.5817 I-0.6536 J-0.5029
G3 X182.3269 Y-25.3231 I-2.5545 J-1.8855
G1 X27.317 Y-3.5379
G3 X25.1314 Y-4.0287 I-0.4419 J-3.1441
G2 X24.2392 Y-2.6408 I-0.4531 J0.6894
G3 X25.6936 Y-0.3947 I-1.6897 J2.688
G1 X25.9591 Y1.4943
G3 X22.4058 Y6.2097 I-4.1344 J0.5811
G1 X5.0528 Y8.6486
G3 X0.3374 Y5.0952 I-0.581 J-4.1344
G1 X0.0262 Y2.881
G3 X0.6539 Y0.5031 I3.1441 J-0.4419
G2 X-0.6638 Y-0.4899 I-0.6539 J-0.5031
G3 X-2.7766 Y0.7689 I-2.5547 J-1.8853
G1 X-7.058 Y1.3706
G3 X-10.6629 Y-1.498 I-0.4419 J-3.1441
G1 X-12.3126 Y-20.4406
G3 X-12.2399 Y-21.4446 I3.163 J-0.2755
G0 Z6.096
X-140.4644 Y-324.0388
G1 Z4.191 F508
Z-6.604
G3 X-146.1868 Y-335.2693 I7.4476 J-10.868
G1 X-144.1128 Y-410.6463
G3 X-130.8642 Y-423.459 I13.1705 J0.3626
G1 X212.1349 Y-421.4149
G3 X225.2296 Y-408.4455 I-0.0789 J13.175
G1 X226.4056 Y-333.0496
G3 X213.1541 Y-319.6691 I-13.1731 J0.2061
G1 X-133.0959 Y-321.7321
G3 X-140.4644 Y-324.0388 I0.0791 J-13.1747
G1 Z-14.224
G3 X-146.1868 Y-335.2693 I7.4476 J-10.868
G1 X-144.1128 Y-410.6463
G3 X-130.8642 Y-423.459 I13.1705 J0.3626
G1 X212.1349 Y-421.4149
G3 X225.2296 Y-408.4455 I-0.0789 J13.175
G1 X226.4056 Y-333.0496
G3 X213.1541 Y-319.6691 I-13.1731 J0.2061
G1 X-133.0959 Y-321.7321
G3 X-140.4644 Y-324.0388 I0.0791 J-13.1747
G0 Z6.096
X-12.2399 Y-21.4446
G1 Z-3.429 F508
Z-14.224
G3 X-9.6465 Y-23.852 I3.0903 J0.7285
G1 X338.9211 Y-79.0862
G2 X353.862 Y-99.2824 I-2.805 J-17.6998
G1 X309.9 Y-411.7737
G2 X292.226 Y-427.135 I-17.674 J2.4867
G1 X-46.4722
G3 X-49.6351 Y-430.0333 J-3.175
G1 X-53.2085 Y-470.8773
G3 X-50.0456 Y-474.329 I3.1629 J-0.2767
G1 X355.454
G3 X358.5981 Y-471.5959 J3.175
G1 X374.7811 Y-356.4469
G3 X374.2903 Y-354.2613 I-3.1441 J0.4419
G2 X375.6786 Y-353.3691 I0.6896 J0.4532
G3 X377.9254 Y-354.8241 I2.6884 J1.6891
G1 X379.8403 Y-355.0931
G3 X384.5551 Y-351.5397 I0.5807 J4.1341
G1 X398.1961 Y-254.4809
G3 X394.643 Y-249.7659 I-4.1341 J0.5809
G1 X391.8946 Y-249.379
G3 X389.7079 Y-249.8699 I-0.4426 J-3.144
G2 X388.8161 Y-248.4824 I-0.4531 J0.6892
G3 X390.2711 Y-246.2359 I-1.6891 J2.6884
G1 X407.0321 Y-126.9688
G3 X406.5413 Y-124.7833 I-3.1441 J0.4418
G2 X407.9299 Y-123.8907 I0.6898 J0.4533
G3 X410.1756 Y-125.345 I2.6881 J1.6897
G1 X411.9023 Y-125.588
G3 X416.619 Y-122.0356 I0.5822 J4.1344
G1 X420.5141 Y-94.3201
G3 X416.9608 Y-89.6046 I-4.1342 J0.5813
G1 X414.3998 Y-89.2447
G3 X412.2142 Y-89.7355 I-0.4418 J-3.1441
G2 X411.3218 Y-88.3475 I-0.4532 J0.6895
G3 X412.7761 Y-86.1014 I-1.6898 J2.688
G1 X417.5001 Y-52.4896
G3 X414.7979 Y-48.9036 I-3.1441 J0.4419
G1 X383.6589 Y-44.5274
G3 X378.9439 Y-48.0809 I-0.5808 J-4.1342
G1 X378.5529 Y-50.8632
G3 X379.0437 Y-53.0487 I3.1441 J-0.4418
G2 X377.6559 Y-53.9408 I-0.6894 J-0.453
G3 X375.4099 Y-52.4865 I-2.688 J-1.6898
G1 X223.2339 Y-31.0996
G3 X220.856 Y-31.7272 I-0.4419 J-3.1441
G2 X219.8632 Y-30.4097 I-0.503 J0.6538
G3 X221.1222 Y-28.2965 I-1.8852 J2.5547
G1 X221.4521 Y-25.9467
G3 X217.8988 Y-21.2313 I-4.1342 J0.5812
G1 X190.1709 Y-17.3344
G3 X185.4559 Y-20.8875 I-0.5807 J-4.1343
G1 X185.129 Y-23.2104
G3 X185.7567 Y-25.5891 I3.144 J-0.4425
G2 X184.4395 Y-26.5817 I-0.6536 J-0.5029
G3 X182.3269 Y-25.3231 I-2.5545 J-1.8855
G1 X27.317 Y-3.5379
G3 X25.1314 Y-4.0287 I-0.4419 J-3.1441
G2 X24.2392 Y-2.6408 I-0.4531 J0.6894
G3 X25.6936 Y-0.3947 I-1.6897 J2.688
G1 X25.9591 Y1.4943
G3 X22.4058 Y6.2097 I-4.1344 J0.5811
G1 X5.0528 Y8.6486
G3 X0.3374 Y5.0952 I-0.581 J-4.1344
G1 X0.0262 Y2.881
G3 X0.6539 Y0.5031 I3.1441 J-0.4419
G2 X-0.6638 Y-0.4899 I-0.6539 J-0.5031
G3 X-2.7766 Y0.7689 I-2.5547 J-1.8853
G1 X-7.058 Y1.3706
G3 X-10.6629 Y-1.498 I-0.4419 J-3.1441
G1 X-12.3126 Y-20.4406
G3 X-12.2399 Y-21.4446 I3.163 J-0.2755
G1 Z-20.066
G3 X-9.6465 Y-23.852 I3.0903 J0.7285
G1 X209.7465 Y-58.6171
Z-17.526
X221.0356 Y-60.406
Z-20.066
X338.9211 Y-79.0862
G2 X353.862 Y-99.2824 I-2.805 J-17.6998
G1 X336.4117 Y-223.3224
Z-17.526
X334.8194 Y-234.6409
Z-20.066
X309.9 Y-411.7737
G2 X292.226 Y-427.135 I-17.674 J2.4867
G1 X245.17
Z-17.526
X233.74
Z-20.066
X-46.4722
G3 X-49.6351 Y-430.0333 J-3.175
G1 X-53.2085 Y-470.8773
G3 X-50.0456 Y-474.329 I3.1629 J-0.2767
G1 X51.1706
Z-17.526
X62.6006
Z-20.066
X295.512
Z-17.526
X306.942
Z-20.066
X351.8016
Z-17.526
X355.454
G3 X358.5981 Y-471.5959 J3.175
G1 X359.3935 Y-465.9365
Z-20.066
X365.4363 Y-422.9392
Z-17.526
X367.027 Y-411.6204
Z-20.066
X374.7811 Y-356.4469
G3 X374.2903 Y-354.2613 I-3.1441 J0.4419
G2 X375.6786 Y-353.3691 I0.6896 J0.4532
G3 X377.2184 Y-354.64 I2.6884 J1.6891
G1 Z-17.526
G3 X377.9254 Y-354.8241 I1.1486 J2.96
G1 X379.8403 Y-355.0931
G3 X384.5551 Y-351.5397 I0.5807 J4.1341
G1 X386.0172 Y-341.1364
Z-20.066
X393.2981 Y-289.3312
Z-17.526
X395.5915 Y-273.0135
Z-20.066
X397.45 Y-259.7892
Z-17.526
X398.1961 Y-254.4809
G3 X394.643 Y-249.7659 I-4.1341 J0.5809
G1 X392.1067 Y-249.4089
Z-20.066
X391.8946 Y-249.379
G3 X389.7079 Y-249.8699 I-0.4426 J-3.144
G2 X388.8161 Y-248.4824 I-0.4531 J0.6892
G3 X390.2711 Y-246.2359 I-1.6891 J2.6884
G1 X398.0496 Y-190.8862
Z-17.526
X399.6402 Y-179.5675
Z-20.066
X400.6811 Y-172.1612
Z-17.526
X402.422 Y-159.7734
Z-20.066
X407.0321 Y-126.9688
G3 X406.5413 Y-124.7833 I-3.1441 J0.4418
G2 X407.9299 Y-123.8907 I0.6898 J0.4533
G3 X409.4315 Y-125.146 I2.6881 J1.6897
G1 Z-17.526
G3 X410.1756 Y-125.345 I1.1866 J2.945
G1 X411.9023 Y-125.588
G3 X416.619 Y-122.0356 I0.5822 J4.1344
G1 X418.9321 Y-105.5766
Z-20.066
X419.769 Y-99.622
Z-17.526
X420.5141 Y-94.3201
G3 X416.9608 Y-89.6046 I-4.1342 J0.5813
G1 X414.3998 Y-89.2447
G3 X413.55 Y-89.2401 I-0.4418 J-3.1441
G1 Z-20.066
G3 X412.2142 Y-89.7355 I0.4081 J-3.1487
G2 X411.3218 Y-88.3475 I-0.4532 J0.6895
G3 X412.7761 Y-86.1014 I-1.6898 J2.688
G1 X417.0582 Y-55.6337
Z-17.526
X417.5001 Y-52.4896
G3 X414.7979 Y-48.9036 I-3.1441 J0.4419
G1 X409.1385 Y-48.1082
Z-20.066
X399.4323 Y-46.7442
Z-17.526
X388.1135 Y-45.1534
Z-20.066
X383.6589 Y-44.5274
G3 X378.9439 Y-48.0809 I-0.5808 J-4.1342
G1 X378.5529 Y-50.8632
G3 X379.0437 Y-53.0487 I3.1441 J-0.4418
G2 X377.6559 Y-53.9408 I-0.6894 J-0.453
G3 X375.4099 Y-52.4865 I-2.688 J-1.6898
G1 X347.3873 Y-48.5482
Z-17.526
X336.0685 Y-46.9574
Z-20.066
X267.4813 Y-37.3181
Z-17.526
X256.1625 Y-35.7274
Z-20.066
X223.2339 Y-31.0996
G3 X220.856 Y-31.7272 I-0.4419 J-3.1441
G2 X219.8632 Y-30.4097 I-0.503 J0.6538
G3 X221.1222 Y-28.2965 I-1.8852 J2.5547
G1 X221.4521 Y-25.9467
G3 X217.8988 Y-21.2313 I-4.1342 J0.5812
G1 X190.1709 Y-17.3344
G3 X185.4559 Y-20.8875 I-0.5807 J-4.1343
G1 X185.129 Y-23.2104
G3 X185.7567 Y-25.5891 I3.144 J-0.4425
G2 X184.4395 Y-26.5817 I-0.6536 J-0.5029
G3 X182.3269 Y-25.3231 I-2.5545 J-1.8855
G1 X155.6213 Y-21.5699
Z-17.526
X144.3025 Y-19.9791
Z-20.066
X27.317 Y-3.5379
G3 X25.1314 Y-4.0287 I-0.4419 J-3.1441
G2 X24.2392 Y-2.6408 I-0.4531 J0.6894
G3 X25.6936 Y-0.3947 I-1.6897 J2.688
G1 X25.9591 Y1.4943
G3 X22.4058 Y6.2097 I-4.1344 J0.5811
G1 X5.0528 Y8.6486
G3 X0.3374 Y5.0952 I-0.581 J-4.1344
G1 X0.0262 Y2.881
G3 X0.6539 Y0.5031 I3.1441 J-0.4419
G2 X-0.6638 Y-0.4899 I-0.6539 J-0.5031
G3 X-2.7766 Y0.7689 I-2.5547 J-1.8853
G1 X-7.058 Y1.3706
G3 X-10.6629 Y-1.498 I-0.4419 J-3.1441
G1 X-12.3126 Y-20.4406
G3 X-12.2399 Y-21.4446 I3.163 J-0.2755
G0 Z6.096
X-140.4644 Y-324.0388
G1 Z-11.049 F508
Z-20.066
G3 X-146.1868 Y-335.2693 I7.4476 J-10.868
G1 X-145.4337 Y-362.6405
Z-17.526
X-145.1193 Y-374.0662
Z-20.066
X-144.1128 Y-410.6463
G3 X-130.8642 Y-423.459 I13.1705 J0.3626
G1 X36.5519 Y-422.4613
Z-17.526
X47.9817 Y-422.3932
Z-20.066
X212.1349 Y-421.4149
G3 X225.2296 Y-408.4455 I-0.0789 J13.175
G1 X225.6161 Y-383.6678
Z-17.526
X225.7943 Y-372.2392
Z-20.066
X226.4056 Y-333.0496
G3 X213.1541 Y-319.6691 I-13.1731 J0.2061
G1 X52.0719 Y-320.6288
Z-17.526
X40.6421 Y-320.6969
Z-20.066
X-133.0959 Y-321.7321
G3 X-140.4644 Y-324.0388 I0.0791 J-13.1747
G0 Z6.096

(Operation 2 of 3 : 2D Pocket1)

G54
S5000 M3
X-69.0546 Y-208.839
Z11.176
Z6.096
G1 Z3.556 F508
G2 X-69.5728 Y-208.9279 Z2.9126 I0.249 J-3.006
X-70.0677 Y-209.1055 Z2.2692 I0.7672 J-2.917
X-70.5243 Y-209.3663 Z1.6257 I1.2621 J-2.7395
X-70.9286 Y-209.7024 Z0.9823 I1.7186 J-2.4787
X-71.2684 Y-210.1036 Z0.3389 I2.123 J-2.1426
X-71.5334 Y-210.5577 Z-0.3045 I2.4628 J-1.7414
X-71.7155 Y-211.0509 Z-0.948 I2.7277 J-1.2873
X-71.8091 Y-211.5683 Z-1.5914 I2.9098 J-0.7941
X-71.8116 Y-212.094 Z-2.2348 I3.0035 J-0.2767
X-71.7227 Y-212.6122 Z-2.8782 I3.0059 J0.249
X-71.5451 Y-213.1071 Z-3.5217 I2.917 J0.7672
X-68.8205 Y-214.8612 Z-4.064 I2.7395 J1.2621
X-68.7938 Y-209.4575 I0.0133 J2.7018
G1 X-68.2928 Y-209.46
X-68.2489 Y-209.4671
X-68.2094 Y-209.4875
X-68.1781 Y-209.5191
X-68.1582 Y-209.5588
X-68.1514 Y-209.6027
X-68.1586 Y-209.6466
X-68.179 Y-209.6861
X-68.2106 Y-209.7174
X-68.2503 Y-209.7373
X-68.2942 Y-209.7441
X-68.8051 Y-209.7416
X-68.8459 Y-209.7349
X-68.8827 Y-209.7159
X-68.9118 Y-209.6865
X-68.9304 Y-209.6496
X-68.9367 Y-209.6087
X-68.9366 Y-209.589
X-68.9299 Y-209.5482
X-68.9109 Y-209.5114
X-68.8815 Y-209.4823
X-68.8446 Y-209.4637
X-68.8037 Y-209.4574
X-68.7938 Y-209.4575
G3 X-66.0434 Y-207.72 I0.0149 J3.0221
G2 X-62.87 Y-208.4363 I1.5077 J-0.7081
G1 X-62.8925 Y-212.9858
G3 X-61.8008 Y-215.6211 I3.683 J-0.0182
G1 X-61.7587 Y-215.6727
X-61.7283 Y-215.732
X-61.7109 Y-215.7964
X-61.7074 Y-215.8629
X-61.7179 Y-215.9287
X-61.7419 Y-215.9909
X-61.7784 Y-216.0467
X-61.8258 Y-216.0935
X-61.8819 Y-216.1295
X-61.9443 Y-216.1529
X-62.0102 Y-216.1627
X-62.0767 Y-216.1586
X-62.1409 Y-216.1406
X-62.1999 Y-216.1096
X-62.2511 Y-216.0669
G3 X-64.8757 Y-214.9491 I-2.6428 J-2.5651
G1 X-72.1781 Y-214.913
G3 X-74.8138 Y-216.005 I-0.0182 J-3.683
G1 X-74.8654 Y-216.0472
X-74.9248 Y-216.0777
X-74.9891 Y-216.095
X-75.0557 Y-216.0986
X-75.1216 Y-216.0881
X-75.1838 Y-216.064
X-75.2396 Y-216.0275
X-75.2865 Y-215.9801
X-75.3225 Y-215.9239
X-75.3459 Y-215.8615
X-75.3557 Y-215.7955
X-75.3515 Y-215.729
X-75.3335 Y-215.6648
X-75.3024 Y-215.6058
X-75.2597 Y-215.5546
G3 X-74.1411 Y-212.9292 I-2.5644 J2.6436
G1 X-74.108 Y-206.2172
G3 X-75.2008 Y-203.5808 I-3.683 J0.0182
G1 X-75.243 Y-203.5291
X-75.2735 Y-203.4698
X-75.2908 Y-203.4054
X-75.2944 Y-203.3388
X-75.2839 Y-203.2729
X-75.2599 Y-203.2107
X-75.2233 Y-203.1549
X-75.1759 Y-203.108
X-75.1198 Y-203.072
X-75.0573 Y-203.0486
X-74.9914 Y-203.0387
X-74.9248 Y-203.0429
X-74.8606 Y-203.0609
X-74.8016 Y-203.092
X-74.7504 Y-203.1347
G3 X-72.1253 Y-204.253 I2.6432 J2.5647
G1 X-64.8232 Y-204.289
G3 X-62.1875 Y-203.197 I0.0182 J3.683
G1 X-62.1359 Y-203.1548
X-62.0766 Y-203.1244
X-62.0123 Y-203.107
X-61.9457 Y-203.1035
X-61.8799 Y-203.114
X-61.8177 Y-203.138
X-61.7619 Y-203.1745
X-61.715 Y-203.2219
X-61.6791 Y-203.278
X-61.6556 Y-203.3404
X-61.6458 Y-203.4064
X-61.65 Y-203.4729
X-61.668 Y-203.5371
X-61.699 Y-203.5961
X-61.7417 Y-203.6473
G3 X-62.8594 Y-206.2719 I2.5653 J-2.6427
G1 X-62.87 Y-208.4363
G0 Z6.096
X-66.0867 Y-210.5392
G1 Z-1.524 F508
G2 X-66.3547 Y-210.0869 Z-2.1674 I-2.719 J-1.3058
X-66.6972 Y-209.688 Z-2.8108 I-2.4509 J-1.7581
X-67.1038 Y-209.3547 Z-3.4543 I-2.1084 J-2.157
X-67.5621 Y-209.097 Z-4.0977 I-1.7018 J-2.4903
X-68.0582 Y-208.9228 Z-4.7411 I-1.2435 J-2.748
X-68.577 Y-208.8374 Z-5.3845 I-0.7474 J-2.9222
X-69.1027 Y-208.8434 Z-6.028 I-0.2286 J-3.0076
X-69.6194 Y-208.9406 Z-6.6714 I0.2971 J-3.0016
X-70.1114 Y-209.126 Z-7.3148 I0.8138 J-2.9044
X-70.5637 Y-209.3941 Z-7.9582 I1.3058 J-2.719
X-70.9626 Y-209.7366 Z-8.6017 I1.7581 J-2.4509
X-68.8205 Y-214.8612 Z-9.017 I2.157 J-2.1084
X-68.7938 Y-209.4575 I0.0133 J2.7018
G1 X-68.2928 Y-209.46
X-68.2489 Y-209.4671
X-68.2094 Y-209.4875
X-68.1781 Y-209.5191
X-68.1582 Y-209.5588
X-68.1514 Y-209.6027
X-68.1586 Y-209.6466
X-68.179 Y-209.6861
X-68.2106 Y-209.7174
X-68.2503 Y-209.7373
X-68.2942 Y-209.7441
X-68.8051 Y-209.7416
X-68.8459 Y-209.7349
X-68.8827 Y-209.7159
X-68.9118 Y-209.6865
X-68.9304 Y-209.6496
X-68.9367 Y-209.6087
X-68.9366 Y-209.589
X-68.9299 Y-209.5482
X-68.9109 Y-209.5114
X-68.8815 Y-209.4823
X-68.8446 Y-209.4637
X-68.8037 Y-209.4574
X-68.7938 Y-209.4575
G3 X-66.0434 Y-207.72 I0.0149 J3.0221
G2 X-62.87 Y-208.4363 I1.5077 J-0.7081
G1 X-62.8925 Y-212.9858
G3 X-61.8008 Y-215.6211 I3.683 J-0.0182
G1 X-61.7587 Y-215.6727
X-61.7283 Y-215.732
X-61.7109 Y-215.7964
X-61.7074 Y-215.8629
X-61.7179 Y-215.9287
X-61.7419 Y-215.9909
X-61.7784 Y-216.0467
X-61.8258 Y-216.0935
X-61.8819 Y-216.1295
X-61.9443 Y-216.1529
X-62.0102 Y-216.1627
X-62.0767 Y-216.1586
X-62.1409 Y-216.1406
X-62.1999 Y-216.1096
X-62.2511 Y-216.0669
G3 X-64.8757 Y-214.9491 I-2.6428 J-2.5651
G1 X-72.1781 Y-214.913
G3 X-74.8138 Y-216.005 I-0.0182 J-3.683
G1 X-74.8654 Y-216.0472
X-74.9248 Y-216.0777
X-74.9891 Y-216.095
X-75.0557 Y-216.0986
X-75.1216 Y-216.0881
X-75.1838 Y-216.064
X-75.2396 Y-216.0275
X-75.2865 Y-215.9801
X-75.3225 Y-215.9239
X-75.3459 Y-215.8615
X-75.3557 Y-215.7955
X-75.3515 Y-215.729
X-75.3335 Y-215.6648
X-75.3024 Y-215.6058
X-75.2597 Y-215.5546
G3 X-74.1411 Y-212.9292 I-2.5644 J2.6436
G1 X-74.108 Y-206.2172
G3 X-75.2008 Y-203.5808 I-3.683 J0.0182
G1 X-75.243 Y-203.5291
X-75.2735 Y-203.4698
X-75.2908 Y-203.4054
X-75.2944 Y-203.3388
X-75.2839 Y-203.2729
X-75.2599 Y-203.2107
X-75.2233 Y-203.1549
X-75.1759 Y-203.108
X-75.1198 Y-203.072
X-75.0573 Y-203.0486
X-74.9914 Y-203.0387
X-74.9248 Y-203.0429
X-74.8606 Y-203.0609
X-74.8016 Y-203.092
X-74.7504 Y-203.1347
G3 X-72.1253 Y-204.253 I2.6432 J2.5647
G1 X-64.8232 Y-204.289
G3 X-62.1875 Y-203.197 I0.0182 J3.683
G1 X-62.1359 Y-203.1548
X-62.0766 Y-203.1244
X-62.0123 Y-203.107
X-61.9457 Y-203.1035
X-61.8799 Y-203.114
X-61.8177 Y-203.138
X-61.7619 Y-203.1745
X-61.715 Y-203.2219
X-61.6791 Y-203.278
X-61.6556 Y-203.3404
X-61.6458 Y-203.4064
X-61.65 Y-203.4729
X-61.668 Y-203.5371
X-61.699 Y-203.5961
X-61.7417 Y-203.6473
G3 X-62.8594 Y-206.2719 I2.5653 J-2.6427
G1 X-62.87 Y-208.4363
G0 Z6.096
X43.9424 Y-139.9948
G1 Z3.556 F508
G2 X44.036 Y-140.5122 Z2.9126 I3.0036 J0.2762
X44.218 Y-141.0054 Z2.2692 I2.91 J0.7936
X44.4829 Y-141.4596 Z1.6257 I2.728 J1.2868
X44.8226 Y-141.8609 Z0.9823 I2.4631 J1.741
X45.2269 Y-142.197 Z0.3389 I2.1233 J2.1423
X45.6834 Y-142.4579 Z-0.3045 I1.7191 J2.4784
X46.1782 Y-142.6355 Z-0.948 I1.2626 J2.7393
X46.6964 Y-142.7245 Z-1.5914 I0.7677 J2.9169
X47.2222 Y-142.7222 Z-2.2348 I0.2495 J3.0059
X47.7396 Y-142.6286 Z-2.8782 I-0.2762 J3.0036
X48.2328 Y-142.4466 Z-3.5217 I-0.7936 J2.91
X49.9622 Y-139.7062 Z-4.064 I-1.2868 J2.728
G1 X49.9623 Y-139.7343
Y-139.7347
X49.9549 Y-139.7721
X49.9338 Y-139.8038
X49.9022 Y-139.825
X49.8648 Y-139.8326
X-32.0424 Y-140.168
X-32.0429
X-32.0816 Y-140.1619
X-32.1165 Y-140.1441
X-32.1443 Y-140.1165
X-32.1622 Y-140.0816
X-32.1685 Y-140.0429
Y-140.0424
X-32.1624 Y-140.0037
X-32.1446 Y-139.9688
X-32.117 Y-139.941
X-32.0821 Y-139.9231
X-32.0434 Y-139.9169
X49.8638 Y-139.5806
X49.8642
X49.9016 Y-139.588
X49.9333 Y-139.6091
X49.9545 Y-139.6407
X49.9621 Y-139.6781
X49.9622 Y-139.7062
G3 X51.2963 Y-142.2654 I3.1466 J0.013
G2 X50.4299 Y-145.0184 I-0.8725 J-1.2382
G1 X-35.4531 Y-145.37
G3 X-38.0788 Y-146.4858 I0.0151 J-3.683
G1 X-38.1301 Y-146.5285
X-38.1891 Y-146.5595
X-38.2533 Y-146.5774
X-38.3199 Y-146.5815
X-38.3858 Y-146.5716
X-38.4482 Y-146.5482
X-38.5043 Y-146.5122
X-38.5516 Y-146.4652
X-38.5881 Y-146.4094
X-38.6121 Y-146.3472
X-38.6225 Y-146.2814
X-38.6189 Y-146.2148
X-38.6015 Y-146.1504
X-38.571 Y-146.0912
X-38.5288 Y-146.0396
G3 X-37.4347 Y-143.4049 I-2.5889 J2.6196
G1 X-37.4621 Y-136.7239
G3 X-38.5778 Y-134.0983 I-3.683 J-0.0151
G1 X-38.6205 Y-134.047
X-38.6514 Y-133.988
X-38.6694 Y-133.9238
X-38.6735 Y-133.8573
X-38.6636 Y-133.7914
X-38.6401 Y-133.7291
X-38.6041 Y-133.673
X-38.5572 Y-133.6257
X-38.5014 Y-133.5892
X-38.4392 Y-133.5652
X-38.3734 Y-133.5548
X-38.3069 Y-133.5584
X-38.2425 Y-133.5758
X-38.1833 Y-133.6063
X-38.1317 Y-133.6485
G3 X-35.4967 Y-134.743 I2.6199 J2.5885
G1 X53.1548 Y-134.379
G3 X55.7805 Y-133.2632 I-0.0151 J3.683
G1 X55.8318 Y-133.2205
X55.8908 Y-133.1895
X55.955 Y-133.1716
X56.0216 Y-133.1675
X56.0875 Y-133.1774
X56.1499 Y-133.2008
X56.206 Y-133.2368
X56.2533 Y-133.2838
X56.2898 Y-133.3396
X56.3138 Y-133.4018
X56.3242 Y-133.4676
X56.3206 Y-133.5342
X56.3032 Y-133.5986
X56.2727 Y-133.6579
X56.2305 Y-133.7094
G3 X55.1364 Y-136.3442 I2.5889 J-2.6196
G1 X55.1639 Y-143.0252
G3 X56.2796 Y-145.6507 I3.683 J0.0152
G1 X56.3223 Y-145.702
X56.3533 Y-145.7611
X56.3712 Y-145.8253
X56.3753 Y-145.8919
X56.3654 Y-145.9579
X56.342 Y-146.0203
X56.3059 Y-146.0765
X56.2589 Y-146.1238
X56.2031 Y-146.1603
X56.1408 Y-146.1843
X56.0749 Y-146.1948
X56.0083 Y-146.1912
X55.9439 Y-146.1738
X55.8846 Y-146.1433
X55.833 Y-146.101
G3 X53.1984 Y-145.007 I-2.6195 J-2.589
G1 X50.4299 Y-145.0184
G0 Z6.096
X45.6157 Y-137.0116
G1 Z-1.524 F508
G2 X45.1658 Y-137.2837 Z-2.1674 I1.3303 J-2.707
X44.77 Y-137.6298 Z-2.8108 I1.7802 J-2.4349
X44.4404 Y-138.0394 Z-3.4543 I2.1759 J-2.0888
X44.1868 Y-138.5 Z-4.0977 I2.5056 J-1.6792
X44.0172 Y-138.9976 Z-4.7411 I2.7591 J-1.2186
X43.9365 Y-139.5172 Z-5.3845 I2.9288 J-0.721
X43.9472 Y-140.0428 Z-6.028 I3.0095 J-0.2014
X44.049 Y-140.5586 Z-6.6714 I2.9988 J0.3242
X44.2389 Y-141.0489 Z-7.3148 I2.8969 J0.84
X44.5111 Y-141.4988 Z-7.9582 I2.707 J1.3303
X44.8572 Y-141.8945 Z-8.6017 I2.4349 J1.7802
X49.9622 Y-139.7062 Z-9.017 I2.0888 J2.1759
G1 X49.9623 Y-139.7343
Y-139.7347
X49.9549 Y-139.7721
X49.9338 Y-139.8038
X49.9022 Y-139.825
X49.8648 Y-139.8326
X-32.0424 Y-140.168
X-32.0429
X-32.0816 Y-140.1619
X-32.1165 Y-140.1441
X-32.1443 Y-140.1165
X-32.1622 Y-140.0816
X-32.1685 Y-140.0429
Y-140.0424
X-32.1624 Y-140.0037
X-32.1446 Y-139.9688
X-32.117 Y-139.941
X-32.0821 Y-139.9231
X-32.0434 Y-139.9169
X49.8638 Y-139.5806
X49.8642
X49.9016 Y-139.588
X49.9333 Y-139.6091
X49.9545 Y-139.6407
X49.9621 Y-139.6781
X49.9622 Y-139.7062
G3 X51.2963 Y-142.2654 I3.1466 J0.013
G2 X50.4299 Y-145.0184 I-0.8725 J-1.2382
G1 X-35.4531 Y-145.37
G3 X-38.0788 Y-146.4858 I0.0151 J-3.683
G1 X-38.1301 Y-146.5285
X-38.1891 Y-146.5595
X-38.2533 Y-146.5774
X-38.3199 Y-146.5815
X-38.3858 Y-146.5716
X-38.4482 Y-146.5482
X-38.5043 Y-146.5122
X-38.5516 Y-146.4652
X-38.5881 Y-146.4094
X-38.6121 Y-146.3472
X-38.6225 Y-146.2814
X-38.6189 Y-146.2148
X-38.6015 Y-146.1504
X-38.571 Y-146.0912
X-38.5288 Y-146.0396
G3 X-37.4347 Y-143.4049 I-2.5889 J2.6196
G1 X-37.4621 Y-136.7239
G3 X-38.5778 Y-134.0983 I-3.683 J-0.0151
G1 X-38.6205 Y-134.047
X-38.6514 Y-133.988
X-38.6694 Y-133.9238
X-38.6735 Y-133.8573
X-38.6636 Y-133.7914
X-38.6401 Y-133.7291
X-38.6041 Y-133.673
X-38.5572 Y-133.6257
X-38.5014 Y-133.5892
X-38.4392 Y-133.5652
X-38.3734 Y-133.5548
X-38.3069 Y-133.5584
X-38.2425 Y-133.5758
X-38.1833 Y-133.6063
X-38.1317 Y-133.6485
G3 X-35.4967 Y-134.743 I2.6199 J2.5885
G1 X53.1548 Y-134.379
G3 X55.7805 Y-133.2632 I-0.0151 J3.683
G1 X55.8318 Y-133.2205
X55.8908 Y-133.1895
X55.955 Y-133.1716
X56.0216 Y-133.1675
X56.0875 Y-133.1774
X56.1499 Y-133.2008
X56.206 Y-133.2368
X56.2533 Y-133.2838
X56.2898 Y-133.3396
X56.3138 Y-133.4018
X56.3242 Y-133.4676
X56.3206 Y-133.5342
X56.3032 Y-133.5986
X56.2727 Y-133.6579
X56.2305 Y-133.7094
G3 X55.1364 Y-136.3442 I2.5889 J-2.6196
G1 X55.1639 Y-143.0252
G3 X56.2796 Y-145.6507 I3.683 J0.0152
G1 X56.3223 Y-145.702
X56.3533 Y-145.7611
X56.3712 Y-145.8253
X56.3753 Y-145.8919
X56.3654 Y-145.9579
X56.342 Y-146.0203
X56.3059 Y-146.0765
X56.2589 Y-146.1238
X56.2031 Y-146.1603
X56.1408 Y-146.1843
X56.0749 Y-146.1948
X56.0083 Y-146.1912
X55.9439 Y-146.1738
X55.8846 Y-146.1433
X55.833 Y-146.101
G3 X53.1984 Y-145.007 I-2.6195 J-2.589
G1 X50.4299 Y-145.0184
G0 Z6.096
X205.73 Y-138.8216
G1 Z3.556 F508
G2 X205.6384 Y-138.3039 Z2.9126 I-3.0046 J-0.2647
X205.4583 Y-137.8099 Z2.2692 I-2.913 J-0.7824
X205.1951 Y-137.3548 Z1.6257 I-2.7329 J-1.2764
X204.8569 Y-136.9522 Z0.9823 I-2.4697 J-1.7316
X204.4539 Y-136.6145 Z0.3389 I-2.1315 J-2.1341
X203.9984 Y-136.3519 Z-0.3045 I-1.7285 J-2.4718
X203.5043 Y-136.1724 Z-0.948 I-1.273 J-2.7344
X202.9864 Y-136.0814 Z-1.5914 I-0.7789 J-2.914
X202.4607 Y-136.0817 Z-2.2348 I-0.261 J-3.0049
X201.9429 Y-136.1733 Z-2.8782 I0.2647 J-3.0046
X201.449 Y-136.3534 Z-3.5217 I0.7824 J-2.913
X199.7091 Y-139.0872 Z-4.064 I1.2764 J-2.7329
G1 Y-139.0565
Y-139.0564
X199.7152 Y-139.0104
X199.733 Y-138.9674
X199.7613 Y-138.9306
X199.7981 Y-138.9023
X199.841 Y-138.8845
X199.8871 Y-138.8784
X211.696 Y-138.8759
X211.7473 Y-138.8826
X211.795 Y-138.9024
X211.836 Y-138.9339
X211.8675 Y-138.9749
X211.8873 Y-139.0226
X211.8941 Y-139.0739
X211.8873 Y-139.1251
X211.8676 Y-139.1728
X211.8362 Y-139.2138
X211.7953 Y-139.2453
X211.7476 Y-139.2651
X211.6964 Y-139.2719
X199.8875 Y-139.2959
X199.8872
X199.8411 Y-139.2899
X199.7982 Y-139.2721
X199.7613 Y-139.2438
X199.733 Y-139.207
X199.7152 Y-139.164
X199.7092 Y-139.118
X199.7091 Y-139.0872
G3 X198.3264 Y-136.4997 I-3.114 J-0.0009
G2 X199.1784 Y-133.6924 I0.8523 J1.2743
G1 X215.1718 Y-133.689
G3 X217.8018 Y-132.5834 I-0.0008 J3.683
G1 X217.8532 Y-132.541
X217.9124 Y-132.5102
X217.9767 Y-132.4925
X218.0433 Y-132.4886
X218.1092 Y-132.4988
X218.1715 Y-132.5225
X218.2275 Y-132.5587
X218.2746 Y-132.6059
X218.3109 Y-132.6618
X218.3346 Y-132.7241
X218.3448 Y-132.79
X218.341 Y-132.8566
X218.3233 Y-132.9209
X218.2926 Y-132.9801
X218.2502 Y-133.0315
G3 X217.146 Y-135.6615 I2.5788 J-2.6295
G1 X217.147 Y-142.4805
G3 X218.2526 Y-145.1108 I3.683 J0.0005
G1 X218.295 Y-145.1623
X218.3258 Y-145.2215
X218.3435 Y-145.2858
X218.3473 Y-145.3524
X218.3372 Y-145.4183
X218.3134 Y-145.4807
X218.2771 Y-145.5367
X218.2299 Y-145.5838
X218.1739 Y-145.6201
X218.1116 Y-145.6438
X218.0456 Y-145.6539
X217.979 Y-145.65
X217.9147 Y-145.6322
X217.8555 Y-145.6014
X217.8041 Y-145.5589
G3 X215.1635 Y-144.451 I-2.6331 J-2.5751
G1 X196.4885 Y-144.489
G3 X193.8679 Y-145.5918 I0.0075 J-3.683
G1 X193.8165 Y-145.6342
X193.7573 Y-145.6649
X193.693 Y-145.6825
X193.6265 Y-145.6863
X193.5606 Y-145.6761
X193.4983 Y-145.6524
X193.4424 Y-145.6161
X193.3953 Y-145.569
X193.359 Y-145.513
X193.3353 Y-145.4507
X193.3252 Y-145.3849
X193.329 Y-145.3183
X193.3467 Y-145.254
X193.3774 Y-145.1949
X193.4198 Y-145.1435
G3 X194.524 Y-142.5129 I-2.5788 J2.6295
G1 X194.522 Y-135.6669
G3 X193.4169 Y-133.0376 I-3.683 J-0.0011
G1 X193.3744 Y-132.9861
X193.3436 Y-132.9269
X193.3259 Y-132.8626
X193.3221 Y-132.7959
X193.3322 Y-132.7299
X193.356 Y-132.6676
X193.3922 Y-132.6115
X193.4394 Y-132.5643
X193.4955 Y-132.528
X193.5578 Y-132.5043
X193.6238 Y-132.4941
X193.6904 Y-132.4979
X193.7548 Y-132.5156
X193.814 Y-132.5464
X193.8655 Y-132.5888
G3 X196.4958 Y-133.693 I2.6295 J2.5788
G1 X199.1784 Y-133.6924
G0 Z6.096
X204.0453 Y-141.7984
G1 Z-1.524 F508
G2 X204.4962 Y-141.528 Z-2.1674 I-1.3199 J2.7121
X204.8933 Y-141.1834 Z-2.8108 I-1.7708 J2.4417
X205.2245 Y-140.7751 Z-3.4543 I-2.1679 J2.0971
X205.4798 Y-140.3155 Z-4.0977 I-2.4992 J1.6888
X205.6514 Y-139.8185 Z-4.7411 I-2.7544 J1.2292
X205.7341 Y-139.2993 Z-5.3845 I-2.926 J0.7322
X205.7254 Y-138.7736 Z-6.028 I-3.0087 J0.2129
X205.6255 Y-138.2574 Z-6.6714 I-3 J-0.3127
X205.4375 Y-137.7664 Z-7.3148 I-2.9001 J-0.8289
X205.1671 Y-137.3155 Z-7.9582 I-2.7121 J-1.3199
X204.8225 Y-136.9184 Z-8.6017 I-2.4417 J-1.7708
X199.7091 Y-139.0872 Z-9.017 I-2.0971 J-2.1679
G1 Y-139.0565
Y-139.0564
X199.7152 Y-139.0104
X199.733 Y-138.9674
X199.7613 Y-138.9306
X199.7981 Y-138.9023
X199.841 Y-138.8845
X199.8871 Y-138.8784
X211.696 Y-138.8759
X211.7473 Y-138.8826
X211.795 Y-138.9024
X211.836 Y-138.9339
X211.8675 Y-138.9749
X211.8873 Y-139.0226
X211.8941 Y-139.0739
X211.8873 Y-139.1251
X211.8676 Y-139.1728
X211.8362 Y-139.2138
X211.7953 Y-139.2453
X211.7476 Y-139.2651
X211.6964 Y-139.2719
X199.8875 Y-139.2959
X199.8872
X199.8411 Y-139.2899
X199.7982 Y-139.2721
X199.7613 Y-139.2438
X199.733 Y-139.207
X199.7152 Y-139.164
X199.7092 Y-139.118
X199.7091 Y-139.0872
G3 X198.3264 Y-136.4997 I-3.114 J-0.0009
G2 X199.1784 Y-133.6924 I0.8523 J1.2743
G1 X215.1718 Y-133.689
G3 X217.8018 Y-132.5834 I-0.0008 J3.683
G1 X217.8532 Y-132.541
X217.9124 Y-132.5102
X217.9767 Y-132.4925
X218.0433 Y-132.4886
X218.1092 Y-132.4988
X218.1715 Y-132.5225
X218.2275 Y-132.5587
X218.2746 Y-132.6059
X218.3109 Y-132.6618
X218.3346 Y-132.7241
X218.3448 Y-132.79
X218.341 Y-132.8566
X218.3233 Y-132.9209
X218.2926 Y-132.9801
X218.2502 Y-133.0315
G3 X217.146 Y-135.6615 I2.5788 J-2.6295
G1 X217.147 Y-142.4805
G3 X218.2526 Y-145.1108 I3.683 J0.0005
G1 X218.295 Y-145.1623
X218.3258 Y-145.2215
X218.3435 Y-145.2858
X218.3473 Y-145.3524
X218.3372 Y-145.4183
X218.3134 Y-145.4807
X218.2771 Y-145.5367
X218.2299 Y-145.5838
X218.1739 Y-145.6201
X218.1116 Y-145.6438
X218.0456 Y-145.6539
X217.979 Y-145.65
X217.9147 Y-145.6322
X217.8555 Y-145.6014
X217.8041 Y-145.5589
G3 X215.1635 Y-144.451 I-2.6331 J-2.5751
G1 X196.4885 Y-144.489
G3 X193.8679 Y-145.5918 I0.0075 J-3.683
G1 X193.8165 Y-145.6342
X193.7573 Y-145.6649
X193.693 Y-145.6825
X193.6265 Y-145.6863
X193.5606 Y-145.6761
X193.4983 Y-145.6524
X193.4424 Y-145.6161
X193.3953 Y-145.569
X193.359 Y-145.513
X193.3353 Y-145.4507
X193.3252 Y-145.3849
X193.329 Y-145.3183
X193.3467 Y-145.254
X193.3774 Y-145.1949
X193.4198 Y-145.1435
G3 X194.524 Y-142.5129 I-2.5788 J2.6295
G1 X194.522 Y-135.6669
G3 X193.4169 Y-133.0376 I-3.683 J-0.0011
G1 X193.3744 Y-132.9861
X193.3436 Y-132.9269
X193.3259 Y-132.8626
X193.3221 Y-132.7959
X193.3322 Y-132.7299
X193.356 Y-132.6676
X193.3922 Y-132.6115
X193.4394 Y-132.5643
X193.4955 Y-132.528
X193.5578 Y-132.5043
X193.6238 Y-132.4941
X193.6904 Y-132.4979
X193.7548 Y-132.5156
X193.814 Y-132.5464
X193.8655 Y-132.5888
G3 X196.4958 Y-133.693 I2.6295 J2.5788
G1 X199.1784 Y-133.6924
G0 Z6.096
X259.6581 Y-231.2294
G1 Z3.556 F508
G2 X259.7468 Y-231.7476 Z2.9126 I3.006 J0.248
X259.9242 Y-232.2426 Z2.2692 I2.9173 J0.7662
X260.1848 Y-232.6992 Z1.6257 I2.7399 J1.2612
X260.5208 Y-233.1036 Z0.9823 I2.4793 J1.7178
X260.9218 Y-233.4436 Z0.3389 I2.1433 J2.1222
X261.3759 Y-233.7087 Z-0.3045 I1.7423 J2.4622
X261.869 Y-233.891 Z-0.948 I1.2882 J2.7273
X262.3863 Y-233.9848 Z-1.5914 I0.7951 J2.9096
X262.9121 Y-233.9874 Z-2.2348 I0.2777 J3.0034
X263.4303 Y-233.8987 Z-2.8782 I-0.248 J3.006
X263.9253 Y-233.7213 Z-3.5217 I-0.7662 J2.9173
X265.6803 Y-230.9973 Z-4.064 I-1.2612 J2.7399
X260.2804 Y-230.9688 I-2.7 J0.0142
G1 X260.5014 Y-189.0375
X260.5092 Y-188.9949
X260.531 Y-188.9575
X260.5644 Y-188.9299
X260.6051 Y-188.9153
X260.6484 Y-188.9155
X260.689 Y-188.9305
X260.7221 Y-188.9585
X260.7435 Y-188.9962
X260.7508 Y-189.0388
X260.5297 Y-230.997
X260.522 Y-231.0344
X260.5006 Y-231.066
X260.4687 Y-231.0871
X260.4312 Y-231.0943
X260.3776 Y-231.0941
X260.3402 Y-231.0864
X260.3086 Y-231.065
X260.2875 Y-231.0331
X260.2802 Y-230.9956
X260.2804 Y-230.9688
G3 X257.707 Y-227.0643 I-4.2151 J0.0222
G2 X255.1336 Y-223.1597 I1.6417 J3.8823
G1 X255.332 Y-185.5244
G3 X254.2408 Y-182.8883 I-3.683 J0.0194
G1 X254.1984 Y-182.8364
X254.1679 Y-182.7766
X254.1507 Y-182.7118
X254.1475 Y-182.6448
X254.1584 Y-182.5787
X254.183 Y-182.5163
X254.2202 Y-182.4605
X254.2683 Y-182.4138
X254.3252 Y-182.3782
X254.3883 Y-182.3554
X254.4547 Y-182.3464
X254.5216 Y-182.3516
X254.5859 Y-182.3708
X254.6447 Y-182.403
X254.6954 Y-182.4469
G3 X257.3674 Y-183.616 I2.6916 J2.5139
G1 X263.9414 Y-183.651
G3 X266.6258 Y-182.5103 I0.0196 J3.683
G1 X266.6769 Y-182.467
X266.7361 Y-182.4354
X266.8005 Y-182.4169
X266.8674 Y-182.4124
X266.9338 Y-182.4221
X266.9966 Y-182.4456
X267.0531 Y-182.4817
X267.1007 Y-182.5289
X267.1373 Y-182.5851
X267.1612 Y-182.6477
X267.1715 Y-182.714
X267.1676 Y-182.7809
X267.1496 Y-182.8455
X267.1185 Y-182.9049
X267.0756 Y-182.9564
G3 X265.9571 Y-185.5806 I2.5644 J-2.6436
G1 X265.7 Y-234.3366
G3 X266.7912 Y-236.9727 I3.683 J-0.0194
G1 X266.8334 Y-237.0243
X266.8638 Y-237.0837
X266.8812 Y-237.1481
X266.8847 Y-237.2147
X266.8742 Y-237.2805
X266.8501 Y-237.3427
X266.8136 Y-237.3985
X266.7662 Y-237.4454
X266.71 Y-237.4814
X266.6475 Y-237.5048
X266.5816 Y-237.5146
X266.515 Y-237.5104
X266.4508 Y-237.4924
X266.3918 Y-237.4613
X266.3406 Y-237.4186
G3 X263.7169 Y-236.3 I-2.6436 J-2.5644
G1 X257.0388 Y-236.2641
G3 X254.4023 Y-237.3552 I-0.0198 J-3.683
G1 X254.3507 Y-237.3974
X254.2913 Y-237.4278
X254.2269 Y-237.4452
X254.1604 Y-237.4487
X254.0945 Y-237.4382
X254.0323 Y-237.4141
X253.9765 Y-237.3776
X253.9296 Y-237.3302
X253.8936 Y-237.274
X253.8702 Y-237.2115
X253.8604 Y-237.1456
X253.8646 Y-237.079
X253.8826 Y-237.0148
X253.9137 Y-236.9558
X253.9564 Y-236.9046
G3 X255.075 Y-234.2804 I-2.5644 J2.6436
G1 X255.1336 Y-223.1597
G0 Z6.096
X261.3593 Y-228.262
G1 Z-1.524 F508
G2 X260.9069 Y-228.5299 Z-2.1674 I1.3048 J-2.7194
X260.5079 Y-228.8723 Z-2.8108 I1.7572 J-2.4515
X260.1744 Y-229.2787 Z-3.4543 I2.1562 J-2.1091
X259.9165 Y-229.7369 Z-4.0977 I2.4897 J-1.7027
X259.7422 Y-230.233 Z-4.7411 I2.7476 J-1.2445
X259.6566 Y-230.7517 Z-5.3845 I2.9219 J-0.7484
X259.6624 Y-231.2775 Z-6.028 I3.0075 J-0.2297
X259.7594 Y-231.7942 Z-6.6714 I3.0017 J0.2961
X259.9447 Y-232.2862 Z-7.3148 I2.9047 J0.8128
X260.2126 Y-232.7386 Z-7.9582 I2.7194 J1.3048
X260.555 Y-233.1376 Z-8.6017 I2.4515 J1.7572
X265.6803 Y-230.9973 Z-9.017 I2.1091 J2.1562
X260.2804 Y-230.9688 I-2.7 J0.0142
G1 X260.5014 Y-189.0375
X260.5092 Y-188.9949
X260.531 Y-188.9575
X260.5644 Y-188.9299
X260.6051 Y-188.9153
X260.6484 Y-188.9155
X260.689 Y-188.9305
X260.7221 Y-188.9585
X260.7435 Y-188.9962
X260.7508 Y-189.0388
X260.5297 Y-230.997
X260.522 Y-231.0344
X260.5006 Y-231.066
X260.4687 Y-231.0871
X260.4312 Y-231.0943
X260.3776 Y-231.0941
X260.3402 Y-231.0864
X260.3086 Y-231.065
X260.2875 Y-231.0331
X260.2802 Y-230.9956
X260.2804 Y-230.9688
G3 X257.707 Y-227.0643 I-4.2151 J0.0222
G2 X255.1336 Y-223.1597 I1.6417 J3.8823
G1 X255.332 Y-185.5244
G3 X254.2408 Y-182.8883 I-3.683 J0.0194
G1 X254.1984 Y-182.8364
X254.1679 Y-182.7766
X254.1507 Y-182.7118
X254.1475 Y-182.6448
X254.1584 Y-182.5787
X254.183 Y-182.5163
X254.2202 Y-182.4605
X254.2683 Y-182.4138
X254.3252 Y-182.3782
X254.3883 Y-182.3554
X254.4547 Y-182.3464
X254.5216 Y-182.3516
X254.5859 Y-182.3708
X254.6447 Y-182.403
X254.6954 Y-182.4469
G3 X257.3674 Y-183.616 I2.6916 J2.5139
G1 X263.9414 Y-183.651
G3 X266.6258 Y-182.5103 I0.0196 J3.683
G1 X266.6769 Y-182.467
X266.7361 Y-182.4354
X266.8005 Y-182.4169
X266.8674 Y-182.4124
X266.9338 Y-182.4221
X266.9966 Y-182.4456
X267.0531 Y-182.4817
X267.1007 Y-182.5289
X267.1373 Y-182.5851
X267.1612 Y-182.6477
X267.1715 Y-182.714
X267.1676 Y-182.7809
X267.1496 Y-182.8455
X267.1185 Y-182.9049
X267.0756 Y-182.9564
G3 X265.9571 Y-185.5806 I2.5644 J-2.6436
G1 X265.7 Y-234.3366
G3 X266.7912 Y-236.9727 I3.683 J-0.0194
G1 X266.8334 Y-237.0243
X266.8638 Y-237.0837
X266.8812 Y-237.1481
X266.8847 Y-237.2147
X266.8742 Y-237.2805
X266.8501 Y-237.3427
X266.8136 Y-237.3985
X266.7662 Y-237.4454
X266.71 Y-237.4814
X266.6475 Y-237.5048
X266.5816 Y-237.5146
X266.515 Y-237.5104
X266.4508 Y-237.4924
X266.3918 Y-237.4613
X266.3406 Y-237.4186
G3 X263.7169 Y-236.3 I-2.6436 J-2.5644
G1 X257.0388 Y-236.2641
G3 X254.4023 Y-237.3552 I-0.0198 J-3.683
G1 X254.3507 Y-237.3974
X254.2913 Y-237.4278
X254.2269 Y-237.4452
X254.1604 Y-237.4487
X254.0945 Y-237.4382
X254.0323 Y-237.4141
X253.9765 Y-237.3776
X253.9296 Y-237.3302
X253.8936 Y-237.274
X253.8702 Y-237.2115
X253.8604 Y-237.1456
X253.8646 Y-237.079
X253.8826 Y-237.0148
X253.9137 Y-236.9558
X253.9564 Y-236.9046
G3 X255.075 Y-234.2804 I-2.5644 J2.6436
G1 X255.1336 Y-223.1597
G0 Z6.096
X190.6306 Y-383.5556
G1 Z3.556 F508
G2 X190.5472 Y-383.0365 Z2.9126 I-3.0084 J-0.2169
X190.3749 Y-382.5397 Z2.2692 I-2.9251 J-0.736
X190.119 Y-382.0804 Z1.6257 I-2.7528 J-1.2328
X189.7873 Y-381.6726 Z0.9823 I-2.4969 J-1.6921
X189.3897 Y-381.3285 Z0.3389 I-2.1652 J-2.1
X188.9385 Y-381.0587 Z-0.3045 I-1.7676 J-2.444
X188.4472 Y-380.8713 Z-0.948 I-1.3164 J-2.7138
X187.9309 Y-380.7721 Z-1.5914 I-0.8251 J-2.9012
X187.4052 Y-380.7641 Z-2.2348 I-0.3088 J-3.0004
X186.8861 Y-380.8475 Z-2.8782 I0.2169 J-3.0084
X186.3893 Y-381.0197 Z-3.5217 I0.736 J-2.9251
X184.6062 Y-383.7255 Z-4.064 I1.2328 J-2.7528
G1 X185.0971 Y-352.2749
X185.1043 Y-352.2117
X185.1237 Y-352.1511
X185.1546 Y-352.0955
X185.1957 Y-352.047
X185.2455 Y-352.0074
X185.302 Y-351.9783
X185.3632 Y-351.9608
X185.4265 Y-351.9556
X185.7356 Y-351.9604
X185.7988 Y-351.9676
X185.8594 Y-351.987
X185.915 Y-352.0179
X185.9635 Y-352.059
X186.0031 Y-352.1088
X186.0322 Y-352.1653
X186.0497 Y-352.2265
X186.055 Y-352.2899
X185.5621 Y-383.8952
X185.5549 Y-383.9584
X185.5355 Y-384.0189
X185.5046 Y-384.0746
X185.4635 Y-384.1231
X185.4137 Y-384.1627
X185.3572 Y-384.1918
X185.296 Y-384.2093
X185.2327 Y-384.2145
X184.9232 Y-384.2097
X184.86 Y-384.2025
X184.7994 Y-384.183
X184.7438 Y-384.1522
X184.6953 Y-384.1111
X184.6557 Y-384.0613
X184.6266 Y-384.0047
X184.6091 Y-383.9436
X184.6038 Y-383.8802
X184.6062 Y-383.7255
G3 X182.0733 Y-379.7944 I-4.2148 J0.0658
G2 X179.5403 Y-375.8634 I1.6818 J3.8652
G1 X179.9646 Y-348.6775
G3 X178.8968 Y-346.0263 I-3.6826 J0.0575
G1 X178.8551 Y-345.9744
X178.8252 Y-345.9148
X178.8084 Y-345.8504
X178.8054 Y-345.7838
X178.8164 Y-345.7181
X178.8409 Y-345.6561
X178.8778 Y-345.6007
X178.9255 Y-345.5541
X178.9818 Y-345.5185
X179.0443 Y-345.4955
X179.1103 Y-345.4861
X179.1767 Y-345.4906
X179.2408 Y-345.5089
X179.2996 Y-345.5402
X179.3506 Y-345.5831
G3 X181.9475 Y-346.7126 I2.6544 J2.5531
G1 X189.5005 Y-346.8305
G3 X191.9548 Y-345.9444 I0.0575 J3.6825
G1 X192.012 Y-345.9053
X192.0763 Y-345.8797
X192.1447 Y-345.8686
X192.2139 Y-345.8727
X192.2805 Y-345.8917
X192.3414 Y-345.9247
X192.3936 Y-345.9702
X192.4347 Y-346.0259
X192.4627 Y-346.0893
X192.4763 Y-346.1572
X192.4747 Y-346.2264
X192.4582 Y-346.2937
X192.4274 Y-346.3557
X192.3839 Y-346.4096
G3 X191.2954 Y-348.9666 I2.5941 J-2.6144
G1 X190.6964 Y-387.3796
G3 X191.7043 Y-389.9689 I3.6826 J-0.0574
G1 X191.7462 Y-390.0242
X191.7751 Y-390.0873
X191.7896 Y-390.1551
X191.7889 Y-390.2245
X191.7732 Y-390.2921
X191.7432 Y-390.3546
X191.7003 Y-390.4091
X191.6466 Y-390.453
X191.5847 Y-390.4842
X191.5174 Y-390.5011
X191.4481 Y-390.503
X191.38 Y-390.4898
X191.3164 Y-390.4621
X191.2603 Y-390.4212
G3 X188.8355 Y-389.4594 I-2.4823 J-2.7208
G1 X181.2825 Y-389.3415
G3 X178.6517 Y-390.3891 I-0.0575 J-3.6825
G1 X178.5994 Y-390.4304
X178.5397 Y-390.4598
X178.475 Y-390.4761
X178.4084 Y-390.4786
X178.3428 Y-390.4671
X178.281 Y-390.4421
X178.2258 Y-390.4048
X178.1796 Y-390.3568
X178.1444 Y-390.3002
X178.1219 Y-390.2374
X178.113 Y-390.1714
X178.118 Y-390.1049
X178.1368 Y-390.041
X178.1686 Y-389.9824
X178.2119 Y-389.9318
G3 X179.3616 Y-387.3155 I-2.5329 J2.6738
G1 X179.5403 Y-375.8634
G0 Z6.096
X188.8988 Y-386.5053
G1 Z-1.524 F508
G2 X189.3539 Y-386.2421 Z-2.1674 I-1.2767 J2.7328
X189.7564 Y-385.9038 Z-2.8108 I-1.7318 J2.4696
X190.0941 Y-385.5008 Z-3.4543 I-2.1343 J2.1313
X190.3567 Y-385.0453 Z-4.0977 I-2.472 J1.7283
X190.5361 Y-384.5511 Z-4.7411 I-2.7346 J1.2728
X190.6271 Y-384.0333 Z-5.3845 I-2.914 J0.7786
X190.6267 Y-383.5075 Z-6.028 I-3.005 J0.2608
X190.535 Y-382.9898 Z-6.6714 I-3.0046 J-0.265
X190.3549 Y-382.4959 Z-7.3148 I-2.9129 J-0.7827
X190.0917 Y-382.0407 Z-7.9582 I-2.7328 J-1.2767
X189.7534 Y-381.6382 Z-8.6017 I-2.4695 J-1.7318
X184.6062 Y-383.7255 Z-9.017 I-2.1313 J-2.1343
G1 X185.0971 Y-352.2749
X185.1043 Y-352.2117
X185.1237 Y-352.1511
X185.1546 Y-352.0955
X185.1957 Y-352.047
X185.2455 Y-352.0074
X185.302 Y-351.9783
X185.3632 Y-351.9608
X185.4265 Y-351.9556
X185.7356 Y-351.9604
X185.7988 Y-351.9676
X185.8594 Y-351.987
X185.915 Y-352.0179
X185.9635 Y-352.059
X186.0031 Y-352.1088
X186.0322 Y-352.1653
X186.0497 Y-352.2265
X186.055 Y-352.2899
X185.5621 Y-383.8952
X185.5549 Y-383.9584
X185.5355 Y-384.0189
X185.5046 Y-384.0746
X185.4635 Y-384.1231
X185.4137 Y-384.1627
X185.3572 Y-384.1918
X185.296 Y-384.2093
X185.2327 Y-384.2145
X184.9232 Y-384.2097
X184.86 Y-384.2025
X184.7994 Y-384.183
X184.7438 Y-384.1522
X184.6953 Y-384.1111
X184.6557 Y-384.0613
X184.6266 Y-384.0047
X184.6091 Y-383.9436
X184.6038 Y-383.8802
X184.6062 Y-383.7255
G3 X182.0733 Y-379.7944 I-4.2148 J0.0658
G2 X179.5403 Y-375.8634 I1.6818 J3.8652
G1 X179.9646 Y-348.6775
G3 X178.8968 Y-346.0263 I-3.6826 J0.0575
G1 X178.8551 Y-345.9744
X178.8252 Y-345.9148
X178.8084 Y-345.8504
X178.8054 Y-345.7838
X178.8164 Y-345.7181
X178.8409 Y-345.6561
X178.8778 Y-345.6007
X178.9255 Y-345.5541
X178.9818 Y-345.5185
X179.0443 Y-345.4955
X179.1103 Y-345.4861
X179.1767 Y-345.4906
X179.2408 Y-345.5089
X179.2996 Y-345.5402
X179.3506 Y-345.5831
G3 X181.9475 Y-346.7126 I2.6544 J2.5531
G1 X189.5005 Y-346.8305
G3 X191.9548 Y-345.9444 I0.0575 J3.6825
G1 X192.012 Y-345.9053
X192.0763 Y-345.8797
X192.1447 Y-345.8686
X192.2139 Y-345.8727
X192.2805 Y-345.8917
X192.3414 Y-345.9247
X192.3936 Y-345.9702
X192.4347 Y-346.0259
X192.4627 Y-346.0893
X192.4763 Y-346.1572
X192.4747 Y-346.2264
X192.4582 Y-346.2937
X192.4274 Y-346.3557
X192.3839 Y-346.4096
G3 X191.2954 Y-348.9666 I2.5941 J-2.6144
G1 X190.6964 Y-387.3796
G3 X191.7043 Y-389.9689 I3.6826 J-0.0574
G1 X191.7462 Y-390.0242
X191.7751 Y-390.0873
X191.7896 Y-390.1551
X191.7889 Y-390.2245
X191.7732 Y-390.2921
X191.7432 Y-390.3546
X191.7003 Y-390.4091
X191.6466 Y-390.453
X191.5847 Y-390.4842
X191.5174 Y-390.5011
X191.4481 Y-390.503
X191.38 Y-390.4898
X191.3164 Y-390.4621
X191.2603 Y-390.4212
G3 X188.8355 Y-389.4594 I-2.4823 J-2.7208
G1 X181.2825 Y-389.3415
G3 X178.6517 Y-390.3891 I-0.0575 J-3.6825
G1 X178.5994 Y-390.4304
X178.5397 Y-390.4598
X178.475 Y-390.4761
X178.4084 Y-390.4786
X178.3428 Y-390.4671
X178.281 Y-390.4421
X178.2258 Y-390.4048
X178.1796 Y-390.3568
X178.1444 Y-390.3002
X178.1219 Y-390.2374
X178.113 Y-390.1714
X178.118 Y-390.1049
X178.1368 Y-390.041
X178.1686 Y-389.9824
X178.2119 Y-389.9318
G3 X179.3616 Y-387.3155 I-2.5329 J2.6738
G1 X179.5403 Y-375.8634
G0 Z6.096
X347.691 Y-371.0959
G1 Z3.556 F508
G2 X347.1655 Y-371.1136 Z2.9126 I-0.1614 J-3.0119
X346.6511 Y-371.2223 Z2.2692 I0.364 J-2.9942
X346.1634 Y-371.4187 Z1.6257 I0.8784 J-2.8855
X345.7172 Y-371.6967 Z0.9823 I1.3662 J-2.6891
X345.3261 Y-372.0481 Z0.3389 I1.8124 J-2.411
X345.0019 Y-372.462 Z-0.3045 I2.2035 J-2.0597
X344.7545 Y-372.9259 Z-0.948 I2.5277 J-1.6458
X344.5914 Y-373.4258 Z-1.5914 I2.7751 J-1.1818
X344.5176 Y-373.9464 Z-2.2348 I2.9381 J-0.682
X344.5354 Y-374.4718 Z-2.8782 I3.0119 J-0.1614
X344.6441 Y-374.9862 Z-3.5217 I2.9942 J0.364
X347.1053 Y-377.0941 Z-4.064 I2.8855 J0.8784
G1 X345.7433 Y-376.9005
X345.6815 Y-376.8855
X345.6238 Y-376.8586
X345.5725 Y-376.8211
X345.5295 Y-376.7742
X345.4965 Y-376.7198
X345.4747 Y-376.6601
X345.465 Y-376.5972
X345.4677 Y-376.5337
X345.8549 Y-373.8099
X345.87 Y-373.7481
X345.8968 Y-373.6904
X345.9344 Y-373.6391
X345.9813 Y-373.5961
X346.0356 Y-373.5631
X346.0954 Y-373.5413
X346.1583 Y-373.5316
X346.2218 Y-373.5343
X371.2245 Y-377.0867
X371.2864 Y-377.1018
X371.3441 Y-377.1287
X371.3955 Y-377.1662
X371.4386 Y-377.2131
X371.4717 Y-377.2675
X371.4935 Y-377.3273
X371.5033 Y-377.3902
X371.5007 Y-377.4538
X371.1178 Y-380.1781
X371.1028 Y-380.2398
X371.0761 Y-380.2975
X371.0386 Y-380.3488
X370.9918 Y-380.3918
X370.9375 Y-380.4248
X370.8778 Y-380.4466
X370.815 Y-380.4564
X370.7515 Y-380.4536
X347.1053 Y-377.0941
G3 X344.0278 Y-378.3752 I-0.4594 J-3.2334
G2 X341.5307 Y-380.5836 I-6.5347 J4.873
G3 X340.894 Y-381.043 I1.8243 J-3.1994
G1 X340.8399 Y-381.0821
X340.7788 Y-381.1091
X340.7135 Y-381.1226
X340.6467 Y-381.1222
X340.5815 Y-381.1079
X340.5208 Y-381.0802
X340.4672 Y-381.0405
X340.4231 Y-380.9904
X340.3904 Y-380.9321
X340.3707 Y-380.8684
X340.3647 Y-380.8019
X340.3728 Y-380.7356
X340.3946 Y-380.6725
X340.4291 Y-380.6154
X340.4747 Y-380.5667
G3 X341.7153 Y-378.2963 I-2.4057 J2.7887
G1 X342.7423 Y-371.0713
G3 X342.1833 Y-368.5448 I-3.6463 J0.5183
G1 X342.1531 Y-368.4854
X342.1359 Y-368.421
X342.1326 Y-368.3545
X342.1433 Y-368.2887
X342.1675 Y-368.2266
X342.2042 Y-368.1709
X342.2517 Y-368.1242
X342.3079 Y-368.0884
X342.3704 Y-368.0652
X342.4363 Y-368.0555
X342.5028 Y-368.0599
X342.567 Y-368.0781
X342.6259 Y-368.1093
X342.6769 Y-368.1521
X342.7179 Y-368.2047
G3 X345.3269 Y-369.9054 I3.1271 J1.9457
G1 X375.1478 Y-374.1424
X375.2164 Y-374.1602
X375.2793 Y-374.1927
X375.3335 Y-374.2385
X375.3761 Y-374.2952
X375.405 Y-374.3599
X375.4188 Y-374.4294
X375.4169 Y-374.5002
X374.0668 Y-384.1054
X374.0493 Y-384.1742
X374.0168 Y-384.2374
X373.971 Y-384.2918
X373.9143 Y-384.3346
X373.8495 Y-384.3636
X373.7799 Y-384.3776
X373.7088 Y-384.3756
X343.8731 Y-380.1366
G3 X341.5307 Y-380.5836 I-0.5181 J-3.6464
G0 Z6.096
X350.4007 Y-373.1833
G1 Z-1.524 F508
G2 X350.1965 Y-372.6988 Z-2.1674 I-2.8711 J-0.9245
X349.9113 Y-372.2571 Z-2.8108 I-2.6669 J-1.409
X349.5538 Y-371.8716 Z-3.4543 I-2.3818 J-1.8507
X349.1347 Y-371.5541 Z-4.0977 I-2.0242 J-2.2362
X348.6669 Y-371.3142 Z-4.7411 I-1.6051 J-2.5537
X348.1645 Y-371.1591 Z-5.3845 I-1.1373 J-2.7936
X347.6428 Y-371.0937 Z-6.028 I-0.6349 J-2.9487
X347.1177 Y-371.1198 Z-6.6714 I-0.1133 J-3.0141
X346.6051 Y-371.2367 Z-7.3148 I0.4119 J-2.988
X346.1206 Y-371.4408 Z-7.9582 I0.9245 J-2.8711
X345.6789 Y-371.726 Z-8.6017 I1.409 J-2.6669
X347.1053 Y-377.0941 Z-9.017 I1.8507 J-2.3818
G1 X345.7433 Y-376.9005
X345.6815 Y-376.8855
X345.6238 Y-376.8586
X345.5725 Y-376.8211
X345.5295 Y-376.7742
X345.4965 Y-376.7198
X345.4747 Y-376.6601
X345.465 Y-376.5972
X345.4677 Y-376.5337
X345.8549 Y-373.8099
X345.87 Y-373.7481
X345.8968 Y-373.6904
X345.9344 Y-373.6391
X345.9813 Y-373.5961
X346.0356 Y-373.5631
X346.0954 Y-373.5413
X346.1583 Y-373.5316
X346.2218 Y-373.5343
X371.2245 Y-377.0867
X371.2864 Y-377.1018
X371.3441 Y-377.1287
X371.3955 Y-377.1662
X371.4386 Y-377.2131
X371.4717 Y-377.2675
X371.4935 Y-377.3273
X371.5033 Y-377.3902
X371.5007 Y-377.4538
X371.1178 Y-380.1781
X371.1028 Y-380.2398
X371.0761 Y-380.2975
X371.0386 Y-380.3488
X370.9918 Y-380.3918
X370.9375 Y-380.4248
X370.8778 Y-380.4466
X370.815 Y-380.4564
X370.7515 Y-380.4536
X347.1053 Y-377.0941
G3 X344.0278 Y-378.3752 I-0.4594 J-3.2334
G2 X341.5307 Y-380.5836 I-6.5347 J4.873
G3 X340.894 Y-381.043 I1.8243 J-3.1994
G1 X340.8399 Y-381.0821
X340.7788 Y-381.1091
X340.7135 Y-381.1226
X340.6467 Y-381.1222
X340.5815 Y-381.1079
X340.5208 Y-381.0802
X340.4672 Y-381.0405
X340.4231 Y-380.9904
X340.3904 Y-380.9321
X340.3707 Y-380.8684
X340.3647 Y-380.8019
X340.3728 Y-380.7356
X340.3946 Y-380.6725
X340.4291 Y-380.6154
X340.4747 Y-380.5667
G3 X341.7153 Y-378.2963 I-2.4057 J2.7887
G1 X342.7423 Y-371.0713
G3 X342.1833 Y-368.5448 I-3.6463 J0.5183
G1 X342.1531 Y-368.4854
X342.1359 Y-368.421
X342.1326 Y-368.3545
X342.1433 Y-368.2887
X342.1675 Y-368.2266
X342.2042 Y-368.1709
X342.2517 Y-368.1242
X342.3079 Y-368.0884
X342.3704 Y-368.0652
X342.4363 Y-368.0555
X342.5028 Y-368.0599
X342.567 Y-368.0781
X342.6259 Y-368.1093
X342.6769 Y-368.1521
X342.7179 Y-368.2047
G3 X345.3269 Y-369.9054 I3.1271 J1.9457
G1 X375.1478 Y-374.1424
X375.2164 Y-374.1602
X375.2793 Y-374.1927
X375.3335 Y-374.2385
X375.3761 Y-374.2952
X375.405 Y-374.3599
X375.4188 Y-374.4294
X375.4169 Y-374.5002
X374.0668 Y-384.1054
X374.0493 Y-384.1742
X374.0168 Y-384.2374
X373.971 Y-384.2918
X373.9143 Y-384.3346
X373.8495 Y-384.3636
X373.7799 Y-384.3776
X373.7088 Y-384.3756
X343.8731 Y-380.1366
G3 X341.5307 Y-380.5836 I-0.5181 J-3.6464
G0 Z6.096
X-110.6591 Y-354.585
G1 Z3.556 F508
G2 X-110.5535 Y-355.1001 Z2.9126 I2.9963 J0.3464
X-110.36 Y-355.5889 Z2.2692 I2.8906 J0.8614
X-110.0845 Y-356.0368 Z1.6257 I2.6971 J1.3503
X-109.7355 Y-356.43 Z0.9823 I2.4217 J1.7981
X-109.3235 Y-356.7566 Z0.3389 I2.0726 J2.1913
X-108.861 Y-357.0067 Z-0.3045 I1.6606 J2.518
X-108.3621 Y-357.1727 Z-0.948 I1.1982 J2.7681
X-107.842 Y-357.2495 Z-1.5914 I0.6993 J2.9341
X-107.3164 Y-357.2349 Z-2.2348 I0.1792 J3.0109
X-106.8014 Y-357.1292 Z-2.8782 I-0.3464 J2.9963
X-106.3125 Y-356.9357 Z-3.5217 I-0.8614 J2.8906
X-104.6477 Y-354.1556 Z-4.064 I-1.3503 J2.6971
G1 X-103.7823 Y-385.5981
X-103.7868 Y-385.6616
X-103.8036 Y-385.7229
X-103.832 Y-385.7798
X-103.871 Y-385.8301
X-103.9191 Y-385.8717
X-103.9743 Y-385.9033
X-104.0346 Y-385.9234
X-104.0977 Y-385.9314
X-104.4067 Y-385.9399
X-104.4702 Y-385.9354
X-104.5315 Y-385.9186
X-104.5884 Y-385.8902
X-104.6387 Y-385.8512
X-104.6804 Y-385.8032
X-104.7119 Y-385.7479
X-104.732 Y-385.6876
X-104.74 Y-385.6245
X-105.6097 Y-354.0275
X-105.6052 Y-353.964
X-105.5884 Y-353.9027
X-105.56 Y-353.8458
X-105.521 Y-353.7955
X-105.473 Y-353.7538
X-105.4177 Y-353.7223
X-105.3574 Y-353.7022
X-105.2943 Y-353.6942
X-104.9853 Y-353.6857
X-104.9218 Y-353.6902
X-104.8605 Y-353.707
X-104.8036 Y-353.7354
X-104.7533 Y-353.7744
X-104.7116 Y-353.8224
X-104.6801 Y-353.8777
X-104.66 Y-353.938
X-104.652 Y-354.0011
X-104.6477 Y-354.1556
G3 X-101.9477 Y-357.9738 I4.2137 J0.116
G2 X-99.2476 Y-361.792 I-1.5136 J-3.9341
G1 X-98.4995 Y-388.9713
G3 X-97.3184 Y-391.5741 I3.6816 J0.1013
G1 X-97.2745 Y-391.6242
X-97.242 Y-391.6824
X-97.2224 Y-391.7461
X-97.2166 Y-391.8125
X-97.2247 Y-391.8786
X-97.2465 Y-391.9415
X-97.281 Y-391.9986
X-97.3266 Y-392.0471
X-97.3814 Y-392.0851
X-97.4428 Y-392.1108
X-97.5083 Y-392.123
X-97.5749 Y-392.1213
X-97.6397 Y-392.1058
X-97.6998 Y-392.077
X-97.7525 Y-392.0363
G3 X-100.3964 Y-391.0194 I-2.5425 J-2.6646
G1 X-107.9464 Y-391.2274
G3 X-110.3603 Y-392.2187 I0.1014 J-3.6816
G1 X-110.4159 Y-392.2603
X-110.4792 Y-392.2888
X-110.5472 Y-392.3028
X-110.6166 Y-392.3018
X-110.6841 Y-392.2856
X-110.7465 Y-392.2552
X-110.8008 Y-392.2119
X-110.8443 Y-392.1579
X-110.8751 Y-392.0957
X-110.8916 Y-392.0283
X-110.8931 Y-391.9589
X-110.8794 Y-391.8908
X-110.8512 Y-391.8274
X-110.81 Y-391.7715
G3 X-109.8324 Y-389.1697 I-2.704 J2.5005
G1 X-110.8894 Y-350.7677
G3 X-112.0089 Y-348.2232 I-3.6816 J-0.1013
G1 X-112.0532 Y-348.1698
X-112.0848 Y-348.108
X-112.1022 Y-348.0408
X-112.1045 Y-347.9715
X-112.0918 Y-347.9033
X-112.0645 Y-347.8396
X-112.024 Y-347.7833
X-111.9722 Y-347.7371
X-111.9116 Y-347.7033
X-111.8451 Y-347.6835
X-111.7759 Y-347.6786
X-111.7073 Y-347.6889
X-111.6426 Y-347.7139
X-111.5849 Y-347.7523
G3 X-109.1196 Y-348.6096 I2.3639 J2.8243
G1 X-101.5686 Y-348.4016
G3 X-98.9852 Y-347.2412 I-0.1014 J3.6816
G1 X-98.9348 Y-347.1977
X-98.8764 Y-347.1657
X-98.8126 Y-347.1466
X-98.7463 Y-347.1413
X-98.6802 Y-347.15
X-98.6175 Y-347.1722
X-98.5608 Y-347.2071
X-98.5126 Y-347.253
X-98.4751 Y-347.308
X-98.4499 Y-347.3696
X-98.4381 Y-347.4352
X-98.4403 Y-347.5017
X-98.4563 Y-347.5663
X-98.4855 Y-347.6262
X-98.5266 Y-347.6786
G3 X-99.5627 Y-350.3423 I2.6455 J-2.5624
G1 X-99.2476 Y-361.792
G0 Z6.096
X-109.0561 Y-351.5634
G1 Z-1.524 F508
G2 X-109.4995 Y-351.846 Z-2.1674 I1.3933 J-2.6752
X-109.8871 Y-352.2013 Z-2.8108 I1.8367 J-2.3926
X-110.2071 Y-352.6185 Z-3.4543 I2.2242 J-2.0373
X-110.4497 Y-353.0849 Z-4.0977 I2.5442 J-1.6201
X-110.6077 Y-353.5864 Z-4.7411 I2.7869 J-1.1537
X-110.6763 Y-354.1076 Z-5.3845 I2.9449 J-0.6523
X-110.6532 Y-354.6329 Z-6.028 I3.0134 J-0.131
X-110.5393 Y-355.1462 Z-6.6714 I2.9904 J0.3943
X-110.338 Y-355.6319 Z-7.3148 I2.8765 J0.9076
X-110.0554 Y-356.0753 Z-7.9582 I2.6752 J1.3933
X-109.7002 Y-356.4628 Z-8.6017 I2.3926 J1.8367
X-104.6477 Y-354.1556 Z-9.017 I2.0373 J2.2242
G1 X-103.7823 Y-385.5981
X-103.7868 Y-385.6616
X-103.8036 Y-385.7229
X-103.832 Y-385.7798
X-103.871 Y-385.8301
X-103.9191 Y-385.8717
X-103.9743 Y-385.9033
X-104.0346 Y-385.9234
X-104.0977 Y-385.9314
X-104.4067 Y-385.9399
X-104.4702 Y-385.9354
X-104.5315 Y-385.9186
X-104.5884 Y-385.8902
X-104.6387 Y-385.8512
X-104.6804 Y-385.8032
X-104.7119 Y-385.7479
X-104.732 Y-385.6876
X-104.74 Y-385.6245
X-105.6097 Y-354.0275
X-105.6052 Y-353.964
X-105.5884 Y-353.9027
X-105.56 Y-353.8458
X-105.521 Y-353.7955
X-105.473 Y-353.7538
X-105.4177 Y-353.7223
X-105.3574 Y-353.7022
X-105.2943 Y-353.6942
X-104.9853 Y-353.6857
X-104.9218 Y-353.6902
X-104.8605 Y-353.707
X-104.8036 Y-353.7354
X-104.7533 Y-353.7744
X-104.7116 Y-353.8224
X-104.6801 Y-353.8777
X-104.66 Y-353.938
X-104.652 Y-354.0011
X-104.6477 Y-354.1556
G3 X-101.9477 Y-357.9738 I4.2137 J0.116
G2 X-99.2476 Y-361.792 I-1.5136 J-3.9341
G1 X-98.4995 Y-388.9713
G3 X-97.3184 Y-391.5741 I3.6816 J0.1013
G1 X-97.2745 Y-391.6242
X-97.242 Y-391.6824
X-97.2224 Y-391.7461
X-97.2166 Y-391.8125
X-97.2247 Y-391.8786
X-97.2465 Y-391.9415
X-97.281 Y-391.9986
X-97.3266 Y-392.0471
X-97.3814 Y-392.0851
X-97.4428 Y-392.1108
X-97.5083 Y-392.123
X-97.5749 Y-392.1213
X-97.6397 Y-392.1058
X-97.6998 Y-392.077
X-97.7525 Y-392.0363
G3 X-100.3964 Y-391.0194 I-2.5425 J-2.6646
G1 X-107.9464 Y-391.2274
G3 X-110.3603 Y-392.2187 I0.1014 J-3.6816
G1 X-110.4159 Y-392.2603
X-110.4792 Y-392.2888
X-110.5472 Y-392.3028
X-110.6166 Y-392.3018
X-110.6841 Y-392.2856
X-110.7465 Y-392.2552
X-110.8008 Y-392.2119
X-110.8443 Y-392.1579
X-110.8751 Y-392.0957
X-110.8916 Y-392.0283
X-110.8931 Y-391.9589
X-110.8794 Y-391.8908
X-110.8512 Y-391.8274
X-110.81 Y-391.7715
G3 X-109.8324 Y-389.1697 I-2.704 J2.5005
G1 X-110.8894 Y-350.7677
G3 X-112.0089 Y-348.2232 I-3.6816 J-0.1013
G1 X-112.0532 Y-348.1698
X-112.0848 Y-348.108
X-112.1022 Y-348.0408
X-112.1045 Y-347.9715
X-112.0918 Y-347.9033
X-112.0645 Y-347.8396
X-112.024 Y-347.7833
X-111.9722 Y-347.7371
X-111.9116 Y-347.7033
X-111.8451 Y-347.6835
X-111.7759 Y-347.6786
X-111.7073 Y-347.6889
X-111.6426 Y-347.7139
X-111.5849 Y-347.7523
G3 X-109.1196 Y-348.6096 I2.3639 J2.8243
G1 X-101.5686 Y-348.4016
G3 X-98.9852 Y-347.2412 I-0.1014 J3.6816
G1 X-98.9348 Y-347.1977
X-98.8764 Y-347.1657
X-98.8126 Y-347.1466
X-98.7463 Y-347.1413
X-98.6802 Y-347.15
X-98.6175 Y-347.1722
X-98.5608 Y-347.2071
X-98.5126 Y-347.253
X-98.4751 Y-347.308
X-98.4499 Y-347.3696
X-98.4381 Y-347.4352
X-98.4403 Y-347.5017
X-98.4563 Y-347.5663
X-98.4855 Y-347.6262
X-98.5266 Y-347.6786
G3 X-99.5627 Y-350.3423 I2.6455 J-2.5624
G1 X-99.2476 Y-361.792
G0 Z6.096
X-284.5555 Y-423.0384
G1 Z3.556 F508
G2 X-284.0434 Y-422.9192 Z2.9126 I-0.4253 J2.9861
X-283.5598 Y-422.7129 Z2.2692 I-0.9373 J2.8669
X-283.1194 Y-422.4257 Z1.6257 I-1.4209 J2.6606
X-282.7355 Y-422.0664 Z0.9823 I-1.8614 J2.3734
X-282.4198 Y-421.646 Z0.3389 I-2.2452 J2.0142
X-282.182 Y-421.1771 Z-0.3045 I-2.5609 J1.5937
X-282.0292 Y-420.674 Z-0.948 I-2.7987 J1.1248
X-281.9661 Y-420.152 Z-1.5914 I-2.9515 J0.6217
X-281.9946 Y-419.627 Z-2.2348 I-3.0146 J0.0997
X-282.1138 Y-419.1149 Z-2.8782 I-2.9861 J-0.4253
X-282.3201 Y-418.6314 Z-3.5217 I-2.8669 J-0.9373
X-285.1431 Y-417.0404 Z-4.064 I-2.6606 J-1.4209
G1 X-261.2982 Y-415.7545
X-261.2347 Y-415.7573
X-261.1729 Y-415.7724
X-261.1153 Y-415.7993
X-261.064 Y-415.837
X-261.0211 Y-415.8839
X-260.9881 Y-415.9383
X-260.9664 Y-415.9981
X-260.9568 Y-416.061
X-260.8086 Y-418.8086
X-260.8114 Y-418.8722
X-260.8266 Y-418.9339
X-260.8535 Y-418.9916
X-260.8911 Y-419.0428
X-260.9381 Y-419.0858
X-260.9925 Y-419.1187
X-261.0522 Y-419.1405
X-261.1151 Y-419.1501
X-286.3365 Y-420.5104
X-286.4 Y-420.5076
X-286.4617 Y-420.4924
X-286.5193 Y-420.4655
X-286.5705 Y-420.4278
X-286.6134 Y-420.3809
X-286.6462 Y-420.3265
X-286.6679 Y-420.2668
X-286.6774 Y-420.2039
X-286.8215 Y-417.456
X-286.8186 Y-417.3924
X-286.8033 Y-417.3306
X-286.7763 Y-417.2729
X-286.7386 Y-417.2216
X-286.6916 Y-417.1787
X-286.6371 Y-417.1457
X-286.5773 Y-417.124
X-286.5144 Y-417.1144
X-285.1431 Y-417.0404
G3 X-282.6396 Y-415.1691 I-0.1517 J2.8133
G2 X-280.136 Y-413.2978 I2.6553 J-0.942
G1 X-260.0897 Y-412.2166
G3 X-257.3424 Y-410.7498 I-0.1983 J3.6776
G1 X-257.297 Y-410.701
X-257.2424 Y-410.6628
X-257.181 Y-410.6368
X-257.1155 Y-410.6243
X-257.0489 Y-410.6257
X-256.984 Y-410.6411
X-256.9238 Y-410.6697
X-256.8709 Y-410.7102
X-256.8276 Y-410.7609
X-256.7959 Y-410.8196
X-256.7772 Y-410.8836
X-256.7723 Y-410.95
X-256.7814 Y-411.0161
X-256.8041 Y-411.0787
X-256.8395 Y-411.1353
G3 X-257.6167 Y-413.6033 I2.9005 J-2.2697
G1 X-257.2237 Y-420.8913
G3 X-256.185 Y-423.2621 I3.6777 J0.1983
G1 X-256.1438 Y-423.3145
X-256.1144 Y-423.3744
X-256.0983 Y-423.4391
X-256.096 Y-423.5057
X-256.1077 Y-423.5714
X-256.1329 Y-423.6331
X-256.1704 Y-423.6882
X-256.2187 Y-423.7343
X-256.2755 Y-423.7692
X-256.3384 Y-423.7915
X-256.4045 Y-423.8001
X-256.471 Y-423.7947
X-256.5349 Y-423.7755
X-256.5933 Y-423.7433
X-256.6437 Y-423.6997
G3 X-259.5323 Y-422.5374 I-2.6903 J-2.5153
G1 X-289.6243 Y-424.1603
X-289.6953 Y-424.1562
X-289.7635 Y-424.1363
X-289.8256 Y-424.1018
X-289.8785 Y-424.0542
X-289.9194 Y-423.9961
X-289.9464 Y-423.9304
X-289.958 Y-423.8603
X-290.466 Y-414.1715
X-290.4617 Y-414.1008
X-290.4418 Y-414.0327
X-290.4072 Y-413.9708
X-290.3598 Y-413.9182
X-290.3019 Y-413.8773
X-290.2363 Y-413.8504
X-290.1664 Y-413.8387
X-280.136 Y-413.2978
G0 Z6.096
X-287.6182 Y-421.5156
G1 Z-1.524 F508
G2 X-287.3241 Y-421.9514 Z-2.1674 I2.6375 J1.4633
X-286.9587 Y-422.3294 Z-2.8108 I2.3433 J1.8991
X-286.5332 Y-422.6383 Z-3.4543 I1.978 J2.2772
X-286.0606 Y-422.8686 Z-4.0977 I1.5525 J2.586
X-285.5551 Y-423.0133 Z-4.7411 I1.0798 J2.8163
X-285.0322 Y-423.0681 Z-5.3845 I0.5744 J2.9611
X-284.5077 Y-423.0312 Z-6.028 I0.0515 J3.0158
X-283.9976 Y-422.9038 Z-6.6714 I-0.473 J2.9789
X-283.5174 Y-422.6898 Z-7.3148 I-0.9831 J2.8515
X-283.0816 Y-422.3956 Z-7.9582 I-1.4633 J2.6375
X-282.7036 Y-422.0302 Z-8.6017 I-1.8991 J2.3433
X-285.1431 Y-417.0404 Z-9.017 I-2.2771 J1.978
G1 X-261.2982 Y-415.7545
X-261.2347 Y-415.7573
X-261.1729 Y-415.7724
X-261.1153 Y-415.7993
X-261.064 Y-415.837
X-261.0211 Y-415.8839
X-260.9881 Y-415.9383
X-260.9664 Y-415.9981
X-260.9568 Y-416.061
X-260.8086 Y-418.8086
X-260.8114 Y-418.8722
X-260.8266 Y-418.9339
X-260.8535 Y-418.9916
X-260.8911 Y-419.0428
X-260.9381 Y-419.0858
X-260.9925 Y-419.1187
X-261.0522 Y-419.1405
X-261.1151 Y-419.1501
X-286.3365 Y-420.5104
X-286.4 Y-420.5076
X-286.4617 Y-420.4924
X-286.5193 Y-420.4655
X-286.5705 Y-420.4278
X-286.6134 Y-420.3809
X-286.6462 Y-420.3265
X-286.6679 Y-420.2668
X-286.6774 Y-420.2039
X-286.8215 Y-417.456
X-286.8186 Y-417.3924
X-286.8033 Y-417.3306
X-286.7763 Y-417.2729
X-286.7386 Y-417.2216
X-286.6916 Y-417.1787
X-286.6371 Y-417.1457
X-286.5773 Y-417.124
X-286.5144 Y-417.1144
X-285.1431 Y-417.0404
G3 X-282.6396 Y-415.1691 I-0.1517 J2.8133
G2 X-280.136 Y-413.2978 I2.6553 J-0.942
G1 X-260.0897 Y-412.2166
G3 X-257.3424 Y-410.7498 I-0.1983 J3.6776
G1 X-257.297 Y-410.701
X-257.2424 Y-410.6628
X-257.181 Y-410.6368
X-257.1155 Y-410.6243
X-257.0489 Y-410.6257
X-256.984 Y-410.6411
X-256.9238 Y-410.6697
X-256.8709 Y-410.7102
X-256.8276 Y-410.7609
X-256.7959 Y-410.8196
X-256.7772 Y-410.8836
X-256.7723 Y-410.95
X-256.7814 Y-411.0161
X-256.8041 Y-411.0787
X-256.8395 Y-411.1353
G3 X-257.6167 Y-413.6033 I2.9005 J-2.2697
G1 X-257.2237 Y-420.8913
G3 X-256.185 Y-423.2621 I3.6777 J0.1983
G1 X-256.1438 Y-423.3145
X-256.1144 Y-423.3744
X-256.0983 Y-423.4391
X-256.096 Y-423.5057
X-256.1077 Y-423.5714
X-256.1329 Y-423.6331
X-256.1704 Y-423.6882
X-256.2187 Y-423.7343
X-256.2755 Y-423.7692
X-256.3384 Y-423.7915
X-256.4045 Y-423.8001
X-256.471 Y-423.7947
X-256.5349 Y-423.7755
X-256.5933 Y-423.7433
X-256.6437 Y-423.6997
G3 X-259.5323 Y-422.5374 I-2.6903 J-2.5153
G1 X-289.6243 Y-424.1603
X-289.6953 Y-424.1562
X-289.7635 Y-424.1363
X-289.8256 Y-424.1018
X-289.8785 Y-424.0542
X-289.9194 Y-423.9961
X-289.9464 Y-423.9304
X-289.958 Y-423.8603
X-290.466 Y-414.1715
X-290.4617 Y-414.1008
X-290.4418 Y-414.0327
X-290.4072 Y-413.9708
X-290.3598 Y-413.9182
X-290.3019 Y-413.8773
X-290.2363 Y-413.8504
X-290.1664 Y-413.8387
X-280.136 Y-413.2978
G0 Z11.176

(Operation 3 of 3 : Drill2)

G54
S5000 M3
X-273.1015 Y-490.5121
Z6.096
G1 Z-13.984 F508
G0 Z6.096
X-202.8999 Y-496.8926
G1 Z-13.984 F508
G0 Z6.096
X-123.4851 Y-504.0709
G1 Z-13.984 F508
G0 Z6.096
X-49.981 Y-510.8094
G1 Z-13.984 F508
G0 Z6.096
X-39.9138 Y-450.3398
G1 Z-13.984 F508
G0 Z6.096
X116.6752 Y-525.9228
G1 Z-13.984 F508
G0 Z6.096
X29.1048 Y-517.9592
G1 Z-13.984 F508
G0 Z6.096
X48.0174 Y-450.0386
G1 Z-13.984 F508
G0 Z6.096
X127.4254 Y-449.8089
G1 Z-13.984 F508
G0 Z6.096
X201.2371 Y-449.5023
G1 Z-13.984 F508
G0 Z6.096
X280.9753 Y-449.2728
G1 Z-13.984 F508
G0 Z6.096
X351.4659 Y-449.0351
G1 Z-13.984 F508
G0 Z6.096

G53 Z-10
M5
G4 P1.0
G53 X-10 Y-10
M30
%
