%
(Made in : Autodesk CAM Post Processor)
(G Code optimized for OpenBuilds OX CNC 1000 x 750 with GRBL V0.9j controller)

(Program Name : 1001)
(3 Operations :)
(1 : 2D Contour2)
(  Tool : Flat End Mill 2 Flutes, Diam = 6.35mm, Len = 25.4mm)
(  Spindle : RPM = 5000, set router dial to 1)
(  Machining time : 15 min 4 sec)
(2 : Drill2)
(  Tool : Flat End Mill 2 Flutes, Diam = 6.35mm, Len = 25.4mm)
(  Spindle : RPM = 5000, set router dial to 1)
(  Machining time : 1 min 29 sec)
(3 : Drill2)
(  Tool : Flat End Mill 2 Flutes, Diam = 6.35mm, Len = 25.4mm)
(  Spindle : RPM = 5000, set router dial to 1)
(  Machining time : 14 sec)

G90 G94
G17
G21

(Operation 1 of 3 : 2D Contour2)

G53 G0 Z-10
G54
S5000 M3
G4 P1.0
X288.9127 Y68.1096
Z6.096
G1 F508
Z4.191
Z-6.604
G3 X291.5061 Y65.7022 I3.0903 J0.7285
G1 X640.0731 Y10.468
G2 X655.014 Y-9.7281 I-2.8044 J-17.6993
G1 X611.053 Y-322.2187
G2 X593.3791 Y-337.58 I-17.6735 J2.4861
G1 X254.68
G3 X251.5171 Y-340.4783 J-3.175
G1 X247.9441 Y-381.3223
G3 X251.107 Y-384.774 I3.1629 J-0.2767
G1 X656.607
G3 X659.7511 Y-382.0409 J3.175
G1 X675.9341 Y-266.8929
G3 X675.4433 Y-264.7073 I-3.1441 J0.4419
G2 X676.8312 Y-263.815 I0.6895 J0.4531
G3 X679.0757 Y-265.2689 I2.6878 J1.69
G1 X680.9907 Y-265.5389
G3 X685.7079 Y-261.987 I0.5827 J4.1345
G1 X685.7081 Y-261.9859
X699.3491 Y-164.9269
G3 X695.7943 Y-160.2108 I-4.1351 J0.5809
G1 X693.0466 Y-159.8249
G3 X690.8613 Y-160.3157 I-0.4417 J-3.1441
G2 X689.969 Y-158.9278 I-0.4531 J0.6895
G3 X691.4231 Y-156.6819 I-1.69 J2.6878
G1 X708.1851 Y-37.4147
G3 X707.6944 Y-35.2292 I-3.1441 J0.4419
G2 X709.0821 Y-34.3371 I0.6893 J0.453
G3 X711.3282 Y-35.7913 I2.6879 J1.6899
G1 X713.0562 Y-36.0341
G3 X717.7711 Y-32.4807 I0.5806 J4.1343
G1 X721.6661 Y-4.7661
G3 X718.1128 Y-0.0504 I-4.1342 J0.5814
G1 X715.5519 Y0.3095
G3 X713.3661 Y-0.1813 I-0.4419 J-3.1441
G2 X712.4738 Y1.2067 I-0.4532 J0.6895
G3 X713.9281 Y3.4528 I-1.6898 J2.6879
G1 X718.6521 Y37.0646
G3 X715.9499 Y40.6506 I-3.1441 J0.4419
G1 X684.8123 Y45.0267
G3 X680.096 Y41.4742 I-0.5817 J-4.1346
G1 X679.7049 Y38.691
G3 X680.1957 Y36.5055 I3.1441 J-0.4418
G2 X678.8079 Y35.6134 I-0.6894 J-0.453
G3 X676.5619 Y37.0677 I-2.6879 J-1.6898
G1 X524.3859 Y58.4546
G3 X522.008 Y57.827 I-0.4419 J-3.1441
G2 X521.0153 Y59.1445 I-0.503 J0.6538
G3 X522.2742 Y61.2577 I-1.8853 J2.5547
G1 X522.6041 Y63.6075
G3 X519.0508 Y68.3229 I-4.1342 J0.5812
G1 X491.3242 Y72.2198
G3 X486.608 Y68.6674 I-0.5816 J-4.1347
G1 X486.6078 Y68.6658
X486.2818 Y66.3425
G3 X486.9097 Y63.9652 I3.1442 J-0.4412
G2 X485.5918 Y62.9721 I-0.6539 J-0.5032
G3 X483.4789 Y64.2311 I-2.5548 J-1.8851
G1 X328.4699 Y86.0162
G3 X326.2842 Y85.5254 I-0.4419 J-3.1441
G2 X325.3918 Y86.9135 I-0.4532 J0.6895
G3 X326.8462 Y89.1603 I-1.6898 J2.688
G1 X327.1111 Y91.0487
G3 X323.5577 Y95.7639 I-4.1342 J0.581
G1 X306.2049 Y98.2027
G3 X301.4898 Y94.649 I-0.5807 J-4.1342
G1 X301.1789 Y92.4349
G3 X301.8064 Y90.0575 I3.1441 J-0.4416
G2 X300.4885 Y89.0645 I-0.654 J-0.5031
G3 X298.3759 Y90.3231 I-2.5545 J-1.8855
G1 X294.0949 Y90.9248
G3 X290.49 Y88.0562 I-0.4419 J-3.1441
G1 X288.84 Y69.1136
G3 X288.9127 Y68.1096 I3.163 J-0.2755
G1 Z-14.224
G3 X291.5061 Y65.7022 I3.0903 J0.7285
G1 X640.0731 Y10.468
G2 X655.014 Y-9.7281 I-2.8044 J-17.6993
G1 X611.053 Y-322.2187
G2 X593.3791 Y-337.58 I-17.6735 J2.4861
G1 X254.68
G3 X251.5171 Y-340.4783 J-3.175
G1 X247.9441 Y-381.3223
G3 X251.107 Y-384.774 I3.1629 J-0.2767
G1 X656.607
G3 X659.7511 Y-382.0409 J3.175
G1 X675.9341 Y-266.8929
G3 X675.4433 Y-264.7073 I-3.1441 J0.4419
G2 X676.8312 Y-263.815 I0.6895 J0.4531
G3 X679.0757 Y-265.2689 I2.6878 J1.69
G1 X680.9907 Y-265.5389
G3 X685.7079 Y-261.987 I0.5827 J4.1345
G1 X685.7081 Y-261.9859
X699.3491 Y-164.9269
G3 X695.7943 Y-160.2108 I-4.1351 J0.5809
G1 X693.0466 Y-159.8249
G3 X690.8613 Y-160.3157 I-0.4417 J-3.1441
G2 X689.969 Y-158.9278 I-0.4531 J0.6895
G3 X691.4231 Y-156.6819 I-1.69 J2.6878
G1 X708.1851 Y-37.4147
G3 X707.6944 Y-35.2292 I-3.1441 J0.4419
G2 X709.0821 Y-34.3371 I0.6893 J0.453
G3 X711.3282 Y-35.7913 I2.6879 J1.6899
G1 X713.0562 Y-36.0341
G3 X717.7711 Y-32.4807 I0.5806 J4.1343
G1 X721.6661 Y-4.7661
G3 X718.1128 Y-0.0504 I-4.1342 J0.5814
G1 X715.5519 Y0.3095
G3 X713.3661 Y-0.1813 I-0.4419 J-3.1441
G2 X712.4738 Y1.2067 I-0.4532 J0.6895
G3 X713.9281 Y3.4528 I-1.6898 J2.6879
G1 X718.6521 Y37.0646
G3 X715.9499 Y40.6506 I-3.1441 J0.4419
G1 X684.8123 Y45.0267
G3 X680.096 Y41.4742 I-0.5817 J-4.1346
G1 X679.7049 Y38.691
G3 X680.1957 Y36.5055 I3.1441 J-0.4418
G2 X678.8079 Y35.6134 I-0.6894 J-0.453
G3 X676.5619 Y37.0677 I-2.6879 J-1.6898
G1 X524.3859 Y58.4546
G3 X522.008 Y57.827 I-0.4419 J-3.1441
G2 X521.0153 Y59.1445 I-0.503 J0.6538
G3 X522.2742 Y61.2577 I-1.8853 J2.5547
G1 X522.6041 Y63.6075
G3 X519.0508 Y68.3229 I-4.1342 J0.5812
G1 X491.3242 Y72.2198
G3 X486.608 Y68.6674 I-0.5816 J-4.1347
G1 X486.6078 Y68.6658
X486.2818 Y66.3425
G3 X486.9097 Y63.9652 I3.1442 J-0.4412
G2 X485.5918 Y62.9721 I-0.6539 J-0.5032
G3 X483.4789 Y64.2311 I-2.5548 J-1.8851
G1 X328.4699 Y86.0162
G3 X326.2842 Y85.5254 I-0.4419 J-3.1441
G2 X325.3918 Y86.9135 I-0.4532 J0.6895
G3 X326.8462 Y89.1603 I-1.6898 J2.688
G1 X327.1111 Y91.0487
G3 X323.5577 Y95.7639 I-4.1342 J0.581
G1 X306.2049 Y98.2027
G3 X301.4898 Y94.649 I-0.5807 J-4.1342
G1 X301.1789 Y92.4349
G3 X301.8064 Y90.0575 I3.1441 J-0.4416
G2 X300.4885 Y89.0645 I-0.654 J-0.5031
G3 X298.3759 Y90.3231 I-2.5545 J-1.8855
G1 X294.0949 Y90.9248
G3 X290.49 Y88.0562 I-0.4419 J-3.1441
G1 X288.84 Y69.1136
G3 X288.9127 Y68.1096 I3.163 J-0.2755
G1 Z-16.51
G3 X291.5061 Y65.7022 I3.0903 J0.7285
G1 X297.1507 Y64.8078
Z-19.05
X303.8605 Y63.7445
Z-16.51
X315.1497 Y61.9556
Z-19.05
X321.7856 Y60.9041
Z-16.51
X333.0747 Y59.1152
Z-19.05
X487.0975 Y34.7087
Z-16.51
X498.3867 Y32.9198
Z-19.05
X510.8985 Y30.9371
Z-16.51
X522.1877 Y29.1482
Z-19.05
X640.0731 Y10.468
G2 X655.014 Y-9.7281 I-2.8044 J-17.6993
G1 X640.9114 Y-109.9743
Z-16.51
X639.3191 Y-121.2929
Z-19.05
X637.5642 Y-133.7674
Z-16.51
X635.9719 Y-145.086
Z-19.05
X624.3327 Y-227.8214
Z-16.51
X622.7404 Y-239.1399
Z-19.05
X611.053 Y-322.2187
G2 X593.3791 Y-337.58 I-17.6735 J2.4861
G1 X546.322
Z-16.51
X534.892
Z-19.05
X529.398
Z-16.51
X517.968
Z-19.05
X353.243
Z-16.51
X337.685
Z-19.05
X282.733
Z-16.51
X271.303
Z-19.05
X258.1449
Z-16.51
X254.68
G3 X251.5171 Y-340.4783 J-3.175
G1 X251.019 Y-346.1715
Z-19.05
X248.1976 Y-378.424
Z-16.51
X247.9441 Y-381.3223
G3 X251.107 Y-384.774 I3.1629 J-0.2767
G1 X256.822
Z-19.05
X332.902
Z-16.51
X344.332
Z-19.05
X352.323
Z-16.51
X363.753
Z-19.05
X596.665
Z-16.51
X608.095
Z-19.05
X652.9546
Z-16.51
X656.607
G3 X659.7511 Y-382.0409 J3.175
G1 X660.5464 Y-376.3815
Z-19.05
X666.5894 Y-333.3843
Z-16.51
X668.1801 Y-322.0656
Z-19.05
X675.9341 Y-266.8929
G3 X675.4433 Y-264.7073 I-3.1441 J0.4419
G2 X676.8312 Y-263.815 I0.6895 J0.4531
G3 X678.3706 Y-265.0851 I2.6878 J1.69
G1 Z-16.51
G3 X679.0757 Y-265.2689 I1.1484 J2.9601
G1 X680.9907 Y-265.5389
G3 X685.7079 Y-261.987 I0.5827 J4.1345
G1 X685.7081 Y-261.9859
X687.1702 Y-251.5826
Z-19.05
X694.4511 Y-199.7773
Z-16.51
X696.7444 Y-183.4595
Z-19.05
X698.603 Y-170.2352
Z-16.51
X699.3491 Y-164.9269
G3 X695.7943 Y-160.2108 I-4.1351 J0.5809
G1 X693.2587 Y-159.8547
Z-19.05
X693.0466 Y-159.8249
G3 X690.8613 Y-160.3157 I-0.4417 J-3.1441
G2 X689.969 Y-158.9278 I-0.4531 J0.6895
G3 X691.4231 Y-156.6819 I-1.69 J2.6878
G1 X699.202 Y-101.3324
Z-16.51
X700.7928 Y-90.0136
Z-19.05
X701.8337 Y-82.607
Z-16.51
X703.5747 Y-70.2191
Z-19.05
X708.1851 Y-37.4147
G3 X707.6944 Y-35.2292 I-3.1441 J0.4419
G2 X709.0821 Y-34.3371 I0.6893 J0.453
G3 X710.5842 Y-35.5925 I2.6879 J1.6899
G1 Z-16.51
G3 X711.3282 Y-35.7913 I1.1858 J2.9453
G1 X713.0562 Y-36.0341
G3 X717.7711 Y-32.4807 I0.5806 J4.1343
G1 X720.0842 Y-16.0219
Z-19.05
X720.921 Y-10.0677
Z-16.51
X721.6661 Y-4.7661
G3 X718.1128 Y-0.0504 I-4.1342 J0.5814
G1 X715.5519 Y0.3095
G3 X714.702 Y0.3141 I-0.4419 J-3.1441
G1 Z-19.05
G3 X713.3661 Y-0.1813 I0.408 J-3.1487
G2 X712.4738 Y1.2067 I-0.4532 J0.6895
G3 X713.9281 Y3.4528 I-1.6898 J2.6879
G1 X718.2102 Y33.9205
Z-16.51
X718.6521 Y37.0646
G3 X715.9499 Y40.6506 I-3.1441 J0.4419
G1 X710.2905 Y41.446
Z-19.05
X700.5842 Y42.8101
Z-16.51
X689.2655 Y44.4009
Z-19.05
X684.8123 Y45.0267
G3 X680.096 Y41.4742 I-0.5817 J-4.1346
G1 X679.7049 Y38.691
G3 X680.1957 Y36.5055 I3.1441 J-0.4418
G2 X678.8079 Y35.6134 I-0.6894 J-0.453
G3 X676.5619 Y37.0677 I-2.6879 J-1.6898
G1 X648.5392 Y41.006
Z-16.51
X637.2205 Y42.5968
Z-19.05
X568.6332 Y52.236
Z-16.51
X557.3145 Y53.8268
Z-19.05
X524.3859 Y58.4546
G3 X522.008 Y57.827 I-0.4419 J-3.1441
G2 X521.0153 Y59.1445 I-0.503 J0.6538
G3 X522.2742 Y61.2577 I-1.8853 J2.5547
G1 X522.6041 Y63.6075
G3 X519.0508 Y68.3229 I-4.1342 J0.5812
G1 X491.3242 Y72.2198
G3 X486.608 Y68.6674 I-0.5816 J-4.1347
G1 X486.6078 Y68.6658
X486.2818 Y66.3425
G3 X486.9097 Y63.9652 I3.1442 J-0.4412
G2 X485.5918 Y62.9721 I-0.6539 J-0.5032
G3 X483.4789 Y64.2311 I-2.5548 J-1.8851
G1 X456.7743 Y67.9842
Z-16.51
X445.4555 Y69.5749
Z-19.05
X328.4699 Y86.0162
G3 X326.2842 Y85.5254 I-0.4419 J-3.1441
G2 X325.3918 Y86.9135 I-0.4532 J0.6895
G3 X326.8462 Y89.1603 I-1.6898 J2.688
G1 X327.1111 Y91.0487
G3 X323.5577 Y95.7639 I-4.1342 J0.581
G1 X306.2049 Y98.2027
G3 X301.4898 Y94.649 I-0.5807 J-4.1342
G1 X301.1789 Y92.4349
G3 X301.8064 Y90.0575 I3.1441 J-0.4416
G2 X300.4885 Y89.0645 I-0.654 J-0.5031
G3 X298.3759 Y90.3231 I-2.5545 J-1.8855
G1 X294.0949 Y90.9248
G3 X290.49 Y88.0562 I-0.4419 J-3.1441
G1 X289.1356 Y72.5071
Z-16.51
X288.84 Y69.1136
G3 X288.9127 Y68.1096 I3.163 J-0.2755
G0 Z6.096

(Operation 2 of 3 : Drill2)

G54
S5000 M3
X648.8438 Y-281.541
Z11.176
Z6.096
G1 Z3.556 F508
G2 X648.3183 Y-281.5588 Z2.9126 I-0.1615 J-3.0119
X647.8039 Y-281.6675 Z2.2692 I0.364 J-2.9942
X647.3161 Y-281.8638 Z1.6257 I0.8784 J-2.8855
X646.8699 Y-282.1419 Z0.9823 I1.3661 J-2.6892
X646.4788 Y-282.4932 Z0.3389 I1.8123 J-2.4111
X646.1546 Y-282.9072 Z-0.3045 I2.2035 J-2.0597
X645.9072 Y-283.3711 Z-0.948 I2.5277 J-1.6458
X645.7441 Y-283.8709 Z-1.5914 I2.775 J-1.1819
X645.6703 Y-284.3915 Z-2.2348 I2.9381 J-0.6821
X645.688 Y-284.9169 Z-2.8782 I3.0119 J-0.1615
X645.7967 Y-285.4314 Z-3.5217 I2.9942 J0.364
X648.2579 Y-287.5392 Z-4.064 I2.8855 J0.8784
G1 X646.8962 Y-287.3457
X646.8344 Y-287.3306
X646.7767 Y-287.3038
X646.7254 Y-287.2662
X646.6824 Y-287.2193
X646.6493 Y-287.165
X646.6275 Y-287.1052
X646.6178 Y-287.0424
X646.6205 Y-286.9788
X647.0073 Y-284.255
X647.0224 Y-284.1932
X647.0492 Y-284.1355
X647.0868 Y-284.0842
X647.1337 Y-284.0412
X647.188 Y-284.0082
X647.2478 Y-283.9864
X647.3106 Y-283.9767
X647.3741 Y-283.9794
X672.3775 Y-287.5327
X672.4394 Y-287.5478
X672.4971 Y-287.5747
X672.5485 Y-287.6123
X672.5915 Y-287.6592
X672.6247 Y-287.7135
X672.6465 Y-287.7733
X672.6563 Y-287.8362
X672.6537 Y-287.8998
X672.2708 Y-290.6241
X672.2558 Y-290.6859
X672.2291 Y-290.7435
X672.1916 Y-290.7948
X672.1448 Y-290.8378
X672.0905 Y-290.8709
X672.0308 Y-290.8927
X671.968 Y-290.9024
X671.9045 Y-290.8997
X648.2579 Y-287.5392
G3 X645.1804 Y-288.8202 I-0.4595 J-3.2334
G2 X642.6831 Y-291.0283 I-6.5332 J4.8723
G3 X642.0464 Y-291.4875 I1.8239 J-3.1997
G1 X641.9925 Y-291.5265
X641.9316 Y-291.5534
X641.8664 Y-291.567
X641.7998 Y-291.5666
X641.7347 Y-291.5522
X641.6742 Y-291.5246
X641.6207 Y-291.485
X641.5767 Y-291.435
X641.5441 Y-291.3769
X641.5244 Y-291.3133
X641.5185 Y-291.247
X641.5265 Y-291.1809
X641.5482 Y-291.1179
X641.5826 Y-291.0609
X641.6282 Y-291.0123
G3 X642.8684 Y-288.7418 I-2.4062 J2.7883
G1 X643.8944 Y-281.5168
G3 X643.3353 Y-278.9908 I-3.6464 J0.5178
G1 X643.305 Y-278.9314
X643.2879 Y-278.8669
X643.2845 Y-278.8003
X643.2952 Y-278.7345
X643.3195 Y-278.6723
X643.3562 Y-278.6166
X643.4037 Y-278.5698
X643.46 Y-278.534
X643.5225 Y-278.5108
X643.5885 Y-278.5011
X643.6551 Y-278.5055
X643.7192 Y-278.5237
X643.7782 Y-278.5549
X643.8293 Y-278.5978
X643.8703 Y-278.6504
G3 X646.4788 Y-280.3504 I3.1267 J1.9464
G1 X676.2998 Y-284.5883
X676.3686 Y-284.606
X676.4317 Y-284.6384
X676.4861 Y-284.6842
X676.5288 Y-284.7409
X676.5579 Y-284.8056
X676.5718 Y-284.8753
X676.5699 Y-284.9463
X675.2198 Y-294.5514
X675.2053 Y-294.6119
X675.1792 Y-294.6685
X675.1425 Y-294.7188
X675.0967 Y-294.761
X675.0436 Y-294.7934
X674.9851 Y-294.8148
X674.9236 Y-294.8243
X674.8614 Y-294.8217
X645.0252 Y-290.5816
G3 X642.6831 Y-291.0283 I-0.5182 J-3.6464
G0 Z6.096
X651.5533 Y-283.6286
G1 Z-1.524 F508
G2 X651.3492 Y-283.1441 Z-2.1674 I-2.8711 J-0.9244
X651.064 Y-282.7024 Z-2.8108 I-2.667 J-1.4089
X650.7065 Y-282.3169 Z-3.4543 I-2.3818 J-1.8506
X650.2875 Y-281.9994 Z-4.0977 I-2.0243 J-2.2361
X649.8196 Y-281.7594 Z-4.7411 I-1.6052 J-2.5536
X649.3173 Y-281.6043 Z-5.3845 I-1.1374 J-2.7936
X648.7956 Y-281.5389 Z-6.028 I-0.635 J-2.9486
X648.2705 Y-281.565 Z-6.6714 I-0.1133 J-3.0141
X647.7579 Y-281.6819 Z-7.3148 I0.4118 J-2.988
X647.2734 Y-281.886 Z-7.9582 I0.9244 J-2.8711
X646.8316 Y-282.1712 Z-8.6017 I1.4089 J-2.667
X648.2579 Y-287.5392 Z-9.017 I1.8506 J-2.3818
G1 X646.8962 Y-287.3457
X646.8344 Y-287.3306
X646.7767 Y-287.3038
X646.7254 Y-287.2662
X646.6824 Y-287.2193
X646.6493 Y-287.165
X646.6275 Y-287.1052
X646.6178 Y-287.0424
X646.6205 Y-286.9788
X647.0073 Y-284.255
X647.0224 Y-284.1932
X647.0492 Y-284.1355
X647.0868 Y-284.0842
X647.1337 Y-284.0412
X647.188 Y-284.0082
X647.2478 Y-283.9864
X647.3106 Y-283.9767
X647.3741 Y-283.9794
X672.3775 Y-287.5327
X672.4394 Y-287.5478
X672.4971 Y-287.5747
X672.5485 Y-287.6123
X672.5915 Y-287.6592
X672.6247 Y-287.7135
X672.6465 Y-287.7733
X672.6563 Y-287.8362
X672.6537 Y-287.8998
X672.2708 Y-290.6241
X672.2558 Y-290.6859
X672.2291 Y-290.7435
X672.1916 Y-290.7948
X672.1448 Y-290.8378
X672.0905 Y-290.8709
X672.0308 Y-290.8927
X671.968 Y-290.9024
X671.9045 Y-290.8997
X648.2579 Y-287.5392
G3 X645.1804 Y-288.8202 I-0.4595 J-3.2334
G2 X642.6831 Y-291.0283 I-6.5332 J4.8723
G3 X642.0464 Y-291.4875 I1.8239 J-3.1997
G1 X641.9925 Y-291.5265
X641.9316 Y-291.5534
X641.8664 Y-291.567
X641.7998 Y-291.5666
X641.7347 Y-291.5522
X641.6742 Y-291.5246
X641.6207 Y-291.485
X641.5767 Y-291.435
X641.5441 Y-291.3769
X641.5244 Y-291.3133
X641.5185 Y-291.247
X641.5265 Y-291.1809
X641.5482 Y-291.1179
X641.5826 Y-291.0609
X641.6282 Y-291.0123
G3 X642.8684 Y-288.7418 I-2.4062 J2.7883
G1 X643.8944 Y-281.5168
G3 X643.3353 Y-278.9908 I-3.6464 J0.5178
G1 X643.305 Y-278.9314
X643.2879 Y-278.8669
X643.2845 Y-278.8003
X643.2952 Y-278.7345
X643.3195 Y-278.6723
X643.3562 Y-278.6166
X643.4037 Y-278.5698
X643.46 Y-278.534
X643.5225 Y-278.5108
X643.5885 Y-278.5011
X643.6551 Y-278.5055
X643.7192 Y-278.5237
X643.7782 Y-278.5549
X643.8293 Y-278.5978
X643.8703 Y-278.6504
G3 X646.4788 Y-280.3504 I3.1267 J1.9464
G1 X676.2998 Y-284.5883
X676.3686 Y-284.606
X676.4317 Y-284.6384
X676.4861 Y-284.6842
X676.5288 Y-284.7409
X676.5579 Y-284.8056
X676.5718 Y-284.8753
X676.5699 Y-284.9463
X675.2198 Y-294.5514
X675.2053 Y-294.6119
X675.1792 Y-294.6685
X675.1425 Y-294.7188
X675.0967 Y-294.761
X675.0436 Y-294.7934
X674.9851 Y-294.8148
X674.9236 Y-294.8243
X674.8614 Y-294.8217
X645.0252 Y-290.5816
G3 X642.6831 Y-291.0283 I-0.5182 J-3.6464
G0 Z11.176

(Operation 3 of 3 : Drill2)

G54
S5000 M3
X261.2386 Y-360.7856
Z6.096
G1 Z-13.984 F508
G0 Z6.096
X349.1698 Y-360.4845
G1 Z-13.984 F508
G0 Z6.096
X428.5778 Y-360.2547
G1 Z-13.984 F508
G0 Z6.096
X502.3895 Y-359.9481
G1 Z-13.984 F508
G0 Z6.096
X582.1278 Y-359.7186
G1 Z-13.984 F508
G0 Z6.096
X652.6183 Y-359.4809
G1 Z-13.984 F508
G0 Z6.096

G53 Z-10
M5
G4 P1.0
G53 X-10 Y-10
M30
%
