%
(Made in : Autodesk CAM Post Processor)
(G Code optimized for OpenBuilds OX CNC 1000 x 750 with GRBL V0.9j controller)

(Program Name : 1001)
(2 Operations :)
(1 : 2D Contour2)
(  Tool : Flat End Mill 2 Flutes, Diam = 6.35mm, Len = 25.4mm)
(  Spindle : RPM = 5000, set router dial to 1)
(  Machining time : 15 min 5 sec)
(2 : 2D Pocket1)
(  Tool : Flat End Mill 2 Flutes, Diam = 6.35mm, Len = 25.4mm)
(  Spindle : RPM = 5000, set router dial to 1)
(  Machining time : 1 min 29 sec)

G90 G94
G17
G21

(Operation 1 of 2 : 2D Contour2)

G53 G0 Z-10
G54
S5000 M3
G4 P1.0
X-3.1441 Y0.4419
Z6.096
G1 F508
Z4.191
Z-6.604
X-19.3271 Y-114.7061
G3 X-18.8363 Y-116.8918 I3.1441 J-0.4419
G2 X-20.2244 Y-117.7842 I-0.6895 J-0.4532
G3 X-22.4707 Y-116.3299 I-2.6879 J-1.6898
G1 X-24.3857 Y-116.0609
G3 X-29.1011 Y-119.6142 I-0.5812 J-4.1342
G1 X-42.7418 Y-216.6731
G3 X-39.1883 Y-221.3881 I4.1343 J-0.5807
G1 X-36.4393 Y-221.7742
G3 X-34.2542 Y-221.2834 I0.4415 J3.1441
G2 X-33.3617 Y-222.6719 I0.4532 J-0.6897
G3 X-34.8163 Y-224.9181 I1.6895 J-2.6881
G1 X-51.5782 Y-344.1851
G3 X-51.0877 Y-346.3702 I3.1441 J-0.4419
G2 X-52.4754 Y-347.2622 I-0.6894 J-0.4529
G3 X-54.7211 Y-345.808 I-2.688 J-1.6898
G1 X-56.4486 Y-345.5649
X-56.4506 Y-345.5647
G3 X-61.1645 Y-349.12 I-0.5791 J-4.1349
G1 X-65.0593 Y-376.8321
G3 X-61.5059 Y-381.5491 I4.134 J-0.5828
G1 X-58.9451 Y-381.9091
G3 X-56.7596 Y-381.4184 I0.4419 J3.1441
G2 X-55.8675 Y-382.8061 I0.453 J-0.6894
G3 X-57.3218 Y-385.0521 I1.6898 J-2.6879
G1 X-62.0456 Y-418.6641
G3 X-59.3433 Y-422.2501 I3.1441 J-0.4419
G1 X-28.205 Y-426.6261
G3 X-23.4894 Y-423.0728 I0.5814 J4.1342
G1 X-23.0983 Y-420.291
G3 X-23.5892 Y-418.1052 I-3.1441 J0.442
G2 X-22.2011 Y-417.2128 I0.6895 J0.4532
G3 X-19.9551 Y-418.6671 I2.6879 J1.6898
G1 X132.2201 Y-440.0541
G3 X134.5986 Y-439.426 I0.4419 J3.1441
G2 X135.592 Y-440.7441 I0.5034 J-0.654
G3 X134.333 Y-442.8562 I1.885 J-2.5549
G1 X134.002 Y-445.2062
X134.0016 Y-445.2095
G3 X137.5571 Y-449.9222 I4.135 J-0.5779
G1 X165.2831 Y-453.8191
G3 X169.9981 Y-450.266 I0.5809 J4.1341
G1 X170.325 Y-447.9436
G3 X169.6974 Y-445.5649 I-3.144 J0.4426
G2 X171.0155 Y-444.5715 I0.6541 J0.5033
G3 X173.1281 Y-445.8301 I2.5545 J1.8855
G1 X328.1371 Y-467.6161
G3 X330.3231 Y-467.1251 I0.4419 J3.1441
G2 X331.2153 Y-468.5129 I0.4532 J-0.6894
G3 X329.761 Y-470.7583 I1.6897 J-2.688
G1 X329.495 Y-472.6473
X329.4946 Y-472.6503
G3 X333.0468 Y-477.3629 I4.135 J-0.5782
G1 X333.0481 Y-477.3631
X350.3999 Y-479.8019
G3 X355.1172 Y-476.2484 I0.583 J4.1339
G1 X355.4281 Y-474.0347
G3 X354.8004 Y-471.6569 I-3.1441 J0.4417
G2 X356.1185 Y-470.6635 I0.6541 J0.5033
G3 X358.2309 Y-471.9221 I2.5545 J1.8855
G1 X362.5119 Y-472.5241
G3 X366.117 Y-469.6555 I0.4421 J3.1441
G1 X367.767 Y-450.7125
G3 X365.1009 Y-447.3011 I-3.163 J0.2755
G1 X16.5335 Y-392.0671
G2 X1.5924 Y-371.8713 I2.8044 J17.6995
G1 X45.5541 Y-59.3804
G2 X63.2279 Y-44.019 I17.6738 J-2.4864
G1 X401.927
G3 X405.0899 Y-41.1207 J3.175
G1 X408.6629 Y-0.2767
G3 X405.5 Y3.175 I-3.1629 J0.2767
G1 X0
G3 X-3.1441 Y0.4419 J-3.175
G0 Z6.096
X0 Y3.175
G1 Z-3.429 F508
Z-14.224
G3 X-3.1441 Y0.4419 J-3.175
G1 X-19.3271 Y-114.7061
G3 X-18.8363 Y-116.8918 I3.1441 J-0.4419
G2 X-20.2244 Y-117.7842 I-0.6895 J-0.4532
G3 X-22.4707 Y-116.3299 I-2.6879 J-1.6898
G1 X-24.3857 Y-116.0609
G3 X-29.1011 Y-119.6142 I-0.5812 J-4.1342
G1 X-42.7418 Y-216.6731
G3 X-39.1883 Y-221.3881 I4.1343 J-0.5807
G1 X-36.4393 Y-221.7742
G3 X-34.2542 Y-221.2834 I0.4415 J3.1441
G2 X-33.3617 Y-222.6719 I0.4532 J-0.6897
G3 X-34.8163 Y-224.9181 I1.6895 J-2.6881
G1 X-51.5782 Y-344.1851
G3 X-51.0877 Y-346.3702 I3.1441 J-0.4419
G2 X-52.4754 Y-347.2622 I-0.6894 J-0.4529
G3 X-54.7211 Y-345.808 I-2.688 J-1.6898
G1 X-56.4486 Y-345.5649
X-56.4506 Y-345.5647
G3 X-61.1645 Y-349.12 I-0.5791 J-4.1349
G1 X-65.0593 Y-376.8321
G3 X-61.5059 Y-381.5491 I4.134 J-0.5828
G1 X-58.9451 Y-381.9091
G3 X-56.7596 Y-381.4184 I0.4419 J3.1441
G2 X-55.8675 Y-382.8061 I0.453 J-0.6894
G3 X-57.3218 Y-385.0521 I1.6898 J-2.6879
G1 X-62.0456 Y-418.6641
G3 X-59.3433 Y-422.2501 I3.1441 J-0.4419
G1 X-28.205 Y-426.6261
G3 X-23.4894 Y-423.0728 I0.5814 J4.1342
G1 X-23.0983 Y-420.291
G3 X-23.5892 Y-418.1052 I-3.1441 J0.442
G2 X-22.2011 Y-417.2128 I0.6895 J0.4532
G3 X-19.9551 Y-418.6671 I2.6879 J1.6898
G1 X132.2201 Y-440.0541
G3 X134.5986 Y-439.426 I0.4419 J3.1441
G2 X135.592 Y-440.7441 I0.5034 J-0.654
G3 X134.333 Y-442.8562 I1.885 J-2.5549
G1 X134.002 Y-445.2062
X134.0016 Y-445.2095
G3 X137.5571 Y-449.9222 I4.135 J-0.5779
G1 X165.2831 Y-453.8191
G3 X169.9981 Y-450.266 I0.5809 J4.1341
G1 X170.325 Y-447.9436
G3 X169.6974 Y-445.5649 I-3.144 J0.4426
G2 X171.0155 Y-444.5715 I0.6541 J0.5033
G3 X173.1281 Y-445.8301 I2.5545 J1.8855
G1 X328.1371 Y-467.6161
G3 X330.3231 Y-467.1251 I0.4419 J3.1441
G2 X331.2153 Y-468.5129 I0.4532 J-0.6894
G3 X329.761 Y-470.7583 I1.6897 J-2.688
G1 X329.495 Y-472.6473
X329.4946 Y-472.6503
G3 X333.0468 Y-477.3629 I4.135 J-0.5782
G1 X333.0481 Y-477.3631
X350.3999 Y-479.8019
G3 X355.1172 Y-476.2484 I0.583 J4.1339
G1 X355.4281 Y-474.0347
G3 X354.8004 Y-471.6569 I-3.1441 J0.4417
G2 X356.1185 Y-470.6635 I0.6541 J0.5033
G3 X358.2309 Y-471.9221 I2.5545 J1.8855
G1 X362.5119 Y-472.5241
G3 X366.117 Y-469.6555 I0.4421 J3.1441
G1 X367.767 Y-450.7125
G3 X365.1009 Y-447.3011 I-3.163 J0.2755
G1 X16.5335 Y-392.0671
G2 X1.5924 Y-371.8713 I2.8044 J17.6995
G1 X45.5541 Y-59.3804
G2 X63.2279 Y-44.019 I17.6738 J-2.4864
G1 X401.927
G3 X405.0899 Y-41.1207 J3.175
G1 X408.6629 Y-0.2767
G3 X405.5 Y3.175 I-3.1629 J0.2767
G1 X0
Z-16.51
G3 X-3.1441 Y0.4419 J-3.175
G1 X-3.9395 Y-5.2175
Z-19.05
X-9.9824 Y-48.2148
Z-16.51
X-11.5731 Y-59.5336
Z-19.05
X-19.3271 Y-114.7061
G3 X-18.8363 Y-116.8918 I3.1441 J-0.4419
G2 X-20.2244 Y-117.7842 I-0.6895 J-0.4532
G3 X-21.764 Y-116.5139 I-2.6879 J-1.6898
G1 Z-16.51
G3 X-22.4707 Y-116.3299 I-1.1483 J-2.9601
G1 X-24.3857 Y-116.0609
G3 X-29.1011 Y-119.6142 I-0.5812 J-4.1342
G1 X-30.5631 Y-130.0165
Z-19.05
X-37.8438 Y-181.8217
Z-16.51
X-40.1371 Y-198.1395
Z-19.05
X-41.9956 Y-211.3638
Z-16.51
X-42.7418 Y-216.6731
G3 X-39.1883 Y-221.3881 I4.1343 J-0.5807
G1 X-36.6519 Y-221.7443
Z-19.05
X-36.4393 Y-221.7742
G3 X-34.2542 Y-221.2834 I0.4415 J3.1441
G2 X-33.3617 Y-222.6719 I0.4532 J-0.6897
G3 X-34.8163 Y-224.9181 I1.6895 J-2.6881
G1 X-42.5951 Y-280.2668
Z-16.51
X-44.1858 Y-291.5855
Z-19.05
X-45.2268 Y-298.9927
Z-16.51
X-46.9678 Y-311.3805
Z-19.05
X-51.5782 Y-344.1851
G3 X-51.0877 Y-346.3702 I3.1441 J-0.4419
G2 X-52.4754 Y-347.2622 I-0.6894 J-0.4529
G3 X-53.9773 Y-346.0069 I-2.688 J-1.6898
G1 Z-16.51
G3 X-54.7211 Y-345.808 I-1.1861 J-2.9451
G1 X-56.4486 Y-345.5649
X-56.4506 Y-345.5647
G3 X-61.1645 Y-349.12 I-0.5791 J-4.1349
G1 X-63.4776 Y-365.5775
Z-19.05
X-64.3144 Y-371.5316
Z-16.51
X-65.0593 Y-376.8321
G3 X-61.5059 Y-381.5491 I4.134 J-0.5828
G1 X-58.9451 Y-381.9091
G3 X-58.0953 Y-381.9137 I0.4419 J3.1441
G1 Z-19.05
G3 X-56.7596 Y-381.4184 I-0.4079 J3.1487
G2 X-55.8675 Y-382.8061 I0.453 J-0.6894
G3 X-57.3218 Y-385.0521 I1.6898 J-2.6879
G1 X-61.6037 Y-415.52
Z-16.51
X-62.0456 Y-418.6641
G3 X-59.3433 Y-422.2501 I3.1441 J-0.4419
G1 X-53.684 Y-423.0454
Z-19.05
X-43.9776 Y-424.4095
Z-16.51
X-32.6588 Y-426.0002
Z-19.05
X-28.205 Y-426.6261
G3 X-23.4894 Y-423.0728 I0.5814 J4.1342
G1 X-23.0983 Y-420.291
G3 X-23.5892 Y-418.1052 I-3.1441 J0.442
G2 X-22.2011 Y-417.2128 I0.6895 J0.4532
G3 X-19.9551 Y-418.6671 I2.6879 J1.6898
G1 X8.0675 Y-422.6054
Z-16.51
X19.3862 Y-424.1962
Z-19.05
X87.9735 Y-433.8356
Z-16.51
X99.2922 Y-435.4264
Z-19.05
X132.2201 Y-440.0541
G3 X134.5986 Y-439.426 I0.4419 J3.1441
G2 X135.592 Y-440.7441 I0.5034 J-0.654
G3 X134.333 Y-442.8562 I1.885 J-2.5549
G1 X134.002 Y-445.2062
X134.0016 Y-445.2095
G3 X137.5571 Y-449.9222 I4.135 J-0.5779
G1 X165.2831 Y-453.8191
G3 X169.9981 Y-450.266 I0.5809 J4.1341
G1 X170.325 Y-447.9436
G3 X169.6974 Y-445.5649 I-3.144 J0.4426
G2 X171.0155 Y-444.5715 I0.6541 J0.5033
G3 X173.1281 Y-445.8301 I2.5545 J1.8855
G1 X199.8328 Y-449.5833
Z-16.51
X211.1516 Y-451.1742
Z-19.05
X328.1371 Y-467.6161
G3 X330.3231 Y-467.1251 I0.4419 J3.1441
G2 X331.2153 Y-468.5129 I0.4532 J-0.6894
G3 X329.761 Y-470.7583 I1.6897 J-2.688
G1 X329.495 Y-472.6473
X329.4946 Y-472.6503
G3 X333.0468 Y-477.3629 I4.135 J-0.5782
G1 X333.0481 Y-477.3631
X350.3999 Y-479.8019
G3 X355.1172 Y-476.2484 I0.583 J4.1339
G1 X355.4281 Y-474.0347
G3 X354.8004 Y-471.6569 I-3.1441 J0.4417
G2 X356.1185 Y-470.6635 I0.6541 J0.5033
G3 X358.2309 Y-471.9221 I2.5545 J1.8855
G1 X362.5119 Y-472.5241
G3 X366.117 Y-469.6555 I0.4421 J3.1441
G1 X367.4714 Y-454.106
Z-16.51
X367.767 Y-450.7125
G3 X365.1009 Y-447.3011 I-3.163 J0.2755
G1 X359.4563 Y-446.4067
Z-19.05
X352.7465 Y-445.3434
Z-16.51
X341.4574 Y-443.5546
Z-19.05
X334.8206 Y-442.5029
Z-16.51
X323.5314 Y-440.714
Z-19.05
X169.5096 Y-416.3077
Z-16.51
X158.2205 Y-414.5189
Z-19.05
X145.7085 Y-412.5362
Z-16.51
X134.4194 Y-410.7473
Z-19.05
X16.5335 Y-392.0671
G2 X1.5924 Y-371.8713 I2.8044 J17.6995
G1 X15.6951 Y-271.6256
Z-16.51
X17.2874 Y-260.307
Z-19.05
X19.0425 Y-247.8316
Z-16.51
X20.6348 Y-236.513
Z-19.05
X32.2742 Y-153.7776
Z-16.51
X33.8665 Y-142.459
Z-19.05
X45.5541 Y-59.3804
G2 X63.2279 Y-44.019 I17.6738 J-2.4864
G1 X110.285
Z-16.51
X121.715
Z-19.05
X127.209
Z-16.51
X138.639
Z-19.05
X303.364
Z-16.51
X318.921
Z-19.05
X373.873
Z-16.51
X385.303
Z-19.05
X398.4621
Z-16.51
X401.927
G3 X405.0899 Y-41.1207 J3.175
G1 X405.588 Y-35.4275
Z-19.05
X408.4094 Y-3.175
Z-16.51
X408.6629 Y-0.2767
G3 X405.5 Y3.175 I-3.1629 J0.2767
G1 X399.785
Z-19.05
X323.704
Z-16.51
X312.274
Z-19.05
X304.284
Z-16.51
X292.854
Z-19.05
X59.9421
Z-16.51
X48.5121
Z-19.05
X3.6524
Z-16.51
X0
G0 Z6.096

(Operation 2 of 2 : 2D Pocket1)

G54
S5000 M3
X-13.8255 Y-88.2621
Z11.176
Z6.096
G1 Z3.556 F508
G2 X-14.3509 Y-88.2798 Z2.9126 I-0.1614 J-3.0119
X-14.8653 Y-88.3885 Z2.2692 I0.364 J-2.9942
X-15.3531 Y-88.5849 Z1.6257 I0.8784 J-2.8855
X-15.7993 Y-88.863 Z0.9823 I1.3662 J-2.6891
X-16.1904 Y-89.2143 Z0.3389 I1.8124 J-2.411
X-16.5146 Y-89.6282 Z-0.3045 I2.2035 J-2.0597
X-16.762 Y-90.0922 Z-0.948 I2.5277 J-1.6458
X-16.925 Y-90.592 Z-1.5914 I2.7751 J-1.1818
X-16.9988 Y-91.1126 Z-2.2348 I2.9381 J-0.682
X-16.9811 Y-91.638 Z-2.8782 I3.0119 J-0.1614
X-16.8724 Y-92.1524 Z-3.5217 I2.9942 J0.364
X-14.4112 Y-94.2603 Z-4.064 I2.8855 J0.8784
G1 X-15.7705 Y-94.0671
X-15.8323 Y-94.052
X-15.8901 Y-94.0252
X-15.9414 Y-93.9876
X-15.9845 Y-93.9407
X-16.0176 Y-93.8864
X-16.0395 Y-93.8266
X-16.0493 Y-93.7637
X-16.0467 Y-93.7001
X-15.6637 Y-90.9756
X-15.6488 Y-90.9138
X-15.622 Y-90.8562
X-15.5845 Y-90.8049
X-15.5377 Y-90.7619
X-15.4835 Y-90.7288
X-15.4238 Y-90.707
X-15.361 Y-90.6973
X-15.2975 Y-90.7
X9.7106 Y-94.2535
X9.7724 Y-94.2686
X9.83 Y-94.2955
X9.8814 Y-94.333
X9.9244 Y-94.3799
X9.9574 Y-94.4343
X9.9792 Y-94.494
X9.9889 Y-94.5569
X9.9862 Y-94.6204
X9.5992 Y-97.3439
X9.5841 Y-97.4057
X9.5573 Y-97.4634
X9.5197 Y-97.5147
X9.4728 Y-97.5577
X9.4185 Y-97.5908
X9.3587 Y-97.6125
X9.2959 Y-97.6223
X9.2323 Y-97.6195
X-14.4112 Y-94.2603
G3 X-17.0248 Y-95.3163 I-0.3955 J-2.7834
G2 X-19.6204 Y-94.2169 I-1.151 J0.8964
G1 X-18.6128 Y-87.0477
X-18.5951 Y-86.9789
X-18.5625 Y-86.9157
X-18.5167 Y-86.8615
X-18.4599 Y-86.8187
X-18.3951 Y-86.7897
X-18.3254 Y-86.7759
X-18.2543 Y-86.778
X11.5814 Y-91.0175
G3 X14.5604 Y-90.1112 I0.5181 J3.6464
G1 X14.6145 Y-90.0721
X14.6755 Y-90.0452
X14.7408 Y-90.0316
X14.8075 Y-90.032
X14.8726 Y-90.0464
X14.9333 Y-90.074
X14.9868 Y-90.1137
X15.0309 Y-90.1638
X15.0635 Y-90.222
X15.0832 Y-90.2857
X15.0892 Y-90.3521
X15.0811 Y-90.4183
X15.0594 Y-90.4813
X15.0249 Y-90.5384
X14.9793 Y-90.5871
G3 X13.7385 Y-92.8578 I2.4056 J-2.7888
G1 X12.712 Y-100.0819
G3 X13.2711 Y-102.6082 I3.6464 J-0.5181
G1 X13.3013 Y-102.6676
X13.3185 Y-102.7321
X13.3218 Y-102.7987
X13.3112 Y-102.8645
X13.2869 Y-102.9266
X13.2502 Y-102.9823
X13.2027 Y-103.0291
X13.1464 Y-103.0649
X13.0839 Y-103.0882
X13.0179 Y-103.0978
X12.9514 Y-103.0935
X12.8872 Y-103.0753
X12.8283 Y-103.0441
X12.7772 Y-103.0012
X12.7362 Y-102.9486
G3 X10.1276 Y-101.2486 I-3.1267 J-1.9464
G1 X-19.6935 Y-97.0116
X-19.7621 Y-96.9938
X-19.8252 Y-96.9612
X-19.8793 Y-96.9154
X-19.922 Y-96.8587
X-19.951 Y-96.7939
X-19.9648 Y-96.7244
X-19.9629 Y-96.6534
X-19.6204 Y-94.2169
G0 Z6.096
X-11.1158 Y-90.3495
G1 Z-1.524 F508
G2 X-11.32 Y-89.865 Z-2.1674 I-2.8711 J-0.9245
X-11.6052 Y-89.4233 Z-2.8108 I-2.6669 J-1.409
X-11.9627 Y-89.0378 Z-3.4543 I-2.3817 J-1.8507
X-12.3818 Y-88.7203 Z-4.0977 I-2.0242 J-2.2362
X-12.8496 Y-88.4804 Z-4.7411 I-1.6051 J-2.5537
X-13.352 Y-88.3253 Z-5.3845 I-1.1373 J-2.7936
X-13.8736 Y-88.2599 Z-6.028 I-0.6349 J-2.9487
X-14.3988 Y-88.286 Z-6.6714 I-0.1133 J-3.0141
X-14.9114 Y-88.4029 Z-7.3148 I0.4119 J-2.988
X-15.3959 Y-88.6071 Z-7.9582 I0.9245 J-2.8711
X-15.8376 Y-88.8922 Z-8.6017 I1.409 J-2.6669
X-14.4112 Y-94.2603 Z-9.017 I1.8507 J-2.3817
G1 X-15.7705 Y-94.0671
X-15.8323 Y-94.052
X-15.8901 Y-94.0252
X-15.9414 Y-93.9876
X-15.9845 Y-93.9407
X-16.0176 Y-93.8864
X-16.0395 Y-93.8266
X-16.0493 Y-93.7637
X-16.0467 Y-93.7001
X-15.6637 Y-90.9756
X-15.6488 Y-90.9138
X-15.622 Y-90.8562
X-15.5845 Y-90.8049
X-15.5377 Y-90.7619
X-15.4835 Y-90.7288
X-15.4238 Y-90.707
X-15.361 Y-90.6973
X-15.2975 Y-90.7
X9.7106 Y-94.2535
X9.7724 Y-94.2686
X9.83 Y-94.2955
X9.8814 Y-94.333
X9.9244 Y-94.3799
X9.9574 Y-94.4343
X9.9792 Y-94.494
X9.9889 Y-94.5569
X9.9862 Y-94.6204
X9.5992 Y-97.3439
X9.5841 Y-97.4057
X9.5573 Y-97.4634
X9.5197 Y-97.5147
X9.4728 Y-97.5577
X9.4185 Y-97.5908
X9.3587 Y-97.6125
X9.2959 Y-97.6223
X9.2323 Y-97.6195
X-14.4112 Y-94.2603
G3 X-17.0248 Y-95.3163 I-0.3955 J-2.7834
G2 X-19.6204 Y-94.2169 I-1.151 J0.8964
G1 X-18.6128 Y-87.0477
X-18.5951 Y-86.9789
X-18.5625 Y-86.9157
X-18.5167 Y-86.8615
X-18.4599 Y-86.8187
X-18.3951 Y-86.7897
X-18.3254 Y-86.7759
X-18.2543 Y-86.778
X11.5814 Y-91.0175
G3 X14.5604 Y-90.1112 I0.5181 J3.6464
G1 X14.6145 Y-90.0721
X14.6755 Y-90.0452
X14.7408 Y-90.0316
X14.8075 Y-90.032
X14.8726 Y-90.0464
X14.9333 Y-90.074
X14.9868 Y-90.1137
X15.0309 Y-90.1638
X15.0635 Y-90.222
X15.0832 Y-90.2857
X15.0892 Y-90.3521
X15.0811 Y-90.4183
X15.0594 Y-90.4813
X15.0249 Y-90.5384
X14.9793 Y-90.5871
G3 X13.7385 Y-92.8578 I2.4056 J-2.7888
G1 X12.712 Y-100.0819
G3 X13.2711 Y-102.6082 I3.6464 J-0.5181
G1 X13.3013 Y-102.6676
X13.3185 Y-102.7321
X13.3218 Y-102.7987
X13.3112 Y-102.8645
X13.2869 Y-102.9266
X13.2502 Y-102.9823
X13.2027 Y-103.0291
X13.1464 Y-103.0649
X13.0839 Y-103.0882
X13.0179 Y-103.0978
X12.9514 Y-103.0935
X12.8872 Y-103.0753
X12.8283 Y-103.0441
X12.7772 Y-103.0012
X12.7362 Y-102.9486
G3 X10.1276 Y-101.2486 I-3.1267 J-1.9464
G1 X-19.6935 Y-97.0116
X-19.7621 Y-96.9938
X-19.8252 Y-96.9612
X-19.8793 Y-96.9154
X-19.922 Y-96.8587
X-19.951 Y-96.7939
X-19.9648 Y-96.7244
X-19.9629 Y-96.6534
X-19.6204 Y-94.2169
G0 Z11.176

G53 Z-10
M5
G4 P1.0
G53 X-10 Y-10
M30
%
