%
(Made in : Autodesk CAM Post Processor)
(G Code optimized for OpenBuilds OX CNC 1000 x 750 with GRBL V0.9j controller)

(Program Name : 1001)
(3 Operations :)
(1 : 2D Contour2)
(  Tool : Flat End Mill 2 Flutes, Diam = 6.35mm, Len = 25.4mm)
(  Spindle : RPM = 5000, set router dial to 1)
(  Machining time : 9 min 16 sec)
(2 : Drill1)
(  Tool : Flat End Mill 2 Flutes, Diam = 6.35mm, Len = 25.4mm)
(  Spindle : RPM = 5000, set router dial to 1)
(  Machining time : 5 sec)
(3 : Drill2)
(  Tool : Flat End Mill 2 Flutes, Diam = 6.35mm, Len = 25.4mm)
(  Spindle : RPM = 5000, set router dial to 1)
(  Machining time : 9 sec)

G90 G94
G17
G21

(Operation 1 of 3 : 2D Contour2)

G53 G0 Z-10
G54
S5000 M3
G4 P1.0
X-2.3415 Y2.1443
Z6.096
G1 F508
Z4.191
Z-6.604
G3 X-3.1629 Y-0.2767 I2.3415 J-2.1443
G1 X0.4105 Y-41.1207
G3 X3.5734 Y-44.019 I3.1629 J0.2767
G1 X628.862
G3 X631.7702 Y-39.57 J3.175
G1 X630.4252 Y-36.4997
G3 X628.6434 Y-34.8052 I-2.9081 J-1.274
G2 X629.2442 Y-33.2684 I0.2927 J0.7714
G3 X631.7034 Y-33.2316 I1.1858 J2.9452
G1 X639.8035 Y-29.685
G3 X641.4985 Y-27.903 I-1.2734 J2.9084
G2 X643.0347 Y-28.5036 I0.7712 J-0.2926
G3 X643.0715 Y-30.9628 I2.9453 J-1.1858
G1 X644.0175 Y-33.1235
G3 X649.5163 Y-35.2735 I3.8245 J1.6745
G1 X693.4933 Y-16.018
G3 X695.6434 Y-10.5189 I-1.6743 J3.8245
G1 X694.7923 Y-8.5756
G3 X693.0104 Y-6.8809 I-2.9083 J-1.2738
G2 X693.6107 Y-5.3441 I0.2927 J0.7713
G3 X696.0699 Y-5.306 I1.1843 J2.9459
G1 X709.2279 Y0.4629
G3 X710.8607 Y4.6457 I-1.2749 J2.9078
G1 X706.7697 Y13.9751
G3 X703.3976 Y15.8409 I-2.9077 J-1.2751
G1 X618.5876 Y3.3022
G2 X616.858 Y3.175 I-1.7292 J11.6979
G1 X0
G3 X-2.3415 Y2.1443 J-3.175
G1 Z-14.224
G3 X-3.1629 Y-0.2767 I2.3415 J-2.1443
G1 X0.4105 Y-41.1207
G3 X3.5734 Y-44.019 I3.1629 J0.2767
G1 X628.862
G3 X631.7702 Y-39.57 J3.175
G1 X630.4252 Y-36.4997
G3 X628.6434 Y-34.8052 I-2.9081 J-1.274
G2 X629.2442 Y-33.2684 I0.2927 J0.7714
G3 X631.7034 Y-33.2316 I1.1858 J2.9452
G1 X639.8035 Y-29.685
G3 X641.4985 Y-27.903 I-1.2734 J2.9084
G2 X643.0347 Y-28.5036 I0.7712 J-0.2926
G3 X643.0715 Y-30.9628 I2.9453 J-1.1858
G1 X644.0175 Y-33.1235
G3 X649.5163 Y-35.2735 I3.8245 J1.6745
G1 X693.4933 Y-16.018
G3 X695.6434 Y-10.5189 I-1.6743 J3.8245
G1 X694.7923 Y-8.5756
G3 X693.0104 Y-6.8809 I-2.9083 J-1.2738
G2 X693.6107 Y-5.3441 I0.2927 J0.7713
G3 X696.0699 Y-5.306 I1.1843 J2.9459
G1 X709.2279 Y0.4629
G3 X710.8607 Y4.6457 I-1.2749 J2.9078
G1 X706.7697 Y13.9751
G3 X703.3976 Y15.8409 I-2.9077 J-1.2751
G1 X618.5876 Y3.3022
G2 X616.858 Y3.175 I-1.7292 J11.6979
G1 X0
G3 X-2.3415 Y2.1443 J-3.175
G1 Z-17.526
G3 X-3.1629 Y-0.2767 I2.3415 J-2.1443
G1 X-2.6648 Y-5.97
Z-20.066
X-0.4742 Y-31.0091
Z-17.526
X0.4105 Y-41.1207
G3 X0.7903 Y-42.3721 I3.1629 J0.2767
G1 Z-20.066
G3 X3.5734 Y-44.019 I2.7831 J1.5281
G1 X154.855
Z-17.526
X166.285
Z-20.066
X475.822
Z-17.526
X487.252
Z-20.066
X628.862
G3 X631.7702 Y-39.57 J3.175
G1 X630.4252 Y-36.4997
G3 X628.6434 Y-34.8052 I-2.9081 J-1.274
G2 X629.2442 Y-33.2684 I0.2927 J0.7714
G3 X631.7034 Y-33.2316 I1.1858 J2.9452
G1 X639.8035 Y-29.685
G3 X641.4985 Y-27.903 I-1.2734 J2.9084
G2 X643.0347 Y-28.5036 I0.7712 J-0.2926
G3 X643.0715 Y-30.9628 I2.9453 J-1.1858
G1 X644.0175 Y-33.1235
G3 X649.5163 Y-35.2735 I3.8245 J1.6745
G1 X693.4933 Y-16.018
G3 X695.6434 Y-10.5189 I-1.6743 J3.8245
G1 X694.7923 Y-8.5756
G3 X693.0104 Y-6.8809 I-2.9083 J-1.2738
G2 X693.6107 Y-5.3441 I0.2927 J0.7713
G3 X696.0699 Y-5.306 I1.1843 J2.9459
G1 X709.2279 Y0.4629
G3 X710.8607 Y4.6457 I-1.2749 J2.9078
G1 X708.4395 Y10.1672
Z-17.526
X706.7697 Y13.9751
G3 X703.3976 Y15.8409 I-2.9077 J-1.2751
G1 X697.7441 Y15.005
Z-20.066
X692.3492 Y14.2074
Z-17.526
X681.0421 Y12.5357
Z-20.066
X676.2372 Y11.8253
Z-17.526
X664.9301 Y10.1536
Z-20.066
X661.1042 Y9.588
Z-17.526
X645.9541 Y7.3481
Z-20.066
X618.5876 Y3.3022
G2 X616.858 Y3.175 I-1.7292 J11.6979
G1 X599.277
Z-17.526
X587.847
Z-20.066
X543.765
Z-17.526
X508.111
Z-20.066
X473.215
Z-17.526
X461.785
Z-20.066
X449.902
Z-17.526
X438.472
Z-20.066
X385.301
Z-17.526
X365.796
Z-20.066
X354.088
Z-17.526
X334.516
Z-20.066
X325.78
Z-17.526
X314.35
Z-20.066
X283.567
Z-17.526
X272.137
Z-20.066
X268.218
Z-17.526
X252.111
Z-20.066
X210.687
Z-17.526
X192.388
Z-20.066
X154.588
Z-17.526
X143.158
Z-20.066
X134.942
Z-17.526
X123.512
Z-20.066
X104.5131
Z-17.526
X93.0831
Z-20.066
X87.589
Z-17.526
X61.1591
Z-20.066
X47.692
Z-17.526
X36.262
Z-20.066
X14.5787
Z-17.526
X3.1486
Z-20.066
X2.9094
Z-17.526
X0
G3 X-2.3415 Y2.1443 J-3.175
G0 Z6.096

(Operation 2 of 3 : Drill1)

G54
S5000 M3
X331.0194 Y-21.859
Z6.096
G1 Z-19.05 F508
G0 Z6.096
X401.5104 Y-22.092
G1 Z-19.05 F508
G0 Z6.096

(Operation 3 of 3 : Drill2)

G54
S5000 M3
X10.1304 Y-20.813
Z6.096
G1 Z-13.984 F508
G0 Z6.096
X98.0614 Y-21.109
G1 Z-13.984 F508
G0 Z6.096
X177.4694 Y-21.333
G1 Z-13.984 F508
G0 Z6.096
X251.2814 Y-21.635
G1 Z-13.984 F508
G0 Z6.096

G53 Z-10
M5
G4 P1.0
G53 X-10 Y-10
M30
%
