%
(Made in : Autodesk CAM Post Processor)
(G Code optimized for OpenBuilds OX CNC 1000 x 750 with GRBL V0.9j controller)

(Program Name : 1001)
(2 Operations :)
(1 : 2D Contour2)
(  Tool : Flat End Mill 2 Flutes, Diam = 6.35mm, Len = 25.4mm)
(  Spindle : RPM = 5000, set router dial to 1)
(  Machining time : 14 min 21 sec)
(2 : 2D Pocket1)
(  Tool : Flat End Mill 2 Flutes, Diam = 6.35mm, Len = 25.4mm)
(  Spindle : RPM = 5000, set router dial to 1)
(  Machining time : 7 min 59 sec)

G90 G94
G17
G21

(Operation 1 of 2 : 2D Contour2)

G53 G0 Z-10
G54
S5000 M3
G4 P1.0
X-4.2383 Y-36.5868
Z6.096
G1 F508
Z4.191
Z-6.604
G3 X-2.9703 Y-37.0404 I1.679 J2.6947
G1 X352.429 Y-83.4359
G2 X367.0355 Y-101.4307 I-2.179 J-16.6942
G1 X367.0345 Y-101.4435
X348.4555 Y-354.4465
X348.4546 Y-354.4592
G2 X331.3755 Y-370.1274 I-16.7955 J1.1653
G1 X-26.9887 Y-364.1075
G3 X-30.2089 Y-367.056 I-0.0533 J-3.1746
G1 X-32.6281 Y-400.959
G3 X-29.6113 Y-404.3564 I3.1669 J-0.226
G1 X394.9559 Y-424.4485
G3 X398.2774 Y-421.4271 I0.1501 J3.1714
G1 X400.8455 Y-367.1711
G3 X399.9451 Y-364.8023 I-3.1714 J0.1501
G2 X401.1366 Y-363.6615 I0.59 J0.5764
G3 X403.3027 Y-364.6605 I2.3154 J2.1725
G1 X405.7659 Y-364.7765
G3 X410.1334 Y-360.8048 I0.1977 J4.1699
G1 X412.8754 Y-302.8812
G3 X408.9011 Y-298.5115 I-4.1704 J0.1992
G1 X406.7069 Y-298.4085
G3 X404.3397 Y-299.3085 I-0.1489 J-3.1715
G2 X403.1985 Y-298.1164 I-0.5766 J0.5904
G3 X404.1974 Y-295.9511 I-2.1725 J2.3154
G1 X407.2445 Y-231.5806
X413.6344 Y-167.4548
G3 X412.9621 Y-165.1665 I-3.1594 J0.3148
G2 X414.2647 Y-164.1541 I0.6462 J0.5127
G3 X416.4759 Y-165.3903 I2.5263 J1.9231
G1 X418.6619 Y-165.6083
G3 X423.2304 Y-161.8676 I0.4141 J4.1543
G1 X428.9803 Y-104.1648
G3 X425.2398 Y-99.5966 I-4.1544 J0.4138
G1 X422.7853 Y-99.3517
G3 X420.4972 Y-100.0233 I-0.3153 J-3.1593
G2 X419.4851 Y-98.7208 I-0.5125 J0.6462
G3 X420.7213 Y-96.5093 I-1.9231 J2.5263
G1 X426.1074 Y-42.4595
G3 X423.2628 Y-38.9853 I-3.1594 J0.3148
G1 X0.3148 Y3.1594
G3 X-3.166 Y0.2391 I-0.3148 J-3.1594
G1 X-5.7253 Y-33.653
G3 X-4.2383 Y-36.5868 I3.166 J-0.2391
G1 Z-14.224
G3 X-2.9703 Y-37.0404 I1.679 J2.6947
G1 X352.429 Y-83.4359
G2 X367.0355 Y-101.4307 I-2.179 J-16.6942
G1 X367.0345 Y-101.4435
X348.4555 Y-354.4465
X348.4546 Y-354.4592
G2 X331.3755 Y-370.1274 I-16.7955 J1.1653
G1 X-26.9887 Y-364.1075
G3 X-30.2089 Y-367.056 I-0.0533 J-3.1746
G1 X-32.6281 Y-400.959
G3 X-29.6113 Y-404.3564 I3.1669 J-0.226
G1 X394.9559 Y-424.4485
G3 X398.2774 Y-421.4271 I0.1501 J3.1714
G1 X400.8455 Y-367.1711
G3 X399.9451 Y-364.8023 I-3.1714 J0.1501
G2 X401.1366 Y-363.6615 I0.59 J0.5764
G3 X403.3027 Y-364.6605 I2.3154 J2.1725
G1 X405.7659 Y-364.7765
G3 X410.1334 Y-360.8048 I0.1977 J4.1699
G1 X412.8754 Y-302.8812
G3 X408.9011 Y-298.5115 I-4.1704 J0.1992
G1 X406.7069 Y-298.4085
G3 X404.3397 Y-299.3085 I-0.1489 J-3.1715
G2 X403.1985 Y-298.1164 I-0.5766 J0.5904
G3 X404.1974 Y-295.9511 I-2.1725 J2.3154
G1 X407.2445 Y-231.5806
X413.6344 Y-167.4548
G3 X412.9621 Y-165.1665 I-3.1594 J0.3148
G2 X414.2647 Y-164.1541 I0.6462 J0.5127
G3 X416.4759 Y-165.3903 I2.5263 J1.9231
G1 X418.6619 Y-165.6083
G3 X423.2304 Y-161.8676 I0.4141 J4.1543
G1 X428.9803 Y-104.1648
G3 X425.2398 Y-99.5966 I-4.1544 J0.4138
G1 X422.7853 Y-99.3517
G3 X420.4972 Y-100.0233 I-0.3153 J-3.1593
G2 X419.4851 Y-98.7208 I-0.5125 J0.6462
G3 X420.7213 Y-96.5093 I-1.9231 J2.5263
G1 X426.1074 Y-42.4595
G3 X423.2628 Y-38.9853 I-3.1594 J0.3148
G1 X0.3148 Y3.1594
G3 X-3.166 Y0.2391 I-0.3148 J-3.1594
G1 X-5.7253 Y-33.653
G3 X-4.2383 Y-36.5868 I3.166 J-0.2391
G1 Z-16.51
G3 X-2.9703 Y-37.0404 I1.679 J2.6947
G1 X8.8748 Y-38.5867
Z-19.05
X49.744 Y-43.922
Z-16.51
X62.8381 Y-45.6313
Z-19.05
X142.1051 Y-55.9792
Z-16.51
X153.4389 Y-57.4588
Z-19.05
X181.7351 Y-61.1527
Z-16.51
X193.0689 Y-62.6323
Z-19.05
X260.2791 Y-71.4062
Z-16.51
X271.6129 Y-72.8858
Z-19.05
X352.429 Y-83.4359
G2 X367.0355 Y-101.4307 I-2.179 J-16.6942
G1 X367.0345 Y-101.4435
X362.7288 Y-160.0778
Z-16.51
X361.8917 Y-171.4771
Z-19.05
X357.6262 Y-229.5628
Z-16.51
X356.7891 Y-240.9621
Z-19.05
X353.0411 Y-292.0018
Z-16.51
X352.204 Y-303.4011
Z-19.05
X348.4555 Y-354.4465
X348.4546 Y-354.4592
G2 X331.3755 Y-370.1274 I-16.7955 J1.1653
G1 X269.5385 Y-369.0887
Z-16.51
X258.1101 Y-368.8967
Z-19.05
X24.2596 Y-364.9684
Z-16.51
X12.8312 Y-364.7764
Z-19.05
X-23.6364 Y-364.1638
Z-16.51
X-26.9887 Y-364.1075
G3 X-30.2089 Y-367.056 I-0.0533 J-3.1746
G1 X-30.8107 Y-375.4895
Z-19.05
X-32.4075 Y-397.867
Z-16.51
X-32.6281 Y-400.959
G3 X-29.6113 Y-404.3564 I3.1669 J-0.226
G1 X-23.9027 Y-404.6266
Z-19.05
X7.2666 Y-406.1017
Z-16.51
X18.6838 Y-406.6419
Z-19.05
X108.8113 Y-410.9071
Z-16.51
X120.2285 Y-411.4474
Z-19.05
X150.1853 Y-412.8651
Z-16.51
X161.6025 Y-413.4054
Z-19.05
X315.9953 Y-420.7118
Z-16.51
X327.4125 Y-421.2521
Z-19.05
X394.9559 Y-424.4485
G3 X398.2774 Y-421.4271 I0.1501 J3.1714
G1 X400.8455 Y-367.1711
G3 X399.9451 Y-364.8023 I-3.1714 J0.1501
G2 X401.1366 Y-363.6615 I0.59 J0.5764
G3 X403.3027 Y-364.6605 I2.3154 J2.1725
G1 X405.7659 Y-364.7765
G3 X410.1334 Y-360.8048 I0.1977 J4.1699
G1 X412.8754 Y-302.8812
G3 X408.9011 Y-298.5115 I-4.1704 J0.1992
G1 X406.7069 Y-298.4085
G3 X404.3397 Y-299.3085 I-0.1489 J-3.1715
G2 X403.1985 Y-298.1164 I-0.5766 J0.5904
G3 X404.1974 Y-295.9511 I-2.1725 J2.3154
G1 X406.97 Y-237.3796
Z-16.51
X407.2445 Y-231.5806
X407.803 Y-225.976
Z-19.05
X413.6344 Y-167.4548
G3 X412.9621 Y-165.1665 I-3.1594 J0.3148
G2 X414.2647 Y-164.1541 I0.6462 J0.5127
G3 X416.4759 Y-165.3903 I2.5263 J1.9231
G1 X418.6619 Y-165.6083
G3 X423.2304 Y-161.8676 I0.4141 J4.1543
G1 X428.9803 Y-104.1648
G3 X425.2398 Y-99.5966 I-4.1544 J0.4138
G1 X422.7853 Y-99.3517
G3 X420.4972 Y-100.0233 I-0.3153 J-3.1593
G2 X419.4851 Y-98.7208 I-0.5125 J0.6462
G3 X420.7213 Y-96.5093 I-1.9231 J2.5263
G1 X426.1074 Y-42.4595
G3 X423.2628 Y-38.9853 I-3.1594 J0.3148
G1 X210.5107 Y-17.7856
Z-16.51
X199.137 Y-16.6523
Z-19.05
X198.0257 Y-16.5416
Z-16.51
X184.114 Y-15.1553
Z-19.05
X6.0017 Y2.5927
Z-16.51
X0.3148 Y3.1594
G3 X-3.166 Y0.2391 I-0.3148 J-3.1594
G1 X-4.2072 Y-13.5487
Z-19.05
X-5.4729 Y-30.3098
Z-16.51
X-5.7253 Y-33.653
G3 X-4.2383 Y-36.5868 I3.166 J-0.2391
G0 Z6.096

(Operation 2 of 2 : 2D Pocket1)

G54
S5000 M3
X210.0713 Y-40.1129
Z11.176
Z6.096
G1 Z3.556 F508
G2 X210.1099 Y-40.6372 Z2.9126 I3.016 J-0.0419
X210.2389 Y-41.1469 Z2.2692 I2.9774 J0.4825
X210.4544 Y-41.6264 Z1.6257 I2.8484 J0.9922
X210.75 Y-42.0613 Z0.9823 I2.6328 J1.4717
X211.1166 Y-42.4382 Z0.3389 I2.3373 J1.9066
X211.543 Y-42.7457 Z-0.3045 I1.9707 J2.2835
X212.0164 Y-42.9745 Z-0.948 I1.5442 J2.591
X212.5223 Y-43.1176 Z-1.5914 I1.0708 J2.8198
X213.0454 Y-43.1707 Z-2.2348 I0.5649 J2.9629
X213.5698 Y-43.1321 Z-2.8782 I0.0419 J3.016
X214.0795 Y-43.0031 Z-3.5217 I-0.4825 J2.9774
X216.088 Y-40.4602 Z-4.064 I-0.9922 J2.8484
G1 X216.0848 Y-40.4912
X216.0736 Y-40.5277
X216.0493 Y-40.5572
X216.0156 Y-40.575
X215.9775 Y-40.5787
X204.099 Y-39.3699
X204.0559 Y-39.3577
X204.0195 Y-39.3315
X203.9944 Y-39.2944
X203.9834 Y-39.251
X203.9879 Y-39.2064
X204.0074 Y-39.166
X204.0395 Y-39.1348
X204.0804 Y-39.1165
X204.1251 Y-39.1132
X216.0037 Y-40.3219
X216.0402 Y-40.3331
X216.0696 Y-40.3575
X216.0875 Y-40.3912
X216.0912 Y-40.4292
X216.088 Y-40.4602
G3 X217.156 Y-43.1441 I3.1105 J-0.3167
G2 X216.0134 Y-45.7971 I-0.9892 J-1.1465
G1 X200.4539 Y-44.2137
G3 X197.575 Y-45.1789 I-0.3729 J-3.6641
G1 X197.5216 Y-45.2189
X197.461 Y-45.2468
X197.3959 Y-45.2615
X197.3292 Y-45.2622
X197.2638 Y-45.2489
X197.2027 Y-45.2223
X197.1484 Y-45.1834
X197.1035 Y-45.1341
X197.0699 Y-45.0764
X197.0492 Y-45.013
X197.0421 Y-44.9467
X197.0491 Y-44.8803
X197.0698 Y-44.8169
X197.1033 Y-44.7592
X197.1482 Y-44.7099
G3 X198.3611 Y-42.3341 I-2.4512 J2.7489
G1 X199.0401 Y-35.6651
G3 X198.075 Y-32.786 I-3.664 J0.3731
G1 X198.035 Y-32.7326
X198.0071 Y-32.6721
X197.9924 Y-32.6071
X197.9917 Y-32.5405
X198.005 Y-32.4752
X198.0316 Y-32.4141
X198.0704 Y-32.3599
X198.1197 Y-32.3151
X198.1773 Y-32.2815
X198.2406 Y-32.2608
X198.3069 Y-32.2537
X198.3731 Y-32.2607
X198.4365 Y-32.2813
X198.4941 Y-32.3148
X198.5434 Y-32.3596
G3 X200.9192 Y-33.5722 I2.7486 J2.4515
G1 X219.5272 Y-35.4657
G3 X222.351 Y-34.5506 I0.3728 J3.6641
G1 X222.4086 Y-34.5098
X222.4737 Y-34.4827
X222.5432 Y-34.4707
X222.6137 Y-34.4744
X222.6816 Y-34.4936
X222.7436 Y-34.5273
X222.7966 Y-34.5738
X222.8379 Y-34.631
X222.8657 Y-34.6959
X222.8784 Y-34.7653
X222.8754 Y-34.8357
X222.8569 Y-34.9038
X222.8238 Y-34.9661
X222.7778 Y-35.0196
G3 X221.6199 Y-37.3454 I2.5062 J-2.6988
G1 X220.9409 Y-44.0145
G3 X221.9061 Y-46.8935 I3.664 J-0.3731
G1 X221.9461 Y-46.9469
X221.974 Y-47.0075
X221.9886 Y-47.0726
X221.9894 Y-47.1393
X221.9761 Y-47.2047
X221.9494 Y-47.2658
X221.9106 Y-47.3201
X221.8612 Y-47.365
X221.8036 Y-47.3985
X221.7402 Y-47.4193
X221.6738 Y-47.4264
X221.6075 Y-47.4194
X221.5441 Y-47.3987
X221.4864 Y-47.3652
X221.437 Y-47.3203
G3 X219.0609 Y-46.1072 I-2.749 J-2.451
G1 X216.0134 Y-45.7971
G0 Z6.096
X212.0496 Y-37.3225
G1 Z-1.524 F508
G2 X211.5736 Y-37.5458 Z-2.1674 I1.0376 J-2.8322
X211.1436 Y-37.8482 Z-2.8108 I1.5137 J-2.6089
X210.7726 Y-38.2208 Z-3.4543 I1.9437 J-2.3065
X210.4719 Y-38.6521 Z-4.0977 I2.3147 J-1.9339
X210.2507 Y-39.1291 Z-4.7411 I2.6153 J-1.5026
X210.1157 Y-39.6372 Z-5.3845 I2.8365 J-1.0256
X210.071 Y-40.1611 Z-6.028 I2.9715 J-0.5175
X210.118 Y-40.6848 Z-6.6714 I3.0162 J0.0064
X210.2551 Y-41.1923 Z-7.3148 I2.9693 J0.5301
X210.4783 Y-41.6684 Z-7.9582 I2.8322 J1.0376
X210.7808 Y-42.0984 Z-8.6017 I2.6089 J1.5137
X216.088 Y-40.4602 Z-9.017 I2.3065 J1.9437
G1 X216.0848 Y-40.4912
X216.0736 Y-40.5277
X216.0493 Y-40.5572
X216.0156 Y-40.575
X215.9775 Y-40.5787
X204.099 Y-39.3699
X204.0559 Y-39.3577
X204.0195 Y-39.3315
X203.9944 Y-39.2944
X203.9834 Y-39.251
X203.9879 Y-39.2064
X204.0074 Y-39.166
X204.0395 Y-39.1348
X204.0804 Y-39.1165
X204.1251 Y-39.1132
X216.0037 Y-40.3219
X216.0402 Y-40.3331
X216.0696 Y-40.3575
X216.0875 Y-40.3912
X216.0912 Y-40.4292
X216.088 Y-40.4602
G3 X217.156 Y-43.1441 I3.1105 J-0.3167
G2 X216.0134 Y-45.7971 I-0.9892 J-1.1465
G1 X200.4539 Y-44.2137
G3 X197.575 Y-45.1789 I-0.3729 J-3.6641
G1 X197.5216 Y-45.2189
X197.461 Y-45.2468
X197.3959 Y-45.2615
X197.3292 Y-45.2622
X197.2638 Y-45.2489
X197.2027 Y-45.2223
X197.1484 Y-45.1834
X197.1035 Y-45.1341
X197.0699 Y-45.0764
X197.0492 Y-45.013
X197.0421 Y-44.9467
X197.0491 Y-44.8803
X197.0698 Y-44.8169
X197.1033 Y-44.7592
X197.1482 Y-44.7099
G3 X198.3611 Y-42.3341 I-2.4512 J2.7489
G1 X199.0401 Y-35.6651
G3 X198.075 Y-32.786 I-3.664 J0.3731
G1 X198.035 Y-32.7326
X198.0071 Y-32.6721
X197.9924 Y-32.6071
X197.9917 Y-32.5405
X198.005 Y-32.4752
X198.0316 Y-32.4141
X198.0704 Y-32.3599
X198.1197 Y-32.3151
X198.1773 Y-32.2815
X198.2406 Y-32.2608
X198.3069 Y-32.2537
X198.3731 Y-32.2607
X198.4365 Y-32.2813
X198.4941 Y-32.3148
X198.5434 Y-32.3596
G3 X200.9192 Y-33.5722 I2.7486 J2.4515
G1 X219.5272 Y-35.4657
G3 X222.351 Y-34.5506 I0.3728 J3.6641
G1 X222.4086 Y-34.5098
X222.4737 Y-34.4827
X222.5432 Y-34.4707
X222.6137 Y-34.4744
X222.6816 Y-34.4936
X222.7436 Y-34.5273
X222.7966 Y-34.5738
X222.8379 Y-34.631
X222.8657 Y-34.6959
X222.8784 Y-34.7653
X222.8754 Y-34.8357
X222.8569 Y-34.9038
X222.8238 Y-34.9661
X222.7778 Y-35.0196
G3 X221.6199 Y-37.3454 I2.5062 J-2.6988
G1 X220.9409 Y-44.0145
G3 X221.9061 Y-46.8935 I3.664 J-0.3731
G1 X221.9461 Y-46.9469
X221.974 Y-47.0075
X221.9886 Y-47.0726
X221.9894 Y-47.1393
X221.9761 Y-47.2047
X221.9494 Y-47.2658
X221.9106 Y-47.3201
X221.8612 Y-47.365
X221.8036 Y-47.3985
X221.7402 Y-47.4193
X221.6738 Y-47.4264
X221.6075 Y-47.4194
X221.5441 Y-47.3987
X221.4864 Y-47.3652
X221.437 Y-47.3203
G3 X219.0609 Y-46.1072 I-2.749 J-2.451
G1 X216.0134 Y-45.7971
G0 Z6.096
X17.873 Y-19.9937
G1 Z3.556 F508
G2 X17.3487 Y-20.0333 Z2.9126 I-0.0357 J-3.016
X16.8393 Y-20.1634 Z2.2692 I0.4885 J-2.9764
X16.3602 Y-20.3799 Z1.6257 I0.998 J-2.8464
X15.9259 Y-20.6764 Z0.9823 I1.4771 J-2.6298
X15.5498 Y-21.0437 Z0.3389 I1.9113 J-2.3334
X15.2431 Y-21.4708 Z-0.3045 I2.2875 J-1.966
X15.0153 Y-21.9447 Z-0.948 I2.5941 J-1.539
X14.8732 Y-22.4509 Z-1.5914 I2.8219 J-1.0651
X14.8212 Y-22.974 Z-2.2348 I2.964 J-0.5589
X14.8608 Y-23.4983 Z-2.8782 I3.016 J-0.0357
X14.9909 Y-24.0077 Z-3.5217 I2.9764 J0.4885
X17.5378 Y-26.0111 Z-4.064 I2.8464 J0.998
X18.074 Y-20.6369 I0.2681 J2.6871
G1 X19.2768 Y-20.7569
X19.3199 Y-20.769
X19.3563 Y-20.7951
X19.3815 Y-20.8321
X19.3926 Y-20.8755
X19.3881 Y-20.9201
X19.3687 Y-20.9604
X19.3367 Y-20.9917
X19.2959 Y-21.0102
X19.2512 Y-21.0135
X18.0175 Y-20.8905
X17.9809 Y-20.8793
X17.9514 Y-20.855
X17.9334 Y-20.8213
X17.9298 Y-20.7833
X17.9359 Y-20.7215
X17.9471 Y-20.685
X17.9713 Y-20.6555
X18.005 Y-20.6375
X18.0431 Y-20.6338
X18.074 Y-20.6369
G3 X21.4477 Y-19.4214 I0.4133 J4.1427
G2 X24.6928 Y-20.9475 I1.3525 J-1.3373
G1 X24.3062 Y-24.8227
G3 X25.0269 Y-27.4011 I3.6648 J-0.3656
G1 X25.0624 Y-27.4611
X25.0839 Y-27.5274
X25.0904 Y-27.5968
X25.0816 Y-27.6659
X25.058 Y-27.7314
X25.0205 Y-27.7902
X24.9712 Y-27.8394
X24.9122 Y-27.8766
X24.8466 Y-27.9
X24.7774 Y-27.9086
X24.7081 Y-27.9018
X24.6419 Y-27.88
X24.5821 Y-27.8442
X24.5315 Y-27.7963
G3 X22.0851 Y-26.51 I-2.812 J-2.3785
G1 X14.1332 Y-25.7168
G3 X11.5543 Y-26.4378 I-0.3656 J-3.6648
G1 X11.4943 Y-26.4733
X11.4281 Y-26.4949
X11.3587 Y-26.5014
X11.2895 Y-26.4926
X11.224 Y-26.4689
X11.1652 Y-26.4315
X11.116 Y-26.3821
X11.0788 Y-26.3232
X11.0553 Y-26.2575
X11.0468 Y-26.1884
X11.0536 Y-26.119
X11.0754 Y-26.0528
X11.1111 Y-25.9929
X11.1591 Y-25.9424
G3 X12.4453 Y-23.496 I-2.3785 J2.812
G1 X13.0955 Y-16.9788
G3 X12.1945 Y-14.1789 I-3.6648 J0.3656
G1 X12.1557 Y-14.124
X12.1293 Y-14.0621
X12.1165 Y-13.9961
X12.118 Y-13.9289
X12.1336 Y-13.8634
X12.1627 Y-13.8028
X12.204 Y-13.7496
X12.2555 Y-13.7064
X12.3149 Y-13.675
X12.3797 Y-13.6568
X12.4469 Y-13.6528
X12.5133 Y-13.663
X12.5762 Y-13.6869
X12.6325 Y-13.7236
X12.6799 Y-13.7714
G3 X15.1902 Y-15.1354 I2.8759 J2.3008
G1 X23.1361 Y-15.9281
G3 X25.863 Y-15.0897 I0.3656 J3.6648
G1 X25.9221 Y-15.0506
X25.9885 Y-15.0257
X26.0586 Y-15.0161
X26.1292 Y-15.0223
X26.1967 Y-15.044
X26.2576 Y-15.0802
X26.3089 Y-15.129
X26.3482 Y-15.188
X26.3733 Y-15.2542
X26.3832 Y-15.3244
X26.3772 Y-15.395
X26.3556 Y-15.4625
X26.3196 Y-15.5235
X26.271 Y-15.575
G3 X24.9847 Y-18.0214 I2.3785 J-2.812
G1 X24.6928 Y-20.9475
G0 Z6.096
X20.6673 Y-21.9664
G1 Z-1.524 F508
G2 X20.4431 Y-21.4908 Z-2.1674 I-2.83 J-1.0434
X20.1398 Y-21.0614 Z-2.8108 I-2.6059 J-1.5189
X19.7664 Y-20.6912 Z-3.4543 I-2.3025 J-1.9484
X19.3345 Y-20.3914 Z-4.0977 I-1.9292 J-2.3186
X18.8571 Y-20.1712 Z-4.7411 I-1.4973 J-2.6184
X18.3487 Y-20.0372 Z-5.3845 I-1.0199 J-2.8386
X17.8247 Y-19.9935 Z-6.028 I-0.5114 J-2.9726
X17.3012 Y-20.0415 Z-6.6714 I0.0125 J-3.0162
X16.7939 Y-20.1797 Z-7.3148 I0.5361 J-2.9682
X16.3183 Y-20.4039 Z-7.9582 I1.0434 J-2.83
X15.8889 Y-20.7073 Z-8.6017 I1.5189 J-2.6059
X17.5378 Y-26.0111 Z-9.017 I1.9484 J-2.3025
X18.074 Y-20.6369 I0.2681 J2.6871
G1 X19.2768 Y-20.7569
X19.3199 Y-20.769
X19.3563 Y-20.7951
X19.3815 Y-20.8321
X19.3926 Y-20.8755
X19.3881 Y-20.9201
X19.3687 Y-20.9604
X19.3367 Y-20.9917
X19.2959 Y-21.0102
X19.2512 Y-21.0135
X18.0175 Y-20.8905
X17.9809 Y-20.8793
X17.9514 Y-20.855
X17.9334 Y-20.8213
X17.9298 Y-20.7833
X17.9359 Y-20.7215
X17.9471 Y-20.685
X17.9713 Y-20.6555
X18.005 Y-20.6375
X18.0431 Y-20.6338
X18.074 Y-20.6369
G3 X21.4477 Y-19.4214 I0.4133 J4.1427
G2 X24.6928 Y-20.9475 I1.3525 J-1.3373
G1 X24.3062 Y-24.8227
G3 X25.0269 Y-27.4011 I3.6648 J-0.3656
G1 X25.0624 Y-27.4611
X25.0839 Y-27.5274
X25.0904 Y-27.5968
X25.0816 Y-27.6659
X25.058 Y-27.7314
X25.0205 Y-27.7902
X24.9712 Y-27.8394
X24.9122 Y-27.8766
X24.8466 Y-27.9
X24.7774 Y-27.9086
X24.7081 Y-27.9018
X24.6419 Y-27.88
X24.5821 Y-27.8442
X24.5315 Y-27.7963
G3 X22.0851 Y-26.51 I-2.812 J-2.3785
G1 X14.1332 Y-25.7168
G3 X11.5543 Y-26.4378 I-0.3656 J-3.6648
G1 X11.4943 Y-26.4733
X11.4281 Y-26.4949
X11.3587 Y-26.5014
X11.2895 Y-26.4926
X11.224 Y-26.4689
X11.1652 Y-26.4315
X11.116 Y-26.3821
X11.0788 Y-26.3232
X11.0553 Y-26.2575
X11.0468 Y-26.1884
X11.0536 Y-26.119
X11.0754 Y-26.0528
X11.1111 Y-25.9929
X11.1591 Y-25.9424
G3 X12.4453 Y-23.496 I-2.3785 J2.812
G1 X13.0955 Y-16.9788
G3 X12.1945 Y-14.1789 I-3.6648 J0.3656
G1 X12.1557 Y-14.124
X12.1293 Y-14.0621
X12.1165 Y-13.9961
X12.118 Y-13.9289
X12.1336 Y-13.8634
X12.1627 Y-13.8028
X12.204 Y-13.7496
X12.2555 Y-13.7064
X12.3149 Y-13.675
X12.3797 Y-13.6568
X12.4469 Y-13.6528
X12.5133 Y-13.663
X12.5762 Y-13.6869
X12.6325 Y-13.7236
X12.6799 Y-13.7714
G3 X15.1902 Y-15.1354 I2.8759 J2.3008
G1 X23.1361 Y-15.9281
G3 X25.863 Y-15.0897 I0.3656 J3.6648
G1 X25.9221 Y-15.0506
X25.9885 Y-15.0257
X26.0586 Y-15.0161
X26.1292 Y-15.0223
X26.1967 Y-15.044
X26.2576 Y-15.0802
X26.3089 Y-15.129
X26.3482 Y-15.188
X26.3733 Y-15.2542
X26.3832 Y-15.3244
X26.3772 Y-15.395
X26.3556 Y-15.4625
X26.3196 Y-15.5235
X26.271 Y-15.575
G3 X24.9847 Y-18.0214 I2.3785 J-2.812
G1 X24.6928 Y-20.9475
G0 Z6.096
X-7.0336 Y-384.1023
G1 Z3.556 F508
G2 X-6.5121 Y-384.0353 Z2.9126 I-0.1217 J3.0138
X-6.0102 Y-383.8789 Z2.2692 I-0.6432 J2.9469
X-5.543 Y-383.6376 Z1.6257 I-1.1451 J2.7904
X-5.1248 Y-383.3189 Z0.9823 I-1.6123 J2.5492
X-4.7684 Y-382.9325 Z0.3389 I-2.0305 J2.2305
X-4.4844 Y-382.49 Z-0.3045 I-2.3869 J1.844
X-4.2816 Y-382.0049 Z-0.948 I-2.6709 J1.4015
X-4.1662 Y-381.492 Z-1.5914 I-2.8737 J0.9164
X-4.1415 Y-380.9668 Z-2.2348 I-2.9891 J0.4035
X-4.2084 Y-380.4453 Z-2.8782 I-3.0138 J-0.1217
X-4.3649 Y-379.9433 Z-3.5217 I-2.9469 J-0.6432
X-7.0129 Y-378.0756 Z-4.064 I-2.7904 J-1.1451
X-7.2679 Y-383.4705 I-0.1275 J-2.6974
G1 X-8.4753 Y-383.4134
X-8.519 Y-383.4036
X-8.5567 Y-383.3794
X-8.5838 Y-383.3437
X-8.5972 Y-383.3009
X-8.5951 Y-383.2562
X-8.5778 Y-383.2148
X-8.5474 Y-383.1819
X-8.5075 Y-383.1613
X-8.4631 Y-383.1556
X-7.2246 Y-383.2141
X-7.1875 Y-383.2233
X-7.1568 Y-383.246
X-7.1371 Y-383.2788
X-7.1314 Y-383.3165
X-7.1343 Y-383.3788
X-7.1436 Y-383.4159
X-7.1663 Y-383.4466
X-7.199 Y-383.4663
X-7.2368 Y-383.472
X-7.2679 Y-383.4705
G3 X-10.5338 Y-384.9708 I-0.1845 J-3.9033
G2 X-13.9041 Y-383.7224 I-1.4868 J1.1595
G1 X-13.7169 Y-379.7587
G3 X-14.6321 Y-377.1506 I-3.6789 J0.1737
G1 X-14.6722 Y-377.0935
X-14.6988 Y-377.0291
X-14.7107 Y-376.9603
X-14.7073 Y-376.8907
X-14.6887 Y-376.8235
X-14.6559 Y-376.7619
X-14.6105 Y-376.7091
X-14.5546 Y-376.6674
X-14.491 Y-376.6389
X-14.4226 Y-376.6251
X-14.3529 Y-376.6265
X-14.2852 Y-376.6431
X-14.2227 Y-376.6741
X-14.1686 Y-376.718
G3 X-11.7228 Y-377.8079 I2.6195 J2.589
G1 X-3.7403 Y-378.1849
G3 X-1.1324 Y-377.2699 I0.1737 J3.6789
G1 X-1.0753 Y-377.2299
X-1.0109 Y-377.2032
X-0.9421 Y-377.1914
X-0.8725 Y-377.1948
X-0.8052 Y-377.2133
X-0.7437 Y-377.2461
X-0.6908 Y-377.2916
X-0.6491 Y-377.3475
X-0.6206 Y-377.4112
X-0.6068 Y-377.4795
X-0.6082 Y-377.5492
X-0.6248 Y-377.617
X-0.6558 Y-377.6795
X-0.6997 Y-377.7336
G3 X-1.7895 Y-380.1793 I2.5891 J-2.6194
G1 X-2.1118 Y-387.0063
G3 X-1.1967 Y-389.6144 I3.6789 J-0.1737
G1 X-1.1561 Y-389.6725
X-1.1294 Y-389.7381
X-1.118 Y-389.808
X-1.1223 Y-389.8787
X-1.1423 Y-389.9467
X-1.1769 Y-390.0085
X-1.2243 Y-390.0612
X-1.2822 Y-390.1019
X-1.3478 Y-390.1288
X-1.4177 Y-390.1405
X-1.4884 Y-390.1363
X-1.5564 Y-390.1166
X-1.6184 Y-390.0822
X-1.6712 Y-390.0349
G3 X-4.2462 Y-388.8071 I-2.7489 J-2.4511
G1 X-12.2226 Y-388.4301
G3 X-14.9056 Y-389.4129 I-0.1739 J-3.6789
G1 X-14.9594 Y-389.4533
X-15.0206 Y-389.4813
X-15.0862 Y-389.4959
X-15.1535 Y-389.4962
X-15.2193 Y-389.4824
X-15.2807 Y-389.455
X-15.3349 Y-389.4152
X-15.3796 Y-389.3649
X-15.4126 Y-389.3064
X-15.4325 Y-389.2421
X-15.4384 Y-389.1751
X-15.43 Y-389.1084
X-15.4078 Y-389.045
X-15.3727 Y-388.9876
X-15.3262 Y-388.939
G3 X-14.0258 Y-386.3007 I-2.3785 J2.812
G1 X-13.9041 Y-383.7224
G0 Z6.096
X-9.927 Y-382.2781
G1 Z-1.524 F508
G2 X-9.6784 Y-382.7413 Z-2.1674 I2.7717 J1.1896
X-9.353 Y-383.1544 Z-2.8108 I2.5231 J1.6529
X-8.9609 Y-383.5046 Z-3.4543 I2.1977 J2.0659
X-8.5139 Y-383.7814 Z-4.0977 I1.8056 J2.4161
X-8.0256 Y-383.9764 Z-4.7411 I1.3586 J2.693
X-7.5109 Y-384.0837 Z-5.3845 I0.8703 J2.888
X-6.9854 Y-384.0999 Z-6.028 I0.3556 J2.9952
X-6.465 Y-384.0247 Z-6.6714 I-0.1699 J3.0115
X-5.9657 Y-383.8602 Z-7.3148 I-0.6903 J2.9362
X-5.5024 Y-383.6115 Z-7.9582 I-1.1896 J2.7717
X-5.0894 Y-383.2862 Z-8.6017 I-1.6529 J2.523
X-7.0129 Y-378.0756 Z-9.017 I-2.0659 J2.1977
X-7.2679 Y-383.4705 I-0.1275 J-2.6974
G1 X-8.4753 Y-383.4134
X-8.519 Y-383.4036
X-8.5567 Y-383.3794
X-8.5838 Y-383.3437
X-8.5972 Y-383.3009
X-8.5951 Y-383.2562
X-8.5778 Y-383.2148
X-8.5474 Y-383.1819
X-8.5075 Y-383.1613
X-8.4631 Y-383.1556
X-7.2246 Y-383.2141
X-7.1875 Y-383.2233
X-7.1568 Y-383.246
X-7.1371 Y-383.2788
X-7.1314 Y-383.3165
X-7.1343 Y-383.3788
X-7.1436 Y-383.4159
X-7.1663 Y-383.4466
X-7.199 Y-383.4663
X-7.2368 Y-383.472
X-7.2679 Y-383.4705
G3 X-10.5338 Y-384.9708 I-0.1845 J-3.9033
G2 X-13.9041 Y-383.7224 I-1.4868 J1.1595
G1 X-13.7169 Y-379.7587
G3 X-14.6321 Y-377.1506 I-3.6789 J0.1737
G1 X-14.6722 Y-377.0935
X-14.6988 Y-377.0291
X-14.7107 Y-376.9603
X-14.7073 Y-376.8907
X-14.6887 Y-376.8235
X-14.6559 Y-376.7619
X-14.6105 Y-376.7091
X-14.5546 Y-376.6674
X-14.491 Y-376.6389
X-14.4226 Y-376.6251
X-14.3529 Y-376.6265
X-14.2852 Y-376.6431
X-14.2227 Y-376.6741
X-14.1686 Y-376.718
G3 X-11.7228 Y-377.8079 I2.6195 J2.589
G1 X-3.7403 Y-378.1849
G3 X-1.1324 Y-377.2699 I0.1737 J3.6789
G1 X-1.0753 Y-377.2299
X-1.0109 Y-377.2032
X-0.9421 Y-377.1914
X-0.8725 Y-377.1948
X-0.8052 Y-377.2133
X-0.7437 Y-377.2461
X-0.6908 Y-377.2916
X-0.6491 Y-377.3475
X-0.6206 Y-377.4112
X-0.6068 Y-377.4795
X-0.6082 Y-377.5492
X-0.6248 Y-377.617
X-0.6558 Y-377.6795
X-0.6997 Y-377.7336
G3 X-1.7895 Y-380.1793 I2.5891 J-2.6194
G1 X-2.1118 Y-387.0063
G3 X-1.1967 Y-389.6144 I3.6789 J-0.1737
G1 X-1.1561 Y-389.6725
X-1.1294 Y-389.7381
X-1.118 Y-389.808
X-1.1223 Y-389.8787
X-1.1423 Y-389.9467
X-1.1769 Y-390.0085
X-1.2243 Y-390.0612
X-1.2822 Y-390.1019
X-1.3478 Y-390.1288
X-1.4177 Y-390.1405
X-1.4884 Y-390.1363
X-1.5564 Y-390.1166
X-1.6184 Y-390.0822
X-1.6712 Y-390.0349
G3 X-4.2462 Y-388.8071 I-2.7489 J-2.4511
G1 X-12.2226 Y-388.4301
G3 X-14.9056 Y-389.4129 I-0.1739 J-3.6789
G1 X-14.9594 Y-389.4533
X-15.0206 Y-389.4813
X-15.0862 Y-389.4959
X-15.1535 Y-389.4962
X-15.2193 Y-389.4824
X-15.2807 Y-389.455
X-15.3349 Y-389.4152
X-15.3796 Y-389.3649
X-15.4126 Y-389.3064
X-15.4325 Y-389.2421
X-15.4384 Y-389.1751
X-15.43 Y-389.1084
X-15.4078 Y-389.045
X-15.3727 Y-388.9876
X-15.3262 Y-388.939
G3 X-14.0258 Y-386.3007 I-2.3785 J2.812
G1 X-13.9041 Y-383.7224
G0 Z6.096
X184.1927 Y-392.7169
G1 Z3.556 F508
G2 X184.2607 Y-393.2382 Z2.9126 I3.0135 J0.1278
X184.4181 Y-393.7398 Z2.2692 I2.9456 J0.6491
X184.6603 Y-394.2065 Z1.6257 I2.7881 J1.1508
X184.9799 Y-394.624 Z0.9823 I2.5459 J1.6174
X185.367 Y-394.9797 Z0.3389 I2.2264 J2.0349
X185.8101 Y-395.2628 Z-0.3045 I1.8392 J2.3906
X186.2956 Y-395.4646 Z-0.948 I1.3961 J2.6737
X186.8088 Y-395.579 Z-1.5914 I0.9106 J2.8755
X187.334 Y-395.6026 Z-2.2348 I0.3975 J2.9899
X187.8554 Y-395.5347 Z-2.8782 I-0.1278 J3.0135
X188.357 Y-395.3772 Z-3.5217 I-0.6491 J2.9456
X190.2194 Y-392.7254 Z-4.064 I-1.1508 J2.7881
G1 X190.218 Y-392.7565
X190.2088 Y-392.7936
X190.1862 Y-392.8244
X190.1535 Y-392.8442
X190.1158 Y-392.8499
X178.1877 Y-392.3105
X178.144 Y-392.3007
X178.1062 Y-392.2766
X178.079 Y-392.241
X178.0656 Y-392.1982
X178.0676 Y-392.1534
X178.0848 Y-392.112
X178.1151 Y-392.0791
X178.1549 Y-392.0584
X178.1994 Y-392.0526
X190.1274 Y-392.5921
X190.1645 Y-392.6012
X190.1953 Y-392.6238
X190.215 Y-392.6565
X190.2208 Y-392.6943
X190.2194 Y-392.7254
G3 X191.3543 Y-395.3748 I3.3103 J-0.1497
G2 X190.2834 Y-398.0508 I-1.0019 J-1.1513
G1 X174.2074 Y-397.3238
G3 X171.6801 Y-398.1762 I-0.1664 J-3.6792
G1 X171.6247 Y-398.2134
X171.5627 Y-398.2381
X171.4969 Y-398.2493
X171.4302 Y-398.2465
X171.3656 Y-398.2299
X171.3058 Y-398.2
X171.2537 Y-398.1584
X171.2114 Y-398.1067
X171.1809 Y-398.0473
X171.1634 Y-397.9829
X171.1599 Y-397.9162
X171.1703 Y-397.8503
X171.1943 Y-397.788
X171.2308 Y-397.7322
X171.2782 Y-397.6852
G3 X172.6532 Y-394.9785 I-2.3042 J2.8731
G1 X172.9562 Y-388.2825
G3 X172.1033 Y-385.7546 I-3.6792 J0.1665
G1 X172.0662 Y-385.6992
X172.0415 Y-385.6373
X172.0303 Y-385.5716
X172.033 Y-385.5049
X172.0497 Y-385.4404
X172.0795 Y-385.3807
X172.1211 Y-385.3286
X172.1727 Y-385.2864
X172.232 Y-385.2559
X172.2963 Y-385.2385
X172.3629 Y-385.2349
X172.4288 Y-385.2453
X172.491 Y-385.2693
X172.5468 Y-385.3058
X172.5938 Y-385.3531
G3 X175.3006 Y-386.7282 I2.8732 J2.3041
G1 X193.9856 Y-387.5732
G3 X196.5129 Y-386.7208 I0.1664 J3.6792
G1 X196.5683 Y-386.6837
X196.6302 Y-386.659
X196.6959 Y-386.6478
X196.7625 Y-386.6505
X196.827 Y-386.6672
X196.8867 Y-386.697
X196.9388 Y-386.7386
X196.981 Y-386.7902
X197.0115 Y-386.8495
X197.0289 Y-386.9138
X197.0325 Y-386.9804
X197.0221 Y-387.0462
X196.9981 Y-387.1084
X196.9616 Y-387.1643
X196.9143 Y-387.2112
G3 X195.5398 Y-389.9175 I2.3047 J-2.8728
G1 X195.2368 Y-396.6145
G3 X196.0424 Y-399.0847 I3.6792 J-0.1665
G1 X196.0802 Y-399.1443
X196.1038 Y-399.2109
X196.1121 Y-399.281
X196.1047 Y-399.3512
X196.082 Y-399.418
X196.0451 Y-399.4782
X195.9958 Y-399.5287
X195.9365 Y-399.567
X195.8702 Y-399.5913
X195.8002 Y-399.6004
X195.7299 Y-399.5937
X195.6629 Y-399.5717
X195.6023 Y-399.5354
X195.5513 Y-399.4866
G3 X192.8914 Y-398.1688 I-2.8263 J-2.3614
G1 X190.2834 Y-398.0508
G0 Z6.096
X186.011 Y-389.8198
G1 Z-1.524 F508
G2 X185.5483 Y-390.0694 Z-2.1674 I1.1952 J-2.7693
X185.1359 Y-390.3956 Z-2.8108 I1.6579 J-2.5197
X184.7865 Y-390.7884 Z-3.4543 I2.0703 J-2.1935
X184.5106 Y-391.2359 Z-4.0977 I2.4197 J-1.8007
X184.3165 Y-391.7246 Z-4.7411 I2.6957 J-1.3532
X184.2103 Y-392.2395 Z-5.3845 I2.8897 J-0.8645
X184.1951 Y-392.765 Z-6.028 I2.9959 J-0.3496
X184.2714 Y-393.2852 Z-6.6714 I3.0111 J0.176
X184.4369 Y-393.7843 Z-7.3148 I2.9348 J0.6962
X184.6865 Y-394.247 Z-7.9582 I2.7693 J1.1952
X185.0127 Y-394.6594 Z-8.6017 I2.5197 J1.6579
X190.2194 Y-392.7254 Z-9.017 I2.1935 J2.0703
G1 X190.218 Y-392.7565
X190.2088 Y-392.7936
X190.1862 Y-392.8244
X190.1535 Y-392.8442
X190.1158 Y-392.8499
X178.1877 Y-392.3105
X178.144 Y-392.3007
X178.1062 Y-392.2766
X178.079 Y-392.241
X178.0656 Y-392.1982
X178.0676 Y-392.1534
X178.0848 Y-392.112
X178.1151 Y-392.0791
X178.1549 Y-392.0584
X178.1994 Y-392.0526
X190.1274 Y-392.5921
X190.1645 Y-392.6012
X190.1953 Y-392.6238
X190.215 Y-392.6565
X190.2208 Y-392.6943
X190.2194 Y-392.7254
G3 X191.3543 Y-395.3748 I3.3103 J-0.1497
G2 X190.2834 Y-398.0508 I-1.0019 J-1.1513
G1 X174.2074 Y-397.3238
G3 X171.6801 Y-398.1762 I-0.1664 J-3.6792
G1 X171.6247 Y-398.2134
X171.5627 Y-398.2381
X171.4969 Y-398.2493
X171.4302 Y-398.2465
X171.3656 Y-398.2299
X171.3058 Y-398.2
X171.2537 Y-398.1584
X171.2114 Y-398.1067
X171.1809 Y-398.0473
X171.1634 Y-397.9829
X171.1599 Y-397.9162
X171.1703 Y-397.8503
X171.1943 Y-397.788
X171.2308 Y-397.7322
X171.2782 Y-397.6852
G3 X172.6532 Y-394.9785 I-2.3042 J2.8731
G1 X172.9562 Y-388.2825
G3 X172.1033 Y-385.7546 I-3.6792 J0.1665
G1 X172.0662 Y-385.6992
X172.0415 Y-385.6373
X172.0303 Y-385.5716
X172.033 Y-385.5049
X172.0497 Y-385.4404
X172.0795 Y-385.3807
X172.1211 Y-385.3286
X172.1727 Y-385.2864
X172.232 Y-385.2559
X172.2963 Y-385.2385
X172.3629 Y-385.2349
X172.4288 Y-385.2453
X172.491 Y-385.2693
X172.5468 Y-385.3058
X172.5938 Y-385.3531
G3 X175.3006 Y-386.7282 I2.8732 J2.3041
G1 X193.9856 Y-387.5732
G3 X196.5129 Y-386.7208 I0.1664 J3.6792
G1 X196.5683 Y-386.6837
X196.6302 Y-386.659
X196.6959 Y-386.6478
X196.7625 Y-386.6505
X196.827 Y-386.6672
X196.8867 Y-386.697
X196.9388 Y-386.7386
X196.981 Y-386.7902
X197.0115 Y-386.8495
X197.0289 Y-386.9138
X197.0325 Y-386.9804
X197.0221 Y-387.0462
X196.9981 Y-387.1084
X196.9616 Y-387.1643
X196.9143 Y-387.2112
G3 X195.5398 Y-389.9175 I2.3047 J-2.8728
G1 X195.2368 Y-396.6145
G3 X196.0424 Y-399.0847 I3.6792 J-0.1665
G1 X196.0802 Y-399.1443
X196.1038 Y-399.2109
X196.1121 Y-399.281
X196.1047 Y-399.3512
X196.082 Y-399.418
X196.0451 Y-399.4782
X195.9958 Y-399.5287
X195.9365 Y-399.567
X195.8702 Y-399.5913
X195.8002 Y-399.6004
X195.7299 Y-399.5937
X195.6629 Y-399.5717
X195.6023 Y-399.5354
X195.5513 Y-399.4866
G3 X192.8914 Y-398.1688 I-2.8263 J-2.3614
G1 X190.2834 Y-398.0508
G0 Z6.096
X372.6987 Y-400.6796
G1 Z3.556 F508
G2 X372.1772 Y-400.7462 Z2.9126 I0.12 J-3.0139
X371.6752 Y-400.9024 Z2.2692 I0.6415 J-2.9472
X371.2079 Y-401.1434 Z1.6257 I1.1436 J-2.7911
X370.7895 Y-401.4618 Z0.9823 I1.6108 J-2.5501
X370.4328 Y-401.8481 Z0.3389 I2.0292 J-2.2316
X370.1486 Y-402.2904 Z-0.3045 I2.3859 J-1.8454
X369.9456 Y-402.7754 Z-0.948 I2.6701 J-1.403
X369.8298 Y-403.2883 Z-1.5914 I2.8731 J-0.918
X369.8049 Y-403.8134 Z-2.2348 I2.9889 J-0.4052
X369.8715 Y-404.335 Z-2.8782 I3.0139 J0.12
X370.0277 Y-404.837 Z-3.5217 I2.9472 J0.6415
X372.6747 Y-406.7063 Z-4.064 I2.7911 J1.1436
X372.9326 Y-401.3115 I0.129 J2.6974
G1 X396.9185 Y-402.4586
X396.9571 Y-402.4683
X396.99 Y-402.4905
X397.0135 Y-402.5225
X397.0247 Y-402.5606
X397.0224 Y-402.6003
X397.0067 Y-402.6368
X396.9795 Y-402.6658
X396.9441 Y-402.6839
X396.9047 Y-402.6889
X372.8892 Y-401.5682
X372.8521 Y-401.559
X372.8213 Y-401.5363
X372.8016 Y-401.5036
X372.7959 Y-401.4658
X372.7988 Y-401.4032
X372.808 Y-401.3661
X372.8307 Y-401.3354
X372.8634 Y-401.3157
X372.9012 Y-401.31
X372.9326 Y-401.3115
G3 X376.9434 Y-398.9018 I0.2012 J4.2077
G2 X380.9541 Y-396.4922 I3.814 J-1.8055
G1 X396.1982 Y-397.2037
X402.2363 Y-397.6471
X402.305 Y-397.6598
X402.3692 Y-397.6872
X402.4259 Y-397.7281
X402.4723 Y-397.7804
X402.5061 Y-397.8415
X402.5257 Y-397.9086
X402.5301 Y-397.9783
X402.0671 Y-407.8063
X402.0558 Y-407.8764
X402.0291 Y-407.9421
X401.9886 Y-408.0004
X401.9361 Y-408.0481
X401.8743 Y-408.083
X401.8063 Y-408.1033
X401.7355 Y-408.108
X369.1857 Y-406.589
G3 X366.5797 Y-407.5042 I-0.1717 J-3.679
G1 X366.5253 Y-407.5427
X366.464 Y-407.5691
X366.3986 Y-407.582
X366.3319 Y-407.581
X366.2669 Y-407.566
X366.2064 Y-407.5377
X366.1532 Y-407.4975
X366.1096 Y-407.447
X366.0776 Y-407.3885
X366.0585 Y-407.3245
X366.0532 Y-407.258
X366.0619 Y-407.1919
X366.0842 Y-407.1291
X366.1193 Y-407.0723
X366.1654 Y-407.0241
G3 X367.466 Y-404.3838 I-2.3784 J2.8121
G1 X367.764 Y-398.0018
G3 X366.7149 Y-395.2516 I-3.679 J0.1718
G1 X366.6735 Y-395.1994
X366.6439 Y-395.1396
X366.6275 Y-395.0749
X366.625 Y-395.0083
X366.6365 Y-394.9426
X366.6615 Y-394.8807
X366.6988 Y-394.8255
X366.7469 Y-394.7793
X366.8036 Y-394.7441
X366.8664 Y-394.7216
X366.9325 Y-394.7128
X366.999 Y-394.718
X367.0629 Y-394.7369
X367.1215 Y-394.7688
X367.1721 Y-394.8123
G3 X369.6813 Y-395.966 I2.6809 J2.5253
G1 X380.9541 Y-396.4922
G0 Z6.096
X375.5912 Y-402.5054
G1 Z-1.524 F508
G2 X375.3427 Y-402.042 Z-2.1674 I-2.7724 J-1.1881
X375.0176 Y-401.6288 Z-2.8108 I-2.524 J-1.6515
X374.6257 Y-401.2783 Z-3.4543 I-2.1989 J-2.0647
X374.1788 Y-401.0012 Z-4.0977 I-1.807 J-2.4151
X373.6907 Y-400.806 Z-4.7411 I-1.3601 J-2.6922
X373.176 Y-400.6984 Z-5.3845 I-0.872 J-2.8875
X372.6505 Y-400.6819 Z-6.028 I-0.3573 J-2.995
X372.1301 Y-400.7568 Z-6.6714 I0.1682 J-3.0116
X371.6306 Y-400.921 Z-7.3148 I0.6886 J-2.9366
X371.1673 Y-401.1695 Z-7.9582 I1.1881 J-2.7724
X370.7541 Y-401.4946 Z-8.6017 I1.6515 J-2.524
X372.6747 Y-406.7063 Z-9.017 I2.0646 J-2.1989
X372.9326 Y-401.3115 I0.129 J2.6974
G1 X396.9185 Y-402.4586
X396.9571 Y-402.4683
X396.99 Y-402.4905
X397.0135 Y-402.5225
X397.0247 Y-402.5606
X397.0224 Y-402.6003
X397.0067 Y-402.6368
X396.9795 Y-402.6658
X396.9441 Y-402.6839
X396.9047 Y-402.6889
X372.8892 Y-401.5682
X372.8521 Y-401.559
X372.8213 Y-401.5363
X372.8016 Y-401.5036
X372.7959 Y-401.4658
X372.7988 Y-401.4032
X372.808 Y-401.3661
X372.8307 Y-401.3354
X372.8634 Y-401.3157
X372.9012 Y-401.31
X372.9326 Y-401.3115
G3 X376.9434 Y-398.9018 I0.2012 J4.2077
G2 X380.9541 Y-396.4922 I3.814 J-1.8055
G1 X396.1982 Y-397.2037
X402.2363 Y-397.6471
X402.305 Y-397.6598
X402.3692 Y-397.6872
X402.4259 Y-397.7281
X402.4723 Y-397.7804
X402.5061 Y-397.8415
X402.5257 Y-397.9086
X402.5301 Y-397.9783
X402.0671 Y-407.8063
X402.0558 Y-407.8764
X402.0291 Y-407.9421
X401.9886 Y-408.0004
X401.9361 Y-408.0481
X401.8743 Y-408.083
X401.8063 Y-408.1033
X401.7355 Y-408.108
X369.1857 Y-406.589
G3 X366.5797 Y-407.5042 I-0.1717 J-3.679
G1 X366.5253 Y-407.5427
X366.464 Y-407.5691
X366.3986 Y-407.582
X366.3319 Y-407.581
X366.2669 Y-407.566
X366.2064 Y-407.5377
X366.1532 Y-407.4975
X366.1096 Y-407.447
X366.0776 Y-407.3885
X366.0585 Y-407.3245
X366.0532 Y-407.258
X366.0619 Y-407.1919
X366.0842 Y-407.1291
X366.1193 Y-407.0723
X366.1654 Y-407.0241
G3 X367.466 Y-404.3838 I-2.3784 J2.8121
G1 X367.764 Y-398.0018
G3 X366.7149 Y-395.2516 I-3.679 J0.1718
G1 X366.6735 Y-395.1994
X366.6439 Y-395.1396
X366.6275 Y-395.0749
X366.625 Y-395.0083
X366.6365 Y-394.9426
X366.6615 Y-394.8807
X366.6988 Y-394.8255
X366.7469 Y-394.7793
X366.8036 Y-394.7441
X366.8664 Y-394.7216
X366.9325 Y-394.7128
X366.999 Y-394.718
X367.0629 Y-394.7369
X367.1215 Y-394.7688
X367.1721 Y-394.8123
G3 X369.6813 Y-395.966 I2.6809 J2.5253
G1 X380.9541 Y-396.4922
G0 Z6.096
X422.2684 Y-61.7054
G1 Z3.556 F508
G2 X422.7927 Y-61.666 Z2.9126 I0.0374 J3.016
X423.3022 Y-61.5363 Z2.2692 I-0.4869 J2.9767
X423.7814 Y-61.32 Z1.6257 I-0.9964 J2.8469
X424.2158 Y-61.0238 Z0.9823 I-1.4757 J2.6306
X424.5922 Y-60.6566 Z0.3389 I-1.91 J2.3344
X424.899 Y-60.2297 Z-0.3045 I-2.2864 J1.9673
X425.1271 Y-59.756 Z-0.948 I-2.5933 J1.5404
X425.2695 Y-59.2499 Z-1.5914 I-2.8214 J1.0666
X425.3218 Y-58.7267 Z-2.2348 I-2.9637 J0.5605
X425.2824 Y-58.2024 Z-2.8782 I-3.016 J0.0374
X425.1527 Y-57.6929 Z-3.5217 I-2.9767 J-0.4869
X422.6068 Y-55.6882 Z-4.064 I-2.8469 J-0.9964
X422.0677 Y-61.0622 I-0.2695 J-2.687
G1 X398.1856 Y-58.6668
X398.1423 Y-58.6546
X398.1058 Y-58.6283
X398.0804 Y-58.5911
X398.0694 Y-58.5475
X398.0739 Y-58.5027
X398.0934 Y-58.4622
X398.1256 Y-58.4308
X398.1666 Y-58.4123
X398.2115 Y-58.4089
X422.1252 Y-60.8075
X422.1617 Y-60.8186
X422.1911 Y-60.8429
X422.2091 Y-60.8766
X422.2128 Y-60.9146
X422.2065 Y-60.9777
X422.1954 Y-61.0143
X422.1711 Y-61.0438
X422.1373 Y-61.0617
X422.0993 Y-61.0654
X422.0677 Y-61.0622
G3 X417.9378 Y-63.2547 I-0.4207 J-4.1937
G2 X413.8078 Y-65.4472 I-3.7094 J2.0012
G1 X394.0986 Y-63.4703
G3 X391.4475 Y-64.2452 I-0.3676 J-3.6646
G1 X391.3911 Y-64.2809
X391.3285 Y-64.3039
X391.2625 Y-64.3133
X391.196 Y-64.3087
X391.1319 Y-64.2903
X391.073 Y-64.2589
X391.0221 Y-64.2159
X390.9813 Y-64.1631
X390.9524 Y-64.103
X390.9367 Y-64.0382
X390.9349 Y-63.9715
X390.9471 Y-63.906
X390.9728 Y-63.8444
X391.0108 Y-63.7896
X391.0594 Y-63.7439
G3 X392.4986 Y-61.1771 I-2.2254 J2.9346
G1 X393.1366 Y-54.8197
G3 X392.2355 Y-52.0173 I-3.6646 J0.3678
G1 X392.197 Y-51.9629
X392.1707 Y-51.9017
X392.1577 Y-51.8363
X392.1588 Y-51.7697
X392.1737 Y-51.7048
X392.2019 Y-51.6444
X392.2421 Y-51.5912
X392.2926 Y-51.5477
X392.351 Y-51.5157
X392.4149 Y-51.4966
X392.4813 Y-51.4913
X392.5474 Y-51.5
X392.6102 Y-51.5223
X392.6669 Y-51.5573
X392.7151 Y-51.6033
G3 X395.1595 Y-52.8894 I2.812 J2.3785
G1 X427.5832 Y-56.1415
X427.6526 Y-56.1565
X427.7169 Y-56.1865
X427.7729 Y-56.2301
X427.8178 Y-56.285
X427.8495 Y-56.3485
X427.8662 Y-56.4175
X427.8671 Y-56.4884
X426.8752 Y-66.4389
X426.8603 Y-66.5084
X426.8304 Y-66.5727
X426.7868 Y-66.6288
X426.7319 Y-66.6738
X426.6684 Y-66.7055
X426.5994 Y-66.7222
X426.5284 Y-66.7231
X413.8078 Y-65.4472
G0 Z6.096
X419.4751 Y-59.7312
G1 Z-1.524 F508
G2 X419.699 Y-60.2069 Z-2.1674 I2.8306 J1.0419
X420.0022 Y-60.6365 Z-2.8108 I2.6067 J1.5176
X420.3753 Y-61.0069 Z-3.4543 I2.3036 J1.9472
X420.8071 Y-61.3069 Z-4.0977 I1.9305 J2.3176
X421.2844 Y-61.5274 Z-4.7411 I1.4987 J2.6176
X421.7927 Y-61.6617 Z-5.3845 I1.0214 J2.8381
X422.3166 Y-61.7056 Z-6.028 I0.513 J2.9723
X422.8402 Y-61.6579 Z-6.6714 I-0.0109 J3.0162
X423.3476 Y-61.52 Z-7.3148 I-0.5345 J2.9685
X423.8233 Y-61.296 Z-7.9582 I-1.0418 J2.8306
X424.2529 Y-60.9929 Z-8.6017 I-1.5175 J2.6067
X422.6068 Y-55.6882 Z-9.017 I-1.9471 J2.3036
X422.0677 Y-61.0622 I-0.2695 J-2.687
G1 X398.1856 Y-58.6668
X398.1423 Y-58.6546
X398.1058 Y-58.6283
X398.0804 Y-58.5911
X398.0694 Y-58.5475
X398.0739 Y-58.5027
X398.0934 Y-58.4622
X398.1256 Y-58.4308
X398.1666 Y-58.4123
X398.2115 Y-58.4089
X422.1252 Y-60.8075
X422.1617 Y-60.8186
X422.1911 Y-60.8429
X422.2091 Y-60.8766
X422.2128 Y-60.9146
X422.2065 Y-60.9777
X422.1954 Y-61.0143
X422.1711 Y-61.0438
X422.1373 Y-61.0617
X422.0993 Y-61.0654
X422.0677 Y-61.0622
G3 X417.9378 Y-63.2547 I-0.4207 J-4.1937
G2 X413.8078 Y-65.4472 I-3.7094 J2.0012
G1 X394.0986 Y-63.4703
G3 X391.4475 Y-64.2452 I-0.3676 J-3.6646
G1 X391.3911 Y-64.2809
X391.3285 Y-64.3039
X391.2625 Y-64.3133
X391.196 Y-64.3087
X391.1319 Y-64.2903
X391.073 Y-64.2589
X391.0221 Y-64.2159
X390.9813 Y-64.1631
X390.9524 Y-64.103
X390.9367 Y-64.0382
X390.9349 Y-63.9715
X390.9471 Y-63.906
X390.9728 Y-63.8444
X391.0108 Y-63.7896
X391.0594 Y-63.7439
G3 X392.4986 Y-61.1771 I-2.2254 J2.9346
G1 X393.1366 Y-54.8197
G3 X392.2355 Y-52.0173 I-3.6646 J0.3678
G1 X392.197 Y-51.9629
X392.1707 Y-51.9017
X392.1577 Y-51.8363
X392.1588 Y-51.7697
X392.1737 Y-51.7048
X392.2019 Y-51.6444
X392.2421 Y-51.5912
X392.2926 Y-51.5477
X392.351 Y-51.5157
X392.4149 Y-51.4966
X392.4813 Y-51.4913
X392.5474 Y-51.5
X392.6102 Y-51.5223
X392.6669 Y-51.5573
X392.7151 Y-51.6033
G3 X395.1595 Y-52.8894 I2.812 J2.3785
G1 X427.5832 Y-56.1415
X427.6526 Y-56.1565
X427.7169 Y-56.1865
X427.7729 Y-56.2301
X427.8178 Y-56.285
X427.8495 Y-56.3485
X427.8662 Y-56.4175
X427.8671 Y-56.4884
X426.8752 Y-66.4389
X426.8603 Y-66.5084
X426.8304 Y-66.5727
X426.7868 Y-66.6288
X426.7319 Y-66.6738
X426.6684 Y-66.7055
X426.5994 Y-66.7222
X426.5284 Y-66.7231
X413.8078 Y-65.4472
G0 Z11.176

G53 Z-10
M5
G4 P1.0
G53 X-10 Y-10
M30
%
