(1001)
(T1  D=6.35 CR=0 - ZMIN=-20.574 - FLAT END MILL)
G0 G40 G90 G17
G21

(2D CONTOUR2)
T1 M6
M3 S5000
G0 X206.591 Y-45.716
G0 Z6.096
G1 Z4.191 F508.
G1 Z-6.604
G3 X206.301 Y-47.554 I14.817 J-3.279
G1 X191.22 Y-205.684
G3 X195.129 Y-217.366 I15.107 J-1.44
G3 X206.417 Y-222.299 I11.198 J10.242
G1 X597.134 Y-219.971
G3 X600.916 Y-218.297 I-0.03 J5.175
G3 X602.263 Y-214.387 I-3.811 J3.5
G1 X589.895 Y-58.67
G3 X547.093 Y-19.285 I-42.638 J-3.387
G1 X421.751 Y-19.766
G1 X421.541 Y-19.773
G1 X220.348 Y-33.857
G3 X206.591 Y-45.716 I1.06 J-15.138
G1 Z-14.224
G3 X206.301 Y-47.554 I14.817 J-3.279
G1 X191.22 Y-205.684
G3 X195.129 Y-217.366 I15.107 J-1.44
G3 X206.417 Y-222.299 I11.198 J10.242
G1 X597.134 Y-219.971
G3 X600.916 Y-218.297 I-0.03 J5.175
G3 X602.263 Y-214.387 I-3.811 J3.5
G1 X589.895 Y-58.67
G3 X547.093 Y-19.285 I-42.638 J-3.387
G1 X421.751 Y-19.766
G1 X421.541 Y-19.773
G1 X220.348 Y-33.857
G3 X206.591 Y-45.716 I1.06 J-15.138
G1 Z-20.574
G3 X206.301 Y-47.554 I14.817 J-3.279
G1 X200.205 Y-111.481
G1 Z-18.034
G1 X199.119 Y-122.86
G1 Z-20.574
G1 X195.951 Y-156.081
G1 Z-18.034
G1 X194.866 Y-167.46
G1 Z-20.574
G1 X191.919 Y-198.354
G1 Z-18.034
G1 X191.22 Y-205.684
G3 X191.387 Y-209.786 I15.107 J-1.44
G1 Z-20.574
G3 X193.811 Y-215.705 I14.94 J2.661
G1 Z-18.034
G3 X205.982 Y-222.295 I12.516 J8.581
G1 Z-20.574
G3 X206.417 Y-222.299 I0.345 J15.171
G1 X271.322 Y-221.912
G1 Z-18.034
G1 X282.752 Y-221.844
G1 Z-20.574
G1 X331.539 Y-221.553
G1 Z-18.034
G1 X362.799 Y-221.367
G1 Z-20.574
G1 X502.987 Y-220.532
G1 Z-18.034
G1 X514.417 Y-220.464
G1 Z-20.574
G1 X517.563 Y-220.445
G1 Z-18.034
G1 X528.993 Y-220.377
G1 Z-20.574
G1 X534.175 Y-220.346
G1 Z-18.034
G1 X545.605 Y-220.278
G1 Z-20.574
G1 X591.507 Y-220.004
G1 Z-18.034
G1 X597.134 Y-219.971
G3 X600.916 Y-218.297 I-0.03 J5.175
G3 X602.263 Y-214.387 I-3.811 J3.5
G1 X601.218 Y-201.225
G1 Z-20.574
G1 X597.539 Y-154.915
G1 Z-18.034
G1 X596.165 Y-137.612
G1 Z-20.574
G1 X595.926 Y-134.6
G1 Z-18.034
G1 X595.021 Y-123.206
G1 Z-20.574
G1 X594.3 Y-114.125
G1 Z-18.034
G1 X592.62 Y-92.984
G1 Z-20.574
G1 X592.359 Y-89.69
G1 Z-18.034
G1 X591.454 Y-78.296
G1 Z-20.574
G1 X590.854 Y-70.738
G1 Z-18.034
G1 X589.895 Y-58.67
G3 X584.325 Y-40.715 I-42.638 J-3.387
G1 Z-20.574
G3 X580.024 Y-34.565 I-37.068 J-21.341
G1 Z-18.034
G3 X568.265 Y-24.799 I-32.767 J-27.492
G1 Z-20.574
G3 X558.709 Y-20.846 I-21.008 J-37.258
G1 Z-18.034
G3 X547.386 Y-19.284 I-11.452 J-41.211
G1 Z-20.574
G3 X547.093 Y-19.285 I-0.129 J-42.772
G1 X522.957 Y-19.377
G1 Z-18.034
G1 X511.527 Y-19.421
G1 Z-20.574
G1 X489.489 Y-19.506
G1 Z-18.034
G1 X478.059 Y-19.549
G1 Z-20.574
G1 X456.715 Y-19.631
G1 Z-18.034
G1 X445.285 Y-19.675
G1 Z-20.574
G1 X421.751 Y-19.766
G1 X421.541 Y-19.773
G1 X318.56 Y-26.982
G1 Z-18.034
G1 X297.349 Y-28.467
G1 Z-20.574
G1 X220.348 Y-33.857
G3 X213.303 Y-36.166 I1.06 J-15.138
G1 Z-18.034
G3 X206.65 Y-45.461 I8.105 J-12.829
G1 Z-20.574
G3 X206.591 Y-45.716 I14.758 J-3.534
G0 Z6.096

(2D POCKET1)
G0 Z11.176
G0 X345.095 Y-50.44
G0 Z6.096
G1 Z3.556 F508.
G1 X345.083 Y-50.221 Z3.548
G1 X345.087 Y-50.001 Z3.541
G1 X345.106 Y-49.783 Z3.533
G1 X345.142 Y-49.566 Z3.525
G1 X345.193 Y-49.353 Z3.518
G1 X345.26 Y-49.144 Z3.51
G1 X345.342 Y-48.94 Z3.502
G1 X345.438 Y-48.743 Z3.495
G1 X345.548 Y-48.553 Z3.487
G1 X345.672 Y-48.372 Z3.479
G1 X345.809 Y-48.2 Z3.472
G1 X345.958 Y-48.039 Z3.464
G1 X346.118 Y-47.889 Z3.456
G1 X346.289 Y-47.751 Z3.449
G1 X346.469 Y-47.626 Z3.441
G1 X346.658 Y-47.514 Z3.433
G1 X346.854 Y-47.416 Z3.426
G1 X347.057 Y-47.333 Z3.418
G1 X347.266 Y-47.265 Z3.41
G1 X347.479 Y-47.212 Z3.403
G1 X347.695 Y-47.175 Z3.395
G1 X347.914 Y-47.153 Z3.387
G1 X348.133 Y-47.148 Z3.38
G1 X348.352 Y-47.159 Z3.372
G1 X348.57 Y-47.185 Z3.364
G1 X348.786 Y-47.227 Z3.357
G1 X348.997 Y-47.285 Z3.349
G1 X349.204 Y-47.358 Z3.341
G1 X349.406 Y-47.446 Z3.334
G1 X349.6 Y-47.548 Z3.326
G1 X349.786 Y-47.664 Z3.318
G1 X349.963 Y-47.793 Z3.311
G1 X350.131 Y-47.935 Z3.303
G1 X350.287 Y-48.089 Z3.295
G1 X350.433 Y-48.254 Z3.288
G1 X350.565 Y-48.428 Z3.28
G1 X350.685 Y-48.612 Z3.272
G1 X350.791 Y-48.805 Z3.265
G1 X350.883 Y-49.004 Z3.257
G1 X350.96 Y-49.21 Z3.249
G1 X351.021 Y-49.42 Z3.242
G1 X351.068 Y-49.635 Z3.234
G1 X351.098 Y-49.852 Z3.226
G1 X351.113 Y-50.071 Z3.219
G1 X351.112 Y-50.29 Z3.211
G1 X351.095 Y-50.509 Z3.203
G1 X351.062 Y-50.726 Z3.196
G1 X351.013 Y-50.94 Z3.188
G1 X350.949 Y-51.15 Z3.18
G1 X350.87 Y-51.355 Z3.173
G1 X350.776 Y-51.553 Z3.165
G1 X350.668 Y-51.744 Z3.157
G1 X350.546 Y-51.927 Z3.15
G1 X350.411 Y-52.1 Z3.142
G1 X350.264 Y-52.263 Z3.134
G1 X350.106 Y-52.415 Z3.127
G1 X349.937 Y-52.555 Z3.119
G1 X349.758 Y-52.683 Z3.111
G1 X349.571 Y-52.797 Z3.104
G1 X349.375 Y-52.897 Z3.096
G1 X349.173 Y-52.982 Z3.088
G1 X348.966 Y-53.053 Z3.081
G1 X348.753 Y-53.108 Z3.073
G1 X348.537 Y-53.148 Z3.065
G1 X348.319 Y-53.172 Z3.058
G1 X348.1 Y-53.18 Z3.05
G1 X347.88 Y-53.172 Z3.042
G1 X347.662 Y-53.149 Z3.035
G1 X347.446 Y-53.109 Z3.027
G1 X347.234 Y-53.054 Z3.019
G1 X347.026 Y-52.983 Z3.012
G1 X346.824 Y-52.898 Z3.004
G1 X346.629 Y-52.798 Z2.996
G1 X346.441 Y-52.684 Z2.989
G1 X346.262 Y-52.557 Z2.981
G1 X346.093 Y-52.417 Z2.973
G1 X345.934 Y-52.265 Z2.966
G1 X345.787 Y-52.102 Z2.958
G1 X345.653 Y-51.929 Z2.95
G1 X345.531 Y-51.747 Z2.943
G1 X345.422 Y-51.556 Z2.935
G1 X345.328 Y-51.357 Z2.927
G1 X345.249 Y-51.153 Z2.92
G1 X345.184 Y-50.943 Z2.912
G1 X345.136 Y-50.729 Z2.904
G1 X345.102 Y-50.512 Z2.897
G1 X345.085 Y-50.293 Z2.889
G1 X345.083 Y-50.074 Z2.881
G1 X345.098 Y-49.855 Z2.874
G1 X345.128 Y-49.638 Z2.866
G1 X345.175 Y-49.423 Z2.858
G1 X345.236 Y-49.212 Z2.851
G1 X345.313 Y-49.007 Z2.843
G1 X345.405 Y-48.807 Z2.835
G1 X345.51 Y-48.615 Z2.828
G1 X345.63 Y-48.431 Z2.82
G1 X345.762 Y-48.256 Z2.812
G1 X345.907 Y-48.091 Z2.805
G1 X346.064 Y-47.937 Z2.797
G1 X346.231 Y-47.795 Z2.789
G1 X346.408 Y-47.666 Z2.782
G1 X346.595 Y-47.549 Z2.774
G1 X346.789 Y-47.447 Z2.766
G1 X346.99 Y-47.359 Z2.759
G1 X347.197 Y-47.286 Z2.751
G1 X347.408 Y-47.228 Z2.743
G1 X347.624 Y-47.185 Z2.736
G1 X347.841 Y-47.159 Z2.728
G1 X348.061 Y-47.148 Z2.72
G1 X348.28 Y-47.153 Z2.713
G1 X348.499 Y-47.174 Z2.705
G1 X348.715 Y-47.211 Z2.697
G1 X348.928 Y-47.264 Z2.69
G1 X349.137 Y-47.332 Z2.682
G1 X349.34 Y-47.415 Z2.674
G1 X349.536 Y-47.513 Z2.667
G1 X349.725 Y-47.624 Z2.659
G1 X349.906 Y-47.749 Z2.651
G1 X350.077 Y-47.887 Z2.644
G1 X350.237 Y-48.037 Z2.636
G1 X350.386 Y-48.198 Z2.628
G1 X350.523 Y-48.37 Z2.621
G1 X350.647 Y-48.551 Z2.613
G1 X350.757 Y-48.74 Z2.605
G1 X350.854 Y-48.937 Z2.598
G1 X350.936 Y-49.141 Z2.59
G1 X351.003 Y-49.35 Z2.582
G1 X351.054 Y-49.564 Z2.575
G1 X351.09 Y-49.78 Z2.567
G1 X351.11 Y-49.999 Z2.559
G1 X351.114 Y-50.218 Z2.552
G1 X351.102 Y-50.437 Z2.544
G1 X351.074 Y-50.655 Z2.536
G1 X351.031 Y-50.87 Z2.529
G1 X350.972 Y-51.081 Z2.521
G1 X350.897 Y-51.288 Z2.513
G1 X350.808 Y-51.488 Z2.506
G1 X350.705 Y-51.682 Z2.498
G1 X350.588 Y-51.868 Z2.49
G1 X350.457 Y-52.044 Z2.483
G1 X350.314 Y-52.211 Z2.475
G1 X350.159 Y-52.366 Z2.467
G1 X349.994 Y-52.51 Z2.46
G1 X349.818 Y-52.642 Z2.452
G1 X349.634 Y-52.76 Z2.444
G1 X349.441 Y-52.865 Z2.437
G1 X349.241 Y-52.956 Z2.429
G1 X349.035 Y-53.031 Z2.421
G1 X348.824 Y-53.092 Z2.414
G1 X348.609 Y-53.137 Z2.406
G1 X348.391 Y-53.166 Z2.398
G1 X348.172 Y-53.179 Z2.391
G1 X347.953 Y-53.177 Z2.383
G1 X347.734 Y-53.158 Z2.375
G1 X347.517 Y-53.124 Z2.368
G1 X347.304 Y-53.074 Z2.36
G1 X347.094 Y-53.008 Z2.352
G1 X346.89 Y-52.928 Z2.345
G1 X346.692 Y-52.833 Z2.337
G1 X346.502 Y-52.723 Z2.329
G1 X346.32 Y-52.6 Z2.322
G1 X346.148 Y-52.465 Z2.314
G1 X345.986 Y-52.317 Z2.306
G1 X345.835 Y-52.157 Z2.299
G1 X345.696 Y-51.987 Z2.291
G1 X345.569 Y-51.808 Z2.283
G1 X345.457 Y-51.62 Z2.276
G1 X345.358 Y-51.424 Z2.268
G1 X345.273 Y-51.221 Z2.26
G1 X345.204 Y-51.013 Z2.253
G1 X345.15 Y-50.8 Z2.245
G1 X345.112 Y-50.584 Z2.237
G1 X345.089 Y-50.366 Z2.23
G1 X345.082 Y-50.146 Z2.222
G1 X345.091 Y-49.927 Z2.214
G1 X345.117 Y-49.709 Z2.207
G1 X345.158 Y-49.493 Z2.199
G1 X345.214 Y-49.281 Z2.191
G1 X345.286 Y-49.074 Z2.184
G1 X345.373 Y-48.872 Z2.176
G1 X345.474 Y-48.678 Z2.168
G1 X345.589 Y-48.491 Z2.161
G1 X345.717 Y-48.313 Z2.153
G1 X345.858 Y-48.144 Z2.145
G1 X346.011 Y-47.987 Z2.138
G1 X346.175 Y-47.841 Z2.13
G1 X346.349 Y-47.707 Z2.122
G1 X346.532 Y-47.586 Z2.115
G1 X346.724 Y-47.479 Z2.107
G1 X346.923 Y-47.386 Z2.099
G1 X347.128 Y-47.308 Z2.092
G1 X347.338 Y-47.245 Z2.084
G1 X347.552 Y-47.198 Z2.076
G1 X347.769 Y-47.166 Z2.069
G1 X347.988 Y-47.15 Z2.061
G1 X348.208 Z2.053
G1 X348.427 Y-47.166 Z2.046
G1 X348.644 Y-47.198 Z2.038
G1 X348.858 Y-47.245 Z2.03
G1 X349.068 Y-47.308 Z2.023
G1 X349.273 Y-47.386 Z2.015
G1 X349.472 Y-47.479 Z2.007
G1 X349.664 Y-47.586 Z2
G1 X349.847 Y-47.707 Z1.992
G1 X350.021 Y-47.84 Z1.984
G1 X350.185 Y-47.986 Z1.977
G1 X350.338 Y-48.144 Z1.969
G1 X350.479 Y-48.312 Z1.961
G1 X350.607 Y-48.49 Z1.954
G1 X350.723 Y-48.677 Z1.946
G1 X350.824 Y-48.872 Z1.938
G1 X350.91 Y-49.073 Z1.931
G1 X350.982 Y-49.281 Z1.923
G1 X351.039 Y-49.493 Z1.915
G1 X351.08 Y-49.708 Z1.908
G1 X351.105 Y-49.926 Z1.9
G1 X351.115 Y-50.146 Z1.892
G1 X351.108 Y-50.365 Z1.885
G1 X351.085 Y-50.583 Z1.877
G1 X351.047 Y-50.799 Z1.869
G1 X350.993 Y-51.012 Z1.862
G1 X350.924 Y-51.22 Z1.854
G1 X350.839 Y-51.423 Z1.846
G1 X350.741 Y-51.619 Z1.839
G1 X350.628 Y-51.807 Z1.831
G1 X350.502 Y-51.987 Z1.823
G1 X350.363 Y-52.157 Z1.816
G1 X350.212 Y-52.316 Z1.808
G1 X350.05 Y-52.464 Z1.8
G1 X349.877 Y-52.6 Z1.793
G1 X349.695 Y-52.723 Z1.785
G1 X349.505 Y-52.832 Z1.777
G1 X349.307 Y-52.927 Z1.77
G1 X349.103 Y-53.008 Z1.762
G1 X348.894 Y-53.074 Z1.754
G1 X348.68 Y-53.124 Z1.747
G1 X348.463 Y-53.158 Z1.739
G1 X348.245 Y-53.177 Z1.731
G1 X348.025 Y-53.179 Z1.724
G1 X347.806 Y-53.166 Z1.716
G1 X347.589 Y-53.137 Z1.708
G1 X347.374 Y-53.092 Z1.701
G1 X347.163 Y-53.032 Z1.693
G1 X346.957 Y-52.956 Z1.685
G1 X346.757 Y-52.866 Z1.678
G1 X346.564 Y-52.761 Z1.67
G1 X346.379 Y-52.642 Z1.662
G1 X346.203 Y-52.511 Z1.655
G1 X346.038 Y-52.367 Z1.647
G1 X345.883 Y-52.211 Z1.64
G1 X345.74 Y-52.045 Z1.632
G1 X345.61 Y-51.868 Z1.624
G1 X345.492 Y-51.683 Z1.617
G1 X345.389 Y-51.489 Z1.609
G1 X345.3 Y-51.289 Z1.601
G1 X345.225 Y-51.082 Z1.594
G1 X345.166 Y-50.871 Z1.586
G1 X345.122 Y-50.656 Z1.578
G1 X345.095 Y-50.438 Z1.571
G1 X345.083 Y-50.219 Z1.563
G1 X345.087 Y-49.999 Z1.555
G1 X345.107 Y-49.781 Z1.548
G1 X345.142 Y-49.564 Z1.54
G1 X345.194 Y-49.351 Z1.532
G1 X345.261 Y-49.142 Z1.525
G1 X345.342 Y-48.938 Z1.517
G1 X345.439 Y-48.741 Z1.509
G1 X345.549 Y-48.551 Z1.502
G1 X345.673 Y-48.37 Z1.494
G1 X345.81 Y-48.199 Z1.486
G1 X345.959 Y-48.038 Z1.479
G1 X346.12 Y-47.888 Z1.471
G1 X346.29 Y-47.75 Z1.463
G1 X346.471 Y-47.625 Z1.456
G1 X346.66 Y-47.513 Z1.448
G1 X346.856 Y-47.415 Z1.44
G1 X347.059 Y-47.332 Z1.433
G1 X347.268 Y-47.264 Z1.425
G1 X347.481 Y-47.212 Z1.417
G1 X347.697 Y-47.175 Z1.41
G1 X347.916 Y-47.153 Z1.402
G1 X348.135 Y-47.148 Z1.394
G1 X348.355 Y-47.159 Z1.387
G1 X348.572 Y-47.185 Z1.379
G1 X348.788 Y-47.228 Z1.371
G1 X348.999 Y-47.286 Z1.364
G1 X349.206 Y-47.359 Z1.356
G1 X349.407 Y-47.447 Z1.348
G1 X349.602 Y-47.549 Z1.341
G1 X349.788 Y-47.665 Z1.333
G1 X349.965 Y-47.795 Z1.325
G1 X350.132 Y-47.937 Z1.318
G1 X350.289 Y-48.091 Z1.31
G1 X350.434 Y-48.255 Z1.302
G1 X350.566 Y-48.43 Z1.295
G1 X350.686 Y-48.614 Z1.287
G1 X350.792 Y-48.807 Z1.279
G1 X350.883 Y-49.006 Z1.272
G1 X350.96 Y-49.212 Z1.264
G1 X351.022 Y-49.422 Z1.256
G1 X351.068 Y-49.637 Z1.249
G1 X351.099 Y-49.854 Z1.241
G1 X351.113 Y-50.073 Z1.233
G1 X351.112 Y-50.293 Z1.226
G1 X351.095 Y-50.511 Z1.218
G1 X351.061 Y-50.728 Z1.21
G1 X351.013 Y-50.942 Z1.203
G1 X350.948 Y-51.152 Z1.195
G1 X350.869 Y-51.357 Z1.187
G1 X350.775 Y-51.555 Z1.18
G1 X350.667 Y-51.746 Z1.172
G1 X350.545 Y-51.929 Z1.164
G1 X350.41 Y-52.102 Z1.157
G1 X350.263 Y-52.265 Z1.149
G1 X350.104 Y-52.417 Z1.141
G1 X349.935 Y-52.556 Z1.134
G1 X349.756 Y-52.684 Z1.126
G1 X349.569 Y-52.798 Z1.118
G1 X349.373 Y-52.898 Z1.111
G1 X349.171 Y-52.983 Z1.103
G1 X348.964 Y-53.054 Z1.095
G1 X348.751 Y-53.109 Z1.088
G1 X348.535 Y-53.149 Z1.08
G1 X348.317 Y-53.172 Z1.072
G1 X348.098 Y-53.18 Z1.065
G1 X347.878 Y-53.172 Z1.057
G1 X347.66 Y-53.148 Z1.049
G1 X347.444 Y-53.109 Z1.042
G1 X347.232 Y-53.053 Z1.034
G1 X347.024 Y-52.983 Z1.026
G1 X346.822 Y-52.897 Z1.019
G1 X346.627 Y-52.797 Z1.011
G1 X346.439 Y-52.683 Z1.003
G1 X346.26 Y-52.556 Z0.996
G1 X346.091 Y-52.416 Z0.988
G1 X345.933 Y-52.264 Z0.98
G1 X345.786 Y-52.101 Z0.973
G1 X345.651 Y-51.927 Z0.965
G1 X345.53 Y-51.745 Z0.957
G1 X345.421 Y-51.554 Z0.95
G1 X345.327 Y-51.356 Z0.942
G1 X345.248 Y-51.151 Z0.934
G1 X345.184 Y-50.941 Z0.927
G1 X345.135 Y-50.727 Z0.919
G1 X345.102 Y-50.51 Z0.911
G1 X345.085 Y-50.291 Z0.904
G1 X345.084 Y-50.072 Z0.896
G1 X345.098 Y-49.853 Z0.888
G1 X345.129 Y-49.635 Z0.881
G1 X345.175 Y-49.421 Z0.873
G1 X345.237 Y-49.21 Z0.865
G1 X345.314 Y-49.005 Z0.858
G1 X345.405 Y-48.805 Z0.85
G1 X345.511 Y-48.613 Z0.842
G1 X345.631 Y-48.429 Z0.835
G1 X345.764 Y-48.254 Z0.827
G1 X345.909 Y-48.09 Z0.819
G1 X346.065 Y-47.936 Z0.812
G1 X346.233 Y-47.794 Z0.804
G1 X346.41 Y-47.665 Z0.796
G1 X346.596 Y-47.548 Z0.789
G1 X346.791 Y-47.446 Z0.781
G1 X346.992 Y-47.358 Z0.773
G1 X347.199 Y-47.285 Z0.766
G1 X347.41 Y-47.227 Z0.758
G1 X347.626 Y-47.185 Z0.75
G1 X347.844 Y-47.159 Z0.743
G1 X348.063 Y-47.148 Z0.735
G1 X348.282 Y-47.153 Z0.727
G1 X348.501 Y-47.175 Z0.72
G1 X348.717 Y-47.212 Z0.712
G1 X348.93 Y-47.265 Z0.704
G1 X349.139 Y-47.333 Z0.697
G1 X349.342 Y-47.416 Z0.689
G1 X349.538 Y-47.514 Z0.681
G1 X349.727 Y-47.625 Z0.674
G1 X349.907 Y-47.751 Z0.666
G1 X350.078 Y-47.889 Z0.658
G1 X350.238 Y-48.039 Z0.651
G1 X350.387 Y-48.2 Z0.643
G1 X350.524 Y-48.371 Z0.635
G1 X350.648 Y-48.553 Z0.628
G1 X350.758 Y-48.742 Z0.62
G1 X350.855 Y-48.939 Z0.612
G1 X350.937 Y-49.143 Z0.605
G1 X351.003 Y-49.352 Z0.597
G1 X351.055 Y-49.566 Z0.589
G1 X351.09 Y-49.782 Z0.582
G1 X351.11 Y-50.001 Z0.574
G1 X351.114 Y-50.22 Z0.566
G1 X351.102 Y-50.439 Z0.559
G1 X351.074 Y-50.657 Z0.551
G1 X351.03 Y-50.872 Z0.543
G1 X350.971 Y-51.083 Z0.536
G1 X350.897 Y-51.29 Z0.528
G1 X350.807 Y-51.49 Z0.52
G1 X350.704 Y-51.684 Z0.513
G1 X350.586 Y-51.869 Z0.505
G1 X350.456 Y-52.046 Z0.497
G1 X350.313 Y-52.212 Z0.49
G1 X350.158 Y-52.368 Z0.482
G1 X349.992 Y-52.512 Z0.474
G1 X349.817 Y-52.643 Z0.467
G1 X349.632 Y-52.762 Z0.459
G1 X349.439 Y-52.866 Z0.451
G1 X349.239 Y-52.956 Z0.444
G1 X349.033 Y-53.032 Z0.436
G1 X348.822 Y-53.092 Z0.428
G1 X348.607 Y-53.137 Z0.421
G1 X348.389 Y-53.166 Z0.413
G1 X348.17 Y-53.179 Z0.405
G1 X347.951 Y-53.177 Z0.398
G1 X347.732 Y-53.158 Z0.39
G1 X347.515 Y-53.123 Z0.382
G1 X347.302 Y-53.073 Z0.375
G1 X347.092 Y-53.008 Z0.367
G1 X346.888 Y-52.927 Z0.359
G1 X346.69 Y-52.832 Z0.352
G1 X346.5 Y-52.722 Z0.344
G1 X346.318 Y-52.599 Z0.336
G1 X346.146 Y-52.463 Z0.329
G1 X345.984 Y-52.315 Z0.321
G1 X345.833 Y-52.156 Z0.313
G1 X345.694 Y-51.986 Z0.306
G1 X345.568 Y-51.806 Z0.298
G1 X345.456 Y-51.618 Z0.29
G1 X345.357 Y-51.422 Z0.283
G1 X345.273 Y-51.219 Z0.275
G1 X345.203 Y-51.011 Z0.267
G1 X345.15 Y-50.798 Z0.26
G1 X345.111 Y-50.582 Z0.252
G1 X345.089 Y-50.364 Z0.244
G1 X345.082 Y-50.144 Z0.237
G1 X345.092 Y-49.925 Z0.229
G1 X345.117 Y-49.707 Z0.221
G1 X345.158 Y-49.491 Z0.214
G1 X345.215 Y-49.279 Z0.206
G1 X345.287 Y-49.072 Z0.198
G1 X345.374 Y-48.87 Z0.191
G1 X345.475 Y-48.676 Z0.183
G1 X345.59 Y-48.489 Z0.175
G1 X345.719 Y-48.311 Z0.168
G1 X345.86 Y-48.143 Z0.16
G1 X346.013 Y-47.985 Z0.152
G1 X346.176 Y-47.839 Z0.145
G1 X346.351 Y-47.706 Z0.137
G1 X346.534 Y-47.585 Z0.129
G1 X346.726 Y-47.478 Z0.122
G1 X346.925 Y-47.386 Z0.114
G1 X347.13 Y-47.308 Z0.106
G1 X347.34 Y-47.245 Z0.099
G1 X347.554 Y-47.197 Z0.091
G1 X347.771 Y-47.166 Z0.083
G1 X347.99 Y-47.15 Z0.076
G1 X348.21 Z0.068
G1 X348.429 Y-47.166 Z0.06
G1 X348.646 Y-47.198 Z0.053
G1 X348.86 Y-47.246 Z0.045
G1 X349.07 Y-47.309 Z0.037
G1 X349.275 Y-47.387 Z0.03
G1 X349.474 Y-47.48 Z0.022
G1 X349.666 Y-47.587 Z0.014
G1 X349.849 Y-47.708 Z0.007
G1 X350.023 Y-47.842 Z-0.001
G1 X350.187 Y-47.988 Z-0.009
G1 X350.339 Y-48.145 Z-0.016
G1 X350.48 Y-48.314 Z-0.024
G1 X350.609 Y-48.492 Z-0.032
G1 X350.724 Y-48.679 Z-0.039
G1 X350.825 Y-48.874 Z-0.047
G1 X350.911 Y-49.075 Z-0.055
G1 X350.983 Y-49.283 Z-0.062
G1 X351.039 Y-49.495 Z-0.07
G1 X351.08 Y-49.71 Z-0.078
G1 X351.105 Y-49.928 Z-0.085
G1 X351.115 Y-50.148 Z-0.093
G1 X351.108 Y-50.367 Z-0.101
G1 X351.085 Y-50.585 Z-0.108
G1 X351.047 Y-50.801 Z-0.116
G1 X350.992 Y-51.014 Z-0.124
G1 X350.923 Y-51.222 Z-0.131
G1 X350.838 Y-51.425 Z-0.139
G1 X350.74 Y-51.621 Z-0.147
G1 X350.627 Y-51.809 Z-0.154
G1 X350.5 Y-51.988 Z-0.162
G1 X350.361 Y-52.158 Z-0.17
G1 X350.21 Y-52.318 Z-0.177
G1 X350.048 Y-52.465 Z-0.185
G1 X349.876 Y-52.601 Z-0.193
G1 X349.694 Y-52.724 Z-0.2
G1 X349.503 Y-52.833 Z-0.208
G1 X349.306 Y-52.928 Z-0.216
G1 X349.101 Y-53.009 Z-0.223
G1 X348.892 Y-53.074 Z-0.231
G1 X348.678 Y-53.124 Z-0.239
G1 X348.461 Y-53.158 Z-0.246
G1 X348.243 Y-53.177 Z-0.254
G1 X348.023 Y-53.179 Z-0.262
G1 X347.804 Y-53.166 Z-0.269
G1 X347.587 Y-53.137 Z-0.277
G1 X347.372 Y-53.092 Z-0.285
G1 X347.161 Y-53.031 Z-0.292
G1 X346.955 Y-52.955 Z-0.3
G1 X346.755 Y-52.865 Z-0.308
G1 X346.562 Y-52.76 Z-0.315
G1 X346.377 Y-52.641 Z-0.323
G1 X346.202 Y-52.509 Z-0.331
G1 X346.036 Y-52.365 Z-0.338
G1 X345.882 Y-52.21 Z-0.346
G1 X345.739 Y-52.043 Z-0.354
G1 X345.608 Y-51.866 Z-0.361
G1 X345.491 Y-51.681 Z-0.369
G1 X345.388 Y-51.487 Z-0.377
G1 X345.299 Y-51.287 Z-0.384
G1 X345.225 Y-51.08 Z-0.392
G1 X345.166 Y-50.869 Z-0.4
G1 X345.122 Y-50.654 Z-0.407
G1 X345.094 Y-50.436 Z-0.415
G1 X345.083 Y-50.217 Z-0.423
G1 X345.087 Y-49.997 Z-0.43
G1 X345.107 Y-49.779 Z-0.438
G1 X345.143 Y-49.562 Z-0.446
G1 X345.194 Y-49.349 Z-0.453
G1 X345.261 Y-49.14 Z-0.461
G1 X345.343 Y-48.936 Z-0.469
G1 X345.44 Y-48.739 Z-0.476
G1 X345.551 Y-48.55 Z-0.484
G1 X345.675 Y-48.369 Z-0.492
G1 X345.812 Y-48.197 Z-0.499
G1 X345.961 Y-48.036 Z-0.507
G1 X346.121 Y-47.886 Z-0.515
G1 X346.292 Y-47.749 Z-0.522
G1 X346.472 Y-47.624 Z-0.53
G1 X346.662 Y-47.512 Z-0.538
G1 X346.858 Y-47.415 Z-0.545
G1 X347.061 Y-47.332 Z-0.553
G1 X347.27 Y-47.264 Z-0.561
G1 X347.483 Y-47.211 Z-0.568
G1 X347.7 Y-47.174 Z-0.576
G1 X347.918 Y-47.153 Z-0.584
G1 X348.137 Y-47.148 Z-0.591
G1 X348.357 Y-47.159 Z-0.599
G1 X348.574 Y-47.186 Z-0.607
G1 X348.79 Y-47.228 Z-0.614
G1 X349.001 Y-47.286 Z-0.622
G1 X349.208 Y-47.359 Z-0.63
G1 X349.409 Y-47.448 Z-0.637
G1 X349.603 Y-47.55 Z-0.645
G1 X349.789 Y-47.666 Z-0.653
G1 X349.967 Y-47.796 Z-0.66
G1 X350.134 Y-47.938 Z-0.668
G1 X350.29 Y-48.092 Z-0.676
G1 X350.435 Y-48.257 Z-0.683
G1 X350.568 Y-48.432 Z-0.691
G1 X350.687 Y-48.616 Z-0.699
G1 X350.793 Y-48.808 Z-0.706
G1 X350.884 Y-49.008 Z-0.714
G1 X350.961 Y-49.214 Z-0.722
G1 X351.023 Y-49.424 Z-0.729
G1 X351.069 Y-49.639 Z-0.737
G1 X351.099 Y-49.856 Z-0.745
G1 X351.113 Y-50.075 Z-0.752
G1 X351.112 Y-50.295 Z-0.76
G1 X351.094 Y-50.513 Z-0.768
G1 X351.061 Y-50.73 Z-0.775
G1 X351.012 Y-50.944 Z-0.783
G1 X350.948 Y-51.154 Z-0.791
G1 X350.868 Y-51.359 Z-0.798
G1 X350.774 Y-51.557 Z-0.806
G1 X350.665 Y-51.748 Z-0.814
G1 X350.543 Y-51.93 Z-0.821
G1 X350.409 Y-52.103 Z-0.829
G1 X350.261 Y-52.266 Z-0.837
G1 X350.103 Y-52.418 Z-0.844
G1 X349.934 Y-52.558 Z-0.852
G1 X349.755 Y-52.685 Z-0.86
G1 X349.567 Y-52.799 Z-0.867
G1 X349.372 Y-52.898 Z-0.875
G1 X349.169 Y-52.984 Z-0.883
G1 X348.961 Y-53.054 Z-0.89
G1 X348.749 Y-53.109 Z-0.898
G1 X348.533 Y-53.149 Z-0.906
G1 X348.315 Y-53.173 Z-0.913
G1 X348.096 Y-53.18 Z-0.921
G1 X347.876 Y-53.172 Z-0.929
G1 X347.658 Y-53.148 Z-0.936
G1 X347.442 Y-53.108 Z-0.944
G1 X347.23 Y-53.053 Z-0.952
G1 X347.022 Y-52.982 Z-0.959
G1 X346.82 Y-52.896 Z-0.967
G1 X346.625 Y-52.796 Z-0.975
G1 X346.437 Y-52.682 Z-0.982
G1 X346.259 Y-52.554 Z-0.99
G1 X346.09 Y-52.414 Z-0.998
G1 X345.931 Y-52.262 Z-1.005
G1 X345.785 Y-52.099 Z-1.013
G1 X345.65 Y-51.926 Z-1.021
G1 X345.528 Y-51.743 Z-1.028
G1 X345.42 Y-51.552 Z-1.036
G1 X345.327 Y-51.354 Z-1.044
G1 X345.247 Y-51.149 Z-1.051
G1 X345.183 Y-50.939 Z-1.059
G1 X345.135 Y-50.725 Z-1.067
G1 X345.102 Y-50.508 Z-1.074
G1 X345.085 Y-50.289 Z-1.082
G1 X345.084 Y-50.07 Z-1.09
G1 X345.098 Y-49.851 Z-1.097
G1 X345.129 Y-49.633 Z-1.105
G1 X345.176 Y-49.419 Z-1.113
G1 X345.238 Y-49.208 Z-1.12
G1 X345.315 Y-49.003 Z-1.128
G1 X345.406 Y-48.803 Z-1.136
G1 X345.513 Y-48.611 Z-1.143
G1 X345.632 Y-48.427 Z-1.151
G1 X345.765 Y-48.253 Z-1.159
G1 X345.91 Y-48.088 Z-1.166
G1 X346.067 Y-47.934 Z-1.174
G1 X346.235 Y-47.793 Z-1.182
G1 X346.412 Y-47.663 Z-1.189
G1 X346.598 Y-47.547 Z-1.197
G1 X346.792 Y-47.445 Z-1.205
G1 X346.994 Y-47.357 Z-1.212
G1 X347.201 Y-47.285 Z-1.22
G1 X347.412 Y-47.227 Z-1.228
G1 X347.628 Y-47.185 Z-1.235
G1 X347.846 Y-47.158 Z-1.243
G1 X348.065 Y-47.148 Z-1.251
G1 X348.284 Y-47.154 Z-1.258
G1 X348.503 Y-47.175 Z-1.266
G1 X348.719 Y-47.212 Z-1.274
G1 X348.932 Y-47.265 Z-1.281
G1 X349.141 Y-47.334 Z-1.289
G1 X349.344 Y-47.417 Z-1.297
G1 X349.54 Y-47.515 Z-1.304
G1 X349.729 Y-47.627 Z-1.312
G1 X349.909 Y-47.752 Z-1.32
G1 X350.08 Y-47.89 Z-1.327
G1 X350.24 Y-48.04 Z-1.335
G1 X350.389 Y-48.201 Z-1.343
G1 X350.525 Y-48.373 Z-1.35
G1 X350.649 Y-48.554 Z-1.358
G1 X350.759 Y-48.744 Z-1.366
G1 X350.856 Y-48.941 Z-1.373
G1 X350.937 Y-49.145 Z-1.381
G1 X351.004 Y-49.354 Z-1.389
G1 X351.055 Y-49.568 Z-1.396
G1 X351.091 Y-49.784 Z-1.404
G1 X351.11 Y-50.003 Z-1.412
G1 X351.114 Y-50.222 Z-1.419
G1 X351.102 Y-50.441 Z-1.427
G1 X351.074 Y-50.659 Z-1.435
G1 X351.03 Y-50.874 Z-1.442
G1 X350.97 Y-51.085 Z-1.45
G1 X350.896 Y-51.292 Z-1.458
G1 X350.806 Y-51.492 Z-1.465
G1 X350.703 Y-51.686 Z-1.473
G1 X350.585 Y-51.871 Z-1.481
G1 X350.454 Y-52.047 Z-1.488
G1 X350.311 Y-52.214 Z-1.496
G1 X350.156 Y-52.369 Z-1.504
G1 X349.991 Y-52.513 Z-1.511
G1 X349.815 Y-52.644 Z-1.519
G1 X349.63 Y-52.763 Z-1.527
G1 X349.437 Y-52.867 Z-1.534
G1 X349.237 Y-52.957 Z-1.542
G1 X349.031 Y-53.033 Z-1.55
G1 X348.82 Y-53.093 Z-1.557
G1 X348.605 Y-53.138 Z-1.565
G1 X348.387 Y-53.166 Z-1.573
G1 X348.168 Y-53.18 Z-1.58
G1 X347.949 Y-53.177 Z-1.588
G1 X347.73 Y-53.158 Z-1.596
G1 X347.513 Y-53.123 Z-1.603
G1 X347.3 Y-53.073 Z-1.611
G1 X347.09 Y-53.007 Z-1.619
G1 X346.886 Y-52.926 Z-1.626
G1 X346.689 Y-52.831 Z-1.634
G1 X346.498 Y-52.721 Z-1.642
G1 X346.317 Y-52.598 Z-1.649
G1 X346.144 Y-52.462 Z-1.657
G1 X345.983 Y-52.314 Z-1.665
G1 X345.832 Y-52.154 Z-1.672
G1 X345.693 Y-51.984 Z-1.68
G1 X345.567 Y-51.804 Z-1.688
G1 X345.455 Y-51.616 Z-1.695
G1 X345.356 Y-51.42 Z-1.703
G1 X345.272 Y-51.217 Z-1.711
G1 X345.203 Y-51.009 Z-1.718
G1 X345.149 Y-50.796 Z-1.726
G1 X345.111 Y-50.58 Z-1.734
G1 X345.089 Y-50.362 Z-1.741
G1 X345.082 Y-50.142 Z-1.749
G1 X345.092 Y-49.923 Z-1.757
G1 X345.117 Y-49.705 Z-1.764
G1 X345.159 Y-49.489 Z-1.772
G1 X345.215 Y-49.277 Z-1.78
G1 X345.288 Y-49.07 Z-1.787
G1 X345.375 Y-48.869 Z-1.795
G1 X345.476 Y-48.674 Z-1.803
G1 X345.591 Y-48.487 Z-1.81
G1 X345.72 Y-48.309 Z-1.818
G1 X345.861 Y-48.141 Z-1.826
G1 X346.014 Y-47.984 Z-1.833
G1 X346.178 Y-47.838 Z-1.841
G1 X346.352 Y-47.705 Z-1.849
G1 X346.536 Y-47.584 Z-1.856
G1 X346.728 Y-47.477 Z-1.864
G1 X346.927 Y-47.385 Z-1.872
G1 X347.132 Y-47.307 Z-1.879
G1 X347.342 Y-47.244 Z-1.887
G1 X347.556 Y-47.197 Z-1.895
G1 X347.774 Y-47.165 Z-1.902
G1 X347.992 Y-47.15 Z-1.91
G1 X348.212 Z-1.918
G1 X348.431 Y-47.166 Z-1.925
G1 X348.648 Y-47.198 Z-1.933
G1 X348.862 Y-47.246 Z-1.941
G1 X349.072 Y-47.309 Z-1.948
G1 X349.277 Y-47.388 Z-1.956
G1 X349.476 Y-47.481 Z-1.964
G1 X349.668 Y-47.588 Z-1.971
G1 X349.851 Y-47.709 Z-1.979
G1 X350.025 Y-47.843 Z-1.987
G1 X350.188 Y-47.989 Z-1.994
G1 X350.341 Y-48.147 Z-2.002
G1 X350.482 Y-48.315 Z-2.01
G1 X350.61 Y-48.494 Z-2.017
G1 X350.725 Y-48.681 Z-2.025
G1 X350.826 Y-48.875 Z-2.033
G1 X350.912 Y-49.077 Z-2.04
G1 X350.984 Y-49.285 Z-2.048
G1 X351.04 Y-49.497 Z-2.056
G1 X351.081 Y-49.712 Z-2.063
G1 X351.106 Y-49.93 Z-2.071
G1 X351.115 Y-50.15 Z-2.079
G1 X351.108 Y-50.369 Z-2.086
G1 X351.085 Y-50.587 Z-2.094
G1 X351.046 Y-50.803 Z-2.102
G1 X350.992 Y-51.016 Z-2.109
G1 X350.922 Y-51.224 Z-2.117
G1 X350.838 Y-51.427 Z-2.125
G1 X350.739 Y-51.623 Z-2.132
G1 X350.625 Y-51.811 Z-2.14
G1 X350.499 Y-51.99 Z-2.148
G1 X350.36 Y-52.16 Z-2.155
G1 X350.209 Y-52.319 Z-2.163
G1 X350.047 Y-52.467 Z-2.17
G1 X349.874 Y-52.602 Z-2.178
G1 X349.692 Y-52.725 Z-2.186
G1 X349.501 Y-52.834 Z-2.193
G1 X349.304 Y-52.929 Z-2.201
G1 X349.099 Y-53.009 Z-2.209
G1 X348.89 Y-53.075 Z-2.216
G1 X348.676 Y-53.125 Z-2.224
G1 X348.459 Y-53.159 Z-2.232
G1 X348.241 Y-53.177 Z-2.239
G1 X348.021 Y-53.179 Z-2.247
G1 X347.802 Y-53.166 Z-2.255
G1 X347.585 Y-53.136 Z-2.262
G1 X347.37 Y-53.091 Z-2.27
G1 X347.159 Y-53.03 Z-2.278
G1 X346.953 Y-52.954 Z-2.285
G1 X346.753 Y-52.864 Z-2.293
G1 X346.56 Y-52.759 Z-2.301
G1 X346.376 Y-52.64 Z-2.308
G1 X346.2 Y-52.508 Z-2.316
G1 X346.035 Y-52.364 Z-2.324
G1 X345.88 Y-52.208 Z-2.331
G1 X345.738 Y-52.041 Z-2.339
G1 X345.607 Y-51.865 Z-2.347
G1 X345.49 Y-51.679 Z-2.354
G1 X345.387 Y-51.485 Z-2.362
G1 X345.298 Y-51.285 Z-2.37
G1 X345.224 Y-51.078 Z-2.377
G1 X345.165 Y-50.867 Z-2.385
G1 X345.122 Y-50.652 Z-2.393
G1 X345.094 Y-50.434 Z-2.4
G1 X345.083 Y-50.215 Z-2.408
G1 X345.087 Y-49.995 Z-2.416
G1 X345.107 Y-49.777 Z-2.423
G1 X345.143 Y-49.56 Z-2.431
G1 X345.195 Y-49.347 Z-2.439
G1 X345.262 Y-49.138 Z-2.446
G1 X345.344 Y-48.934 Z-2.454
G1 X345.441 Y-48.737 Z-2.462
G1 X345.552 Y-48.548 Z-2.469
G1 X345.676 Y-48.367 Z-2.477
G1 X345.813 Y-48.196 Z-2.485
G1 X345.962 Y-48.035 Z-2.492
G1 X346.123 Y-47.885 Z-2.5
G1 X346.294 Y-47.747 Z-2.508
G1 X346.474 Y-47.622 Z-2.515
G1 X346.663 Y-47.511 Z-2.523
G1 X346.86 Y-47.414 Z-2.531
G1 X347.063 Y-47.331 Z-2.538
G1 X347.272 Y-47.263 Z-2.546
G1 X347.485 Y-47.211 Z-2.554
G1 X347.702 Y-47.174 Z-2.561
G1 X347.92 Y-47.153 Z-2.569
G1 X348.14 Y-47.148 Z-2.577
G1 X348.359 Y-47.159 Z-2.584
G1 X348.577 Y-47.186 Z-2.592
G1 X348.792 Y-47.229 Z-2.6
G1 X349.003 Y-47.287 Z-2.607
G1 X349.21 Y-47.36 Z-2.615
G1 X349.411 Y-47.449 Z-2.623
G1 X349.605 Y-47.551 Z-2.63
G1 X349.791 Y-47.668 Z-2.638
G1 X349.968 Y-47.797 Z-2.646
G1 X350.135 Y-47.94 Z-2.653
G1 X350.292 Y-48.094 Z-2.661
G1 X350.437 Y-48.259 Z-2.669
G1 X350.569 Y-48.434 Z-2.676
G1 X350.688 Y-48.618 Z-2.684
G1 X350.794 Y-48.81 Z-2.692
G1 X350.885 Y-49.01 Z-2.699
G1 X350.962 Y-49.216 Z-2.707
G1 X351.023 Y-49.426 Z-2.715
G1 X351.069 Y-49.641 Z-2.722
G1 X351.099 Y-49.858 Z-2.73
G1 X351.113 Y-50.077 Z-2.738
G1 X351.112 Y-50.297 Z-2.745
G1 X351.094 Y-50.516 Z-2.753
G1 X351.061 Y-50.732 Z-2.761
G1 X351.011 Y-50.946 Z-2.768
G1 X350.947 Y-51.156 Z-2.776
G1 X350.867 Y-51.361 Z-2.784
G1 X350.773 Y-51.559 Z-2.791
G1 X350.664 Y-51.75 Z-2.799
G1 X350.542 Y-51.932 Z-2.807
G1 X350.407 Y-52.105 Z-2.814
G1 X350.26 Y-52.268 Z-2.822
G1 X350.101 Y-52.419 Z-2.83
G1 X349.932 Y-52.559 Z-2.837
G1 X349.753 Y-52.686 Z-2.845
G1 X349.565 Y-52.8 Z-2.853
G1 X349.37 Y-52.899 Z-2.86
G1 X349.167 Y-52.985 Z-2.868
G1 X348.959 Y-53.055 Z-2.876
G1 X348.747 Y-53.11 Z-2.883
G1 X348.531 Y-53.149 Z-2.891
G1 X348.313 Y-53.173 Z-2.899
G1 X348.094 Y-53.18 Z-2.906
G1 X347.874 Y-53.172 Z-2.914
G1 X347.656 Y-53.148 Z-2.922
G1 X347.44 Y-53.108 Z-2.929
G1 X347.228 Y-53.052 Z-2.937
G1 X347.02 Y-52.981 Z-2.945
G1 X346.818 Y-52.895 Z-2.952
G1 X346.623 Y-52.795 Z-2.96
G1 X346.436 Y-52.681 Z-2.968
G1 X346.257 Y-52.553 Z-2.975
G1 X346.088 Y-52.413 Z-2.983
G1 X345.93 Y-52.261 Z-2.991
G1 X345.783 Y-52.098 Z-2.998
G1 X345.649 Y-51.924 Z-3.006
G1 X345.527 Y-51.741 Z-3.014
G1 X345.419 Y-51.55 Z-3.021
G1 X345.326 Y-51.352 Z-3.029
G1 X345.247 Y-51.147 Z-3.037
G1 X345.183 Y-50.937 Z-3.044
G1 X345.134 Y-50.723 Z-3.052
G1 X345.102 Y-50.506 Z-3.06
G1 X345.085 Y-50.287 Z-3.067
G1 X345.084 Y-50.068 Z-3.075
G1 X345.099 Y-49.849 Z-3.083
G1 X345.13 Y-49.631 Z-3.09
G1 X345.176 Y-49.417 Z-3.098
G1 X345.238 Y-49.206 Z-3.106
G1 X345.315 Y-49.001 Z-3.113
G1 X345.407 Y-48.802 Z-3.121
G1 X345.514 Y-48.61 Z-3.129
G1 X345.633 Y-48.426 Z-3.136
G1 X345.766 Y-48.251 Z-3.144
G1 X345.912 Y-48.087 Z-3.152
G1 X346.069 Y-47.933 Z-3.159
G1 X346.236 Y-47.791 Z-3.167
G1 X346.414 Y-47.662 Z-3.175
G1 X346.6 Y-47.546 Z-3.182
G1 X346.794 Y-47.444 Z-3.19
G1 X346.996 Y-47.357 Z-3.198
G1 X347.203 Y-47.284 Z-3.205
G1 X347.414 Y-47.226 Z-3.213
G1 X347.63 Y-47.184 Z-3.221
G1 X347.848 Y-47.158 Z-3.228
G1 X348.067 Y-47.148 Z-3.236
G1 X348.286 Y-47.154 Z-3.244
G1 X348.505 Y-47.175 Z-3.251
G1 X348.721 Y-47.213 Z-3.259
G1 X348.934 Y-47.266 Z-3.267
G1 X349.143 Y-47.334 Z-3.274
G1 X349.346 Y-47.418 Z-3.282
G1 X349.542 Y-47.516 Z-3.29
G1 X349.731 Y-47.628 Z-3.297
G1 X349.911 Y-47.753 Z-3.305
G1 X350.081 Y-47.891 Z-3.313
G1 X350.241 Y-48.042 Z-3.32
G1 X350.39 Y-48.203 Z-3.328
G1 X350.527 Y-48.375 Z-3.336
G1 X350.65 Y-48.556 Z-3.343
G1 X350.76 Y-48.746 Z-3.351
G1 X350.857 Y-48.943 Z-3.359
G1 X350.938 Y-49.147 Z-3.366
G1 X351.004 Y-49.356 Z-3.374
G1 X351.056 Y-49.57 Z-3.382
G1 X351.091 Y-49.786 Z-3.389
G1 X351.11 Y-50.005 Z-3.397
G1 X351.114 Y-50.224 Z-3.405
G1 X351.102 Y-50.443 Z-3.412
G1 X351.073 Y-50.661 Z-3.42
G1 X351.029 Y-50.876 Z-3.428
G1 X350.97 Y-51.087 Z-3.435
G1 X350.895 Y-51.294 Z-3.443
G1 X350.806 Y-51.494 Z-3.451
G1 X350.702 Y-51.687 Z-3.458
G1 X350.584 Y-51.873 Z-3.466
G1 X350.453 Y-52.049 Z-3.474
G1 X350.31 Y-52.215 Z-3.481
G1 X350.155 Y-52.371 Z-3.489
G1 X349.989 Y-52.514 Z-3.497
G1 X349.813 Y-52.646 Z-3.504
G1 X349.628 Y-52.764 Z-3.512
G1 X349.435 Y-52.868 Z-3.52
G1 X349.235 Y-52.958 Z-3.527
G1 X349.029 Y-53.033 Z-3.535
G1 X348.818 Y-53.093 Z-3.543
G1 X348.603 Y-53.138 Z-3.55
G1 X348.385 Y-53.167 Z-3.558
G1 X348.166 Y-53.18 Z-3.566
G1 X347.947 Y-53.177 Z-3.573
G1 X347.728 Y-53.157 Z-3.581
G1 X347.511 Y-53.123 Z-3.589
G1 X347.298 Y-53.072 Z-3.596
G1 X347.088 Y-53.006 Z-3.604
G1 X346.884 Y-52.925 Z-3.612
G1 X346.687 Y-52.83 Z-3.619
G1 X346.497 Y-52.72 Z-3.627
G1 X346.315 Y-52.597 Z-3.635
G1 X346.143 Y-52.461 Z-3.642
G1 X345.981 Y-52.312 Z-3.65
G1 X345.83 Y-52.153 Z-3.658
G1 X345.692 Y-51.982 Z-3.665
G1 X345.566 Y-51.803 Z-3.673
G1 X345.454 Y-51.614 Z-3.681
G1 X345.355 Y-51.418 Z-3.688
G1 X345.271 Y-51.215 Z-3.696
G1 X345.202 Y-51.007 Z-3.704
G1 X345.149 Y-50.794 Z-3.711
G1 X345.111 Y-50.578 Z-3.719
G1 X345.088 Y-50.359 Z-3.727
G1 X345.082 Y-50.14 Z-3.734
G1 X345.092 Y-49.921 Z-3.742
G1 X345.118 Y-49.703 Z-3.75
G1 X345.159 Y-49.487 Z-3.757
G1 X345.216 Y-49.275 Z-3.765
G1 X345.288 Y-49.068 Z-3.773
G1 X345.375 Y-48.867 Z-3.78
G1 X345.477 Y-48.672 Z-3.788
G1 X345.592 Y-48.485 Z-3.796
G1 X345.721 Y-48.308 Z-3.803
G1 X345.862 Y-48.14 Z-3.811
G1 X346.016 Y-47.982 Z-3.819
G1 X346.18 Y-47.837 Z-3.826
G1 X346.354 Y-47.703 Z-3.834
G1 X346.538 Y-47.583 Z-3.842
G1 X346.729 Y-47.476 Z-3.849
G1 X346.928 Y-47.384 Z-3.857
G1 X347.134 Y-47.306 Z-3.865
G1 X347.344 Y-47.244 Z-3.872
G1 X347.558 Y-47.197 Z-3.88
G1 X347.776 Y-47.165 Z-3.888
G1 X347.995 Y-47.15 Z-3.895
G1 X348.214 Z-3.903
G1 X348.433 Y-47.166 Z-3.911
G1 X348.65 Y-47.199 Z-3.918
G1 X348.864 Y-47.247 Z-3.926
G1 X349.074 Y-47.31 Z-3.934
G1 X349.279 Y-47.389 Z-3.941
G1 X349.478 Y-47.482 Z-3.949
G1 X349.669 Y-47.589 Z-3.957
G1 X349.852 Y-47.71 Z-3.964
G1 X350.026 Y-47.844 Z-3.972
G1 X350.19 Y-47.991 Z-3.98
G1 X350.342 Y-48.148 Z-3.987
G1 X350.483 Y-48.317 Z-3.995
G1 X350.611 Y-48.495 Z-4.003
G1 X350.726 Y-48.682 Z-4.01
G1 X350.826 Y-48.877 Z-4.018
G1 X350.913 Y-49.079 Z-4.026
G1 X350.984 Y-49.287 Z-4.033
G1 X351.04 Y-49.499 Z-4.041
G1 X351.081 Y-49.715 Z-4.049
G1 X351.106 Y-49.933 Z-4.056
G1 X351.115 Y-50.152 Z-4.064
G1 Y-50.18
G1 Y-50.181
G1 X351.107 Y-50.218
G1 X351.086 Y-50.25
G1 X351.055 Y-50.271
G1 X351.017 Y-50.279
G1 X269.11 Y-50.614
G1 X269.071 Y-50.608
G1 X269.036 Y-50.59
G1 X269.008 Y-50.562
G1 X268.99 Y-50.527
G1 X268.984 Y-50.489
G1 Y-50.488
G1 X268.99 Y-50.449
G1 X269.008 Y-50.414
G1 X269.035 Y-50.386
G1 X269.07 Y-50.368
G1 X269.109 Y-50.362
G1 X351.016 Y-50.026
G1 X351.017
G1 X351.054 Y-50.033
G1 X351.086 Y-50.055
G1 X351.107 Y-50.086
G1 X351.115 Y-50.123
G1 Y-50.152
G3 X352.449 Y-52.711 I3.146 J0.013
G2 X352.814 Y-54.822 I-0.873 J-1.238
G2 X351.582 Y-55.464 I-1.238 J0.873
G1 X265.699 Y-55.816
G3 X263.073 Y-56.932 I0.015 J-3.683
G2 X262.625 Y-56.938 I-0.227 J0.221
G2 X262.529 Y-56.712 I0.221 J0.227
G2 X262.624 Y-56.486 I0.317 J0.001
G3 X263.718 Y-53.85 I-2.589 J2.62
G1 X263.69 Y-47.17
G3 X262.575 Y-44.545 I-3.683 J-0.015
G2 X262.568 Y-44.096 I0.221 J0.227
G2 X262.794 Y-44 I0.227 J-0.221
G2 X263.021 Y-44.094 I0.001 J-0.317
G3 X265.656 Y-45.188 I2.62 J2.589
G1 X354.307 Y-44.824
G3 X356.933 Y-43.709 I-0.015 J3.683
G2 X357.381 Y-43.702 I0.227 J-0.221
G2 X357.477 Y-43.928 I-0.221 J-0.227
G2 X357.383 Y-44.155 I-0.317 J-0.001
G3 X356.289 Y-46.79 I2.589 J-2.619
G1 X356.316 Y-53.471
G3 X357.432 Y-56.097 I3.683 J0.015
G2 X357.438 Y-56.545 I-0.221 J-0.227
G2 X357.212 Y-56.641 I-0.227 J0.221
G2 X356.986 Y-56.547 I-0.001 J0.317
G3 X354.351 Y-55.453 I-2.62 J-2.589
G1 X351.582 Y-55.464
G0 Z6.096
G0 X346.768 Y-47.457
G1 Z-1.524 F508.
G1 X346.969 Y-47.367 Z-1.532
G1 X347.175 Y-47.293 Z-1.539
G1 X347.387 Y-47.233 Z-1.547
G1 X347.602 Y-47.189 Z-1.555
G1 X347.819 Y-47.161 Z-1.562
G1 X348.039 Y-47.148 Z-1.57
G1 X348.258 Y-47.152 Z-1.578
G1 X348.477 Y-47.172 Z-1.585
G1 X348.694 Y-47.207 Z-1.593
G1 X348.907 Y-47.258 Z-1.601
G1 X349.116 Y-47.325 Z-1.608
G1 X349.32 Y-47.406 Z-1.616
G1 X349.518 Y-47.503 Z-1.624
G1 X349.707 Y-47.613 Z-1.631
G1 X349.889 Y-47.737 Z-1.639
G1 X350.061 Y-47.873 Z-1.647
G1 X350.222 Y-48.022 Z-1.654
G1 X350.372 Y-48.182 Z-1.662
G1 X350.51 Y-48.353 Z-1.67
G1 X350.636 Y-48.533 Z-1.677
G1 X350.748 Y-48.722 Z-1.685
G1 X350.846 Y-48.919 Z-1.693
G1 X350.929 Y-49.122 Z-1.7
G1 X350.997 Y-49.331 Z-1.708
G1 X351.05 Y-49.544 Z-1.716
G1 X351.087 Y-49.76 Z-1.723
G1 X351.109 Y-49.979 Z-1.731
G1 X351.114 Y-50.198 Z-1.739
G1 X351.104 Y-50.417 Z-1.746
G1 X351.078 Y-50.635 Z-1.754
G1 X351.035 Y-50.851 Z-1.762
G1 X350.978 Y-51.063 Z-1.769
G1 X350.905 Y-51.27 Z-1.777
G1 X350.817 Y-51.471 Z-1.785
G1 X350.714 Y-51.665 Z-1.792
G1 X350.598 Y-51.852 Z-1.8
G1 X350.469 Y-52.029 Z-1.808
G1 X350.327 Y-52.197 Z-1.815
G1 X350.173 Y-52.353 Z-1.823
G1 X350.008 Y-52.498 Z-1.831
G1 X349.834 Y-52.631 Z-1.838
G1 X349.649 Y-52.751 Z-1.846
G1 X349.457 Y-52.857 Z-1.854
G1 X349.258 Y-52.949 Z-1.861
G1 X349.052 Y-53.026 Z-1.869
G1 X348.841 Y-53.087 Z-1.877
G1 X348.627 Y-53.134 Z-1.884
G1 X348.409 Y-53.164 Z-1.892
G1 X348.19 Y-53.179 Z-1.9
G1 X347.971 Y-53.178 Z-1.907
G1 X347.752 Y-53.16 Z-1.915
G1 X347.535 Y-53.127 Z-1.923
G1 X347.321 Y-53.078 Z-1.93
G1 X347.111 Y-53.014 Z-1.938
G1 X346.906 Y-52.935 Z-1.946
G1 X346.708 Y-52.841 Z-1.953
G1 X346.517 Y-52.732 Z-1.961
G1 X346.334 Y-52.61 Z-1.969
G1 X346.161 Y-52.476 Z-1.976
G1 X345.998 Y-52.328 Z-1.984
G1 X345.846 Y-52.17 Z-1.992
G1 X345.706 Y-52.001 Z-2
G1 X345.578 Y-51.822 Z-2.007
G1 X345.465 Y-51.634 Z-2.015
G1 X345.365 Y-51.438 Z-2.023
G1 X345.279 Y-51.236 Z-2.03
G1 X345.209 Y-51.028 Z-2.038
G1 X345.153 Y-50.816 Z-2.046
G1 X345.114 Y-50.6 Z-2.053
G1 X345.09 Y-50.382 Z-2.061
G1 X345.082 Y-50.162 Z-2.069
G1 X345.09 Y-49.943 Z-2.076
G1 X345.114 Y-49.724 Z-2.084
G1 X345.154 Y-49.508 Z-2.092
G1 X345.21 Y-49.296 Z-2.099
G1 X345.281 Y-49.088 Z-2.107
G1 X345.366 Y-48.886 Z-2.115
G1 X345.466 Y-48.691 Z-2.122
G1 X345.581 Y-48.503 Z-2.13
G1 X345.708 Y-48.324 Z-2.138
G1 X345.848 Y-48.155 Z-2.145
G1 X346 Y-47.997 Z-2.153
G1 X346.164 Y-47.85 Z-2.161
G1 X346.337 Y-47.715 Z-2.168
G1 X346.52 Y-47.594 Z-2.176
G1 X346.711 Y-47.486 Z-2.184
G1 X346.91 Y-47.392 Z-2.191
G1 X347.114 Y-47.313 Z-2.199
G1 X347.324 Y-47.249 Z-2.207
G1 X347.539 Y-47.2 Z-2.214
G1 X347.756 Y-47.167 Z-2.222
G1 X347.975 Y-47.15 Z-2.23
G1 X348.194 Y-47.149 Z-2.237
G1 X348.413 Y-47.164 Z-2.245
G1 X348.631 Y-47.195 Z-2.253
G1 X348.845 Y-47.242 Z-2.26
G1 X349.056 Y-47.304 Z-2.268
G1 X349.261 Y-47.381 Z-2.276
G1 X349.461 Y-47.473 Z-2.283
G1 X349.653 Y-47.579 Z-2.291
G1 X349.837 Y-47.699 Z-2.299
G1 X350.012 Y-47.832 Z-2.306
G1 X350.176 Y-47.978 Z-2.314
G1 X350.33 Y-48.134 Z-2.322
G1 X350.471 Y-48.302 Z-2.329
G1 X350.601 Y-48.48 Z-2.337
G1 X350.716 Y-48.666 Z-2.345
G1 X350.818 Y-48.861 Z-2.352
G1 X350.906 Y-49.062 Z-2.36
G1 X350.979 Y-49.269 Z-2.368
G1 X351.036 Y-49.481 Z-2.375
G1 X351.078 Y-49.697 Z-2.383
G1 X351.104 Y-49.915 Z-2.391
G1 X351.114 Y-50.134 Z-2.398
G1 X351.109 Y-50.354 Z-2.406
G1 X351.087 Y-50.572 Z-2.414
G1 X351.049 Y-50.788 Z-2.421
G1 X350.996 Y-51.001 Z-2.429
G1 X350.928 Y-51.21 Z-2.437
G1 X350.844 Y-51.413 Z-2.444
G1 X350.746 Y-51.609 Z-2.452
G1 X350.634 Y-51.798 Z-2.46
G1 X350.508 Y-51.978 Z-2.467
G1 X350.37 Y-52.149 Z-2.475
G1 X350.219 Y-52.309 Z-2.483
G1 X350.058 Y-52.457 Z-2.49
G1 X349.886 Y-52.594 Z-2.498
G1 X349.704 Y-52.717 Z-2.506
G1 X349.514 Y-52.827 Z-2.513
G1 X349.317 Y-52.923 Z-2.521
G1 X349.113 Y-53.005 Z-2.529
G1 X348.903 Y-53.071 Z-2.536
G1 X348.69 Y-53.122 Z-2.544
G1 X348.473 Y-53.157 Z-2.552
G1 X348.254 Y-53.176 Z-2.559
G1 X348.035 Y-53.18 Z-2.567
G1 X347.815 Y-53.167 Z-2.575
G1 X347.598 Y-53.138 Z-2.582
G1 X347.383 Y-53.094 Z-2.59
G1 X347.171 Y-53.034 Z-2.598
G1 X346.965 Y-52.959 Z-2.605
G1 X346.765 Y-52.869 Z-2.613
G1 X346.571 Y-52.765 Z-2.621
G1 X346.386 Y-52.647 Z-2.628
G1 X346.21 Y-52.516 Z-2.636
G1 X346.044 Y-52.373 Z-2.644
G1 X345.889 Y-52.217 Z-2.651
G1 X345.745 Y-52.051 Z-2.659
G1 X345.614 Y-51.875 Z-2.667
G1 X345.496 Y-51.69 Z-2.674
G1 X345.392 Y-51.496 Z-2.682
G1 X345.303 Y-51.296 Z-2.69
G1 X345.228 Y-51.09 Z-2.697
G1 X345.168 Y-50.878 Z-2.705
G1 X345.124 Y-50.663 Z-2.713
G1 X345.095 Y-50.445 Z-2.72
G1 X345.083 Y-50.226 Z-2.728
G1 X345.086 Y-50.007 Z-2.736
G1 X345.106 Y-49.788 Z-2.743
G1 X345.141 Y-49.571 Z-2.751
G1 X345.192 Y-49.358 Z-2.759
G1 X345.258 Y-49.148 Z-2.766
G1 X345.34 Y-48.944 Z-2.774
G1 X345.436 Y-48.747 Z-2.782
G1 X345.546 Y-48.557 Z-2.789
G1 X345.67 Y-48.376 Z-2.797
G1 X345.806 Y-48.204 Z-2.805
G1 X345.955 Y-48.042 Z-2.812
G1 X346.115 Y-47.892 Z-2.82
G1 X346.285 Y-47.753 Z-2.828
G1 X346.466 Y-47.628 Z-2.835
G1 X346.654 Y-47.516 Z-2.843
G1 X346.851 Y-47.418 Z-2.851
G1 X347.054 Y-47.334 Z-2.858
G1 X347.263 Y-47.266 Z-2.866
G1 X347.476 Y-47.213 Z-2.874
G1 X347.692 Y-47.175 Z-2.881
G1 X347.911 Y-47.154 Z-2.889
G1 X348.13 Y-47.148 Z-2.897
G1 X348.349 Y-47.158 Z-2.904
G1 X348.567 Y-47.185 Z-2.912
G1 X348.783 Y-47.227 Z-2.92
G1 X348.995 Y-47.284 Z-2.927
G1 X349.202 Y-47.357 Z-2.935
G1 X349.403 Y-47.445 Z-2.943
G1 X349.598 Y-47.547 Z-2.951
G1 X349.784 Y-47.663 Z-2.958
G1 X349.962 Y-47.792 Z-2.966
G1 X350.129 Y-47.934 Z-2.974
G1 X350.286 Y-48.088 Z-2.981
G1 X350.431 Y-48.252 Z-2.989
G1 X350.564 Y-48.427 Z-2.997
G1 X350.684 Y-48.611 Z-3.004
G1 X350.79 Y-48.803 Z-3.012
G1 X350.882 Y-49.003 Z-3.02
G1 X350.959 Y-49.208 Z-3.027
G1 X351.021 Y-49.419 Z-3.035
G1 X351.068 Y-49.633 Z-3.043
G1 X351.098 Y-49.851 Z-3.05
G1 X351.113 Y-50.07 Z-3.058
G1 X351.112 Y-50.289 Z-3.066
G1 X351.095 Y-50.508 Z-3.073
G1 X351.062 Y-50.725 Z-3.081
G1 X351.013 Y-50.94 Z-3.089
G1 X350.949 Y-51.15 Z-3.096
G1 X350.87 Y-51.354 Z-3.104
G1 X350.776 Y-51.553 Z-3.112
G1 X350.668 Y-51.744 Z-3.119
G1 X350.546 Y-51.927 Z-3.127
G1 X350.411 Y-52.1 Z-3.135
G1 X350.264 Y-52.263 Z-3.142
G1 X350.106 Y-52.415 Z-3.15
G1 X349.937 Y-52.555 Z-3.158
G1 X349.758 Y-52.683 Z-3.165
G1 X349.57 Y-52.797 Z-3.173
G1 X349.375 Y-52.897 Z-3.181
G1 X349.173 Y-52.982 Z-3.188
G1 X348.965 Y-53.053 Z-3.196
G1 X348.752 Y-53.109 Z-3.204
G1 X348.536 Y-53.148 Z-3.211
G1 X348.318 Y-53.172 Z-3.219
G1 X348.099 Y-53.18 Z-3.227
G1 X347.879 Y-53.172 Z-3.234
G1 X347.661 Y-53.148 Z-3.242
G1 X347.445 Y-53.109 Z-3.25
G1 X347.233 Y-53.053 Z-3.257
G1 X347.025 Y-52.983 Z-3.265
G1 X346.823 Y-52.897 Z-3.273
G1 X346.627 Y-52.797 Z-3.28
G1 X346.439 Y-52.683 Z-3.288
G1 X346.261 Y-52.556 Z-3.296
G1 X346.091 Y-52.416 Z-3.303
G1 X345.933 Y-52.264 Z-3.311
G1 X345.786 Y-52.101 Z-3.319
G1 X345.651 Y-51.927 Z-3.326
G1 X345.529 Y-51.745 Z-3.334
G1 X345.421 Y-51.554 Z-3.342
G1 X345.327 Y-51.355 Z-3.349
G1 X345.248 Y-51.15 Z-3.357
G1 X345.184 Y-50.94 Z-3.365
G1 X345.135 Y-50.726 Z-3.372
G1 X345.102 Y-50.509 Z-3.38
G1 X345.085 Y-50.29 Z-3.388
G1 X345.084 Y-50.071 Z-3.395
G1 X345.098 Y-49.852 Z-3.403
G1 X345.129 Y-49.634 Z-3.411
G1 X345.175 Y-49.42 Z-3.418
G1 X345.237 Y-49.209 Z-3.426
G1 X345.314 Y-49.003 Z-3.434
G1 X345.406 Y-48.804 Z-3.441
G1 X345.512 Y-48.612 Z-3.449
G1 X345.632 Y-48.428 Z-3.457
G1 X345.765 Y-48.253 Z-3.464
G1 X345.91 Y-48.088 Z-3.472
G1 X346.067 Y-47.934 Z-3.48
G1 X346.235 Y-47.793 Z-3.487
G1 X346.412 Y-47.663 Z-3.495
G1 X346.599 Y-47.547 Z-3.503
G1 X346.793 Y-47.445 Z-3.51
G1 X346.994 Y-47.357 Z-3.518
G1 X347.201 Y-47.284 Z-3.526
G1 X347.413 Y-47.227 Z-3.533
G1 X347.629 Y-47.185 Z-3.541
G1 X347.847 Y-47.158 Z-3.549
G1 X348.066 Y-47.148 Z-3.556
G1 X348.285 Y-47.154 Z-3.564
G1 X348.504 Y-47.175 Z-3.572
G1 X348.72 Y-47.213 Z-3.579
G1 X348.933 Y-47.266 Z-3.587
G1 X349.142 Y-47.334 Z-3.595
G1 X349.345 Y-47.418 Z-3.602
G1 X349.542 Y-47.516 Z-3.61
G1 X349.731 Y-47.628 Z-3.618
G1 X349.911 Y-47.753 Z-3.625
G1 X350.081 Y-47.891 Z-3.633
G1 X350.241 Y-48.042 Z-3.641
G1 X350.39 Y-48.203 Z-3.648
G1 X350.527 Y-48.375 Z-3.656
G1 X350.65 Y-48.556 Z-3.664
G1 X350.761 Y-48.746 Z-3.671
G1 X350.857 Y-48.944 Z-3.679
G1 X350.938 Y-49.148 Z-3.687
G1 X351.005 Y-49.357 Z-3.694
G1 X351.056 Y-49.57 Z-3.702
G1 X351.091 Y-49.787 Z-3.71
G1 X351.11 Y-50.006 Z-3.717
G1 X351.114 Y-50.225 Z-3.725
G1 X351.102 Y-50.445 Z-3.733
G1 X351.073 Y-50.662 Z-3.74
G1 X351.029 Y-50.877 Z-3.748
G1 X350.969 Y-51.089 Z-3.756
G1 X350.895 Y-51.295 Z-3.763
G1 X350.805 Y-51.496 Z-3.771
G1 X350.701 Y-51.689 Z-3.779
G1 X350.583 Y-51.874 Z-3.786
G1 X350.452 Y-52.05 Z-3.794
G1 X350.308 Y-52.217 Z-3.802
G1 X350.153 Y-52.372 Z-3.809
G1 X349.987 Y-52.516 Z-3.817
G1 X349.811 Y-52.647 Z-3.825
G1 X349.626 Y-52.765 Z-3.832
G1 X349.433 Y-52.869 Z-3.84
G1 X349.232 Y-52.959 Z-3.848
G1 X349.026 Y-53.034 Z-3.855
G1 X348.815 Y-53.094 Z-3.863
G1 X348.6 Y-53.138 Z-3.871
G1 X348.382 Y-53.167 Z-3.879
G1 X348.163 Y-53.18 Z-3.886
G1 X347.943 Y-53.176 Z-3.894
G1 X347.725 Y-53.157 Z-3.902
G1 X347.508 Y-53.122 Z-3.909
G1 X347.294 Y-53.071 Z-3.917
G1 X347.085 Y-53.005 Z-3.925
G1 X346.881 Y-52.924 Z-3.932
G1 X346.683 Y-52.828 Z-3.94
G1 X346.493 Y-52.718 Z-3.948
G1 X346.312 Y-52.594 Z-3.955
G1 X346.14 Y-52.458 Z-3.963
G1 X345.978 Y-52.309 Z-3.971
G1 X345.828 Y-52.149 Z-3.978
G1 X345.689 Y-51.979 Z-3.986
G1 X345.564 Y-51.799 Z-3.994
G1 X345.451 Y-51.61 Z-4.001
G1 X345.353 Y-51.414 Z-4.009
G1 X345.27 Y-51.211 Z-4.017
G1 X345.201 Y-51.002 Z-4.024
G1 X345.148 Y-50.789 Z-4.032
G1 X345.11 Y-50.573 Z-4.04
G1 X345.088 Y-50.354 Z-4.047
G1 X345.082 Y-50.135 Z-4.055
G1 X345.092 Y-49.915 Z-4.063
G1 X345.118 Y-49.697 Z-4.07
G1 X345.16 Y-49.482 Z-4.078
G1 X345.218 Y-49.27 Z-4.086
G1 X345.29 Y-49.063 Z-4.093
G1 X345.378 Y-48.861 Z-4.101
G1 X345.48 Y-48.667 Z-4.109
G1 X345.596 Y-48.48 Z-4.116
G1 X345.725 Y-48.303 Z-4.124
G1 X345.867 Y-48.135 Z-4.132
G1 X346.02 Y-47.978 Z-4.139
G1 X346.185 Y-47.833 Z-4.147
G1 X346.359 Y-47.7 Z-4.155
G1 X346.543 Y-47.58 Z-4.162
G1 X346.735 Y-47.473 Z-4.17
G1 X346.935 Y-47.381 Z-4.178
G1 X347.14 Y-47.304 Z-4.185
G1 X347.351 Y-47.242 Z-4.193
G1 X347.565 Y-47.195 Z-4.201
G1 X347.783 Y-47.164 Z-4.208
G1 X348.002 Y-47.149 Z-4.216
G1 X348.221 Y-47.15 Z-4.224
G1 X348.44 Y-47.167 Z-4.231
G1 X348.657 Y-47.2 Z-4.239
G1 X348.872 Y-47.249 Z-4.247
G1 X349.082 Y-47.313 Z-4.254
G1 X349.287 Y-47.392 Z-4.262
G1 X349.485 Y-47.485 Z-4.27
G1 X349.676 Y-47.593 Z-4.277
G1 X349.859 Y-47.715 Z-4.285
G1 X350.033 Y-47.85 Z-4.293
G1 X350.196 Y-47.996 Z-4.3
G1 X350.348 Y-48.155 Z-4.308
G1 X350.488 Y-48.324 Z-4.316
G1 X350.616 Y-48.502 Z-4.323
G1 X350.73 Y-48.69 Z-4.331
G1 X350.83 Y-48.885 Z-4.339
G1 X350.916 Y-49.087 Z-4.346
G1 X350.987 Y-49.295 Z-4.354
G1 X351.042 Y-49.508 Z-4.362
G1 X351.082 Y-49.724 Z-4.369
G1 X351.106 Y-49.942 Z-4.377
G1 X351.115 Y-50.161 Z-4.385
G1 X351.107 Y-50.381 Z-4.392
G1 X351.083 Y-50.599 Z-4.4
G1 X351.044 Y-50.815 Z-4.408
G1 X350.988 Y-51.028 Z-4.415
G1 X350.918 Y-51.236 Z-4.423
G1 X350.833 Y-51.438 Z-4.431
G1 X350.733 Y-51.633 Z-4.438
G1 X350.619 Y-51.821 Z-4.446
G1 X350.492 Y-52 Z-4.454
G1 X350.352 Y-52.169 Z-4.461
G1 X350.2 Y-52.328 Z-4.469
G1 X350.037 Y-52.475 Z-4.477
G1 X349.864 Y-52.61 Z-4.484
G1 X349.681 Y-52.732 Z-4.492
G1 X349.49 Y-52.84 Z-4.5
G1 X349.292 Y-52.934 Z-4.507
G1 X349.087 Y-53.014 Z-4.515
G1 X348.877 Y-53.078 Z-4.523
G1 X348.663 Y-53.127 Z-4.53
G1 X348.446 Y-53.16 Z-4.538
G1 X348.227 Y-53.178 Z-4.546
G1 X348.007 Y-53.179 Z-4.553
G1 X347.788 Y-53.164 Z-4.561
G1 X347.571 Y-53.134 Z-4.569
G1 X347.356 Y-53.088 Z-4.576
G1 X347.145 Y-53.026 Z-4.584
G1 X346.94 Y-52.949 Z-4.592
G1 X346.74 Y-52.857 Z-4.599
G1 X346.548 Y-52.751 Z-4.607
G1 X346.364 Y-52.632 Z-4.615
G1 X346.189 Y-52.499 Z-4.622
G1 X346.024 Y-52.354 Z-4.63
G1 X345.87 Y-52.197 Z-4.638
G1 X345.728 Y-52.03 Z-4.645
G1 X345.599 Y-51.852 Z-4.653
G1 X345.483 Y-51.666 Z-4.661
G1 X345.38 Y-51.472 Z-4.668
G1 X345.292 Y-51.271 Z-4.676
G1 X345.219 Y-51.063 Z-4.684
G1 X345.162 Y-50.852 Z-4.691
G1 X345.119 Y-50.636 Z-4.699
G1 X345.093 Y-50.418 Z-4.707
G1 X345.082 Y-50.199 Z-4.714
G1 X345.088 Y-49.979 Z-4.722
G1 X345.109 Y-49.761 Z-4.73
G1 X345.146 Y-49.544 Z-4.737
G1 X345.199 Y-49.331 Z-4.745
G1 X345.268 Y-49.123 Z-4.753
G1 X345.351 Y-48.919 Z-4.76
G1 X345.449 Y-48.723 Z-4.768
G1 X345.561 Y-48.534 Z-4.776
G1 X345.686 Y-48.354 Z-4.783
G1 X345.824 Y-48.183 Z-4.791
G1 X345.974 Y-48.023 Z-4.799
G1 X346.136 Y-47.874 Z-4.807
G1 X346.307 Y-47.737 Z-4.814
G1 X346.489 Y-47.613 Z-4.822
G1 X346.679 Y-47.503 Z-4.83
G1 X346.876 Y-47.407 Z-4.837
G1 X347.08 Y-47.325 Z-4.845
G1 X347.289 Y-47.258 Z-4.853
G1 X347.502 Y-47.207 Z-4.86
G1 X347.719 Y-47.172 Z-4.868
G1 X347.938 Y-47.152 Z-4.876
G1 X348.157 Y-47.148 Z-4.883
G1 X348.377 Y-47.161 Z-4.891
G1 X348.594 Y-47.189 Z-4.899
G1 X348.809 Y-47.233 Z-4.906
G1 X349.021 Y-47.292 Z-4.914
G1 X349.227 Y-47.367 Z-4.922
G1 X349.428 Y-47.457 Z-4.929
G1 X349.621 Y-47.56 Z-4.937
G1 X349.807 Y-47.678 Z-4.945
G1 X349.983 Y-47.809 Z-4.952
G1 X350.149 Y-47.952 Z-4.96
G1 X350.305 Y-48.107 Z-4.968
G1 X350.449 Y-48.273 Z-4.975
G1 X350.58 Y-48.449 Z-4.983
G1 X350.698 Y-48.634 Z-4.991
G1 X350.802 Y-48.828 Z-4.998
G1 X350.892 Y-49.028 Z-5.006
G1 X350.968 Y-49.234 Z-5.014
G1 X351.028 Y-49.445 Z-5.021
G1 X351.072 Y-49.66 Z-5.029
G1 X351.101 Y-49.878 Z-5.037
G1 X351.114 Y-50.097 Z-5.044
G1 X351.111 Y-50.317 Z-5.052
G1 X351.092 Y-50.536 Z-5.06
G1 X351.057 Y-50.752 Z-5.067
G1 X351.006 Y-50.966 Z-5.075
G1 X350.94 Y-51.175 Z-5.083
G1 X350.859 Y-51.379 Z-5.09
G1 X350.763 Y-51.577 Z-5.098
G1 X350.653 Y-51.767 Z-5.106
G1 X350.53 Y-51.949 Z-5.113
G1 X350.394 Y-52.121 Z-5.121
G1 X350.245 Y-52.283 Z-5.129
G1 X350.085 Y-52.433 Z-5.136
G1 X349.915 Y-52.572 Z-5.144
G1 X349.735 Y-52.698 Z-5.152
G1 X349.546 Y-52.81 Z-5.159
G1 X349.35 Y-52.908 Z-5.167
G1 X349.147 Y-52.992 Z-5.175
G1 X348.939 Y-53.061 Z-5.182
G1 X348.726 Y-53.114 Z-5.19
G1 X348.509 Y-53.152 Z-5.198
G1 X348.291 Y-53.174 Z-5.205
G1 X348.071 Y-53.18 Z-5.213
G1 X347.852 Y-53.17 Z-5.221
G1 X347.634 Y-53.144 Z-5.228
G1 X347.418 Y-53.103 Z-5.236
G1 X347.206 Y-53.045 Z-5.244
G1 X346.999 Y-52.973 Z-5.251
G1 X346.798 Y-52.886 Z-5.259
G1 X346.603 Y-52.784 Z-5.267
G1 X346.417 Y-52.668 Z-5.274
G1 X346.239 Y-52.539 Z-5.282
G1 X346.071 Y-52.397 Z-5.29
G1 X345.914 Y-52.244 Z-5.297
G1 X345.768 Y-52.08 Z-5.305
G1 X345.635 Y-51.905 Z-5.313
G1 X345.515 Y-51.721 Z-5.32
G1 X345.409 Y-51.529 Z-5.328
G1 X345.317 Y-51.33 Z-5.336
G1 X345.239 Y-51.124 Z-5.343
G1 X345.177 Y-50.914 Z-5.351
G1 X345.13 Y-50.699 Z-5.359
G1 X345.099 Y-50.482 Z-5.366
G1 X345.084 Y-50.263 Z-5.374
G1 X345.085 Y-50.043 Z-5.382
G1 X345.101 Y-49.824 Z-5.389
G1 X345.134 Y-49.607 Z-5.397
G1 X345.182 Y-49.393 Z-5.405
G1 X345.246 Y-49.183 Z-5.412
G1 X345.325 Y-48.978 Z-5.42
G1 X345.419 Y-48.78 Z-5.428
G1 X345.527 Y-48.588 Z-5.435
G1 X345.648 Y-48.405 Z-5.443
G1 X345.782 Y-48.232 Z-5.451
G1 X345.929 Y-48.068 Z-5.458
G1 X346.087 Y-47.916 Z-5.466
G1 X346.256 Y-47.776 Z-5.474
G1 X346.435 Y-47.648 Z-5.481
G1 X346.622 Y-47.534 Z-5.489
G1 X346.818 Y-47.433 Z-5.497
G1 X347.02 Y-47.347 Z-5.504
G1 X347.227 Y-47.276 Z-5.512
G1 X347.44 Y-47.221 Z-5.52
G1 X347.656 Y-47.18 Z-5.527
G1 X347.874 Y-47.156 Z-5.535
G1 X348.093 Y-47.148 Z-5.543
G1 X348.313 Y-47.155 Z-5.55
G1 X348.531 Y-47.179 Z-5.558
G1 X348.747 Y-47.218 Z-5.566
G1 X348.96 Y-47.273 Z-5.573
G1 X349.168 Y-47.344 Z-5.581
G1 X349.37 Y-47.429 Z-5.589
G1 X349.566 Y-47.529 Z-5.596
G1 X349.753 Y-47.642 Z-5.604
G1 X349.932 Y-47.77 Z-5.612
G1 X350.102 Y-47.909 Z-5.619
G1 X350.261 Y-48.061 Z-5.627
G1 X350.408 Y-48.224 Z-5.635
G1 X350.543 Y-48.397 Z-5.642
G1 X350.665 Y-48.58 Z-5.65
G1 X350.773 Y-48.77 Z-5.658
G1 X350.868 Y-48.969 Z-5.665
G1 X350.947 Y-49.173 Z-5.673
G1 X351.012 Y-49.383 Z-5.681
G1 X351.061 Y-49.597 Z-5.688
G1 X351.094 Y-49.814 Z-5.696
G1 X351.112 Y-50.033 Z-5.704
G1 X351.113 Y-50.253 Z-5.711
G1 X351.099 Y-50.472 Z-5.719
G1 X351.069 Y-50.689 Z-5.727
G1 X351.022 Y-50.904 Z-5.734
G1 X350.961 Y-51.115 Z-5.742
G1 X350.884 Y-51.32 Z-5.75
G1 X350.793 Y-51.52 Z-5.758
G1 X350.687 Y-51.712 Z-5.765
G1 X350.567 Y-51.897 Z-5.773
G1 X350.435 Y-52.072 Z-5.781
G1 X350.29 Y-52.237 Z-5.788
G1 X350.133 Y-52.391 Z-5.796
G1 X349.966 Y-52.533 Z-5.804
G1 X349.789 Y-52.662 Z-5.811
G1 X349.602 Y-52.779 Z-5.819
G1 X349.408 Y-52.881 Z-5.827
G1 X349.207 Y-52.969 Z-5.834
G1 X349 Y-53.042 Z-5.842
G1 X348.788 Y-53.1 Z-5.85
G1 X348.573 Y-53.143 Z-5.857
G1 X348.355 Y-53.169 Z-5.865
G1 X348.136 Y-53.18 Z-5.873
G1 X347.916 Y-53.175 Z-5.88
G1 X347.697 Y-53.154 Z-5.888
G1 X347.481 Y-53.116 Z-5.896
G1 X347.268 Y-53.064 Z-5.903
G1 X347.059 Y-52.996 Z-5.911
G1 X346.856 Y-52.913 Z-5.919
G1 X346.659 Y-52.815 Z-5.926
G1 X346.47 Y-52.703 Z-5.934
G1 X346.29 Y-52.578 Z-5.942
G1 X346.119 Y-52.44 Z-5.949
G1 X345.959 Y-52.29 Z-5.957
G1 X345.81 Y-52.129 Z-5.965
G1 X345.673 Y-51.957 Z-5.972
G1 X345.549 Y-51.776 Z-5.98
G1 X345.438 Y-51.586 Z-5.988
G1 X345.342 Y-51.389 Z-5.995
G1 X345.26 Y-51.185 Z-6.003
G1 X345.193 Y-50.976 Z-6.011
G1 X345.142 Y-50.762 Z-6.018
G1 X345.106 Y-50.546 Z-6.026
G1 X345.087 Y-50.327 Z-6.034
G1 X345.083 Y-50.107 Z-6.041
G1 X345.095 Y-49.888 Z-6.049
G1 X345.123 Y-49.67 Z-6.057
G1 X345.167 Y-49.455 Z-6.064
G1 X345.226 Y-49.244 Z-6.072
G1 X345.3 Y-49.037 Z-6.08
G1 X345.39 Y-48.837 Z-6.087
G1 X345.494 Y-48.643 Z-6.095
G1 X345.611 Y-48.458 Z-6.103
G1 X345.742 Y-48.281 Z-6.11
G1 X345.885 Y-48.115 Z-6.118
G1 X346.04 Y-47.959 Z-6.126
G1 X346.206 Y-47.815 Z-6.133
G1 X346.382 Y-47.684 Z-6.141
G1 X346.567 Y-47.566 Z-6.149
G1 X346.76 Y-47.461 Z-6.156
G1 X346.96 Y-47.371 Z-6.164
G1 X347.166 Y-47.295 Z-6.172
G1 X347.377 Y-47.235 Z-6.179
G1 X347.592 Y-47.191 Z-6.187
G1 X347.81 Y-47.162 Z-6.195
G1 X348.029 Y-47.149 Z-6.202
G1 X348.249 Y-47.152 Z-6.21
G1 X348.468 Y-47.17 Z-6.218
G1 X348.684 Y-47.205 Z-6.225
G1 X348.898 Y-47.256 Z-6.233
G1 X349.107 Y-47.322 Z-6.241
G1 X349.312 Y-47.403 Z-6.248
G1 X349.509 Y-47.498 Z-6.256
G1 X349.699 Y-47.608 Z-6.264
G1 X349.881 Y-47.731 Z-6.271
G1 X350.053 Y-47.867 Z-6.279
G1 X350.215 Y-48.016 Z-6.287
G1 X350.366 Y-48.175 Z-6.294
G1 X350.505 Y-48.345 Z-6.302
G1 X350.631 Y-48.525 Z-6.31
G1 X350.743 Y-48.714 Z-6.317
G1 X350.842 Y-48.91 Z-6.325
G1 X350.926 Y-49.113 Z-6.333
G1 X350.995 Y-49.322 Z-6.34
G1 X351.048 Y-49.534 Z-6.348
G1 X351.086 Y-49.751 Z-6.356
G1 X351.108 Y-49.969 Z-6.363
G1 X351.115 Y-50.189 Z-6.371
G1 X351.105 Y-50.408 Z-6.379
G1 X351.079 Y-50.626 Z-6.386
G1 X351.038 Y-50.842 Z-6.394
G1 X350.98 Y-51.054 Z-6.402
G1 X350.908 Y-51.261 Z-6.409
G1 X350.821 Y-51.463 Z-6.417
G1 X350.719 Y-51.657 Z-6.425
G1 X350.604 Y-51.844 Z-6.432
G1 X350.475 Y-52.022 Z-6.44
G1 X350.333 Y-52.19 Z-6.448
G1 X350.18 Y-52.347 Z-6.455
G1 X350.016 Y-52.492 Z-6.463
G1 X349.841 Y-52.626 Z-6.471
G1 X349.658 Y-52.746 Z-6.478
G1 X349.466 Y-52.853 Z-6.486
G1 X349.266 Y-52.945 Z-6.494
G1 X349.061 Y-53.023 Z-6.501
G1 X348.85 Y-53.085 Z-6.509
G1 X348.636 Y-53.132 Z-6.517
G1 X348.419 Y-53.163 Z-6.524
G1 X348.2 Y-53.179 Z-6.532
G1 X347.98 Y-53.178 Z-6.54
G1 X347.761 Y-53.161 Z-6.547
G1 X347.544 Y-53.129 Z-6.555
G1 X347.33 Y-53.081 Z-6.563
G1 X347.12 Y-53.017 Z-6.57
G1 X346.915 Y-52.938 Z-6.578
G1 X346.716 Y-52.845 Z-6.586
G1 X346.525 Y-52.737 Z-6.593
G1 X346.342 Y-52.616 Z-6.601
G1 X346.168 Y-52.482 Z-6.609
G1 X346.004 Y-52.335 Z-6.616
G1 X345.852 Y-52.177 Z-6.624
G1 X345.711 Y-52.008 Z-6.632
G1 X345.584 Y-51.83 Z-6.639
G1 X345.469 Y-51.642 Z-6.647
G1 X345.369 Y-51.447 Z-6.655
G1 X345.282 Y-51.245 Z-6.662
G1 X345.211 Y-51.037 Z-6.67
G1 X345.155 Y-50.825 Z-6.678
G1 X345.115 Y-50.609 Z-6.686
G1 X345.091 Y-50.391 Z-6.693
G1 X345.082 Y-50.172 Z-6.701
G1 X345.09 Y-49.952 Z-6.709
G1 X345.113 Y-49.734 Z-6.716
G1 X345.152 Y-49.518 Z-6.724
G1 X345.207 Y-49.305 Z-6.732
G1 X345.277 Y-49.097 Z-6.739
G1 X345.362 Y-48.895 Z-6.747
G1 X345.462 Y-48.699 Z-6.755
G1 X345.575 Y-48.511 Z-6.762
G1 X345.702 Y-48.332 Z-6.77
G1 X345.842 Y-48.162 Z-6.778
G1 X345.994 Y-48.004 Z-6.785
G1 X346.156 Y-47.856 Z-6.793
G1 X346.329 Y-47.721 Z-6.801
G1 X346.512 Y-47.599 Z-6.808
G1 X346.703 Y-47.49 Z-6.816
G1 X346.901 Y-47.396 Z-6.824
G1 X347.105 Y-47.316 Z-6.831
G1 X347.315 Y-47.251 Z-6.839
G1 X347.529 Y-47.202 Z-6.847
G1 X347.746 Y-47.168 Z-6.854
G1 X347.965 Y-47.151 Z-6.862
G1 X348.185 Y-47.149 Z-6.87
G1 X348.404 Y-47.163 Z-6.877
G1 X348.621 Y-47.193 Z-6.885
G1 X348.836 Y-47.239 Z-6.893
G1 X349.047 Y-47.301 Z-6.9
G1 X349.253 Y-47.377 Z-6.908
G1 X349.452 Y-47.469 Z-6.916
G1 X349.645 Y-47.574 Z-6.923
G1 X349.829 Y-47.694 Z-6.931
G1 X350.004 Y-47.826 Z-6.939
G1 X350.169 Y-47.971 Z-6.946
G1 X350.323 Y-48.128 Z-6.954
G1 X350.466 Y-48.295 Z-6.962
G1 X350.595 Y-48.472 Z-6.969
G1 X350.712 Y-48.658 Z-6.977
G1 X350.814 Y-48.852 Z-6.985
G1 X350.903 Y-49.053 Z-6.992
G1 X350.976 Y-49.26 Z-7
G1 X351.034 Y-49.472 Z-7.008
G1 X351.077 Y-49.687 Z-7.015
G1 X351.104 Y-49.905 Z-7.023
G1 X351.114 Y-50.125 Z-7.031
G1 X351.109 Y-50.344 Z-7.038
G1 X351.088 Y-50.563 Z-7.046
G1 X351.051 Y-50.779 Z-7.054
G1 X350.999 Y-50.992 Z-7.061
G1 X350.931 Y-51.201 Z-7.069
G1 X350.848 Y-51.404 Z-7.077
G1 X350.75 Y-51.601 Z-7.084
G1 X350.639 Y-51.79 Z-7.092
G1 X350.514 Y-51.971 Z-7.1
G1 X350.376 Y-52.142 Z-7.107
G1 X350.226 Y-52.302 Z-7.115
G1 X350.065 Y-52.451 Z-7.123
G1 X349.893 Y-52.588 Z-7.13
G1 X349.712 Y-52.712 Z-7.138
G1 X349.522 Y-52.823 Z-7.146
G1 X349.325 Y-52.92 Z-7.153
G1 X349.122 Y-53.002 Z-7.161
G1 X348.912 Y-53.068 Z-7.169
G1 X348.699 Y-53.12 Z-7.176
G1 X348.482 Y-53.156 Z-7.184
G1 X348.264 Y-53.176 Z-7.192
G1 X348.044 Y-53.18 Z-7.199
G1 X347.825 Y-53.168 Z-7.207
G1 X347.607 Y-53.14 Z-7.215
G1 X347.392 Y-53.096 Z-7.222
G1 X347.18 Y-53.037 Z-7.23
G1 X346.974 Y-52.963 Z-7.238
G1 X346.773 Y-52.874 Z-7.245
G1 X346.58 Y-52.77 Z-7.253
G1 X346.394 Y-52.653 Z-7.261
G1 X346.218 Y-52.522 Z-7.268
G1 X346.051 Y-52.379 Z-7.276
G1 X345.895 Y-52.224 Z-7.284
G1 X345.751 Y-52.058 Z-7.291
G1 X345.62 Y-51.883 Z-7.299
G1 X345.501 Y-51.698 Z-7.307
G1 X345.396 Y-51.505 Z-7.314
G1 X345.306 Y-51.305 Z-7.322
G1 X345.231 Y-51.098 Z-7.33
G1 X345.17 Y-50.887 Z-7.337
G1 X345.125 Y-50.672 Z-7.345
G1 X345.096 Y-50.455 Z-7.353
G1 X345.083 Y-50.236 Z-7.36
G1 X345.086 Y-50.016 Z-7.368
G1 X345.105 Y-49.797 Z-7.376
G1 X345.139 Y-49.58 Z-7.383
G1 X345.189 Y-49.367 Z-7.391
G1 X345.255 Y-49.157 Z-7.399
G1 X345.336 Y-48.953 Z-7.406
G1 X345.431 Y-48.755 Z-7.414
G1 X345.541 Y-48.565 Z-7.422
G1 X345.664 Y-48.383 Z-7.429
G1 X345.8 Y-48.211 Z-7.437
G1 X345.948 Y-48.049 Z-7.445
G1 X346.108 Y-47.898 Z-7.452
G1 X346.278 Y-47.759 Z-7.46
G1 X346.458 Y-47.633 Z-7.468
G1 X346.646 Y-47.52 Z-7.475
G1 X346.842 Y-47.422 Z-7.483
G1 X347.045 Y-47.338 Z-7.491
G1 X347.254 Y-47.269 Z-7.498
G1 X347.466 Y-47.215 Z-7.506
G1 X347.683 Y-47.177 Z-7.514
G1 X347.901 Y-47.154 Z-7.521
G1 X348.121 Y-47.148 Z-7.529
G1 X348.34 Y-47.158 Z-7.537
G1 X348.558 Y-47.183 Z-7.544
G1 X348.774 Y-47.224 Z-7.552
G1 X348.986 Y-47.281 Z-7.56
G1 X349.193 Y-47.354 Z-7.567
G1 X349.395 Y-47.441 Z-7.575
G1 X349.589 Y-47.542 Z-7.583
G1 X349.776 Y-47.658 Z-7.59
G1 X349.954 Y-47.786 Z-7.598
G1 X350.122 Y-47.928 Z-7.606
G1 X350.28 Y-48.081 Z-7.614
G1 X350.425 Y-48.245 Z-7.621
G1 X350.559 Y-48.419 Z-7.629
G1 X350.679 Y-48.603 Z-7.637
G1 X350.786 Y-48.795 Z-7.644
G1 X350.878 Y-48.994 Z-7.652
G1 X350.956 Y-49.199 Z-7.66
G1 X351.019 Y-49.41 Z-7.667
G1 X351.066 Y-49.624 Z-7.675
G1 X351.097 Y-49.841 Z-7.683
G1 X351.113 Y-50.06 Z-7.69
G1 X351.112 Y-50.28 Z-7.698
G1 X351.096 Y-50.499 Z-7.706
G1 X351.064 Y-50.716 Z-7.713
G1 X351.016 Y-50.93 Z-7.721
G1 X350.952 Y-51.141 Z-7.729
G1 X350.874 Y-51.346 Z-7.736
G1 X350.78 Y-51.544 Z-7.744
G1 X350.673 Y-51.736 Z-7.752
G1 X350.552 Y-51.919 Z-7.759
G1 X350.417 Y-52.093 Z-7.767
G1 X350.271 Y-52.256 Z-7.775
G1 X350.113 Y-52.409 Z-7.782
G1 X349.944 Y-52.55 Z-7.79
G1 X349.766 Y-52.677 Z-7.798
G1 X349.579 Y-52.792 Z-7.805
G1 X349.384 Y-52.893 Z-7.813
G1 X349.182 Y-52.979 Z-7.821
G1 X348.974 Y-53.05 Z-7.828
G1 X348.762 Y-53.107 Z-7.836
G1 X348.546 Y-53.147 Z-7.844
G1 X348.328 Y-53.172 Z-7.851
G1 X348.108 Y-53.18 Z-7.859
G1 X347.889 Y-53.173 Z-7.867
G1 X347.67 Y-53.15 Z-7.874
G1 X347.454 Y-53.111 Z-7.882
G1 X347.242 Y-53.056 Z-7.89
G1 X347.034 Y-52.986 Z-7.897
G1 X346.831 Y-52.901 Z-7.905
G1 X346.635 Y-52.802 Z-7.913
G1 X346.447 Y-52.688 Z-7.92
G1 X346.268 Y-52.562 Z-7.928
G1 X346.098 Y-52.422 Z-7.936
G1 X345.94 Y-52.271 Z-7.943
G1 X345.792 Y-52.108 Z-7.951
G1 X345.657 Y-51.935 Z-7.959
G1 X345.534 Y-51.753 Z-7.966
G1 X345.426 Y-51.562 Z-7.974
G1 X345.331 Y-51.364 Z-7.982
G1 X345.251 Y-51.159 Z-7.989
G1 X345.186 Y-50.949 Z-7.997
G1 X345.137 Y-50.736 Z-8.005
G1 X345.103 Y-50.519 Z-8.012
G1 X345.085 Y-50.3 Z-8.02
G1 X345.083 Y-50.08 Z-8.028
G1 X345.097 Y-49.861 Z-8.035
G1 X345.127 Y-49.643 Z-8.043
G1 X345.173 Y-49.429 Z-8.051
G1 X345.234 Y-49.218 Z-8.058
G1 X345.311 Y-49.012 Z-8.066
G1 X345.402 Y-48.812 Z-8.074
G1 X345.507 Y-48.62 Z-8.081
G1 X345.627 Y-48.435 Z-8.089
G1 X345.759 Y-48.26 Z-8.097
G1 X345.904 Y-48.095 Z-8.104
G1 X346.06 Y-47.941 Z-8.112
G1 X346.227 Y-47.798 Z-8.12
G1 X346.404 Y-47.669 Z-8.127
G1 X346.59 Y-47.552 Z-8.135
G1 X346.784 Y-47.449 Z-8.143
G1 X346.985 Y-47.361 Z-8.15
G1 X347.192 Y-47.287 Z-8.158
G1 X347.404 Y-47.229 Z-8.166
G1 X347.619 Y-47.186 Z-8.173
G1 X347.837 Y-47.159 Z-8.181
G1 X348.057 Y-47.148 Z-8.189
G1 X348.276 Y-47.153 Z-8.196
G1 X348.495 Y-47.174 Z-8.204
G1 X348.711 Y-47.211 Z-8.212
G1 X348.924 Y-47.263 Z-8.219
G1 X349.133 Y-47.331 Z-8.227
G1 X349.337 Y-47.414 Z-8.235
G1 X349.533 Y-47.511 Z-8.242
G1 X349.723 Y-47.622 Z-8.25
G1 X349.903 Y-47.747 Z-8.258
G1 X350.074 Y-47.885 Z-8.265
G1 X350.235 Y-48.035 Z-8.273
G1 X350.384 Y-48.196 Z-8.281
G1 X350.521 Y-48.367 Z-8.288
G1 X350.645 Y-48.548 Z-8.296
G1 X350.756 Y-48.738 Z-8.304
G1 X350.853 Y-48.935 Z-8.311
G1 X350.935 Y-49.139 Z-8.319
G1 X351.002 Y-49.348 Z-8.327
G1 X351.054 Y-49.561 Z-8.334
G1 X351.09 Y-49.778 Z-8.342
G1 X351.11 Y-49.996 Z-8.35
G1 X351.114 Y-50.216 Z-8.357
G1 X351.102 Y-50.435 Z-8.365
G1 X351.075 Y-50.653 Z-8.373
G1 X351.031 Y-50.868 Z-8.38
G1 X350.972 Y-51.08 Z-8.388
G1 X350.898 Y-51.286 Z-8.396
G1 X350.809 Y-51.487 Z-8.403
G1 X350.706 Y-51.681 Z-8.411
G1 X350.588 Y-51.866 Z-8.419
G1 X350.458 Y-52.043 Z-8.426
G1 X350.315 Y-52.21 Z-8.434
G1 X350.16 Y-52.366 Z-8.442
G1 X349.995 Y-52.51 Z-8.449
G1 X349.819 Y-52.641 Z-8.457
G1 X349.634 Y-52.76 Z-8.465
G1 X349.441 Y-52.865 Z-8.472
G1 X349.241 Y-52.955 Z-8.48
G1 X349.035 Y-53.031 Z-8.488
G1 X348.824 Y-53.092 Z-8.495
G1 X348.609 Y-53.137 Z-8.503
G1 X348.391 Y-53.166 Z-8.511
G1 X348.172 Y-53.179 Z-8.518
G1 X347.953 Y-53.177 Z-8.526
G1 X347.734 Y-53.158 Z-8.534
G1 X347.517 Y-53.124 Z-8.541
G1 X347.303 Y-53.074 Z-8.549
G1 X347.094 Y-53.008 Z-8.557
G1 X346.89 Y-52.927 Z-8.565
G1 X346.692 Y-52.832 Z-8.572
G1 X346.501 Y-52.723 Z-8.58
G1 X346.319 Y-52.6 Z-8.588
G1 X346.147 Y-52.464 Z-8.595
G1 X345.985 Y-52.316 Z-8.603
G1 X345.834 Y-52.156 Z-8.611
G1 X345.695 Y-51.986 Z-8.618
G1 X345.569 Y-51.807 Z-8.626
G1 X345.456 Y-51.618 Z-8.634
G1 X345.357 Y-51.422 Z-8.641
G1 X345.273 Y-51.22 Z-8.649
G1 X345.204 Y-51.011 Z-8.657
G1 X345.15 Y-50.798 Z-8.664
G1 X345.111 Y-50.582 Z-8.672
G1 X345.089 Y-50.364 Z-8.68
G1 X345.082 Y-50.144 Z-8.687
G1 X345.092 Y-49.925 Z-8.695
G1 X345.117 Y-49.707 Z-8.703
G1 X345.158 Y-49.491 Z-8.71
G1 X345.215 Y-49.279 Z-8.718
G1 X345.287 Y-49.072 Z-8.726
G1 X345.374 Y-48.87 Z-8.733
G1 X345.475 Y-48.675 Z-8.741
G1 X345.591 Y-48.488 Z-8.749
G1 X345.719 Y-48.31 Z-8.756
G1 X345.86 Y-48.142 Z-8.764
G1 X346.013 Y-47.985 Z-8.772
G1 X346.177 Y-47.839 Z-8.779
G1 X346.352 Y-47.705 Z-8.787
G1 X346.535 Y-47.585 Z-8.795
G1 X346.727 Y-47.478 Z-8.802
G1 X346.926 Y-47.385 Z-8.81
G1 X347.131 Y-47.307 Z-8.818
G1 X347.342 Y-47.244 Z-8.825
G1 X347.556 Y-47.197 Z-8.833
G1 X347.773 Y-47.165 Z-8.841
G1 X347.992 Y-47.15 Z-8.848
G1 X348.212 Z-8.856
G1 X348.431 Y-47.166 Z-8.864
G1 X348.648 Y-47.198 Z-8.871
G1 X348.862 Y-47.246 Z-8.879
G1 X349.073 Y-47.31 Z-8.887
G1 X349.278 Y-47.388 Z-8.894
G1 X349.477 Y-47.481 Z-8.902
G1 X349.668 Y-47.589 Z-8.91
G1 X349.851 Y-47.71 Z-8.917
G1 X350.025 Y-47.844 Z-8.925
G1 X350.189 Y-47.99 Z-8.933
G1 X350.342 Y-48.148 Z-8.94
G1 X350.482 Y-48.316 Z-8.948
G1 X350.611 Y-48.495 Z-8.956
G1 X350.725 Y-48.682 Z-8.963
G1 X350.826 Y-48.877 Z-8.971
G1 X350.913 Y-49.079 Z-8.979
G1 X350.984 Y-49.286 Z-8.986
G1 X351.04 Y-49.499 Z-8.994
G1 X351.081 Y-49.714 Z-9.002
G1 X351.106 Y-49.932 Z-9.009
G1 X351.115 Y-50.152 Z-9.017
G1 Y-50.18
G1 Y-50.181
G1 X351.107 Y-50.218
G1 X351.086 Y-50.25
G1 X351.055 Y-50.271
G1 X351.017 Y-50.279
G1 X269.11 Y-50.614
G1 X269.071 Y-50.608
G1 X269.036 Y-50.59
G1 X269.008 Y-50.562
G1 X268.99 Y-50.527
G1 X268.984 Y-50.489
G1 Y-50.488
G1 X268.99 Y-50.449
G1 X269.008 Y-50.414
G1 X269.035 Y-50.386
G1 X269.07 Y-50.368
G1 X269.109 Y-50.362
G1 X351.016 Y-50.026
G1 X351.017
G1 X351.054 Y-50.033
G1 X351.086 Y-50.055
G1 X351.107 Y-50.086
G1 X351.115 Y-50.123
G1 Y-50.152
G3 X352.449 Y-52.711 I3.146 J0.013
G2 X352.814 Y-54.822 I-0.873 J-1.238
G2 X351.582 Y-55.464 I-1.238 J0.873
G1 X265.699 Y-55.816
G3 X263.073 Y-56.932 I0.015 J-3.683
G2 X262.625 Y-56.938 I-0.227 J0.221
G2 X262.529 Y-56.712 I0.221 J0.227
G2 X262.624 Y-56.486 I0.317 J0.001
G3 X263.718 Y-53.85 I-2.589 J2.62
G1 X263.69 Y-47.17
G3 X262.575 Y-44.545 I-3.683 J-0.015
G2 X262.568 Y-44.096 I0.221 J0.227
G2 X262.794 Y-44 I0.227 J-0.221
G2 X263.021 Y-44.094 I0.001 J-0.317
G3 X265.656 Y-45.188 I2.62 J2.589
G1 X354.307 Y-44.824
G3 X356.933 Y-43.709 I-0.015 J3.683
G2 X357.381 Y-43.702 I0.227 J-0.221
G2 X357.477 Y-43.928 I-0.221 J-0.227
G2 X357.383 Y-44.155 I-0.317 J-0.001
G3 X356.289 Y-46.79 I2.589 J-2.619
G1 X356.316 Y-53.471
G3 X357.432 Y-56.097 I3.683 J0.015
G2 X357.438 Y-56.545 I-0.221 J-0.227
G2 X357.212 Y-56.641 I-0.227 J0.221
G2 X356.986 Y-56.547 I-0.001 J0.317
G3 X354.351 Y-55.453 I-2.62 J-2.589
G1 X351.582 Y-55.464
G0 Z6.096
G0 X238.238 Y-119.81
G1 Z3.556 F508.
G1 X238.248 Y-120.029 Z3.548
G1 X238.242 Y-120.249 Z3.541
G1 X238.22 Y-120.467 Z3.533
G1 X238.183 Y-120.683 Z3.525
G1 X238.129 Y-120.896 Z3.518
G1 X238.061 Y-121.105 Z3.51
G1 X237.977 Y-121.308 Z3.502
G1 X237.879 Y-121.504 Z3.495
G1 X237.767 Y-121.693 Z3.487
G1 X237.642 Y-121.873 Z3.479
G1 X237.503 Y-122.043 Z3.472
G1 X237.353 Y-122.203 Z3.464
G1 X237.192 Y-122.352 Z3.456
G1 X237.02 Y-122.488 Z3.449
G1 X236.838 Y-122.612 Z3.441
G1 X236.648 Y-122.722 Z3.433
G1 X236.451 Y-122.818 Z3.426
G1 X236.247 Y-122.899 Z3.418
G1 X236.038 Y-122.966 Z3.41
G1 X235.825 Y-123.017 Z3.403
G1 X235.608 Y-123.052 Z3.395
G1 X235.389 Y-123.071 Z3.387
G1 X235.17 Y-123.075 Z3.38
G1 X234.951 Y-123.062 Z3.372
G1 X234.733 Y-123.034 Z3.364
G1 X234.518 Y-122.99 Z3.357
G1 X234.307 Y-122.93 Z3.349
G1 X234.101 Y-122.855 Z3.341
G1 X233.9 Y-122.766 Z3.334
G1 X233.707 Y-122.662 Z3.326
G1 X233.522 Y-122.544 Z3.318
G1 X233.346 Y-122.413 Z3.311
G1 X233.179 Y-122.27 Z3.303
G1 X233.024 Y-122.115 Z3.295
G1 X232.88 Y-121.949 Z3.288
G1 X232.749 Y-121.773 Z3.28
G1 X232.631 Y-121.588 Z3.272
G1 X232.527 Y-121.394 Z3.265
G1 X232.437 Y-121.194 Z3.257
G1 X232.362 Y-120.988 Z3.249
G1 X232.302 Y-120.777 Z3.242
G1 X232.258 Y-120.562 Z3.234
G1 X232.229 Y-120.344 Z3.226
G1 X232.216 Y-120.125 Z3.219
G1 X232.219 Y-119.906 Z3.211
G1 X232.238 Y-119.687 Z3.203
G1 X232.273 Y-119.47 Z3.196
G1 X232.324 Y-119.257 Z3.188
G1 X232.39 Y-119.048 Z3.18
G1 X232.471 Y-118.844 Z3.173
G1 X232.567 Y-118.646 Z3.165
G1 X232.677 Y-118.456 Z3.157
G1 X232.8 Y-118.275 Z3.15
G1 X232.936 Y-118.102 Z3.142
G1 X233.085 Y-117.941 Z3.134
G1 X233.244 Y-117.79 Z3.127
G1 X233.415 Y-117.652 Z3.119
G1 X233.594 Y-117.526 Z3.111
G1 X233.783 Y-117.414 Z3.104
G1 X233.979 Y-117.315 Z3.096
G1 X234.182 Y-117.231 Z3.088
G1 X234.39 Y-117.163 Z3.081
G1 X234.603 Y-117.109 Z3.073
G1 X234.819 Y-117.071 Z3.065
G1 X235.038 Y-117.049 Z3.058
G1 X235.257 Y-117.043 Z3.05
G1 X235.476 Y-117.053 Z3.042
G1 X235.694 Y-117.079 Z3.035
G1 X235.91 Y-117.12 Z3.027
G1 X236.122 Y-117.177 Z3.019
G1 X236.329 Y-117.25 Z3.012
G1 X236.53 Y-117.337 Z3.004
G1 X236.725 Y-117.439 Z2.996
G1 X236.912 Y-117.554 Z2.989
G1 X237.089 Y-117.683 Z2.981
G1 X237.257 Y-117.824 Z2.973
G1 X237.414 Y-117.977 Z2.966
G1 X237.56 Y-118.142 Z2.958
G1 X237.693 Y-118.316 Z2.95
G1 X237.813 Y-118.5 Z2.943
G1 X237.92 Y-118.692 Z2.935
G1 X238.012 Y-118.891 Z2.927
G1 X238.09 Y-119.096 Z2.92
G1 X238.152 Y-119.306 Z2.912
G1 X238.199 Y-119.521 Z2.904
G1 X238.231 Y-119.738 Z2.897
G1 X238.246 Y-119.957 Z2.889
G1 Y-120.176 Z2.881
G1 X238.229 Y-120.395 Z2.874
G1 X238.197 Y-120.612 Z2.866
G1 X238.149 Y-120.826 Z2.858
G1 X238.085 Y-121.037 Z2.851
G1 X238.007 Y-121.241 Z2.843
G1 X237.913 Y-121.44 Z2.835
G1 X237.806 Y-121.631 Z2.828
G1 X237.685 Y-121.814 Z2.82
G1 X237.55 Y-121.988 Z2.812
G1 X237.404 Y-122.152 Z2.805
G1 X237.246 Y-122.304 Z2.797
G1 X237.078 Y-122.445 Z2.789
G1 X236.899 Y-122.573 Z2.782
G1 X236.712 Y-122.687 Z2.774
G1 X236.517 Y-122.788 Z2.766
G1 X236.315 Y-122.874 Z2.759
G1 X236.108 Y-122.945 Z2.751
G1 X235.895 Y-123.001 Z2.743
G1 X235.68 Y-123.042 Z2.736
G1 X235.462 Y-123.067 Z2.728
G1 X235.242 Y-123.075 Z2.72
G1 X235.023 Y-123.068 Z2.713
G1 X234.805 Y-123.045 Z2.705
G1 X234.589 Y-123.006 Z2.697
G1 X234.376 Y-122.952 Z2.69
G1 X234.168 Y-122.882 Z2.682
G1 X233.966 Y-122.797 Z2.674
G1 X233.77 Y-122.698 Z2.667
G1 X233.582 Y-122.584 Z2.659
G1 X233.403 Y-122.458 Z2.651
G1 X233.233 Y-122.318 Z2.644
G1 X233.074 Y-122.167 Z2.636
G1 X232.927 Y-122.005 Z2.628
G1 X232.791 Y-121.832 Z2.621
G1 X232.669 Y-121.65 Z2.613
G1 X232.56 Y-121.459 Z2.605
G1 X232.465 Y-121.261 Z2.598
G1 X232.385 Y-121.057 Z2.59
G1 X232.32 Y-120.847 Z2.582
G1 X232.271 Y-120.633 Z2.575
G1 X232.237 Y-120.416 Z2.567
G1 X232.219 Y-120.198 Z2.559
G1 X232.216 Y-119.978 Z2.552
G1 X232.23 Y-119.759 Z2.544
G1 X232.26 Y-119.542 Z2.536
G1 X232.306 Y-119.327 Z2.529
G1 X232.367 Y-119.116 Z2.521
G1 X232.443 Y-118.91 Z2.513
G1 X232.534 Y-118.711 Z2.506
G1 X232.639 Y-118.518 Z2.498
G1 X232.758 Y-118.334 Z2.49
G1 X232.89 Y-118.158 Z2.483
G1 X233.034 Y-117.993 Z2.475
G1 X233.19 Y-117.839 Z2.467
G1 X233.357 Y-117.696 Z2.46
G1 X233.534 Y-117.566 Z2.452
G1 X233.72 Y-117.449 Z2.444
G1 X233.914 Y-117.346 Z2.437
G1 X234.114 Y-117.257 Z2.429
G1 X234.321 Y-117.184 Z2.421
G1 X234.533 Y-117.125 Z2.414
G1 X234.748 Y-117.082 Z2.406
G1 X234.966 Y-117.055 Z2.398
G1 X235.185 Y-117.043 Z2.391
G1 X235.404 Y-117.048 Z2.383
G1 X235.623 Y-117.068 Z2.375
G1 X235.839 Y-117.105 Z2.368
G1 X236.052 Y-117.157 Z2.36
G1 X236.261 Y-117.224 Z2.352
G1 X236.465 Y-117.306 Z2.345
G1 X236.662 Y-117.403 Z2.337
G1 X236.851 Y-117.514 Z2.329
G1 X237.032 Y-117.639 Z2.322
G1 X237.203 Y-117.776 Z2.314
G1 X237.364 Y-117.926 Z2.306
G1 X237.513 Y-118.086 Z2.299
G1 X237.651 Y-118.257 Z2.291
G1 X237.775 Y-118.438 Z2.283
G1 X237.886 Y-118.627 Z2.276
G1 X237.983 Y-118.824 Z2.268
G1 X238.066 Y-119.028 Z2.26
G1 X238.134 Y-119.236 Z2.253
G1 X238.186 Y-119.45 Z2.245
G1 X238.222 Y-119.666 Z2.237
G1 X238.243 Y-119.884 Z2.23
G1 X238.248 Y-120.104 Z2.222
G1 X238.236 Y-120.323 Z2.214
G1 X238.209 Y-120.541 Z2.207
G1 X238.166 Y-120.756 Z2.199
G1 X238.108 Y-120.968 Z2.191
G1 X238.034 Y-121.174 Z2.184
G1 X237.946 Y-121.375 Z2.176
G1 X237.843 Y-121.569 Z2.168
G1 X237.726 Y-121.755 Z2.161
G1 X237.596 Y-121.932 Z2.153
G1 X237.454 Y-122.099 Z2.145
G1 X237.299 Y-122.255 Z2.138
G1 X237.134 Y-122.4 Z2.13
G1 X236.959 Y-122.532 Z2.122
G1 X236.775 Y-122.651 Z2.115
G1 X236.582 Y-122.756 Z2.107
G1 X236.382 Y-122.847 Z2.099
G1 X236.177 Y-122.924 Z2.092
G1 X235.966 Y-122.985 Z2.084
G1 X235.751 Y-123.03 Z2.076
G1 X235.534 Y-123.06 Z2.069
G1 X235.315 Y-123.074 Z2.061
G1 X235.095 Y-123.072 Z2.053
G1 X234.877 Y-123.054 Z2.046
G1 X234.66 Y-123.021 Z2.038
G1 X234.446 Y-122.971 Z2.03
G1 X234.236 Y-122.906 Z2.023
G1 X234.032 Y-122.827 Z2.015
G1 X233.834 Y-122.732 Z2.007
G1 X233.643 Y-122.623 Z2
G1 X233.461 Y-122.501 Z1.992
G1 X233.288 Y-122.366 Z1.984
G1 X233.125 Y-122.218 Z1.977
G1 X232.974 Y-122.059 Z1.969
G1 X232.834 Y-121.89 Z1.961
G1 X232.708 Y-121.711 Z1.954
G1 X232.594 Y-121.523 Z1.946
G1 X232.495 Y-121.327 Z1.938
G1 X232.41 Y-121.125 Z1.931
G1 X232.34 Y-120.917 Z1.923
G1 X232.285 Y-120.704 Z1.915
G1 X232.246 Y-120.488 Z1.908
G1 X232.223 Y-120.27 Z1.9
G1 X232.215 Y-120.051 Z1.892
G1 X232.224 Y-119.831 Z1.885
G1 X232.249 Y-119.613 Z1.877
G1 X232.289 Y-119.398 Z1.869
G1 X232.345 Y-119.185 Z1.862
G1 X232.416 Y-118.978 Z1.854
G1 X232.502 Y-118.776 Z1.846
G1 X232.603 Y-118.581 Z1.839
G1 X232.717 Y-118.393 Z1.831
G1 X232.845 Y-118.215 Z1.823
G1 X232.985 Y-118.046 Z1.816
G1 X233.138 Y-117.888 Z1.808
G1 X233.301 Y-117.742 Z1.8
G1 X233.475 Y-117.608 Z1.793
G1 X233.658 Y-117.486 Z1.785
G1 X233.849 Y-117.379 Z1.777
G1 X234.047 Y-117.285 Z1.77
G1 X234.252 Y-117.206 Z1.762
G1 X234.462 Y-117.143 Z1.754
G1 X234.676 Y-117.094 Z1.747
G1 X234.893 Y-117.062 Z1.739
G1 X235.112 Y-117.045 Z1.731
G1 X235.332 Z1.724
G1 X235.551 Y-117.06 Z1.716
G1 X235.768 Y-117.091 Z1.708
G1 X235.982 Y-117.138 Z1.701
G1 X236.193 Y-117.2 Z1.693
G1 X236.398 Y-117.278 Z1.685
G1 X236.597 Y-117.37 Z1.678
G1 X236.789 Y-117.476 Z1.67
G1 X236.973 Y-117.596 Z1.662
G1 X237.147 Y-117.73 Z1.655
G1 X237.312 Y-117.875 Z1.647
G1 X237.465 Y-118.032 Z1.64
G1 X237.607 Y-118.2 Z1.632
G1 X237.736 Y-118.377 Z1.624
G1 X237.851 Y-118.564 Z1.617
G1 X237.953 Y-118.758 Z1.609
G1 X238.04 Y-118.96 Z1.601
G1 X238.113 Y-119.167 Z1.594
G1 X238.17 Y-119.379 Z1.586
G1 X238.212 Y-119.594 Z1.578
G1 X238.238 Y-119.812 Z1.571
G1 X238.248 Y-120.031 Z1.563
G1 X238.242 Y-120.251 Z1.555
G1 X238.22 Y-120.469 Z1.548
G1 X238.182 Y-120.685 Z1.54
G1 X238.129 Y-120.898 Z1.532
G1 X238.06 Y-121.107 Z1.525
G1 X237.976 Y-121.31 Z1.517
G1 X237.878 Y-121.506 Z1.509
G1 X237.766 Y-121.695 Z1.502
G1 X237.64 Y-121.875 Z1.494
G1 X237.502 Y-122.045 Z1.486
G1 X237.352 Y-122.205 Z1.479
G1 X237.19 Y-122.353 Z1.471
G1 X237.018 Y-122.49 Z1.463
G1 X236.837 Y-122.613 Z1.456
G1 X236.647 Y-122.723 Z1.448
G1 X236.449 Y-122.819 Z1.44
G1 X236.245 Y-122.9 Z1.433
G1 X236.036 Y-122.966 Z1.425
G1 X235.822 Y-123.017 Z1.417
G1 X235.606 Y-123.052 Z1.41
G1 X235.387 Y-123.071 Z1.402
G1 X235.168 Y-123.075 Z1.394
G1 X234.949 Y-123.062 Z1.387
G1 X234.731 Y-123.034 Z1.379
G1 X234.516 Y-122.989 Z1.371
G1 X234.305 Y-122.93 Z1.364
G1 X234.099 Y-122.855 Z1.356
G1 X233.898 Y-122.765 Z1.348
G1 X233.705 Y-122.661 Z1.341
G1 X233.52 Y-122.543 Z1.333
G1 X233.344 Y-122.412 Z1.325
G1 X233.178 Y-122.268 Z1.318
G1 X233.023 Y-122.113 Z1.31
G1 X232.879 Y-121.947 Z1.302
G1 X232.748 Y-121.771 Z1.295
G1 X232.63 Y-121.586 Z1.287
G1 X232.526 Y-121.393 Z1.279
G1 X232.436 Y-121.192 Z1.272
G1 X232.361 Y-120.986 Z1.264
G1 X232.302 Y-120.775 Z1.256
G1 X232.257 Y-120.56 Z1.249
G1 X232.229 Y-120.342 Z1.241
G1 X232.216 Y-120.123 Z1.233
G1 X232.219 Y-119.904 Z1.226
G1 X232.239 Y-119.685 Z1.218
G1 X232.274 Y-119.468 Z1.21
G1 X232.325 Y-119.255 Z1.203
G1 X232.391 Y-119.046 Z1.195
G1 X232.472 Y-118.842 Z1.187
G1 X232.568 Y-118.644 Z1.18
G1 X232.678 Y-118.454 Z1.172
G1 X232.801 Y-118.273 Z1.164
G1 X232.938 Y-118.101 Z1.157
G1 X233.086 Y-117.939 Z1.149
G1 X233.246 Y-117.789 Z1.141
G1 X233.416 Y-117.65 Z1.134
G1 X233.596 Y-117.525 Z1.126
G1 X233.785 Y-117.413 Z1.118
G1 X233.981 Y-117.314 Z1.111
G1 X234.184 Y-117.231 Z1.103
G1 X234.392 Y-117.162 Z1.095
G1 X234.605 Y-117.109 Z1.088
G1 X234.822 Y-117.071 Z1.08
G1 X235.04 Y-117.049 Z1.072
G1 X235.259 Y-117.043 Z1.065
G1 X235.479 Y-117.053 Z1.057
G1 X235.697 Y-117.079 Z1.049
G1 X235.912 Y-117.121 Z1.042
G1 X236.124 Y-117.178 Z1.034
G1 X236.331 Y-117.25 Z1.026
G1 X236.532 Y-117.338 Z1.019
G1 X236.727 Y-117.44 Z1.011
G1 X236.913 Y-117.555 Z1.003
G1 X237.091 Y-117.684 Z0.996
G1 X237.259 Y-117.826 Z0.988
G1 X237.416 Y-117.979 Z0.98
G1 X237.561 Y-118.143 Z0.973
G1 X237.694 Y-118.318 Z0.965
G1 X237.815 Y-118.501 Z0.957
G1 X237.921 Y-118.693 Z0.95
G1 X238.013 Y-118.893 Z0.942
G1 X238.091 Y-119.098 Z0.934
G1 X238.153 Y-119.308 Z0.927
G1 X238.2 Y-119.523 Z0.919
G1 X238.231 Y-119.74 Z0.911
G1 X238.246 Y-119.959 Z0.904
G1 Y-120.178 Z0.896
G1 X238.229 Y-120.397 Z0.888
G1 X238.196 Y-120.614 Z0.881
G1 X238.148 Y-120.828 Z0.873
G1 X238.084 Y-121.039 Z0.865
G1 X238.006 Y-121.243 Z0.858
G1 X237.912 Y-121.442 Z0.85
G1 X237.805 Y-121.633 Z0.842
G1 X237.683 Y-121.816 Z0.835
G1 X237.549 Y-121.99 Z0.827
G1 X237.403 Y-122.153 Z0.819
G1 X237.245 Y-122.306 Z0.812
G1 X237.076 Y-122.446 Z0.804
G1 X236.897 Y-122.574 Z0.796
G1 X236.71 Y-122.688 Z0.789
G1 X236.515 Y-122.789 Z0.781
G1 X236.313 Y-122.875 Z0.773
G1 X236.106 Y-122.946 Z0.766
G1 X235.893 Y-123.002 Z0.758
G1 X235.678 Y-123.042 Z0.75
G1 X235.46 Y-123.067 Z0.743
G1 X235.24 Y-123.075 Z0.735
G1 X235.021 Y-123.068 Z0.727
G1 X234.803 Y-123.045 Z0.72
G1 X234.587 Y-123.006 Z0.712
G1 X234.374 Y-122.951 Z0.704
G1 X234.166 Y-122.881 Z0.697
G1 X233.964 Y-122.796 Z0.689
G1 X233.768 Y-122.697 Z0.681
G1 X233.58 Y-122.583 Z0.674
G1 X233.401 Y-122.456 Z0.666
G1 X233.232 Y-122.317 Z0.658
G1 X233.073 Y-122.165 Z0.651
G1 X232.925 Y-122.003 Z0.643
G1 X232.79 Y-121.83 Z0.635
G1 X232.668 Y-121.648 Z0.628
G1 X232.559 Y-121.457 Z0.62
G1 X232.464 Y-121.259 Z0.612
G1 X232.384 Y-121.055 Z0.605
G1 X232.32 Y-120.845 Z0.597
G1 X232.27 Y-120.631 Z0.589
G1 X232.236 Y-120.414 Z0.582
G1 X232.218 Y-120.196 Z0.574
G1 X232.217 Y-119.976 Z0.566
G1 X232.231 Y-119.757 Z0.559
G1 X232.26 Y-119.54 Z0.551
G1 X232.306 Y-119.325 Z0.543
G1 X232.367 Y-119.114 Z0.536
G1 X232.444 Y-118.908 Z0.528
G1 X232.535 Y-118.709 Z0.52
G1 X232.64 Y-118.516 Z0.513
G1 X232.759 Y-118.332 Z0.505
G1 X232.891 Y-118.157 Z0.497
G1 X233.036 Y-117.991 Z0.49
G1 X233.192 Y-117.837 Z0.482
G1 X233.359 Y-117.695 Z0.474
G1 X233.536 Y-117.565 Z0.467
G1 X233.722 Y-117.448 Z0.459
G1 X233.916 Y-117.345 Z0.451
G1 X234.116 Y-117.257 Z0.444
G1 X234.323 Y-117.183 Z0.436
G1 X234.535 Y-117.125 Z0.428
G1 X234.75 Y-117.082 Z0.421
G1 X234.968 Y-117.055 Z0.413
G1 X235.187 Y-117.043 Z0.405
G1 X235.406 Y-117.048 Z0.398
G1 X235.625 Y-117.069 Z0.39
G1 X235.841 Y-117.105 Z0.382
G1 X236.054 Y-117.157 Z0.375
G1 X236.263 Y-117.225 Z0.367
G1 X236.467 Y-117.307 Z0.359
G1 X236.663 Y-117.404 Z0.352
G1 X236.853 Y-117.516 Z0.344
G1 X237.033 Y-117.64 Z0.336
G1 X237.204 Y-117.778 Z0.329
G1 X237.365 Y-117.927 Z0.321
G1 X237.515 Y-118.088 Z0.313
G1 X237.652 Y-118.259 Z0.306
G1 X237.776 Y-118.44 Z0.298
G1 X237.887 Y-118.629 Z0.29
G1 X237.984 Y-118.826 Z0.283
G1 X238.067 Y-119.03 Z0.275
G1 X238.134 Y-119.238 Z0.267
G1 X238.186 Y-119.452 Z0.26
G1 X238.222 Y-119.668 Z0.252
G1 X238.243 Y-119.887 Z0.244
G1 X238.248 Y-120.106 Z0.237
G1 X238.236 Y-120.325 Z0.229
G1 X238.209 Y-120.543 Z0.221
G1 X238.166 Y-120.758 Z0.214
G1 X238.107 Y-120.97 Z0.206
G1 X238.033 Y-121.176 Z0.198
G1 X237.945 Y-121.377 Z0.191
G1 X237.842 Y-121.571 Z0.183
G1 X237.725 Y-121.757 Z0.175
G1 X237.595 Y-121.934 Z0.168
G1 X237.452 Y-122.1 Z0.16
G1 X237.298 Y-122.257 Z0.152
G1 X237.133 Y-122.401 Z0.145
G1 X236.957 Y-122.533 Z0.137
G1 X236.773 Y-122.652 Z0.129
G1 X236.58 Y-122.757 Z0.122
G1 X236.381 Y-122.848 Z0.114
G1 X236.175 Y-122.924 Z0.106
G1 X235.964 Y-122.985 Z0.099
G1 X235.749 Y-123.031 Z0.091
G1 X235.532 Y-123.06 Z0.083
G1 X235.313 Y-123.074 Z0.076
G1 X235.093 Y-123.072 Z0.068
G1 X234.874 Y-123.054 Z0.06
G1 X234.658 Y-123.02 Z0.053
G1 X234.444 Y-122.971 Z0.045
G1 X234.234 Y-122.906 Z0.037
G1 X234.03 Y-122.826 Z0.03
G1 X233.832 Y-122.731 Z0.022
G1 X233.641 Y-122.622 Z0.014
G1 X233.459 Y-122.5 Z0.007
G1 X233.286 Y-122.364 Z-0.001
G1 X233.124 Y-122.217 Z-0.009
G1 X232.973 Y-122.058 Z-0.016
G1 X232.833 Y-121.888 Z-0.024
G1 X232.707 Y-121.709 Z-0.032
G1 X232.593 Y-121.521 Z-0.039
G1 X232.494 Y-121.325 Z-0.047
G1 X232.409 Y-121.123 Z-0.055
G1 X232.339 Y-120.915 Z-0.062
G1 X232.285 Y-120.702 Z-0.07
G1 X232.246 Y-120.486 Z-0.078
G1 X232.223 Y-120.268 Z-0.085
G1 X232.215 Y-120.049 Z-0.093
G1 X232.224 Y-119.829 Z-0.101
G1 X232.249 Y-119.611 Z-0.108
G1 X232.289 Y-119.395 Z-0.116
G1 X232.345 Y-119.183 Z-0.124
G1 X232.417 Y-118.976 Z-0.131
G1 X232.503 Y-118.774 Z-0.139
G1 X232.604 Y-118.579 Z-0.147
G1 X232.718 Y-118.392 Z-0.154
G1 X232.846 Y-118.213 Z-0.162
G1 X232.987 Y-118.045 Z-0.17
G1 X233.139 Y-117.887 Z-0.177
G1 X233.303 Y-117.74 Z-0.185
G1 X233.476 Y-117.606 Z-0.193
G1 X233.659 Y-117.485 Z-0.2
G1 X233.851 Y-117.378 Z-0.208
G1 X234.049 Y-117.284 Z-0.216
G1 X234.254 Y-117.206 Z-0.223
G1 X234.464 Y-117.142 Z-0.231
G1 X234.678 Y-117.094 Z-0.239
G1 X234.896 Y-117.062 Z-0.246
G1 X235.114 Y-117.045 Z-0.254
G1 X235.334 Z-0.262
G1 X235.553 Y-117.06 Z-0.269
G1 X235.77 Y-117.091 Z-0.277
G1 X235.984 Y-117.138 Z-0.285
G1 X236.195 Y-117.201 Z-0.292
G1 X236.4 Y-117.278 Z-0.3
G1 X236.599 Y-117.371 Z-0.308
G1 X236.791 Y-117.477 Z-0.315
G1 X236.975 Y-117.598 Z-0.323
G1 X237.149 Y-117.731 Z-0.331
G1 X237.313 Y-117.876 Z-0.338
G1 X237.467 Y-118.034 Z-0.346
G1 X237.608 Y-118.201 Z-0.354
G1 X237.737 Y-118.379 Z-0.361
G1 X237.852 Y-118.566 Z-0.369
G1 X237.954 Y-118.76 Z-0.377
G1 X238.041 Y-118.962 Z-0.384
G1 X238.114 Y-119.169 Z-0.392
G1 X238.171 Y-119.381 Z-0.4
G1 X238.212 Y-119.596 Z-0.407
G1 X238.238 Y-119.814 Z-0.415
G1 X238.248 Y-120.034 Z-0.423
G1 X238.242 Y-120.253 Z-0.43
G1 X238.22 Y-120.471 Z-0.438
G1 X238.182 Y-120.688 Z-0.446
G1 X238.128 Y-120.9 Z-0.453
G1 X238.059 Y-121.109 Z-0.461
G1 X237.976 Y-121.312 Z-0.469
G1 X237.877 Y-121.508 Z-0.476
G1 X237.765 Y-121.696 Z-0.484
G1 X237.639 Y-121.876 Z-0.492
G1 X237.501 Y-122.046 Z-0.499
G1 X237.35 Y-122.206 Z-0.507
G1 X237.188 Y-122.355 Z-0.515
G1 X237.016 Y-122.491 Z-0.522
G1 X236.835 Y-122.614 Z-0.53
G1 X236.645 Y-122.724 Z-0.538
G1 X236.447 Y-122.82 Z-0.545
G1 X236.243 Y-122.901 Z-0.553
G1 X236.034 Y-122.967 Z-0.561
G1 X235.82 Y-123.017 Z-0.568
G1 X235.604 Y-123.052 Z-0.576
G1 X235.385 Y-123.072 Z-0.584
G1 X235.166 Y-123.075 Z-0.591
G1 X234.947 Y-123.062 Z-0.599
G1 X234.729 Y-123.033 Z-0.607
G1 X234.514 Y-122.989 Z-0.614
G1 X234.303 Y-122.929 Z-0.622
G1 X234.097 Y-122.854 Z-0.63
G1 X233.896 Y-122.764 Z-0.637
G1 X233.703 Y-122.66 Z-0.645
G1 X233.518 Y-122.542 Z-0.653
G1 X233.342 Y-122.41 Z-0.66
G1 X233.176 Y-122.267 Z-0.668
G1 X233.021 Y-122.111 Z-0.676
G1 X232.878 Y-121.945 Z-0.683
G1 X232.747 Y-121.769 Z-0.691
G1 X232.629 Y-121.584 Z-0.699
G1 X232.525 Y-121.391 Z-0.706
G1 X232.436 Y-121.19 Z-0.714
G1 X232.361 Y-120.984 Z-0.722
G1 X232.301 Y-120.773 Z-0.729
G1 X232.257 Y-120.558 Z-0.737
G1 X232.229 Y-120.34 Z-0.745
G1 X232.216 Y-120.121 Z-0.752
G1 X232.22 Y-119.902 Z-0.76
G1 X232.239 Y-119.683 Z-0.768
G1 X232.274 Y-119.466 Z-0.775
G1 X232.325 Y-119.253 Z-0.783
G1 X232.391 Y-119.044 Z-0.791
G1 X232.473 Y-118.84 Z-0.798
G1 X232.569 Y-118.642 Z-0.806
G1 X232.679 Y-118.453 Z-0.814
G1 X232.802 Y-118.271 Z-0.821
G1 X232.939 Y-118.099 Z-0.829
G1 X233.088 Y-117.938 Z-0.837
G1 X233.247 Y-117.787 Z-0.844
G1 X233.418 Y-117.649 Z-0.852
G1 X233.598 Y-117.524 Z-0.86
G1 X233.787 Y-117.412 Z-0.867
G1 X233.983 Y-117.314 Z-0.875
G1 X234.186 Y-117.23 Z-0.883
G1 X234.394 Y-117.161 Z-0.89
G1 X234.607 Y-117.108 Z-0.898
G1 X234.824 Y-117.071 Z-0.906
G1 X235.042 Y-117.049 Z-0.913
G1 X235.261 Y-117.043 Z-0.921
G1 X235.481 Y-117.053 Z-0.929
G1 X235.699 Y-117.079 Z-0.936
G1 X235.914 Y-117.121 Z-0.944
G1 X236.126 Y-117.179 Z-0.952
G1 X236.333 Y-117.251 Z-0.959
G1 X236.534 Y-117.339 Z-0.967
G1 X236.729 Y-117.441 Z-0.975
G1 X236.915 Y-117.556 Z-0.982
G1 X237.093 Y-117.685 Z-0.99
G1 X237.26 Y-117.827 Z-0.998
G1 X237.417 Y-117.98 Z-1.005
G1 X237.563 Y-118.145 Z-1.013
G1 X237.696 Y-118.319 Z-1.021
G1 X237.816 Y-118.503 Z-1.028
G1 X237.922 Y-118.695 Z-1.036
G1 X238.014 Y-118.895 Z-1.044
G1 X238.091 Y-119.1 Z-1.051
G1 X238.153 Y-119.31 Z-1.059
G1 X238.2 Y-119.525 Z-1.067
G1 X238.231 Y-119.742 Z-1.074
G1 X238.246 Y-119.961 Z-1.082
G1 X238.245 Y-120.181 Z-1.09
G1 X238.229 Y-120.399 Z-1.097
G1 X238.196 Y-120.616 Z-1.105
G1 X238.148 Y-120.831 Z-1.113
G1 X238.084 Y-121.041 Z-1.12
G1 X238.005 Y-121.245 Z-1.128
G1 X237.911 Y-121.444 Z-1.136
G1 X237.804 Y-121.635 Z-1.143
G1 X237.682 Y-121.818 Z-1.151
G1 X237.548 Y-121.991 Z-1.159
G1 X237.401 Y-122.155 Z-1.166
G1 X237.243 Y-122.307 Z-1.174
G1 X237.074 Y-122.447 Z-1.182
G1 X236.896 Y-122.575 Z-1.189
G1 X236.708 Y-122.689 Z-1.197
G1 X236.513 Y-122.79 Z-1.205
G1 X236.311 Y-122.876 Z-1.212
G1 X236.104 Y-122.947 Z-1.22
G1 X235.891 Y-123.002 Z-1.228
G1 X235.676 Y-123.043 Z-1.235
G1 X235.457 Y-123.067 Z-1.243
G1 X235.238 Y-123.075 Z-1.251
G1 X235.019 Y-123.068 Z-1.258
G1 X234.801 Y-123.044 Z-1.266
G1 X234.585 Y-123.005 Z-1.274
G1 X234.372 Y-122.95 Z-1.281
G1 X234.164 Y-122.88 Z-1.289
G1 X233.962 Y-122.795 Z-1.297
G1 X233.766 Y-122.696 Z-1.304
G1 X233.578 Y-122.582 Z-1.312
G1 X233.399 Y-122.455 Z-1.32
G1 X233.23 Y-122.316 Z-1.327
G1 X233.071 Y-122.164 Z-1.335
G1 X232.924 Y-122.001 Z-1.343
G1 X232.789 Y-121.828 Z-1.35
G1 X232.667 Y-121.646 Z-1.358
G1 X232.558 Y-121.455 Z-1.366
G1 X232.464 Y-121.257 Z-1.373
G1 X232.384 Y-121.053 Z-1.381
G1 X232.319 Y-120.843 Z-1.389
G1 X232.27 Y-120.629 Z-1.396
G1 X232.236 Y-120.412 Z-1.404
G1 X232.218 Y-120.193 Z-1.412
G1 X232.217 Y-119.974 Z-1.419
G1 X232.231 Y-119.755 Z-1.427
G1 X232.261 Y-119.538 Z-1.435
G1 X232.307 Y-119.323 Z-1.442
G1 X232.368 Y-119.112 Z-1.45
G1 X232.444 Y-118.906 Z-1.458
G1 X232.536 Y-118.707 Z-1.465
G1 X232.641 Y-118.514 Z-1.473
G1 X232.76 Y-118.33 Z-1.481
G1 X232.893 Y-118.155 Z-1.488
G1 X233.037 Y-117.99 Z-1.496
G1 X233.193 Y-117.836 Z-1.504
G1 X233.361 Y-117.693 Z-1.511
G1 X233.538 Y-117.564 Z-1.519
G1 X233.723 Y-117.447 Z-1.527
G1 X233.917 Y-117.344 Z-1.534
G1 X234.118 Y-117.256 Z-1.542
G1 X234.325 Y-117.182 Z-1.55
G1 X234.537 Y-117.124 Z-1.557
G1 X234.752 Y-117.081 Z-1.565
G1 X234.97 Y-117.054 Z-1.573
G1 X235.189 Y-117.043 Z-1.58
G1 X235.408 Y-117.048 Z-1.588
G1 X235.627 Y-117.069 Z-1.596
G1 X235.843 Y-117.106 Z-1.603
G1 X236.056 Y-117.158 Z-1.611
G1 X236.265 Y-117.226 Z-1.619
G1 X236.469 Y-117.308 Z-1.626
G1 X236.665 Y-117.405 Z-1.634
G1 X236.854 Y-117.517 Z-1.642
G1 X237.035 Y-117.641 Z-1.649
G1 X237.206 Y-117.779 Z-1.657
G1 X237.367 Y-117.929 Z-1.665
G1 X237.516 Y-118.089 Z-1.672
G1 X237.653 Y-118.261 Z-1.68
G1 X237.777 Y-118.442 Z-1.688
G1 X237.888 Y-118.631 Z-1.695
G1 X237.985 Y-118.828 Z-1.703
G1 X238.067 Y-119.032 Z-1.711
G1 X238.135 Y-119.24 Z-1.718
G1 X238.187 Y-119.454 Z-1.726
G1 X238.223 Y-119.67 Z-1.734
G1 X238.243 Y-119.889 Z-1.741
G1 X238.248 Y-120.108 Z-1.749
G1 X238.236 Y-120.327 Z-1.757
G1 X238.209 Y-120.545 Z-1.764
G1 X238.165 Y-120.76 Z-1.772
G1 X238.107 Y-120.972 Z-1.78
G1 X238.033 Y-121.178 Z-1.787
G1 X237.944 Y-121.379 Z-1.795
G1 X237.841 Y-121.573 Z-1.803
G1 X237.724 Y-121.758 Z-1.81
G1 X237.593 Y-121.935 Z-1.818
G1 X237.451 Y-122.102 Z-1.826
G1 X237.296 Y-122.258 Z-1.833
G1 X237.131 Y-122.402 Z-1.841
G1 X236.956 Y-122.534 Z-1.849
G1 X236.771 Y-122.653 Z-1.856
G1 X236.578 Y-122.758 Z-1.864
G1 X236.379 Y-122.849 Z-1.872
G1 X236.173 Y-122.925 Z-1.879
G1 X235.962 Y-122.986 Z-1.887
G1 X235.747 Y-123.031 Z-1.895
G1 X235.53 Y-123.061 Z-1.902
G1 X235.311 Y-123.074 Z-1.91
G1 X235.091 Y-123.072 Z-1.918
G1 X234.872 Y-123.054 Z-1.925
G1 X234.656 Y-123.02 Z-1.933
G1 X234.442 Y-122.97 Z-1.941
G1 X234.232 Y-122.905 Z-1.948
G1 X234.028 Y-122.825 Z-1.956
G1 X233.83 Y-122.73 Z-1.964
G1 X233.639 Y-122.621 Z-1.971
G1 X233.457 Y-122.498 Z-1.979
G1 X233.285 Y-122.363 Z-1.987
G1 X233.122 Y-122.215 Z-1.994
G1 X232.971 Y-122.056 Z-2.002
G1 X232.832 Y-121.887 Z-2.01
G1 X232.705 Y-121.707 Z-2.017
G1 X232.592 Y-121.519 Z-2.025
G1 X232.493 Y-121.323 Z-2.033
G1 X232.408 Y-121.121 Z-2.04
G1 X232.339 Y-120.913 Z-2.048
G1 X232.284 Y-120.7 Z-2.056
G1 X232.245 Y-120.484 Z-2.063
G1 X232.222 Y-120.266 Z-2.071
G1 X232.215 Y-120.046 Z-2.079
G1 X232.224 Y-119.827 Z-2.086
G1 X232.249 Y-119.609 Z-2.094
G1 X232.29 Y-119.393 Z-2.102
G1 X232.346 Y-119.181 Z-2.109
G1 X232.417 Y-118.974 Z-2.117
G1 X232.504 Y-118.772 Z-2.125
G1 X232.605 Y-118.577 Z-2.132
G1 X232.719 Y-118.39 Z-2.14
G1 X232.847 Y-118.212 Z-2.148
G1 X232.988 Y-118.043 Z-2.155
G1 X233.141 Y-117.885 Z-2.163
G1 X233.304 Y-117.739 Z-2.17
G1 X233.478 Y-117.605 Z-2.178
G1 X233.661 Y-117.484 Z-2.186
G1 X233.853 Y-117.377 Z-2.193
G1 X234.051 Y-117.283 Z-2.201
G1 X234.256 Y-117.205 Z-2.209
G1 X234.466 Y-117.142 Z-2.216
G1 X234.681 Y-117.094 Z-2.224
G1 X234.898 Y-117.061 Z-2.232
G1 X235.117 Y-117.045 Z-2.239
G1 X235.336 Z-2.247
G1 X235.555 Y-117.06 Z-2.255
G1 X235.772 Y-117.092 Z-2.262
G1 X235.986 Y-117.139 Z-2.27
G1 X236.197 Y-117.202 Z-2.278
G1 X236.402 Y-117.279 Z-2.285
G1 X236.601 Y-117.372 Z-2.293
G1 X236.793 Y-117.478 Z-2.301
G1 X236.976 Y-117.599 Z-2.308
G1 X237.151 Y-117.732 Z-2.316
G1 X237.315 Y-117.878 Z-2.324
G1 X237.468 Y-118.035 Z-2.331
G1 X237.609 Y-118.203 Z-2.339
G1 X237.738 Y-118.381 Z-2.347
G1 X237.853 Y-118.568 Z-2.354
G1 X237.955 Y-118.762 Z-2.362
G1 X238.042 Y-118.964 Z-2.37
G1 X238.114 Y-119.171 Z-2.377
G1 X238.171 Y-119.383 Z-2.385
G1 X238.213 Y-119.598 Z-2.393
G1 X238.238 Y-119.816 Z-2.4
G1 X238.248 Y-120.036 Z-2.408
G1 X238.242 Y-120.255 Z-2.416
G1 X238.219 Y-120.473 Z-2.423
G1 X238.181 Y-120.69 Z-2.431
G1 X238.128 Y-120.902 Z-2.439
G1 X238.059 Y-121.111 Z-2.446
G1 X237.975 Y-121.314 Z-2.454
G1 X237.876 Y-121.51 Z-2.462
G1 X237.764 Y-121.698 Z-2.469
G1 X237.638 Y-121.878 Z-2.477
G1 X237.499 Y-122.048 Z-2.485
G1 X237.349 Y-122.208 Z-2.492
G1 X237.187 Y-122.356 Z-2.5
G1 X237.015 Y-122.492 Z-2.508
G1 X236.833 Y-122.615 Z-2.515
G1 X236.643 Y-122.725 Z-2.523
G1 X236.445 Y-122.821 Z-2.531
G1 X236.241 Y-122.901 Z-2.538
G1 X236.032 Y-122.967 Z-2.546
G1 X235.818 Y-123.018 Z-2.554
G1 X235.602 Y-123.053 Z-2.561
G1 X235.383 Y-123.072 Z-2.569
G1 X235.164 Y-123.075 Z-2.577
G1 X234.944 Y-123.062 Z-2.584
G1 X234.727 Y-123.033 Z-2.592
G1 X234.512 Y-122.988 Z-2.6
G1 X234.301 Y-122.928 Z-2.607
G1 X234.095 Y-122.853 Z-2.615
G1 X233.895 Y-122.763 Z-2.623
G1 X233.701 Y-122.658 Z-2.63
G1 X233.517 Y-122.54 Z-2.638
G1 X233.341 Y-122.409 Z-2.646
G1 X233.175 Y-122.265 Z-2.653
G1 X233.02 Y-122.11 Z-2.661
G1 X232.877 Y-121.944 Z-2.669
G1 X232.746 Y-121.767 Z-2.676
G1 X232.628 Y-121.582 Z-2.684
G1 X232.524 Y-121.389 Z-2.692
G1 X232.435 Y-121.188 Z-2.699
G1 X232.36 Y-120.982 Z-2.707
G1 X232.301 Y-120.771 Z-2.715
G1 X232.257 Y-120.556 Z-2.722
G1 X232.228 Y-120.338 Z-2.73
G1 X232.216 Y-120.119 Z-2.738
G1 X232.22 Y-119.899 Z-2.745
G1 X232.239 Y-119.681 Z-2.753
G1 X232.275 Y-119.464 Z-2.761
G1 X232.326 Y-119.251 Z-2.768
G1 X232.392 Y-119.042 Z-2.776
G1 X232.474 Y-118.838 Z-2.784
G1 X232.57 Y-118.641 Z-2.791
G1 X232.68 Y-118.451 Z-2.799
G1 X232.804 Y-118.269 Z-2.807
G1 X232.94 Y-118.098 Z-2.814
G1 X233.089 Y-117.936 Z-2.822
G1 X233.249 Y-117.786 Z-2.83
G1 X233.42 Y-117.648 Z-2.837
G1 X233.6 Y-117.523 Z-2.845
G1 X233.789 Y-117.411 Z-2.853
G1 X233.985 Y-117.313 Z-2.86
G1 X234.188 Y-117.229 Z-2.868
G1 X234.396 Y-117.161 Z-2.876
G1 X234.609 Y-117.108 Z-2.883
G1 X234.826 Y-117.07 Z-2.891
G1 X235.044 Y-117.049 Z-2.899
G1 X235.264 Y-117.043 Z-2.906
G1 X235.483 Y-117.053 Z-2.914
G1 X235.701 Y-117.08 Z-2.922
G1 X235.916 Y-117.122 Z-2.929
G1 X236.128 Y-117.179 Z-2.937
G1 X236.335 Y-117.252 Z-2.945
G1 X236.536 Y-117.34 Z-2.952
G1 X236.73 Y-117.442 Z-2.96
G1 X236.917 Y-117.558 Z-2.968
G1 X237.094 Y-117.687 Z-2.975
G1 X237.262 Y-117.828 Z-2.983
G1 X237.419 Y-117.982 Z-2.991
G1 X237.564 Y-118.147 Z-2.998
G1 X237.697 Y-118.321 Z-3.006
G1 X237.817 Y-118.505 Z-3.014
G1 X237.923 Y-118.697 Z-3.021
G1 X238.015 Y-118.896 Z-3.029
G1 X238.092 Y-119.102 Z-3.037
G1 X238.154 Y-119.312 Z-3.044
G1 X238.201 Y-119.527 Z-3.052
G1 X238.231 Y-119.744 Z-3.06
G1 X238.246 Y-119.963 Z-3.067
G1 X238.245 Y-120.183 Z-3.075
G1 X238.228 Y-120.402 Z-3.083
G1 X238.196 Y-120.619 Z-3.09
G1 X238.147 Y-120.833 Z-3.098
G1 X238.083 Y-121.043 Z-3.106
G1 X238.004 Y-121.247 Z-3.113
G1 X237.91 Y-121.446 Z-3.121
G1 X237.802 Y-121.637 Z-3.129
G1 X237.681 Y-121.82 Z-3.136
G1 X237.546 Y-121.993 Z-3.144
G1 X237.4 Y-122.156 Z-3.152
G1 X237.241 Y-122.308 Z-3.159
G1 X237.073 Y-122.449 Z-3.167
G1 X236.894 Y-122.576 Z-3.175
G1 X236.706 Y-122.69 Z-3.182
G1 X236.511 Y-122.791 Z-3.19
G1 X236.309 Y-122.876 Z-3.198
G1 X236.102 Y-122.947 Z-3.205
G1 X235.889 Y-123.003 Z-3.213
G1 X235.673 Y-123.043 Z-3.221
G1 X235.455 Y-123.067 Z-3.228
G1 X235.236 Y-123.075 Z-3.236
G1 X235.017 Y-123.068 Z-3.244
G1 X234.798 Y-123.044 Z-3.251
G1 X234.583 Y-123.005 Z-3.259
G1 X234.37 Y-122.95 Z-3.267
G1 X234.162 Y-122.879 Z-3.274
G1 X233.96 Y-122.794 Z-3.282
G1 X233.764 Y-122.695 Z-3.29
G1 X233.577 Y-122.581 Z-3.297
G1 X233.398 Y-122.454 Z-3.305
G1 X233.228 Y-122.314 Z-3.313
G1 X233.07 Y-122.162 Z-3.32
G1 X232.922 Y-122 Z-3.328
G1 X232.787 Y-121.827 Z-3.336
G1 X232.665 Y-121.644 Z-3.343
G1 X232.557 Y-121.453 Z-3.351
G1 X232.463 Y-121.255 Z-3.359
G1 X232.383 Y-121.051 Z-3.366
G1 X232.318 Y-120.841 Z-3.374
G1 X232.269 Y-120.627 Z-3.382
G1 X232.236 Y-120.41 Z-3.389
G1 X232.218 Y-120.191 Z-3.397
G1 X232.217 Y-119.972 Z-3.405
G1 X232.231 Y-119.753 Z-3.412
G1 X232.261 Y-119.535 Z-3.42
G1 X232.307 Y-119.321 Z-3.428
G1 X232.369 Y-119.11 Z-3.435
G1 X232.445 Y-118.904 Z-3.443
G1 X232.537 Y-118.705 Z-3.451
G1 X232.642 Y-118.513 Z-3.458
G1 X232.761 Y-118.328 Z-3.466
G1 X232.894 Y-118.153 Z-3.474
G1 X233.039 Y-117.988 Z-3.481
G1 X233.195 Y-117.834 Z-3.489
G1 X233.362 Y-117.692 Z-3.497
G1 X233.539 Y-117.562 Z-3.504
G1 X233.725 Y-117.446 Z-3.512
G1 X233.919 Y-117.343 Z-3.52
G1 X234.12 Y-117.255 Z-3.527
G1 X234.327 Y-117.182 Z-3.535
G1 X234.539 Y-117.124 Z-3.543
G1 X234.754 Y-117.081 Z-3.55
G1 X234.972 Y-117.054 Z-3.558
G1 X235.191 Y-117.043 Z-3.566
G1 X235.41 Y-117.048 Z-3.573
G1 X235.629 Y-117.069 Z-3.581
G1 X235.845 Y-117.106 Z-3.589
G1 X236.058 Y-117.158 Z-3.596
G1 X236.267 Y-117.226 Z-3.604
G1 X236.47 Y-117.309 Z-3.612
G1 X236.667 Y-117.406 Z-3.619
G1 X236.856 Y-117.518 Z-3.627
G1 X237.037 Y-117.643 Z-3.635
G1 X237.208 Y-117.78 Z-3.642
G1 X237.368 Y-117.93 Z-3.65
G1 X237.517 Y-118.091 Z-3.658
G1 X237.654 Y-118.262 Z-3.665
G1 X237.779 Y-118.443 Z-3.673
G1 X237.889 Y-118.633 Z-3.681
G1 X237.986 Y-118.83 Z-3.688
G1 X238.068 Y-119.033 Z-3.696
G1 X238.135 Y-119.242 Z-3.704
G1 X238.187 Y-119.456 Z-3.711
G1 X238.223 Y-119.672 Z-3.719
G1 X238.243 Y-119.891 Z-3.727
G1 X238.247 Y-120.11 Z-3.734
G1 X238.236 Y-120.329 Z-3.742
G1 X238.208 Y-120.547 Z-3.75
G1 X238.165 Y-120.762 Z-3.757
G1 X238.106 Y-120.974 Z-3.765
G1 X238.032 Y-121.18 Z-3.773
G1 X237.943 Y-121.381 Z-3.78
G1 X237.84 Y-121.575 Z-3.788
G1 X237.722 Y-121.76 Z-3.796
G1 X237.592 Y-121.937 Z-3.803
G1 X237.449 Y-122.104 Z-3.811
G1 X237.295 Y-122.259 Z-3.819
G1 X237.129 Y-122.404 Z-3.826
G1 X236.954 Y-122.535 Z-3.834
G1 X236.769 Y-122.654 Z-3.842
G1 X236.577 Y-122.759 Z-3.849
G1 X236.377 Y-122.85 Z-3.857
G1 X236.171 Y-122.926 Z-3.865
G1 X235.96 Y-122.986 Z-3.872
G1 X235.745 Y-123.031 Z-3.88
G1 X235.528 Y-123.061 Z-3.888
G1 X235.308 Y-123.074 Z-3.895
G1 X235.089 Y-123.072 Z-3.903
G1 X234.87 Y-123.054 Z-3.911
G1 X234.653 Y-123.02 Z-3.918
G1 X234.44 Y-122.97 Z-3.926
G1 X234.23 Y-122.904 Z-3.934
G1 X234.026 Y-122.824 Z-3.941
G1 X233.828 Y-122.729 Z-3.949
G1 X233.638 Y-122.62 Z-3.957
G1 X233.456 Y-122.497 Z-3.964
G1 X233.283 Y-122.362 Z-3.972
G1 X233.121 Y-122.214 Z-3.98
G1 X232.97 Y-122.055 Z-3.987
G1 X232.831 Y-121.885 Z-3.995
G1 X232.704 Y-121.705 Z-4.003
G1 X232.591 Y-121.517 Z-4.01
G1 X232.492 Y-121.321 Z-4.018
G1 X232.408 Y-121.119 Z-4.026
G1 X232.338 Y-120.911 Z-4.033
G1 X232.284 Y-120.698 Z-4.041
G1 X232.245 Y-120.482 Z-4.049
G1 X232.222 Y-120.264 Z-4.056
G1 X232.215 Y-120.044 Z-4.064
G1 Y-120.034
G1 X232.222 Y-119.993
G1 X232.241 Y-119.956
G1 X232.271 Y-119.927
G1 X232.307 Y-119.909
G1 X232.348 Y-119.902
G1 X232.859 Y-119.905
G2 X233.001 Y-120.048 I-0.001 J-0.143
G2 X232.959 Y-120.149 I-0.143 J0.001
G2 X232.858 Y-120.19 I-0.1 J0.101
G1 X232.347 Y-120.188
G1 X232.306 Y-120.181
G1 X232.269 Y-120.162
G1 X232.24 Y-120.133
G1 X232.222 Y-120.096
G1 X232.215 Y-120.055
G1 Y-120.044
G3 X230.893 Y-117.468 I-3.14 J0.015
G2 X230.533 Y-115.351 I0.879 J1.238
G2 X231.779 Y-114.712 I1.238 J-0.879
G1 X236.329 Y-114.734
G3 X238.965 Y-113.642 I0.018 J3.683
G2 X239.413 Y-113.64 I0.226 J-0.223
G2 X239.507 Y-113.867 I-0.223 J-0.226
G2 X239.411 Y-114.093 I-0.317 J0.002
G3 X238.293 Y-116.718 I2.565 J-2.643
G1 X238.26 Y-123.432
G3 X239.352 Y-126.067 I3.683 J-0.018
G2 X239.354 Y-126.515 I-0.223 J-0.225
G2 X239.127 Y-126.609 I-0.225 J0.223
G2 X238.902 Y-126.513 I0.002 J0.317
G3 X236.277 Y-125.395 I-2.643 J-2.565
G1 X228.974 Y-125.359
G3 X226.338 Y-126.451 I-0.018 J-3.683
G2 X225.89 Y-126.453 I-0.225 J0.223
G2 X225.796 Y-126.227 I0.223 J0.225
G2 X225.892 Y-126.001 I0.317 J-0.002
G3 X227.011 Y-123.375 I-2.564 J2.644
G1 X227.044 Y-116.662
G3 X225.952 Y-114.026 I-3.683 J0.018
G2 X225.95 Y-113.578 I0.223 J0.225
G2 X226.176 Y-113.484 I0.225 J-0.223
G2 X226.402 Y-113.58 I-0.002 J-0.317
G3 X229.027 Y-114.698 I2.643 J2.565
G1 X231.779 Y-114.712
G0 Z6.096
G0 X236.537 Y-122.778
G1 Z-1.524 F508.
G1 X236.336 Y-122.866 Z-1.532
G1 X236.129 Y-122.939 Z-1.539
G1 X235.917 Y-122.996 Z-1.547
G1 X235.702 Y-123.039 Z-1.555
G1 X235.484 Y-123.065 Z-1.562
G1 X235.264 Y-123.075 Z-1.57
G1 X235.045 Y-123.07 Z-1.578
G1 X234.826 Y-123.048 Z-1.585
G1 X234.61 Y-123.011 Z-1.593
G1 X234.397 Y-122.958 Z-1.601
G1 X234.188 Y-122.889 Z-1.608
G1 X233.985 Y-122.806 Z-1.616
G1 X233.789 Y-122.708 Z-1.624
G1 X233.6 Y-122.596 Z-1.631
G1 X233.42 Y-122.47 Z-1.639
G1 X233.249 Y-122.332 Z-1.647
G1 X233.089 Y-122.182 Z-1.654
G1 X232.94 Y-122.02 Z-1.662
G1 X232.803 Y-121.849 Z-1.67
G1 X232.68 Y-121.667 Z-1.677
G1 X232.57 Y-121.477 Z-1.685
G1 X232.473 Y-121.28 Z-1.693
G1 X232.392 Y-121.076 Z-1.7
G1 X232.325 Y-120.867 Z-1.708
G1 X232.274 Y-120.653 Z-1.716
G1 X232.239 Y-120.436 Z-1.723
G1 X232.22 Y-120.218 Z-1.731
G1 X232.216 Y-119.998 Z-1.739
G1 X232.228 Y-119.779 Z-1.746
G1 X232.257 Y-119.561 Z-1.754
G1 X232.301 Y-119.346 Z-1.762
G1 X232.361 Y-119.135 Z-1.769
G1 X232.435 Y-118.928 Z-1.777
G1 X232.525 Y-118.728 Z-1.785
G1 X232.629 Y-118.535 Z-1.792
G1 X232.747 Y-118.349 Z-1.8
G1 X232.878 Y-118.173 Z-1.808
G1 X233.021 Y-118.007 Z-1.815
G1 X233.177 Y-117.851 Z-1.823
G1 X233.343 Y-117.708 Z-1.831
G1 X233.519 Y-117.577 Z-1.838
G1 X233.704 Y-117.459 Z-1.846
G1 X233.897 Y-117.354 Z-1.854
G1 X234.097 Y-117.264 Z-1.861
G1 X234.304 Y-117.189 Z-1.869
G1 X234.515 Y-117.129 Z-1.877
G1 X234.73 Y-117.085 Z-1.884
G1 X234.948 Y-117.056 Z-1.892
G1 X235.167 Y-117.044 Z-1.9
G1 X235.386 Y-117.047 Z-1.907
G1 X235.605 Y-117.066 Z-1.915
G1 X235.822 Y-117.101 Z-1.923
G1 X236.036 Y-117.152 Z-1.93
G1 X236.245 Y-117.218 Z-1.938
G1 X236.449 Y-117.299 Z-1.946
G1 X236.646 Y-117.395 Z-1.953
G1 X236.836 Y-117.505 Z-1.961
G1 X237.018 Y-117.629 Z-1.969
G1 X237.19 Y-117.765 Z-1.976
G1 X237.352 Y-117.914 Z-1.984
G1 X237.502 Y-118.074 Z-1.992
G1 X237.641 Y-118.244 Z-2
G1 X237.766 Y-118.424 Z-2.007
G1 X237.879 Y-118.613 Z-2.015
G1 X237.977 Y-118.809 Z-2.023
G1 X238.06 Y-119.012 Z-2.03
G1 X238.129 Y-119.221 Z-2.038
G1 X238.182 Y-119.434 Z-2.046
G1 X238.22 Y-119.65 Z-2.053
G1 X238.242 Y-119.869 Z-2.061
G1 X238.248 Y-120.088 Z-2.069
G1 X238.238 Y-120.308 Z-2.076
G1 X238.212 Y-120.526 Z-2.084
G1 X238.17 Y-120.741 Z-2.092
G1 X238.112 Y-120.953 Z-2.099
G1 X238.04 Y-121.16 Z-2.107
G1 X237.952 Y-121.362 Z-2.115
G1 X237.85 Y-121.556 Z-2.122
G1 X237.734 Y-121.743 Z-2.13
G1 X237.605 Y-121.92 Z-2.138
G1 X237.464 Y-122.088 Z-2.145
G1 X237.31 Y-122.245 Z-2.153
G1 X237.146 Y-122.39 Z-2.161
G1 X236.971 Y-122.523 Z-2.168
G1 X236.787 Y-122.643 Z-2.176
G1 X236.595 Y-122.75 Z-2.184
G1 X236.396 Y-122.842 Z-2.191
G1 X236.19 Y-122.919 Z-2.199
G1 X235.979 Y-122.981 Z-2.207
G1 X235.765 Y-123.028 Z-2.214
G1 X235.548 Y-123.059 Z-2.222
G1 X235.328 Y-123.074 Z-2.23
G1 X235.109 Y-123.073 Z-2.237
G1 X234.89 Y-123.056 Z-2.245
G1 X234.673 Y-123.023 Z-2.253
G1 X234.459 Y-122.975 Z-2.26
G1 X234.249 Y-122.911 Z-2.268
G1 X234.044 Y-122.832 Z-2.276
G1 X233.845 Y-122.738 Z-2.283
G1 X233.654 Y-122.63 Z-2.291
G1 X233.471 Y-122.508 Z-2.299
G1 X233.298 Y-122.374 Z-2.306
G1 X233.134 Y-122.227 Z-2.314
G1 X232.982 Y-122.069 Z-2.322
G1 X232.842 Y-121.9 Z-2.329
G1 X232.714 Y-121.721 Z-2.337
G1 X232.6 Y-121.533 Z-2.345
G1 X232.5 Y-121.338 Z-2.352
G1 X232.414 Y-121.136 Z-2.36
G1 X232.343 Y-120.928 Z-2.368
G1 X232.288 Y-120.716 Z-2.375
G1 X232.248 Y-120.5 Z-2.383
G1 X232.224 Y-120.282 Z-2.391
G1 X232.215 Y-120.062 Z-2.398
G1 X232.223 Y-119.843 Z-2.406
G1 X232.247 Y-119.625 Z-2.414
G1 X232.286 Y-119.409 Z-2.421
G1 X232.342 Y-119.196 Z-2.429
G1 X232.412 Y-118.988 Z-2.437
G1 X232.497 Y-118.786 Z-2.444
G1 X232.597 Y-118.59 Z-2.452
G1 X232.711 Y-118.402 Z-2.46
G1 X232.838 Y-118.223 Z-2.467
G1 X232.978 Y-118.054 Z-2.475
G1 X233.13 Y-117.896 Z-2.483
G1 X233.293 Y-117.748 Z-2.49
G1 X233.466 Y-117.614 Z-2.498
G1 X233.649 Y-117.492 Z-2.506
G1 X233.84 Y-117.383 Z-2.513
G1 X234.038 Y-117.289 Z-2.521
G1 X234.243 Y-117.21 Z-2.529
G1 X234.453 Y-117.145 Z-2.536
G1 X234.667 Y-117.096 Z-2.544
G1 X234.884 Y-117.063 Z-2.552
G1 X235.103 Y-117.046 Z-2.559
G1 X235.322 Y-117.044 Z-2.567
G1 X235.541 Y-117.059 Z-2.575
G1 X235.759 Y-117.089 Z-2.582
G1 X235.974 Y-117.136 Z-2.59
G1 X236.184 Y-117.197 Z-2.598
G1 X236.39 Y-117.274 Z-2.605
G1 X236.589 Y-117.366 Z-2.613
G1 X236.782 Y-117.472 Z-2.621
G1 X236.966 Y-117.591 Z-2.628
