(1001)
(T1  D=6.35 CR=0 - ZMIN=-20.574 - FLAT END MILL)
G0 G40 G90 G17
G21

(2D CONTOUR2)
T1 M6
M3 S5000
G0 X173.408 Y-0.193
G0 Z6.096
G1 Z4.191 F508.
G1 Z-6.604
G3 X171.569 Y0.097 I-3.279 J-14.817
G1 X13.441 Y15.178
G3 X1.758 Y11.269 I-1.441 J-15.106
G3 X-3.175 Y-0.019 I10.242 J-11.198
G1 X-0.847 Y-390.737
G3 X0.828 Y-394.518 I5.175 J0.031
G3 X4.737 Y-395.865 I3.5 J3.812
G1 X160.453 Y-383.497
G3 X199.839 Y-340.694 I-3.387 J42.638
G1 X199.358 Y-215.353
G1 X199.35 Y-215.143
G1 X185.267 Y-13.95
G3 X173.408 Y-0.193 I-15.138 J-1.06
G1 Z-14.224
G3 X171.569 Y0.097 I-3.279 J-14.817
G1 X13.441 Y15.178
G3 X1.758 Y11.269 I-1.441 J-15.106
G3 X-3.175 Y-0.019 I10.242 J-11.198
G1 X-0.847 Y-390.737
G3 X0.828 Y-394.518 I5.175 J0.031
G3 X4.737 Y-395.865 I3.5 J3.812
G1 X160.453 Y-383.497
G3 X199.839 Y-340.694 I-3.387 J42.638
G1 X199.358 Y-215.353
G1 X199.35 Y-215.143
G1 X185.267 Y-13.95
G3 X173.408 Y-0.193 I-15.138 J-1.06
G1 Z-20.574
G3 X171.569 Y0.097 I-3.279 J-14.817
G1 X107.643 Y6.194
G1 Z-18.034
G1 X96.264 Y7.279
G1 Z-20.574
G1 X63.043 Y10.447
G1 Z-18.034
G1 X51.665 Y11.532
G1 Z-20.574
G1 X20.77 Y14.479
G1 Z-18.034
G1 X13.441 Y15.178
G3 X9.339 Y15.011 I-1.441 J-15.106
G1 Z-20.574
G3 X3.419 Y12.587 I2.661 J-14.94
G1 Z-18.034
G3 X-3.171 Y0.417 I8.581 J-12.516
G1 Z-20.574
G3 X-3.175 Y-0.019 I15.171 J-0.346
G1 X-2.788 Y-64.924
G1 Z-18.034
G1 X-2.72 Y-76.354
G1 Z-20.574
G1 X-2.429 Y-125.141
G1 Z-18.034
G1 X-2.243 Y-156.4
G1 Z-20.574
G1 X-1.408 Y-296.589
G1 Z-18.034
G1 X-1.34 Y-308.019
G1 Z-20.574
G1 X-1.321 Y-311.165
G1 Z-18.034
G1 X-1.253 Y-322.595
G1 Z-20.574
G1 X-1.222 Y-327.776
G1 Z-18.034
G1 X-1.154 Y-339.206
G1 Z-20.574
G1 X-0.881 Y-385.109
G1 Z-18.034
G1 X-0.847 Y-390.737
G3 X0.828 Y-394.518 I5.175 J0.031
G3 X4.737 Y-395.865 I3.5 J3.812
G1 X17.9 Y-394.82
G1 Z-20.574
G1 X64.209 Y-391.141
G1 Z-18.034
G1 X81.513 Y-389.767
G1 Z-20.574
G1 X84.524 Y-389.528
G1 Z-18.034
G1 X95.918 Y-388.623
G1 Z-20.574
G1 X104.999 Y-387.902
G1 Z-18.034
G1 X126.139 Y-386.222
G1 Z-20.574
G1 X129.433 Y-385.961
G1 Z-18.034
G1 X140.827 Y-385.056
G1 Z-20.574
G1 X148.385 Y-384.456
G1 Z-18.034
G1 X160.453 Y-383.497
G3 X178.408 Y-377.926 I-3.387 J42.638
G1 Z-20.574
G3 X184.56 Y-373.625 I-21.342 J37.068
G1 Z-18.034
G3 X194.324 Y-361.867 I-27.493 J32.766
G1 Z-20.574
G3 X198.278 Y-352.31 I-37.258 J21.009
G1 Z-18.034
G3 X199.839 Y-340.987 I-41.211 J11.451
G1 Z-20.574
G3 Y-340.694 I-42.773 J0.128
G1 X199.746 Y-316.559
G1 Z-18.034
G1 X199.702 Y-305.129
G1 Z-20.574
G1 X199.618 Y-283.091
G1 Z-18.034
G1 X199.574 Y-271.661
G1 Z-20.574
G1 X199.492 Y-250.317
G1 Z-18.034
G1 X199.448 Y-238.887
G1 Z-20.574
G1 X199.358 Y-215.353
G1 X199.35 Y-215.143
G1 X192.142 Y-112.161
G1 Z-18.034
G1 X190.657 Y-90.951
G1 Z-20.574
G1 X185.267 Y-13.95
G3 X182.958 Y-6.904 I-15.138 J-1.06
G1 Z-18.034
G3 X173.663 Y-0.252 I-12.829 J-8.106
G1 Z-20.574
G3 X173.408 Y-0.193 I-3.534 J-14.758
G0 Z6.096

(2D POCKET1)
G0 Z11.176
G0 X169.717 Y-144.324
G0 Z6.096
G1 Z3.556 F508.
G1 X169.729 Y-144.543 Z3.548
G1 X169.725 Y-144.762 Z3.541
G1 X169.705 Y-144.981 Z3.533
G1 X169.67 Y-145.197 Z3.525
G1 X169.619 Y-145.411 Z3.518
G1 X169.552 Y-145.62 Z3.51
G1 X169.47 Y-145.824 Z3.502
G1 X169.374 Y-146.021 Z3.495
G1 X169.264 Y-146.21 Z3.487
G1 X169.14 Y-146.392 Z3.479
G1 X169.003 Y-146.563 Z3.472
G1 X168.854 Y-146.725 Z3.464
G1 X168.694 Y-146.875 Z3.456
G1 X168.523 Y-147.013 Z3.449
G1 X168.343 Y-147.138 Z3.441
G1 X168.154 Y-147.25 Z3.433
G1 X167.958 Y-147.347 Z3.426
G1 X167.755 Y-147.431 Z3.418
G1 X167.546 Y-147.499 Z3.41
G1 X167.333 Y-147.552 Z3.403
G1 X167.117 Y-147.589 Z3.395
G1 X166.898 Y-147.61 Z3.387
G1 X166.679 Y-147.616 Z3.38
G1 X166.46 Y-147.605 Z3.372
G1 X166.242 Y-147.579 Z3.364
G1 X166.026 Y-147.537 Z3.357
G1 X165.815 Y-147.479 Z3.349
G1 X165.608 Y-147.406 Z3.341
G1 X165.406 Y-147.318 Z3.334
G1 X165.212 Y-147.216 Z3.326
G1 X165.026 Y-147.1 Z3.318
G1 X164.849 Y-146.97 Z3.311
G1 X164.681 Y-146.829 Z3.303
G1 X164.524 Y-146.675 Z3.295
G1 X164.379 Y-146.51 Z3.288
G1 X164.247 Y-146.335 Z3.28
G1 X164.127 Y-146.152 Z3.272
G1 X164.021 Y-145.959 Z3.265
G1 X163.929 Y-145.76 Z3.257
G1 X163.852 Y-145.554 Z3.249
G1 X163.79 Y-145.344 Z3.242
G1 X163.744 Y-145.129 Z3.234
G1 X163.713 Y-144.912 Z3.226
G1 X163.699 Y-144.693 Z3.219
G1 X163.7 Y-144.474 Z3.211
G1 X163.717 Y-144.255 Z3.203
G1 X163.75 Y-144.038 Z3.196
G1 X163.799 Y-143.824 Z3.188
G1 X163.863 Y-143.614 Z3.18
G1 X163.942 Y-143.409 Z3.173
G1 X164.036 Y-143.211 Z3.165
G1 X164.144 Y-143.02 Z3.157
G1 X164.266 Y-142.837 Z3.15
G1 X164.4 Y-142.664 Z3.142
G1 X164.547 Y-142.501 Z3.134
G1 X164.706 Y-142.349 Z3.127
G1 X164.875 Y-142.209 Z3.119
G1 X165.053 Y-142.081 Z3.111
G1 X165.241 Y-141.967 Z3.104
G1 X165.436 Y-141.867 Z3.096
G1 X165.638 Y-141.782 Z3.088
G1 X165.846 Y-141.711 Z3.081
G1 X166.058 Y-141.655 Z3.073
G1 X166.274 Y-141.616 Z3.065
G1 X166.492 Y-141.592 Z3.058
G1 X166.712 Y-141.583 Z3.05
G1 X166.931 Y-141.591 Z3.042
G1 X167.149 Y-141.615 Z3.035
G1 X167.365 Y-141.655 Z3.027
G1 X167.578 Y-141.71 Z3.019
G1 X167.785 Y-141.78 Z3.012
G1 X167.988 Y-141.866 Z3.004
G1 X168.183 Y-141.966 Z2.996
G1 X168.371 Y-142.08 Z2.989
G1 X168.55 Y-142.207 Z2.981
G1 X168.719 Y-142.347 Z2.973
G1 X168.877 Y-142.498 Z2.966
G1 X169.024 Y-142.661 Z2.958
G1 X169.159 Y-142.835 Z2.95
G1 X169.281 Y-143.017 Z2.943
G1 X169.389 Y-143.208 Z2.935
G1 X169.483 Y-143.406 Z2.927
G1 X169.563 Y-143.611 Z2.92
G1 X169.627 Y-143.821 Z2.912
G1 X169.676 Y-144.035 Z2.904
G1 X169.709 Y-144.252 Z2.897
G1 X169.727 Y-144.47 Z2.889
G1 X169.728 Y-144.69 Z2.881
G1 X169.714 Y-144.909 Z2.874
G1 X169.683 Y-145.126 Z2.866
G1 X169.637 Y-145.341 Z2.858
G1 X169.576 Y-145.551 Z2.851
G1 X169.499 Y-145.757 Z2.843
G1 X169.407 Y-145.956 Z2.835
G1 X169.302 Y-146.149 Z2.828
G1 X169.182 Y-146.333 Z2.82
G1 X169.049 Y-146.508 Z2.812
G1 X168.905 Y-146.673 Z2.805
G1 X168.748 Y-146.826 Z2.797
G1 X168.581 Y-146.968 Z2.789
G1 X168.404 Y-147.098 Z2.782
G1 X168.217 Y-147.214 Z2.774
G1 X168.023 Y-147.317 Z2.766
G1 X167.822 Y-147.405 Z2.759
G1 X167.615 Y-147.478 Z2.751
G1 X167.404 Y-147.536 Z2.743
G1 X167.188 Y-147.578 Z2.736
G1 X166.97 Y-147.605 Z2.728
G1 X166.751 Y-147.616 Z2.72
G1 X166.532 Y-147.611 Z2.713
G1 X166.313 Y-147.589 Z2.705
G1 X166.097 Y-147.552 Z2.697
G1 X165.884 Y-147.5 Z2.69
G1 X165.675 Y-147.432 Z2.682
G1 X165.472 Y-147.349 Z2.674
G1 X165.275 Y-147.251 Z2.667
G1 X165.086 Y-147.14 Z2.659
G1 X164.906 Y-147.015 Z2.651
G1 X164.735 Y-146.877 Z2.644
G1 X164.575 Y-146.727 Z2.636
G1 X164.426 Y-146.566 Z2.628
G1 X164.289 Y-146.394 Z2.621
G1 X164.165 Y-146.213 Z2.613
G1 X164.054 Y-146.024 Z2.605
G1 X163.958 Y-145.826 Z2.598
G1 X163.876 Y-145.623 Z2.59
G1 X163.809 Y-145.414 Z2.582
G1 X163.758 Y-145.2 Z2.575
G1 X163.722 Y-144.984 Z2.567
G1 X163.702 Y-144.765 Z2.559
G1 X163.698 Y-144.546 Z2.552
G1 X163.71 Y-144.327 Z2.544
G1 X163.737 Y-144.109 Z2.536
G1 X163.781 Y-143.894 Z2.529
G1 X163.84 Y-143.683 Z2.521
G1 X163.914 Y-143.476 Z2.513
G1 X164.003 Y-143.276 Z2.506
G1 X164.107 Y-143.082 Z2.498
G1 X164.224 Y-142.896 Z2.49
G1 X164.355 Y-142.72 Z2.483
G1 X164.498 Y-142.553 Z2.475
G1 X164.652 Y-142.398 Z2.467
G1 X164.818 Y-142.254 Z2.46
G1 X164.993 Y-142.122 Z2.452
G1 X165.178 Y-142.003 Z2.444
G1 X165.371 Y-141.899 Z2.437
G1 X165.571 Y-141.808 Z2.429
G1 X165.777 Y-141.733 Z2.421
G1 X165.988 Y-141.672 Z2.414
G1 X166.203 Y-141.627 Z2.406
G1 X166.42 Y-141.598 Z2.398
G1 X166.639 Y-141.584 Z2.391
G1 X166.859 Y-141.587 Z2.383
G1 X167.077 Y-141.606 Z2.375
G1 X167.294 Y-141.64 Z2.368
G1 X167.508 Y-141.69 Z2.36
G1 X167.717 Y-141.756 Z2.352
G1 X167.922 Y-141.836 Z2.345
G1 X168.119 Y-141.931 Z2.337
G1 X168.31 Y-142.041 Z2.329
G1 X168.492 Y-142.163 Z2.322
G1 X168.664 Y-142.299 Z2.314
G1 X168.826 Y-142.447 Z2.306
G1 X168.977 Y-142.606 Z2.299
G1 X169.116 Y-142.776 Z2.291
G1 X169.242 Y-142.956 Z2.283
G1 X169.355 Y-143.144 Z2.276
G1 X169.454 Y-143.34 Z2.268
G1 X169.538 Y-143.543 Z2.26
G1 X169.608 Y-143.751 Z2.253
G1 X169.662 Y-143.964 Z2.245
G1 X169.7 Y-144.18 Z2.237
G1 X169.723 Y-144.398 Z2.23
G1 X169.73 Y-144.617 Z2.222
G1 X169.72 Y-144.837 Z2.214
G1 X169.695 Y-145.055 Z2.207
G1 X169.654 Y-145.27 Z2.199
G1 X169.598 Y-145.482 Z2.191
G1 X169.526 Y-145.69 Z2.184
G1 X169.439 Y-145.891 Z2.176
G1 X169.338 Y-146.086 Z2.168
G1 X169.223 Y-146.273 Z2.161
G1 X169.095 Y-146.451 Z2.153
G1 X168.954 Y-146.619 Z2.145
G1 X168.801 Y-146.777 Z2.138
G1 X168.637 Y-146.923 Z2.13
G1 X168.463 Y-147.057 Z2.122
G1 X168.28 Y-147.177 Z2.115
G1 X168.088 Y-147.284 Z2.107
G1 X167.889 Y-147.377 Z2.099
G1 X167.684 Y-147.455 Z2.092
G1 X167.474 Y-147.519 Z2.084
G1 X167.26 Y-147.566 Z2.076
G1 X167.043 Y-147.598 Z2.069
G1 X166.824 Y-147.614 Z2.061
G1 X166.604 Z2.053
G1 X166.385 Y-147.598 Z2.046
G1 X166.168 Y-147.566 Z2.038
G1 X165.954 Y-147.519 Z2.03
G1 X165.744 Y-147.456 Z2.023
G1 X165.538 Y-147.378 Z2.015
G1 X165.34 Y-147.285 Z2.007
G1 X165.148 Y-147.178 Z2
G1 X164.965 Y-147.057 Z1.992
G1 X164.791 Y-146.924 Z1.984
G1 X164.627 Y-146.778 Z1.977
G1 X164.474 Y-146.62 Z1.969
G1 X164.333 Y-146.452 Z1.961
G1 X164.204 Y-146.274 Z1.954
G1 X164.089 Y-146.087 Z1.946
G1 X163.988 Y-145.892 Z1.938
G1 X163.901 Y-145.691 Z1.931
G1 X163.829 Y-145.483 Z1.923
G1 X163.773 Y-145.271 Z1.915
G1 X163.732 Y-145.056 Z1.908
G1 X163.707 Y-144.838 Z1.9
G1 X163.697 Y-144.618 Z1.892
G1 X163.704 Y-144.399 Z1.885
G1 X163.726 Y-144.181 Z1.877
G1 X163.765 Y-143.965 Z1.869
G1 X163.819 Y-143.752 Z1.862
G1 X163.888 Y-143.544 Z1.854
G1 X163.972 Y-143.341 Z1.846
G1 X164.071 Y-143.145 Z1.839
G1 X164.184 Y-142.957 Z1.831
G1 X164.31 Y-142.777 Z1.823
G1 X164.449 Y-142.607 Z1.816
G1 X164.6 Y-142.448 Z1.808
G1 X164.762 Y-142.3 Z1.8
G1 X164.934 Y-142.164 Z1.793
G1 X165.116 Y-142.041 Z1.785
G1 X165.306 Y-141.932 Z1.777
G1 X165.504 Y-141.836 Z1.77
G1 X165.708 Y-141.756 Z1.762
G1 X165.918 Y-141.69 Z1.754
G1 X166.131 Y-141.64 Z1.747
G1 X166.348 Y-141.606 Z1.739
G1 X166.567 Y-141.587 Z1.731
G1 X166.786 Y-141.584 Z1.724
G1 X167.005 Y-141.598 Z1.716
G1 X167.223 Y-141.627 Z1.708
G1 X167.438 Y-141.672 Z1.701
G1 X167.649 Y-141.732 Z1.693
G1 X167.855 Y-141.808 Z1.685
G1 X168.055 Y-141.898 Z1.678
G1 X168.248 Y-142.003 Z1.67
G1 X168.432 Y-142.121 Z1.662
G1 X168.608 Y-142.253 Z1.655
G1 X168.774 Y-142.397 Z1.647
G1 X168.929 Y-142.553 Z1.64
G1 X169.072 Y-142.719 Z1.632
G1 X169.202 Y-142.896 Z1.624
G1 X169.319 Y-143.081 Z1.617
G1 X169.423 Y-143.275 Z1.609
G1 X169.512 Y-143.475 Z1.601
G1 X169.586 Y-143.682 Z1.594
G1 X169.646 Y-143.893 Z1.586
G1 X169.689 Y-144.108 Z1.578
G1 X169.717 Y-144.326 Z1.571
G1 X169.729 Y-144.545 Z1.563
G1 X169.725 Y-144.764 Z1.555
G1 X169.705 Y-144.983 Z1.548
G1 X169.669 Y-145.199 Z1.54
G1 X169.618 Y-145.413 Z1.532
G1 X169.551 Y-145.622 Z1.525
G1 X169.469 Y-145.825 Z1.517
G1 X169.373 Y-146.023 Z1.509
G1 X169.262 Y-146.212 Z1.502
G1 X169.138 Y-146.393 Z1.494
G1 X169.002 Y-146.565 Z1.486
G1 X168.853 Y-146.726 Z1.479
G1 X168.692 Y-146.876 Z1.471
G1 X168.522 Y-147.014 Z1.463
G1 X168.341 Y-147.139 Z1.456
G1 X168.152 Y-147.251 Z1.448
G1 X167.956 Y-147.348 Z1.44
G1 X167.753 Y-147.431 Z1.433
G1 X167.544 Y-147.499 Z1.425
G1 X167.331 Y-147.552 Z1.417
G1 X167.115 Y-147.589 Z1.41
G1 X166.896 Y-147.61 Z1.402
G1 X166.677 Y-147.616 Z1.394
G1 X166.457 Y-147.605 Z1.387
G1 X166.24 Y-147.579 Z1.379
G1 X166.024 Y-147.536 Z1.371
G1 X165.813 Y-147.478 Z1.364
G1 X165.606 Y-147.405 Z1.356
G1 X165.405 Y-147.317 Z1.348
G1 X165.21 Y-147.215 Z1.341
G1 X165.024 Y-147.099 Z1.333
G1 X164.847 Y-146.969 Z1.325
G1 X164.68 Y-146.827 Z1.318
G1 X164.523 Y-146.673 Z1.31
G1 X164.378 Y-146.509 Z1.302
G1 X164.245 Y-146.334 Z1.295
G1 X164.126 Y-146.15 Z1.287
G1 X164.02 Y-145.957 Z1.279
G1 X163.928 Y-145.758 Z1.272
G1 X163.852 Y-145.552 Z1.264
G1 X163.79 Y-145.342 Z1.256
G1 X163.744 Y-145.127 Z1.249
G1 X163.713 Y-144.91 Z1.241
G1 X163.699 Y-144.691 Z1.233
G1 X163.7 Y-144.471 Z1.226
G1 X163.717 Y-144.253 Z1.218
G1 X163.75 Y-144.036 Z1.21
G1 X163.799 Y-143.822 Z1.203
G1 X163.864 Y-143.612 Z1.195
G1 X163.943 Y-143.407 Z1.187
G1 X164.037 Y-143.209 Z1.18
G1 X164.145 Y-143.018 Z1.172
G1 X164.267 Y-142.835 Z1.164
G1 X164.402 Y-142.662 Z1.157
G1 X164.549 Y-142.499 Z1.149
G1 X164.707 Y-142.347 Z1.141
G1 X164.876 Y-142.207 Z1.134
G1 X165.055 Y-142.08 Z1.126
G1 X165.243 Y-141.966 Z1.118
G1 X165.438 Y-141.866 Z1.111
G1 X165.64 Y-141.781 Z1.103
G1 X165.848 Y-141.71 Z1.095
G1 X166.061 Y-141.655 Z1.088
G1 X166.276 Y-141.615 Z1.08
G1 X166.495 Y-141.591 Z1.072
G1 X166.714 Y-141.583 Z1.065
G1 X166.933 Y-141.592 Z1.057
G1 X167.151 Y-141.615 Z1.049
G1 X167.367 Y-141.655 Z1.042
G1 X167.58 Y-141.711 Z1.034
G1 X167.787 Y-141.781 Z1.026
G1 X167.99 Y-141.867 Z1.019
G1 X168.185 Y-141.967 Z1.011
G1 X168.372 Y-142.081 Z1.003
G1 X168.551 Y-142.208 Z0.996
G1 X168.72 Y-142.348 Z0.988
G1 X168.879 Y-142.5 Z0.98
G1 X169.026 Y-142.663 Z0.973
G1 X169.16 Y-142.836 Z0.965
G1 X169.282 Y-143.019 Z0.957
G1 X169.39 Y-143.21 Z0.95
G1 X169.484 Y-143.408 Z0.942
G1 X169.564 Y-143.613 Z0.934
G1 X169.628 Y-143.823 Z0.927
G1 X169.677 Y-144.037 Z0.919
G1 X169.71 Y-144.254 Z0.911
G1 X169.727 Y-144.472 Z0.904
G1 X169.728 Y-144.692 Z0.896
G1 X169.714 Y-144.911 Z0.888
G1 X169.683 Y-145.128 Z0.881
G1 X169.637 Y-145.343 Z0.873
G1 X169.575 Y-145.553 Z0.865
G1 X169.498 Y-145.759 Z0.858
G1 X169.406 Y-145.958 Z0.85
G1 X169.3 Y-146.151 Z0.842
G1 X169.181 Y-146.335 Z0.835
G1 X169.048 Y-146.509 Z0.827
G1 X168.903 Y-146.674 Z0.819
G1 X168.746 Y-146.828 Z0.812
G1 X168.579 Y-146.97 Z0.804
G1 X168.402 Y-147.099 Z0.796
G1 X168.216 Y-147.215 Z0.789
G1 X168.021 Y-147.318 Z0.781
G1 X167.82 Y-147.406 Z0.773
G1 X167.613 Y-147.479 Z0.766
G1 X167.402 Y-147.536 Z0.758
G1 X167.186 Y-147.579 Z0.75
G1 X166.968 Y-147.605 Z0.743
G1 X166.749 Y-147.616 Z0.735
G1 X166.53 Y-147.61 Z0.727
G1 X166.311 Y-147.589 Z0.72
G1 X166.095 Y-147.552 Z0.712
G1 X165.882 Y-147.499 Z0.704
G1 X165.673 Y-147.431 Z0.697
G1 X165.47 Y-147.348 Z0.689
G1 X165.274 Y-147.25 Z0.681
G1 X165.085 Y-147.138 Z0.674
G1 X164.904 Y-147.013 Z0.666
G1 X164.734 Y-146.875 Z0.658
G1 X164.573 Y-146.725 Z0.651
G1 X164.425 Y-146.564 Z0.643
G1 X164.288 Y-146.393 Z0.635
G1 X164.164 Y-146.211 Z0.628
G1 X164.053 Y-146.022 Z0.62
G1 X163.957 Y-145.825 Z0.612
G1 X163.875 Y-145.621 Z0.605
G1 X163.809 Y-145.412 Z0.597
G1 X163.757 Y-145.198 Z0.589
G1 X163.721 Y-144.982 Z0.582
G1 X163.702 Y-144.763 Z0.574
G1 X163.698 Y-144.544 Z0.566
G1 X163.71 Y-144.325 Z0.559
G1 X163.738 Y-144.107 Z0.551
G1 X163.781 Y-143.892 Z0.543
G1 X163.841 Y-143.681 Z0.536
G1 X163.915 Y-143.474 Z0.528
G1 X164.004 Y-143.274 Z0.52
G1 X164.108 Y-143.08 Z0.513
G1 X164.225 Y-142.895 Z0.505
G1 X164.356 Y-142.718 Z0.497
G1 X164.499 Y-142.552 Z0.49
G1 X164.654 Y-142.396 Z0.482
G1 X164.819 Y-142.252 Z0.474
G1 X164.995 Y-142.121 Z0.467
G1 X165.18 Y-142.002 Z0.459
G1 X165.373 Y-141.898 Z0.451
G1 X165.573 Y-141.807 Z0.444
G1 X165.779 Y-141.732 Z0.436
G1 X165.99 Y-141.672 Z0.428
G1 X166.205 Y-141.627 Z0.421
G1 X166.422 Y-141.598 Z0.413
G1 X166.641 Y-141.584 Z0.405
G1 X166.861 Y-141.587 Z0.398
G1 X167.08 Y-141.606 Z0.39
G1 X167.296 Y-141.64 Z0.382
G1 X167.51 Y-141.691 Z0.375
G1 X167.719 Y-141.756 Z0.367
G1 X167.924 Y-141.837 Z0.359
G1 X168.121 Y-141.932 Z0.352
G1 X168.311 Y-142.042 Z0.344
G1 X168.493 Y-142.165 Z0.336
G1 X168.666 Y-142.3 Z0.329
G1 X168.828 Y-142.449 Z0.321
G1 X168.978 Y-142.608 Z0.313
G1 X169.117 Y-142.778 Z0.306
G1 X169.243 Y-142.958 Z0.298
G1 X169.356 Y-143.146 Z0.29
G1 X169.455 Y-143.342 Z0.283
G1 X169.539 Y-143.545 Z0.275
G1 X169.608 Y-143.753 Z0.267
G1 X169.662 Y-143.966 Z0.26
G1 X169.701 Y-144.182 Z0.252
G1 X169.723 Y-144.4 Z0.244
G1 X169.73 Y-144.619 Z0.237
G1 X169.72 Y-144.839 Z0.229
G1 X169.695 Y-145.057 Z0.221
G1 X169.654 Y-145.272 Z0.214
G1 X169.597 Y-145.484 Z0.206
G1 X169.525 Y-145.692 Z0.198
G1 X169.438 Y-145.893 Z0.191
G1 X169.337 Y-146.088 Z0.183
G1 X169.222 Y-146.275 Z0.175
G1 X169.093 Y-146.453 Z0.168
G1 X168.952 Y-146.621 Z0.16
G1 X168.799 Y-146.778 Z0.152
G1 X168.635 Y-146.924 Z0.145
G1 X168.461 Y-147.058 Z0.137
G1 X168.278 Y-147.178 Z0.129
G1 X168.086 Y-147.285 Z0.122
G1 X167.887 Y-147.378 Z0.114
G1 X167.682 Y-147.456 Z0.106
G1 X167.472 Y-147.519 Z0.099
G1 X167.258 Y-147.566 Z0.091
G1 X167.04 Y-147.598 Z0.083
G1 X166.822 Y-147.614 Z0.076
G1 X166.602 Z0.068
G1 X166.383 Y-147.598 Z0.06
G1 X166.166 Y-147.566 Z0.053
G1 X165.952 Y-147.518 Z0.045
G1 X165.742 Y-147.455 Z0.037
G1 X165.537 Y-147.377 Z0.03
G1 X165.338 Y-147.284 Z0.022
G1 X165.146 Y-147.177 Z0.014
G1 X164.963 Y-147.056 Z0.007
G1 X164.789 Y-146.922 Z-0.001
G1 X164.625 Y-146.776 Z-0.009
G1 X164.472 Y-146.619 Z-0.016
G1 X164.332 Y-146.45 Z-0.024
G1 X164.203 Y-146.272 Z-0.032
G1 X164.088 Y-146.085 Z-0.039
G1 X163.987 Y-145.89 Z-0.047
G1 X163.901 Y-145.689 Z-0.055
G1 X163.829 Y-145.481 Z-0.062
G1 X163.772 Y-145.269 Z-0.07
G1 X163.731 Y-145.054 Z-0.078
G1 X163.706 Y-144.836 Z-0.085
G1 X163.697 Y-144.616 Z-0.093
G1 X163.704 Y-144.397 Z-0.101
G1 X163.727 Y-144.179 Z-0.108
G1 X163.765 Y-143.963 Z-0.116
G1 X163.819 Y-143.75 Z-0.124
G1 X163.889 Y-143.542 Z-0.131
G1 X163.973 Y-143.339 Z-0.139
G1 X164.072 Y-143.143 Z-0.147
G1 X164.185 Y-142.955 Z-0.154
G1 X164.311 Y-142.775 Z-0.162
G1 X164.45 Y-142.606 Z-0.17
G1 X164.601 Y-142.446 Z-0.177
G1 X164.764 Y-142.298 Z-0.185
G1 X164.936 Y-142.163 Z-0.193
G1 X165.118 Y-142.04 Z-0.2
G1 X165.308 Y-141.931 Z-0.208
G1 X165.506 Y-141.836 Z-0.216
G1 X165.71 Y-141.755 Z-0.223
G1 X165.92 Y-141.69 Z-0.231
G1 X166.134 Y-141.64 Z-0.239
G1 X166.35 Y-141.605 Z-0.246
G1 X166.569 Y-141.587 Z-0.254
G1 X166.788 Y-141.584 Z-0.262
G1 X167.008 Y-141.598 Z-0.269
G1 X167.225 Y-141.627 Z-0.277
G1 X167.44 Y-141.672 Z-0.285
G1 X167.651 Y-141.733 Z-0.292
G1 X167.857 Y-141.809 Z-0.3
G1 X168.057 Y-141.899 Z-0.308
G1 X168.25 Y-142.004 Z-0.315
G1 X168.434 Y-142.123 Z-0.323
G1 X168.61 Y-142.254 Z-0.331
G1 X168.775 Y-142.398 Z-0.338
G1 X168.93 Y-142.554 Z-0.346
G1 X169.073 Y-142.721 Z-0.354
G1 X169.203 Y-142.897 Z-0.361
G1 X169.32 Y-143.083 Z-0.369
G1 X169.424 Y-143.276 Z-0.377
G1 X169.513 Y-143.477 Z-0.384
G1 X169.587 Y-143.684 Z-0.392
G1 X169.646 Y-143.895 Z-0.4
G1 X169.69 Y-144.11 Z-0.407
G1 X169.717 Y-144.328 Z-0.415
G1 X169.729 Y-144.547 Z-0.423
G1 X169.725 Y-144.766 Z-0.43
G1 X169.705 Y-144.985 Z-0.438
G1 X169.669 Y-145.201 Z-0.446
G1 X169.617 Y-145.415 Z-0.453
G1 X169.55 Y-145.624 Z-0.461
G1 X169.469 Y-145.827 Z-0.469
G1 X169.372 Y-146.024 Z-0.476
G1 X169.261 Y-146.214 Z-0.484
G1 X169.137 Y-146.395 Z-0.492
G1 X169 Y-146.567 Z-0.499
G1 X168.851 Y-146.728 Z-0.507
G1 X168.691 Y-146.877 Z-0.515
G1 X168.52 Y-147.015 Z-0.522
G1 X168.339 Y-147.14 Z-0.53
G1 X168.15 Y-147.252 Z-0.538
G1 X167.954 Y-147.349 Z-0.545
G1 X167.751 Y-147.432 Z-0.553
G1 X167.542 Y-147.5 Z-0.561
G1 X167.329 Y-147.553 Z-0.568
G1 X167.112 Y-147.589 Z-0.576
G1 X166.894 Y-147.611 Z-0.584
G1 X166.675 Y-147.616 Z-0.591
G1 X166.455 Y-147.605 Z-0.599
G1 X166.237 Y-147.578 Z-0.607
G1 X166.022 Y-147.536 Z-0.614
G1 X165.811 Y-147.478 Z-0.622
G1 X165.604 Y-147.404 Z-0.63
G1 X165.403 Y-147.316 Z-0.637
G1 X165.209 Y-147.214 Z-0.645
G1 X165.022 Y-147.097 Z-0.653
G1 X164.845 Y-146.968 Z-0.66
G1 X164.678 Y-146.826 Z-0.668
G1 X164.522 Y-146.672 Z-0.676
G1 X164.377 Y-146.507 Z-0.683
G1 X164.244 Y-146.332 Z-0.691
G1 X164.125 Y-146.148 Z-0.699
G1 X164.019 Y-145.956 Z-0.706
G1 X163.928 Y-145.756 Z-0.714
G1 X163.851 Y-145.55 Z-0.722
G1 X163.789 Y-145.34 Z-0.729
G1 X163.743 Y-145.125 Z-0.737
G1 X163.713 Y-144.908 Z-0.745
G1 X163.698 Y-144.689 Z-0.752
G1 X163.7 Y-144.469 Z-0.76
G1 X163.717 Y-144.251 Z-0.768
G1 X163.751 Y-144.034 Z-0.775
G1 X163.8 Y-143.82 Z-0.783
G1 X163.864 Y-143.61 Z-0.791
G1 X163.944 Y-143.405 Z-0.798
G1 X164.038 Y-143.207 Z-0.806
G1 X164.146 Y-143.016 Z-0.814
G1 X164.268 Y-142.834 Z-0.821
G1 X164.403 Y-142.661 Z-0.829
G1 X164.55 Y-142.498 Z-0.837
G1 X164.709 Y-142.346 Z-0.844
G1 X164.878 Y-142.206 Z-0.852
G1 X165.057 Y-142.079 Z-0.86
G1 X165.245 Y-141.965 Z-0.867
G1 X165.44 Y-141.865 Z-0.875
G1 X165.642 Y-141.78 Z-0.883
G1 X165.85 Y-141.71 Z-0.89
G1 X166.063 Y-141.655 Z-0.898
G1 X166.278 Y-141.615 Z-0.906
G1 X166.497 Y-141.591 Z-0.913
G1 X166.716 Y-141.583 Z-0.921
G1 X166.935 Y-141.592 Z-0.929
G1 X167.153 Y-141.616 Z-0.936
G1 X167.369 Y-141.656 Z-0.944
G1 X167.582 Y-141.711 Z-0.952
G1 X167.789 Y-141.782 Z-0.959
G1 X167.991 Y-141.868 Z-0.967
G1 X168.187 Y-141.968 Z-0.975
G1 X168.374 Y-142.082 Z-0.982
G1 X168.553 Y-142.209 Z-0.99
G1 X168.722 Y-142.349 Z-0.998
G1 X168.88 Y-142.501 Z-1.005
G1 X169.027 Y-142.665 Z-1.013
G1 X169.162 Y-142.838 Z-1.021
G1 X169.283 Y-143.021 Z-1.028
G1 X169.391 Y-143.212 Z-1.036
G1 X169.485 Y-143.41 Z-1.044
G1 X169.564 Y-143.615 Z-1.051
G1 X169.628 Y-143.825 Z-1.059
G1 X169.677 Y-144.039 Z-1.067
G1 X169.71 Y-144.256 Z-1.074
G1 X169.727 Y-144.475 Z-1.082
G1 X169.728 Y-144.694 Z-1.09
G1 X169.713 Y-144.913 Z-1.097
G1 X169.683 Y-145.13 Z-1.105
G1 X169.636 Y-145.345 Z-1.113
G1 X169.574 Y-145.555 Z-1.12
G1 X169.497 Y-145.761 Z-1.128
G1 X169.405 Y-145.96 Z-1.136
G1 X169.299 Y-146.152 Z-1.143
G1 X169.18 Y-146.336 Z-1.151
G1 X169.047 Y-146.511 Z-1.159
G1 X168.902 Y-146.676 Z-1.166
G1 X168.745 Y-146.829 Z-1.174
G1 X168.577 Y-146.971 Z-1.182
G1 X168.4 Y-147.1 Z-1.189
G1 X168.214 Y-147.216 Z-1.197
G1 X168.019 Y-147.319 Z-1.205
G1 X167.818 Y-147.406 Z-1.212
G1 X167.611 Y-147.479 Z-1.22
G1 X167.4 Y-147.537 Z-1.228
G1 X167.184 Y-147.579 Z-1.235
G1 X166.966 Y-147.605 Z-1.243
G1 X166.747 Y-147.616 Z-1.251
G1 X166.528 Y-147.61 Z-1.258
G1 X166.309 Y-147.589 Z-1.266
G1 X166.093 Y-147.551 Z-1.274
G1 X165.88 Y-147.499 Z-1.281
G1 X165.671 Y-147.43 Z-1.289
G1 X165.468 Y-147.347 Z-1.297
G1 X165.272 Y-147.249 Z-1.304
G1 X165.083 Y-147.137 Z-1.312
G1 X164.903 Y-147.012 Z-1.32
G1 X164.732 Y-146.874 Z-1.327
G1 X164.572 Y-146.724 Z-1.335
G1 X164.423 Y-146.563 Z-1.343
G1 X164.287 Y-146.391 Z-1.35
G1 X164.163 Y-146.21 Z-1.358
G1 X164.052 Y-146.02 Z-1.366
G1 X163.956 Y-145.823 Z-1.373
G1 X163.875 Y-145.619 Z-1.381
G1 X163.808 Y-145.41 Z-1.389
G1 X163.757 Y-145.196 Z-1.396
G1 X163.721 Y-144.98 Z-1.404
G1 X163.701 Y-144.761 Z-1.412
G1 X163.698 Y-144.542 Z-1.419
G1 X163.71 Y-144.323 Z-1.427
G1 X163.738 Y-144.105 Z-1.435
G1 X163.782 Y-143.89 Z-1.442
G1 X163.841 Y-143.679 Z-1.45
G1 X163.916 Y-143.472 Z-1.458
G1 X164.005 Y-143.272 Z-1.465
G1 X164.109 Y-143.078 Z-1.473
G1 X164.227 Y-142.893 Z-1.481
G1 X164.357 Y-142.717 Z-1.488
G1 X164.5 Y-142.55 Z-1.496
G1 X164.655 Y-142.395 Z-1.504
G1 X164.821 Y-142.251 Z-1.511
G1 X164.997 Y-142.12 Z-1.519
G1 X165.182 Y-142.001 Z-1.527
G1 X165.375 Y-141.897 Z-1.534
G1 X165.575 Y-141.807 Z-1.542
G1 X165.781 Y-141.731 Z-1.55
G1 X165.992 Y-141.671 Z-1.557
G1 X166.207 Y-141.626 Z-1.565
G1 X166.424 Y-141.597 Z-1.573
G1 X166.644 Y-141.584 Z-1.58
G1 X166.863 Y-141.587 Z-1.588
G1 X167.082 Y-141.606 Z-1.596
G1 X167.298 Y-141.641 Z-1.603
G1 X167.512 Y-141.691 Z-1.611
G1 X167.721 Y-141.757 Z-1.619
G1 X167.925 Y-141.838 Z-1.626
G1 X168.123 Y-141.933 Z-1.634
G1 X168.313 Y-142.043 Z-1.642
G1 X168.495 Y-142.166 Z-1.649
G1 X168.667 Y-142.302 Z-1.657
G1 X168.829 Y-142.45 Z-1.665
G1 X168.98 Y-142.61 Z-1.672
G1 X169.119 Y-142.78 Z-1.68
G1 X169.245 Y-142.959 Z-1.688
G1 X169.357 Y-143.148 Z-1.695
G1 X169.456 Y-143.344 Z-1.703
G1 X169.54 Y-143.547 Z-1.711
G1 X169.609 Y-143.755 Z-1.718
G1 X169.663 Y-143.968 Z-1.726
G1 X169.701 Y-144.184 Z-1.734
G1 X169.723 Y-144.402 Z-1.741
G1 X169.73 Y-144.622 Z-1.749
G1 X169.72 Y-144.841 Z-1.757
G1 X169.695 Y-145.059 Z-1.764
G1 X169.653 Y-145.274 Z-1.772
G1 X169.596 Y-145.486 Z-1.78
G1 X169.524 Y-145.694 Z-1.787
G1 X169.437 Y-145.895 Z-1.795
G1 X169.336 Y-146.09 Z-1.803
G1 X169.221 Y-146.277 Z-1.81
G1 X169.092 Y-146.454 Z-1.818
G1 X168.951 Y-146.622 Z-1.826
G1 X168.798 Y-146.78 Z-1.833
G1 X168.634 Y-146.926 Z-1.841
G1 X168.46 Y-147.059 Z-1.849
G1 X168.276 Y-147.18 Z-1.856
G1 X168.084 Y-147.286 Z-1.864
G1 X167.885 Y-147.379 Z-1.872
G1 X167.68 Y-147.457 Z-1.879
G1 X167.47 Y-147.52 Z-1.887
G1 X167.256 Y-147.567 Z-1.895
G1 X167.038 Y-147.598 Z-1.902
G1 X166.819 Y-147.614 Z-1.91
G1 X166.6 Z-1.918
G1 X166.381 Y-147.598 Z-1.925
G1 X166.164 Y-147.566 Z-1.933
G1 X165.95 Y-147.518 Z-1.941
G1 X165.74 Y-147.454 Z-1.948
G1 X165.535 Y-147.376 Z-1.956
G1 X165.336 Y-147.283 Z-1.964
G1 X165.144 Y-147.176 Z-1.971
G1 X164.961 Y-147.055 Z-1.979
G1 X164.787 Y-146.921 Z-1.987
G1 X164.624 Y-146.775 Z-1.994
G1 X164.471 Y-146.617 Z-2.002
G1 X164.33 Y-146.449 Z-2.01
G1 X164.202 Y-146.27 Z-2.017
G1 X164.087 Y-146.083 Z-2.025
G1 X163.986 Y-145.889 Z-2.033
G1 X163.9 Y-145.687 Z-2.04
G1 X163.828 Y-145.479 Z-2.048
G1 X163.772 Y-145.267 Z-2.056
G1 X163.731 Y-145.052 Z-2.063
G1 X163.706 Y-144.833 Z-2.071
G1 X163.697 Y-144.614 Z-2.079
G1 X163.704 Y-144.395 Z-2.086
G1 X163.727 Y-144.177 Z-2.094
G1 X163.766 Y-143.961 Z-2.102
G1 X163.82 Y-143.748 Z-2.109
G1 X163.89 Y-143.54 Z-2.117
G1 X163.974 Y-143.337 Z-2.125
G1 X164.073 Y-143.141 Z-2.132
G1 X164.186 Y-142.953 Z-2.14
G1 X164.313 Y-142.774 Z-2.148
G1 X164.452 Y-142.604 Z-2.155
G1 X164.603 Y-142.445 Z-2.163
G1 X164.765 Y-142.297 Z-2.17
G1 X164.938 Y-142.162 Z-2.178
G1 X165.12 Y-142.039 Z-2.186
G1 X165.31 Y-141.93 Z-2.193
G1 X165.508 Y-141.835 Z-2.201
G1 X165.712 Y-141.754 Z-2.209
G1 X165.922 Y-141.689 Z-2.216
G1 X166.136 Y-141.639 Z-2.224
G1 X166.352 Y-141.605 Z-2.232
G1 X166.571 Y-141.587 Z-2.239
G1 X166.791 Y-141.584 Z-2.247
G1 X167.01 Y-141.598 Z-2.255
G1 X167.227 Y-141.628 Z-2.262
G1 X167.442 Y-141.673 Z-2.27
G1 X167.653 Y-141.734 Z-2.278
G1 X167.859 Y-141.809 Z-2.285
G1 X168.059 Y-141.9 Z-2.293
G1 X168.251 Y-142.005 Z-2.301
G1 X168.436 Y-142.124 Z-2.308
G1 X168.611 Y-142.256 Z-2.316
G1 X168.777 Y-142.4 Z-2.324
G1 X168.931 Y-142.556 Z-2.331
G1 X169.074 Y-142.722 Z-2.339
G1 X169.204 Y-142.899 Z-2.347
G1 X169.322 Y-143.085 Z-2.354
G1 X169.425 Y-143.278 Z-2.362
G1 X169.514 Y-143.479 Z-2.37
G1 X169.588 Y-143.686 Z-2.377
G1 X169.647 Y-143.897 Z-2.385
G1 X169.69 Y-144.112 Z-2.393
G1 X169.718 Y-144.33 Z-2.4
G1 X169.729 Y-144.549 Z-2.408
G1 X169.725 Y-144.768 Z-2.416
G1 X169.705 Y-144.987 Z-2.423
G1 X169.669 Y-145.204 Z-2.431
G1 X169.617 Y-145.417 Z-2.439
G1 X169.55 Y-145.626 Z-2.446
G1 X169.468 Y-145.829 Z-2.454
G1 X169.371 Y-146.026 Z-2.462
G1 X169.26 Y-146.216 Z-2.469
G1 X169.136 Y-146.397 Z-2.477
G1 X168.999 Y-146.568 Z-2.485
G1 X168.85 Y-146.729 Z-2.492
G1 X168.689 Y-146.879 Z-2.5
G1 X168.518 Y-147.016 Z-2.508
G1 X168.338 Y-147.141 Z-2.515
G1 X168.149 Y-147.253 Z-2.523
G1 X167.952 Y-147.35 Z-2.531
G1 X167.749 Y-147.433 Z-2.538
G1 X167.54 Y-147.501 Z-2.546
G1 X167.327 Y-147.553 Z-2.554
G1 X167.11 Y-147.59 Z-2.561
G1 X166.892 Y-147.611 Z-2.569
G1 X166.672 Y-147.616 Z-2.577
G1 X166.453 Y-147.605 Z-2.584
G1 X166.235 Y-147.578 Z-2.592
G1 X166.02 Y-147.535 Z-2.6
G1 X165.808 Y-147.477 Z-2.607
G1 X165.602 Y-147.404 Z-2.615
G1 X165.401 Y-147.315 Z-2.623
G1 X165.207 Y-147.213 Z-2.63
G1 X165.021 Y-147.096 Z-2.638
G1 X164.844 Y-146.967 Z-2.646
G1 X164.676 Y-146.824 Z-2.653
G1 X164.52 Y-146.67 Z-2.661
G1 X164.375 Y-146.505 Z-2.669
G1 X164.243 Y-146.33 Z-2.676
G1 X164.124 Y-146.146 Z-2.684
G1 X164.018 Y-145.954 Z-2.692
G1 X163.927 Y-145.754 Z-2.699
G1 X163.85 Y-145.548 Z-2.707
G1 X163.789 Y-145.338 Z-2.715
G1 X163.743 Y-145.123 Z-2.722
G1 X163.713 Y-144.906 Z-2.73
G1 X163.698 Y-144.687 Z-2.738
G1 X163.7 Y-144.467 Z-2.745
G1 X163.718 Y-144.248 Z-2.753
G1 X163.751 Y-144.032 Z-2.761
G1 X163.8 Y-143.818 Z-2.768
G1 X163.865 Y-143.608 Z-2.776
G1 X163.945 Y-143.403 Z-2.784
G1 X164.039 Y-143.205 Z-2.791
G1 X164.147 Y-143.014 Z-2.799
G1 X164.269 Y-142.832 Z-2.807
G1 X164.404 Y-142.659 Z-2.814
G1 X164.552 Y-142.496 Z-2.822
G1 X164.71 Y-142.345 Z-2.83
G1 X164.88 Y-142.205 Z-2.837
G1 X165.059 Y-142.078 Z-2.845
G1 X165.246 Y-141.964 Z-2.853
G1 X165.442 Y-141.865 Z-2.86
G1 X165.644 Y-141.779 Z-2.868
G1 X165.852 Y-141.709 Z-2.876
G1 X166.065 Y-141.654 Z-2.883
G1 X166.281 Y-141.615 Z-2.891
G1 X166.499 Y-141.591 Z-2.899
G1 X166.718 Y-141.584 Z-2.906
G1 X166.937 Y-141.592 Z-2.914
G1 X167.156 Y-141.616 Z-2.922
G1 X167.371 Y-141.656 Z-2.929
G1 X167.584 Y-141.712 Z-2.937
G1 X167.791 Y-141.783 Z-2.945
G1 X167.993 Y-141.869 Z-2.952
G1 X168.189 Y-141.969 Z-2.96
G1 X168.376 Y-142.083 Z-2.968
G1 X168.555 Y-142.211 Z-2.975
G1 X168.723 Y-142.351 Z-2.983
G1 X168.882 Y-142.503 Z-2.991
G1 X169.028 Y-142.666 Z-2.998
G1 X169.163 Y-142.84 Z-3.006
G1 X169.284 Y-143.022 Z-3.014
G1 X169.392 Y-143.214 Z-3.021
G1 X169.486 Y-143.412 Z-3.029
G1 X169.565 Y-143.617 Z-3.037
G1 X169.629 Y-143.827 Z-3.044
G1 X169.677 Y-144.041 Z-3.052
G1 X169.71 Y-144.258 Z-3.06
G1 X169.727 Y-144.477 Z-3.067
G1 X169.728 Y-144.696 Z-3.075
G1 X169.713 Y-144.915 Z-3.083
G1 X169.682 Y-145.132 Z-3.09
G1 X169.636 Y-145.347 Z-3.098
G1 X169.574 Y-145.557 Z-3.106
G1 X169.496 Y-145.763 Z-3.113
G1 X169.404 Y-145.962 Z-3.121
G1 X169.298 Y-146.154 Z-3.129
G1 X169.178 Y-146.338 Z-3.136
G1 X169.045 Y-146.513 Z-3.144
G1 X168.9 Y-146.677 Z-3.152
G1 X168.743 Y-146.831 Z-3.159
G1 X168.576 Y-146.972 Z-3.167
G1 X168.398 Y-147.102 Z-3.175
G1 X168.212 Y-147.217 Z-3.182
G1 X168.018 Y-147.319 Z-3.19
G1 X167.816 Y-147.407 Z-3.198
G1 X167.609 Y-147.48 Z-3.205
G1 X167.397 Y-147.537 Z-3.213
G1 X167.182 Y-147.579 Z-3.221
G1 X166.964 Y-147.606 Z-3.228
G1 X166.745 Y-147.616 Z-3.236
G1 X166.526 Y-147.61 Z-3.244
G1 X166.307 Y-147.589 Z-3.251
G1 X166.091 Y-147.551 Z-3.259
G1 X165.878 Y-147.498 Z-3.267
G1 X165.669 Y-147.43 Z-3.274
G1 X165.466 Y-147.346 Z-3.282
G1 X165.27 Y-147.248 Z-3.29
G1 X165.081 Y-147.136 Z-3.297
G1 X164.901 Y-147.011 Z-3.305
G1 X164.731 Y-146.873 Z-3.313
G1 X164.57 Y-146.722 Z-3.32
G1 X164.422 Y-146.561 Z-3.328
G1 X164.285 Y-146.389 Z-3.336
G1 X164.162 Y-146.208 Z-3.343
G1 X164.051 Y-146.018 Z-3.351
G1 X163.955 Y-145.821 Z-3.359
G1 X163.874 Y-145.617 Z-3.366
G1 X163.807 Y-145.408 Z-3.374
G1 X163.756 Y-145.194 Z-3.382
G1 X163.721 Y-144.978 Z-3.389
G1 X163.701 Y-144.759 Z-3.397
G1 X163.698 Y-144.54 Z-3.405
G1 X163.71 Y-144.32 Z-3.412
G1 X163.738 Y-144.103 Z-3.42
G1 X163.782 Y-143.888 Z-3.428
G1 X163.842 Y-143.677 Z-3.435
G1 X163.917 Y-143.47 Z-3.443
G1 X164.006 Y-143.27 Z-3.451
G1 X164.11 Y-143.076 Z-3.458
G1 X164.228 Y-142.891 Z-3.466
G1 X164.359 Y-142.715 Z-3.474
G1 X164.502 Y-142.549 Z-3.481
G1 X164.657 Y-142.393 Z-3.489
G1 X164.823 Y-142.25 Z-3.497
G1 X164.999 Y-142.118 Z-3.504
G1 X165.184 Y-142 Z-3.512
G1 X165.377 Y-141.896 Z-3.52
G1 X165.577 Y-141.806 Z-3.527
G1 X165.783 Y-141.731 Z-3.535
G1 X165.994 Y-141.671 Z-3.543
G1 X166.209 Y-141.626 Z-3.55
G1 X166.427 Y-141.597 Z-3.558
G1 X166.646 Y-141.584 Z-3.566
G1 X166.865 Y-141.587 Z-3.573
G1 X167.084 Y-141.606 Z-3.581
G1 X167.3 Y-141.641 Z-3.589
G1 X167.514 Y-141.692 Z-3.596
G1 X167.723 Y-141.758 Z-3.604
G1 X167.927 Y-141.839 Z-3.612
G1 X168.125 Y-141.934 Z-3.619
G1 X168.315 Y-142.044 Z-3.627
G1 X168.497 Y-142.167 Z-3.635
G1 X168.669 Y-142.303 Z-3.642
G1 X168.831 Y-142.451 Z-3.65
G1 X168.981 Y-142.611 Z-3.658
G1 X169.12 Y-142.781 Z-3.665
G1 X169.246 Y-142.961 Z-3.673
G1 X169.358 Y-143.15 Z-3.681
G1 X169.457 Y-143.346 Z-3.688
G1 X169.541 Y-143.549 Z-3.696
G1 X169.609 Y-143.757 Z-3.704
G1 X169.663 Y-143.97 Z-3.711
G1 X169.701 Y-144.186 Z-3.719
G1 X169.723 Y-144.404 Z-3.727
G1 X169.73 Y-144.624 Z-3.734
G1 X169.72 Y-144.843 Z-3.742
G1 X169.694 Y-145.061 Z-3.75
G1 X169.653 Y-145.276 Z-3.757
G1 X169.596 Y-145.488 Z-3.765
G1 X169.524 Y-145.696 Z-3.773
G1 X169.436 Y-145.897 Z-3.78
G1 X169.335 Y-146.092 Z-3.788
G1 X169.219 Y-146.278 Z-3.796
G1 X169.091 Y-146.456 Z-3.803
G1 X168.949 Y-146.624 Z-3.811
G1 X168.796 Y-146.781 Z-3.819
G1 X168.632 Y-146.927 Z-3.826
G1 X168.458 Y-147.06 Z-3.834
G1 X168.274 Y-147.181 Z-3.842
G1 X168.083 Y-147.287 Z-3.849
G1 X167.883 Y-147.38 Z-3.857
G1 X167.678 Y-147.458 Z-3.865
G1 X167.468 Y-147.52 Z-3.872
G1 X167.254 Y-147.567 Z-3.88
G1 X167.036 Y-147.599 Z-3.888
G1 X166.817 Y-147.614 Z-3.895
G1 X166.598 Z-3.903
G1 X166.379 Y-147.597 Z-3.911
G1 X166.162 Y-147.565 Z-3.918
G1 X165.948 Y-147.517 Z-3.926
G1 X165.738 Y-147.454 Z-3.934
G1 X165.533 Y-147.375 Z-3.941
G1 X165.334 Y-147.282 Z-3.949
G1 X165.143 Y-147.175 Z-3.957
G1 X164.959 Y-147.054 Z-3.964
G1 X164.786 Y-146.92 Z-3.972
G1 X164.622 Y-146.773 Z-3.98
G1 X164.47 Y-146.615 Z-3.987
G1 X164.329 Y-146.447 Z-3.995
G1 X164.201 Y-146.269 Z-4.003
G1 X164.086 Y-146.082 Z-4.01
G1 X163.985 Y-145.887 Z-4.018
G1 X163.899 Y-145.685 Z-4.026
G1 X163.828 Y-145.477 Z-4.033
G1 X163.771 Y-145.265 Z-4.041
G1 X163.731 Y-145.049 Z-4.049
G1 X163.706 Y-144.831 Z-4.056
G1 X163.697 Y-144.612 Z-4.064
G2 X166.386 Y-141.901 I2.7 J0.011
G2 X169.097 Y-144.59 I0.011 J-2.7
G1 X169.098 Y-144.618
G1 Y-144.619
G1 X169.09 Y-144.656
G1 X169.069 Y-144.688
G1 X169.037 Y-144.709
G1 X169 Y-144.716
G1 X168.944 Y-144.717
G1 X168.943
G1 X168.906 Y-144.709
G1 X168.874 Y-144.688
G1 X168.853 Y-144.657
G1 X168.845 Y-144.619
G1 X168.51 Y-62.712
G1 X168.516 Y-62.673
G1 X168.534 Y-62.638
G1 X168.562 Y-62.61
G1 X168.597 Y-62.592
G1 X168.636 Y-62.585
G1 X168.675 Y-62.592
G1 X168.71 Y-62.609
G1 X168.738 Y-62.637
G1 X168.756 Y-62.672
G1 X168.762 Y-62.711
G1 X169.097 Y-144.59
G3 X170.432 Y-147.149 I3.146 J0.013
G2 X170.797 Y-149.26 I-0.872 J-1.238
G2 X169.565 Y-149.902 I-1.238 J0.872
G1 X165.653 Y-149.918
G3 X163.027 Y-151.034 I0.015 J-3.683
G2 X162.579 Y-151.04 I-0.227 J0.221
G2 X162.483 Y-150.814 I0.221 J0.227
G2 X162.577 Y-150.587 I0.317 J0.001
G3 X163.671 Y-147.953 I-2.589 J2.619
G1 X163.308 Y-59.301
G3 X162.192 Y-56.675 I-3.683 J-0.015
G2 X162.186 Y-56.227 I0.221 J0.227
G2 X162.412 Y-56.131 I0.227 J-0.221
G2 X162.638 Y-56.225 I0.001 J-0.317
G3 X165.273 Y-57.319 I2.62 J2.589
G1 X171.954 Y-57.292
G3 X174.58 Y-56.176 I-0.015 J3.683
G2 X175.028 Y-56.17 I0.227 J-0.221
G2 X175.124 Y-56.396 I-0.221 J-0.227
G2 X175.03 Y-56.623 I-0.317 J-0.001
G3 X173.936 Y-59.257 I2.589 J-2.619
G1 X174.299 Y-147.909
G3 X175.415 Y-150.535 I3.683 J0.015
G2 X175.421 Y-150.983 I-0.221 J-0.227
G2 X175.195 Y-151.079 I-0.227 J0.221
G2 X174.968 Y-150.985 I-0.001 J0.317
G3 X172.334 Y-149.891 I-2.619 J-2.589
G1 X169.565 Y-149.902
G0 Z6.096
G0 X168.044 Y-147.307
G1 Z-1.524 F508.
G1 X167.843 Y-147.396 Z-1.532
G1 X167.637 Y-147.471 Z-1.539
G1 X167.425 Y-147.531 Z-1.547
G1 X167.21 Y-147.575 Z-1.555
G1 X166.993 Y-147.603 Z-1.562
G1 X166.773 Y-147.615 Z-1.57
G1 X166.554 Y-147.612 Z-1.578
G1 X166.335 Y-147.592 Z-1.585
G1 X166.118 Y-147.557 Z-1.593
G1 X165.905 Y-147.506 Z-1.601
G1 X165.696 Y-147.439 Z-1.608
G1 X165.492 Y-147.358 Z-1.616
G1 X165.294 Y-147.261 Z-1.624
G1 X165.104 Y-147.151 Z-1.631
G1 X164.923 Y-147.027 Z-1.639
G1 X164.751 Y-146.891 Z-1.647
G1 X164.59 Y-146.742 Z-1.654
G1 X164.44 Y-146.582 Z-1.662
G1 X164.301 Y-146.411 Z-1.67
G1 X164.176 Y-146.231 Z-1.677
G1 X164.064 Y-146.042 Z-1.685
G1 X163.966 Y-145.845 Z-1.693
G1 X163.883 Y-145.642 Z-1.7
G1 X163.815 Y-145.433 Z-1.708
G1 X163.762 Y-145.22 Z-1.716
G1 X163.724 Y-145.004 Z-1.723
G1 X163.703 Y-144.785 Z-1.731
G1 X163.697 Y-144.566 Z-1.739
G1 X163.708 Y-144.347 Z-1.746
G1 X163.734 Y-144.129 Z-1.754
G1 X163.776 Y-143.913 Z-1.762
G1 X163.834 Y-143.701 Z-1.769
G1 X163.907 Y-143.494 Z-1.777
G1 X163.995 Y-143.293 Z-1.785
G1 X164.097 Y-143.099 Z-1.792
G1 X164.213 Y-142.912 Z-1.8
G1 X164.343 Y-142.735 Z-1.808
G1 X164.485 Y-142.567 Z-1.815
G1 X164.638 Y-142.411 Z-1.823
G1 X164.803 Y-142.265 Z-1.831
G1 X164.978 Y-142.133 Z-1.838
G1 X165.162 Y-142.013 Z-1.846
G1 X165.354 Y-141.907 Z-1.854
G1 X165.554 Y-141.815 Z-1.861
G1 X165.76 Y-141.738 Z-1.869
G1 X165.97 Y-141.676 Z-1.877
G1 X166.185 Y-141.63 Z-1.884
G1 X166.402 Y-141.6 Z-1.892
G1 X166.621 Y-141.585 Z-1.9
G1 X166.841 Y-141.586 Z-1.907
G1 X167.06 Y-141.603 Z-1.915
G1 X167.277 Y-141.637 Z-1.923
G1 X167.491 Y-141.685 Z-1.93
G1 X167.701 Y-141.75 Z-1.938
G1 X167.906 Y-141.829 Z-1.946
G1 X168.104 Y-141.923 Z-1.953
G1 X168.295 Y-142.032 Z-1.961
G1 X168.478 Y-142.153 Z-1.969
G1 X168.651 Y-142.288 Z-1.976
G1 X168.814 Y-142.435 Z-1.984
G1 X168.966 Y-142.594 Z-1.992
G1 X169.106 Y-142.763 Z-2
G1 X169.233 Y-142.942 Z-2.007
G1 X169.347 Y-143.13 Z-2.015
G1 X169.447 Y-143.325 Z-2.023
G1 X169.533 Y-143.527 Z-2.03
G1 X169.603 Y-143.735 Z-2.038
G1 X169.658 Y-143.948 Z-2.046
G1 X169.698 Y-144.164 Z-2.053
G1 X169.722 Y-144.382 Z-2.061
G1 X169.73 Y-144.602 Z-2.069
G1 X169.722 Y-144.821 Z-2.076
G1 X169.697 Y-145.039 Z-2.084
G1 X169.658 Y-145.255 Z-2.092
G1 X169.602 Y-145.468 Z-2.099
G1 X169.531 Y-145.675 Z-2.107
G1 X169.446 Y-145.878 Z-2.115
G1 X169.345 Y-146.073 Z-2.122
G1 X169.231 Y-146.261 Z-2.13
G1 X169.104 Y-146.439 Z-2.138
G1 X168.964 Y-146.608 Z-2.145
G1 X168.811 Y-146.767 Z-2.153
G1 X168.648 Y-146.914 Z-2.161
G1 X168.475 Y-147.048 Z-2.168
G1 X168.292 Y-147.17 Z-2.176
G1 X168.101 Y-147.278 Z-2.184
G1 X167.902 Y-147.372 Z-2.191
G1 X167.698 Y-147.451 Z-2.199
G1 X167.488 Y-147.515 Z-2.207
G1 X167.273 Y-147.564 Z-2.214
G1 X167.056 Y-147.596 Z-2.222
G1 X166.837 Y-147.613 Z-2.23
G1 X166.618 Y-147.614 Z-2.237
G1 X166.399 Y-147.6 Z-2.245
G1 X166.181 Y-147.569 Z-2.253
G1 X165.967 Y-147.522 Z-2.26
G1 X165.756 Y-147.46 Z-2.268
G1 X165.551 Y-147.383 Z-2.276
G1 X165.351 Y-147.291 Z-2.283
G1 X165.159 Y-147.185 Z-2.291
G1 X164.975 Y-147.065 Z-2.299
G1 X164.8 Y-146.932 Z-2.306
G1 X164.636 Y-146.786 Z-2.314
G1 X164.482 Y-146.629 Z-2.322
G1 X164.34 Y-146.462 Z-2.329
G1 X164.211 Y-146.284 Z-2.337
G1 X164.095 Y-146.098 Z-2.345
G1 X163.993 Y-145.903 Z-2.352
G1 X163.906 Y-145.702 Z-2.36
G1 X163.833 Y-145.495 Z-2.368
G1 X163.776 Y-145.283 Z-2.375
G1 X163.734 Y-145.067 Z-2.383
G1 X163.707 Y-144.849 Z-2.391
G1 X163.697 Y-144.63 Z-2.398
G1 X163.703 Y-144.41 Z-2.406
G1 X163.725 Y-144.192 Z-2.414
G1 X163.762 Y-143.976 Z-2.421
G1 X163.816 Y-143.763 Z-2.429
G1 X163.884 Y-143.554 Z-2.437
G1 X163.968 Y-143.351 Z-2.444
G1 X164.066 Y-143.155 Z-2.452
G1 X164.178 Y-142.966 Z-2.46
G1 X164.304 Y-142.786 Z-2.467
G1 X164.442 Y-142.615 Z-2.475
G1 X164.592 Y-142.455 Z-2.483
G1 X164.754 Y-142.307 Z-2.49
G1 X164.926 Y-142.17 Z-2.498
G1 X165.108 Y-142.047 Z-2.506
G1 X165.298 Y-141.936 Z-2.513
G1 X165.495 Y-141.841 Z-2.521
G1 X165.699 Y-141.759 Z-2.529
G1 X165.908 Y-141.693 Z-2.536
G1 X166.122 Y-141.642 Z-2.544
G1 X166.339 Y-141.607 Z-2.552
G1 X166.557 Y-141.588 Z-2.559
G1 X166.777 Y-141.584 Z-2.567
G1 X166.996 Y-141.597 Z-2.575
G1 X167.214 Y-141.625 Z-2.582
G1 X167.429 Y-141.67 Z-2.59
G1 X167.64 Y-141.729 Z-2.598
G1 X167.847 Y-141.804 Z-2.605
G1 X168.047 Y-141.894 Z-2.613
G1 X168.24 Y-141.998 Z-2.621
G1 X168.425 Y-142.116 Z-2.628
G1 X168.602 Y-142.248 Z-2.636
G1 X168.768 Y-142.391 Z-2.644
G1 X168.923 Y-142.546 Z-2.651
G1 X169.066 Y-142.713 Z-2.659
G1 X169.197 Y-142.889 Z-2.667
G1 X169.315 Y-143.074 Z-2.674
G1 X169.419 Y-143.267 Z-2.682
G1 X169.509 Y-143.468 Z-2.69
G1 X169.584 Y-143.674 Z-2.697
G1 X169.644 Y-143.885 Z-2.705
G1 X169.688 Y-144.101 Z-2.713
G1 X169.716 Y-144.318 Z-2.72
G1 X169.729 Y-144.537 Z-2.728
G1 X169.726 Y-144.757 Z-2.736
G1 X169.706 Y-144.976 Z-2.743
G1 X169.671 Y-145.192 Z-2.751
G1 X169.62 Y-145.406 Z-2.759
G1 X169.554 Y-145.615 Z-2.766
G1 X169.472 Y-145.819 Z-2.774
G1 X169.376 Y-146.017 Z-2.782
G1 X169.266 Y-146.207 Z-2.789
G1 X169.142 Y-146.388 Z-2.797
G1 X169.006 Y-146.56 Z-2.805
G1 X168.857 Y-146.722 Z-2.812
G1 X168.697 Y-146.872 Z-2.82
G1 X168.526 Y-147.01 Z-2.828
G1 X168.346 Y-147.136 Z-2.835
G1 X168.157 Y-147.248 Z-2.843
G1 X167.961 Y-147.346 Z-2.851
G1 X167.758 Y-147.429 Z-2.858
G1 X167.549 Y-147.498 Z-2.866
G1 X167.336 Y-147.551 Z-2.874
G1 X167.12 Y-147.588 Z-2.881
G1 X166.901 Y-147.61 Z-2.889
G1 X166.682 Y-147.616 Z-2.897
G1 X166.463 Y-147.606 Z-2.904
G1 X166.245 Y-147.579 Z-2.912
G1 X166.029 Y-147.537 Z-2.92
G1 X165.817 Y-147.48 Z-2.927
G1 X165.61 Y-147.407 Z-2.935
G1 X165.409 Y-147.319 Z-2.943
G1 X165.214 Y-147.217 Z-2.951
G1 X165.028 Y-147.101 Z-2.958
G1 X164.85 Y-146.972 Z-2.966
G1 X164.683 Y-146.83 Z-2.974
G1 X164.526 Y-146.676 Z-2.981
G1 X164.381 Y-146.512 Z-2.989
G1 X164.248 Y-146.337 Z-2.997
G1 X164.128 Y-146.153 Z-3.004
G1 X164.022 Y-145.961 Z-3.012
G1 X163.93 Y-145.761 Z-3.02
G1 X163.853 Y-145.556 Z-3.027
G1 X163.791 Y-145.345 Z-3.035
G1 X163.744 Y-145.131 Z-3.043
G1 X163.713 Y-144.913 Z-3.05
G1 X163.699 Y-144.694 Z-3.058
G1 X163.7 Y-144.474 Z-3.066
G1 X163.717 Y-144.256 Z-3.073
G1 X163.75 Y-144.038 Z-3.081
G1 X163.799 Y-143.824 Z-3.089
G1 X163.863 Y-143.614 Z-3.096
G1 X163.942 Y-143.41 Z-3.104
G1 X164.036 Y-143.211 Z-3.112
G1 X164.144 Y-143.02 Z-3.119
G1 X164.266 Y-142.837 Z-3.127
G1 X164.4 Y-142.664 Z-3.135
G1 X164.547 Y-142.501 Z-3.142
G1 X164.706 Y-142.349 Z-3.15
G1 X164.875 Y-142.209 Z-3.158
G1 X165.054 Y-142.081 Z-3.165
G1 X165.241 Y-141.967 Z-3.173
G1 X165.437 Y-141.867 Z-3.181
G1 X165.639 Y-141.781 Z-3.188
G1 X165.847 Y-141.711 Z-3.196
G1 X166.059 Y-141.655 Z-3.204
G1 X166.275 Y-141.616 Z-3.211
G1 X166.493 Y-141.592 Z-3.219
G1 X166.713 Y-141.584 Z-3.227
G1 X166.932 Y-141.591 Z-3.234
G1 X167.151 Y-141.615 Z-3.242
G1 X167.367 Y-141.655 Z-3.25
G1 X167.579 Y-141.71 Z-3.257
G1 X167.787 Y-141.781 Z-3.265
G1 X167.989 Y-141.867 Z-3.273
G1 X168.185 Y-141.967 Z-3.28
G1 X168.372 Y-142.081 Z-3.288
G1 X168.551 Y-142.208 Z-3.296
G1 X168.72 Y-142.348 Z-3.303
G1 X168.879 Y-142.5 Z-3.311
G1 X169.026 Y-142.663 Z-3.319
G1 X169.161 Y-142.836 Z-3.326
G1 X169.282 Y-143.019 Z-3.334
G1 X169.39 Y-143.21 Z-3.342
G1 X169.484 Y-143.409 Z-3.349
G1 X169.564 Y-143.613 Z-3.357
G1 X169.628 Y-143.823 Z-3.365
G1 X169.677 Y-144.037 Z-3.372
G1 X169.71 Y-144.255 Z-3.38
G1 X169.727 Y-144.473 Z-3.388
G1 X169.728 Y-144.693 Z-3.395
G1 X169.713 Y-144.912 Z-3.403
G1 X169.683 Y-145.129 Z-3.411
G1 X169.636 Y-145.344 Z-3.418
G1 X169.574 Y-145.555 Z-3.426
G1 X169.497 Y-145.76 Z-3.434
G1 X169.406 Y-145.96 Z-3.441
G1 X169.3 Y-146.152 Z-3.449
G1 X169.18 Y-146.336 Z-3.457
G1 X169.047 Y-146.511 Z-3.464
G1 X168.902 Y-146.676 Z-3.472
G1 X168.745 Y-146.829 Z-3.48
G1 X168.577 Y-146.971 Z-3.487
G1 X168.4 Y-147.101 Z-3.495
G1 X168.213 Y-147.217 Z-3.503
G1 X168.019 Y-147.319 Z-3.51
G1 X167.818 Y-147.407 Z-3.518
G1 X167.611 Y-147.479 Z-3.526
G1 X167.399 Y-147.537 Z-3.533
G1 X167.183 Y-147.579 Z-3.541
G1 X166.965 Y-147.605 Z-3.549
G1 X166.746 Y-147.616 Z-3.556
G1 X166.526 Y-147.61 Z-3.564
G1 X166.308 Y-147.589 Z-3.572
G1 X166.092 Y-147.551 Z-3.579
G1 X165.879 Y-147.498 Z-3.587
G1 X165.67 Y-147.43 Z-3.595
G1 X165.467 Y-147.346 Z-3.602
G1 X165.27 Y-147.248 Z-3.61
G1 X165.081 Y-147.136 Z-3.618
G1 X164.901 Y-147.011 Z-3.625
G1 X164.731 Y-146.873 Z-3.633
G1 X164.57 Y-146.722 Z-3.641
G1 X164.422 Y-146.561 Z-3.648
G1 X164.285 Y-146.389 Z-3.656
G1 X164.161 Y-146.208 Z-3.664
G1 X164.051 Y-146.018 Z-3.671
G1 X163.955 Y-145.82 Z-3.679
G1 X163.874 Y-145.616 Z-3.687
G1 X163.807 Y-145.407 Z-3.694
G1 X163.756 Y-145.194 Z-3.702
G1 X163.721 Y-144.977 Z-3.71
G1 X163.701 Y-144.758 Z-3.717
G1 X163.698 Y-144.539 Z-3.725
G1 X163.71 Y-144.319 Z-3.733
G1 X163.739 Y-144.102 Z-3.74
G1 X163.783 Y-143.886 Z-3.748
G1 X163.842 Y-143.675 Z-3.756
G1 X163.917 Y-143.469 Z-3.763
G1 X164.007 Y-143.268 Z-3.771
G1 X164.111 Y-143.075 Z-3.779
G1 X164.229 Y-142.89 Z-3.786
G1 X164.36 Y-142.713 Z-3.794
G1 X164.503 Y-142.547 Z-3.802
G1 X164.658 Y-142.392 Z-3.809
G1 X164.824 Y-142.248 Z-3.817
G1 X165.001 Y-142.117 Z-3.825
G1 X165.186 Y-141.999 Z-3.832
G1 X165.379 Y-141.895 Z-3.84
G1 X165.579 Y-141.805 Z-3.848
G1 X165.786 Y-141.73 Z-3.855
G1 X165.997 Y-141.67 Z-3.863
G1 X166.212 Y-141.625 Z-3.871
G1 X166.43 Y-141.597 Z-3.879
G1 X166.649 Y-141.584 Z-3.886
G1 X166.868 Y-141.587 Z-3.894
G1 X167.087 Y-141.607 Z-3.902
G1 X167.304 Y-141.642 Z-3.909
G1 X167.517 Y-141.693 Z-3.917
G1 X167.727 Y-141.759 Z-3.925
G1 X167.931 Y-141.84 Z-3.932
G1 X168.128 Y-141.936 Z-3.94
G1 X168.318 Y-142.046 Z-3.948
G1 X168.5 Y-142.169 Z-3.955
G1 X168.672 Y-142.306 Z-3.963
G1 X168.834 Y-142.454 Z-3.971
G1 X168.984 Y-142.614 Z-3.978
G1 X169.122 Y-142.785 Z-3.986
G1 X169.248 Y-142.965 Z-3.994
G1 X169.36 Y-143.154 Z-4.001
G1 X169.459 Y-143.35 Z-4.009
G1 X169.542 Y-143.553 Z-4.017
G1 X169.611 Y-143.762 Z-4.024
G1 X169.664 Y-143.975 Z-4.032
G1 X169.702 Y-144.191 Z-4.04
G1 X169.724 Y-144.409 Z-4.047
G1 X169.729 Y-144.629 Z-4.055
G1 X169.719 Y-144.848 Z-4.063
G1 X169.693 Y-145.066 Z-4.07
G1 X169.652 Y-145.282 Z-4.078
G1 X169.594 Y-145.494 Z-4.086
G1 X169.521 Y-145.701 Z-4.093
G1 X169.434 Y-145.902 Z-4.101
G1 X169.332 Y-146.097 Z-4.109
G1 X169.216 Y-146.283 Z-4.116
G1 X169.087 Y-146.461 Z-4.124
G1 X168.945 Y-146.629 Z-4.132
G1 X168.792 Y-146.786 Z-4.139
G1 X168.627 Y-146.931 Z-4.147
G1 X168.453 Y-147.064 Z-4.155
G1 X168.269 Y-147.184 Z-4.162
G1 X168.077 Y-147.29 Z-4.17
G1 X167.877 Y-147.382 Z-4.178
G1 X167.672 Y-147.46 Z-4.185
G1 X167.461 Y-147.522 Z-4.193
G1 X167.247 Y-147.569 Z-4.201
G1 X167.029 Y-147.599 Z-4.208
G1 X166.81 Y-147.614 Z-4.216
G1 X166.59 Y-147.613 Z-4.224
G1 X166.372 Y-147.597 Z-4.231
G1 X166.154 Y-147.564 Z-4.239
G1 X165.94 Y-147.515 Z-4.247
G1 X165.73 Y-147.451 Z-4.254
G1 X165.525 Y-147.372 Z-4.262
G1 X165.327 Y-147.278 Z-4.27
G1 X165.136 Y-147.17 Z-4.277
G1 X164.953 Y-147.049 Z-4.285
G1 X164.779 Y-146.914 Z-4.293
G1 X164.616 Y-146.767 Z-4.3
G1 X164.464 Y-146.609 Z-4.308
G1 X164.324 Y-146.44 Z-4.316
G1 X164.196 Y-146.261 Z-4.323
G1 X164.082 Y-146.074 Z-4.331
G1 X163.982 Y-145.879 Z-4.339
G1 X163.896 Y-145.676 Z-4.346
G1 X163.825 Y-145.469 Z-4.354
G1 X163.769 Y-145.256 Z-4.362
G1 X163.729 Y-145.04 Z-4.369
G1 X163.705 Y-144.822 Z-4.377
G1 X163.697 Y-144.603 Z-4.385
G1 X163.705 Y-144.383 Z-4.392
G1 X163.729 Y-144.165 Z-4.4
G1 X163.768 Y-143.949 Z-4.408
G1 X163.823 Y-143.736 Z-4.415
G1 X163.894 Y-143.528 Z-4.423
G1 X163.979 Y-143.326 Z-4.431
G1 X164.079 Y-143.131 Z-4.438
G1 X164.193 Y-142.943 Z-4.446
G1 X164.32 Y-142.764 Z-4.454
G1 X164.46 Y-142.595 Z-4.461
G1 X164.612 Y-142.436 Z-4.469
G1 X164.775 Y-142.289 Z-4.477
G1 X164.948 Y-142.154 Z-4.484
G1 X165.131 Y-142.032 Z-4.492
G1 X165.322 Y-141.924 Z-4.5
G1 X165.52 Y-141.83 Z-4.507
G1 X165.725 Y-141.75 Z-4.515
G1 X165.935 Y-141.686 Z-4.523
G1 X166.149 Y-141.637 Z-4.53
G1 X166.366 Y-141.604 Z-4.538
G1 X166.585 Y-141.586 Z-4.546
G1 X166.804 Y-141.585 Z-4.553
G1 X167.023 Y-141.599 Z-4.561
G1 X167.241 Y-141.63 Z-4.569
G1 X167.455 Y-141.676 Z-4.576
G1 X167.666 Y-141.738 Z-4.584
G1 X167.872 Y-141.815 Z-4.592
G1 X168.071 Y-141.906 Z-4.599
G1 X168.264 Y-142.012 Z-4.607
G1 X168.448 Y-142.132 Z-4.615
G1 X168.623 Y-142.265 Z-4.622
G1 X168.788 Y-142.41 Z-4.63
G1 X168.941 Y-142.567 Z-4.638
G1 X169.083 Y-142.734 Z-4.645
G1 X169.213 Y-142.911 Z-4.653
G1 X169.329 Y-143.098 Z-4.661
G1 X169.431 Y-143.292 Z-4.668
G1 X169.519 Y-143.493 Z-4.676
G1 X169.592 Y-143.7 Z-4.684
G1 X169.65 Y-143.912 Z-4.691
G1 X169.692 Y-144.128 Z-4.699
G1 X169.719 Y-144.345 Z-4.707
G1 X169.729 Y-144.565 Z-4.714
G1 X169.724 Y-144.784 Z-4.722
G1 X169.703 Y-145.003 Z-4.73
G1 X169.665 Y-145.219 Z-4.737
G1 X169.612 Y-145.432 Z-4.745
G1 X169.544 Y-145.641 Z-4.753
G1 X169.461 Y-145.844 Z-4.76
G1 X169.363 Y-146.041 Z-4.768
G1 X169.251 Y-146.23 Z-4.776
G1 X169.126 Y-146.41 Z-4.783
G1 X168.988 Y-146.581 Z-4.791
G1 X168.838 Y-146.741 Z-4.799
G1 X168.676 Y-146.89 Z-4.807
G1 X168.505 Y-147.027 Z-4.814
G1 X168.323 Y-147.15 Z-4.822
G1 X168.133 Y-147.261 Z-4.83
G1 X167.936 Y-147.357 Z-4.837
G1 X167.732 Y-147.439 Z-4.845
G1 X167.523 Y-147.505 Z-4.853
G1 X167.309 Y-147.557 Z-4.86
G1 X167.093 Y-147.592 Z-4.868
G1 X166.874 Y-147.612 Z-4.876
G1 X166.655 Y-147.615 Z-4.883
G1 X166.435 Y-147.603 Z-4.891
G1 X166.218 Y-147.575 Z-4.899
G1 X166.002 Y-147.531 Z-4.906
G1 X165.791 Y-147.472 Z-4.914
G1 X165.585 Y-147.397 Z-4.922
G1 X165.384 Y-147.307 Z-4.929
G1 X165.191 Y-147.203 Z-4.937
G1 X165.005 Y-147.086 Z-4.945
G1 X164.829 Y-146.955 Z-4.952
G1 X164.663 Y-146.812 Z-4.96
G1 X164.507 Y-146.656 Z-4.968
G1 X164.363 Y-146.491 Z-4.975
G1 X164.232 Y-146.315 Z-4.983
G1 X164.114 Y-146.13 Z-4.991
G1 X164.009 Y-145.936 Z-4.998
G1 X163.919 Y-145.736 Z-5.006
G1 X163.844 Y-145.53 Z-5.014
G1 X163.784 Y-145.319 Z-5.021
G1 X163.74 Y-145.104 Z-5.029
G1 X163.711 Y-144.886 Z-5.037
G1 X163.698 Y-144.667 Z-5.044
G1 X163.701 Y-144.447 Z-5.052
G1 X163.72 Y-144.228 Z-5.06
G1 X163.755 Y-144.012 Z-5.067
G1 X163.806 Y-143.798 Z-5.075
G1 X163.872 Y-143.589 Z-5.083
G1 X163.953 Y-143.385 Z-5.09
G1 X164.048 Y-143.187 Z-5.098
G1 X164.158 Y-142.997 Z-5.106
G1 X164.282 Y-142.815 Z-5.113
G1 X164.418 Y-142.643 Z-5.121
G1 X164.566 Y-142.481 Z-5.129
G1 X164.726 Y-142.331 Z-5.136
G1 X164.897 Y-142.192 Z-5.144
G1 X165.077 Y-142.066 Z-5.152
G1 X165.265 Y-141.954 Z-5.159
G1 X165.462 Y-141.856 Z-5.167
G1 X165.664 Y-141.772 Z-5.175
G1 X165.873 Y-141.703 Z-5.182
G1 X166.086 Y-141.649 Z-5.19
G1 X166.302 Y-141.612 Z-5.198
G1 X166.521 Y-141.59 Z-5.205
G1 X166.74 Y-141.584 Z-5.213
G1 X166.96 Y-141.594 Z-5.221
G1 X167.178 Y-141.619 Z-5.228
G1 X167.393 Y-141.661 Z-5.236
G1 X167.605 Y-141.718 Z-5.244
G1 X167.812 Y-141.791 Z-5.251
G1 X168.014 Y-141.878 Z-5.259
G1 X168.208 Y-141.98 Z-5.267
G1 X168.395 Y-142.096 Z-5.274
G1 X168.573 Y-142.225 Z-5.282
G1 X168.741 Y-142.366 Z-5.29
G1 X168.898 Y-142.52 Z-5.297
G1 X169.043 Y-142.684 Z-5.305
G1 X169.176 Y-142.859 Z-5.313
G1 X169.297 Y-143.042 Z-5.32
G1 X169.403 Y-143.234 Z-5.328
G1 X169.495 Y-143.434 Z-5.336
G1 X169.573 Y-143.639 Z-5.343
G1 X169.635 Y-143.85 Z-5.351
G1 X169.682 Y-144.064 Z-5.359
G1 X169.713 Y-144.282 Z-5.366
G1 X169.728 Y-144.501 Z-5.374
G1 X169.727 Y-144.72 Z-5.382
G1 X169.71 Y-144.939 Z-5.389
G1 X169.678 Y-145.156 Z-5.397
G1 X169.629 Y-145.371 Z-5.405
G1 X169.566 Y-145.581 Z-5.412
G1 X169.487 Y-145.786 Z-5.42
G1 X169.393 Y-145.984 Z-5.428
G1 X169.285 Y-146.175 Z-5.435
G1 X169.164 Y-146.358 Z-5.443
G1 X169.029 Y-146.532 Z-5.451
G1 X168.883 Y-146.695 Z-5.458
G1 X168.725 Y-146.848 Z-5.466
G1 X168.556 Y-146.988 Z-5.474
G1 X168.377 Y-147.116 Z-5.481
G1 X168.19 Y-147.23 Z-5.489
G1 X167.994 Y-147.33 Z-5.497
G1 X167.792 Y-147.416 Z-5.504
G1 X167.585 Y-147.487 Z-5.512
G1 X167.372 Y-147.543 Z-5.52
G1 X167.156 Y-147.583 Z-5.527
G1 X166.938 Y-147.608 Z-5.535
G1 X166.719 Y-147.616 Z-5.543
G1 X166.499 Y-147.608 Z-5.55
G1 X166.281 Y-147.585 Z-5.558
G1 X166.065 Y-147.545 Z-5.566
G1 X165.852 Y-147.49 Z-5.573
G1 X165.644 Y-147.42 Z-5.581
G1 X165.442 Y-147.335 Z-5.589
G1 X165.246 Y-147.235 Z-5.596
G1 X165.058 Y-147.121 Z-5.604
G1 X164.879 Y-146.994 Z-5.612
G1 X164.71 Y-146.855 Z-5.619
G1 X164.551 Y-146.703 Z-5.627
G1 X164.404 Y-146.54 Z-5.635
G1 X164.269 Y-146.367 Z-5.642
G1 X164.147 Y-146.184 Z-5.65
G1 X164.038 Y-145.994 Z-5.658
G1 X163.944 Y-145.795 Z-5.665
G1 X163.865 Y-145.591 Z-5.673
G1 X163.8 Y-145.381 Z-5.681
G1 X163.751 Y-145.167 Z-5.688
G1 X163.718 Y-144.95 Z-5.696
G1 X163.7 Y-144.731 Z-5.704
G1 X163.698 Y-144.511 Z-5.711
G1 X163.713 Y-144.292 Z-5.719
G1 X163.743 Y-144.075 Z-5.727
G1 X163.789 Y-143.86 Z-5.734
G1 X163.851 Y-143.649 Z-5.742
G1 X163.928 Y-143.443 Z-5.75
G1 X164.019 Y-143.244 Z-5.758
G1 X164.125 Y-143.051 Z-5.765
G1 X164.244 Y-142.867 Z-5.773
G1 X164.377 Y-142.692 Z-5.781
G1 X164.522 Y-142.527 Z-5.788
G1 X164.678 Y-142.373 Z-5.796
G1 X164.846 Y-142.231 Z-5.804
G1 X165.023 Y-142.102 Z-5.811
G1 X165.209 Y-141.985 Z-5.819
G1 X165.403 Y-141.883 Z-5.827
G1 X165.605 Y-141.795 Z-5.834
G1 X165.812 Y-141.721 Z-5.842
G1 X166.023 Y-141.663 Z-5.85
G1 X166.239 Y-141.621 Z-5.857
G1 X166.457 Y-141.594 Z-5.865
G1 X166.676 Y-141.584 Z-5.873
G1 X166.896 Y-141.589 Z-5.88
G1 X167.114 Y-141.61 Z-5.888
G1 X167.331 Y-141.647 Z-5.896
G1 X167.544 Y-141.7 Z-5.903
G1 X167.752 Y-141.768 Z-5.911
G1 X167.956 Y-141.851 Z-5.919
G1 X168.152 Y-141.949 Z-5.926
G1 X168.341 Y-142.061 Z-5.934
G1 X168.522 Y-142.186 Z-5.942
G1 X168.693 Y-142.324 Z-5.949
G1 X168.853 Y-142.474 Z-5.957
G1 X169.002 Y-142.635 Z-5.965
G1 X169.139 Y-142.807 Z-5.972
G1 X169.263 Y-142.988 Z-5.98
G1 X169.373 Y-143.178 Z-5.988
G1 X169.47 Y-143.375 Z-5.995
G1 X169.552 Y-143.579 Z-6.003
G1 X169.618 Y-143.788 Z-6.011
G1 X169.67 Y-144.001 Z-6.018
G1 X169.705 Y-144.218 Z-6.026
G1 X169.725 Y-144.437 Z-6.034
G1 X169.729 Y-144.656 Z-6.041
G1 X169.717 Y-144.875 Z-6.049
G1 X169.689 Y-145.093 Z-6.057
G1 X169.645 Y-145.308 Z-6.064
G1 X169.586 Y-145.52 Z-6.072
G1 X169.511 Y-145.726 Z-6.08
G1 X169.422 Y-145.927 Z-6.087
G1 X169.318 Y-146.12 Z-6.095
G1 X169.201 Y-146.306 Z-6.103
G1 X169.07 Y-146.482 Z-6.11
G1 X168.927 Y-146.649 Z-6.118
G1 X168.772 Y-146.804 Z-6.126
G1 X168.606 Y-146.948 Z-6.133
G1 X168.43 Y-147.08 Z-6.141
G1 X168.245 Y-147.198 Z-6.149
G1 X168.052 Y-147.303 Z-6.156
G1 X167.852 Y-147.393 Z-6.164
G1 X167.646 Y-147.468 Z-6.172
G1 X167.435 Y-147.529 Z-6.179
G1 X167.22 Y-147.573 Z-6.187
G1 X167.002 Y-147.602 Z-6.195
G1 X166.783 Y-147.615 Z-6.202
G1 X166.563 Y-147.612 Z-6.21
G1 X166.344 Y-147.593 Z-6.218
G1 X166.128 Y-147.559 Z-6.225
G1 X165.914 Y-147.508 Z-6.233
G1 X165.704 Y-147.442 Z-6.241
G1 X165.5 Y-147.361 Z-6.248
G1 X165.303 Y-147.266 Z-6.256
G1 X165.112 Y-147.156 Z-6.264
G1 X164.931 Y-147.033 Z-6.271
G1 X164.758 Y-146.897 Z-6.279
G1 X164.597 Y-146.748 Z-6.287
G1 X164.446 Y-146.589 Z-6.294
G1 X164.307 Y-146.418 Z-6.302
G1 X164.181 Y-146.239 Z-6.31
G1 X164.069 Y-146.05 Z-6.317
G1 X163.97 Y-145.854 Z-6.325
G1 X163.886 Y-145.651 Z-6.333
G1 X163.817 Y-145.442 Z-6.34
G1 X163.764 Y-145.23 Z-6.348
G1 X163.726 Y-145.013 Z-6.356
G1 X163.703 Y-144.795 Z-6.363
G1 X163.697 Y-144.575 Z-6.371
G1 X163.707 Y-144.356 Z-6.379
G1 X163.733 Y-144.138 Z-6.386
G1 X163.774 Y-143.922 Z-6.394
G1 X163.831 Y-143.71 Z-6.402
G1 X163.904 Y-143.503 Z-6.409
G1 X163.991 Y-143.301 Z-6.417
G1 X164.093 Y-143.107 Z-6.425
G1 X164.208 Y-142.92 Z-6.432
G1 X164.337 Y-142.742 Z-6.44
G1 X164.478 Y-142.574 Z-6.448
G1 X164.632 Y-142.417 Z-6.455
G1 X164.796 Y-142.271 Z-6.463
G1 X164.97 Y-142.138 Z-6.471
G1 X165.154 Y-142.018 Z-6.478
G1 X165.346 Y-141.911 Z-6.486
G1 X165.545 Y-141.819 Z-6.494
G1 X165.751 Y-141.741 Z-6.501
G1 X165.961 Y-141.679 Z-6.509
G1 X166.176 Y-141.632 Z-6.517
G1 X166.393 Y-141.601 Z-6.524
G1 X166.612 Y-141.585 Z-6.532
G1 X166.832 Y-141.586 Z-6.54
G1 X167.051 Y-141.602 Z-6.547
G1 X167.268 Y-141.635 Z-6.555
G1 X167.482 Y-141.683 Z-6.563
G1 X167.692 Y-141.747 Z-6.57
G1 X167.897 Y-141.825 Z-6.578
G1 X168.096 Y-141.919 Z-6.586
G1 X168.287 Y-142.027 Z-6.593
G1 X168.47 Y-142.148 Z-6.601
G1 X168.644 Y-142.282 Z-6.609
G1 X168.807 Y-142.429 Z-6.616
G1 X168.96 Y-142.587 Z-6.624
G1 X169.1 Y-142.756 Z-6.632
G1 X169.228 Y-142.934 Z-6.639
G1 X169.343 Y-143.121 Z-6.647
G1 X169.443 Y-143.317 Z-6.655
G1 X169.529 Y-143.519 Z-6.662
G1 X169.6 Y-143.726 Z-6.67
G1 X169.656 Y-143.939 Z-6.678
G1 X169.697 Y-144.155 Z-6.686
G1 X169.721 Y-144.373 Z-6.693
G1 X169.73 Y-144.592 Z-6.701
G1 X169.722 Y-144.812 Z-6.709
G1 X169.699 Y-145.03 Z-6.716
G1 X169.66 Y-145.246 Z-6.724
G1 X169.605 Y-145.459 Z-6.732
G1 X169.535 Y-145.667 Z-6.739
G1 X169.45 Y-145.869 Z-6.747
G1 X169.35 Y-146.065 Z-6.755
G1 X169.236 Y-146.253 Z-6.762
G1 X169.109 Y-146.432 Z-6.77
G1 X168.97 Y-146.601 Z-6.778
G1 X168.818 Y-146.76 Z-6.785
G1 X168.656 Y-146.908 Z-6.793
G1 X168.482 Y-147.043 Z-6.801
G1 X168.3 Y-147.165 Z-6.808
G1 X168.109 Y-147.274 Z-6.816
G1 X167.911 Y-147.368 Z-6.824
G1 X167.706 Y-147.448 Z-6.831
G1 X167.497 Y-147.513 Z-6.839
G1 X167.283 Y-147.562 Z-6.847
G1 X167.066 Y-147.595 Z-6.854
G1 X166.847 Y-147.613 Z-6.862
G1 X166.627 Y-147.615 Z-6.87
G1 X166.408 Y-147.601 Z-6.877
G1 X166.191 Y-147.57 Z-6.885
G1 X165.976 Y-147.524 Z-6.893
G1 X165.765 Y-147.463 Z-6.9
G1 X165.559 Y-147.386 Z-6.908
G1 X165.36 Y-147.295 Z-6.916
G1 X165.167 Y-147.19 Z-6.923
G1 X164.983 Y-147.07 Z-6.931
G1 X164.808 Y-146.938 Z-6.939
G1 X164.643 Y-146.793 Z-6.946
G1 X164.489 Y-146.636 Z-6.954
G1 X164.346 Y-146.469 Z-6.962
G1 X164.217 Y-146.292 Z-6.969
G1 X164.1 Y-146.106 Z-6.977
G1 X163.997 Y-145.912 Z-6.985
G1 X163.909 Y-145.711 Z-6.992
G1 X163.836 Y-145.504 Z-7
G1 X163.778 Y-145.292 Z-7.008
G1 X163.735 Y-145.077 Z-7.015
G1 X163.708 Y-144.859 Z-7.023
G1 X163.697 Y-144.639 Z-7.031
G1 X163.703 Y-144.42 Z-7.038
G1 X163.724 Y-144.201 Z-7.046
G1 X163.76 Y-143.985 Z-7.054
G1 X163.813 Y-143.772 Z-7.061
G1 X163.881 Y-143.563 Z-7.069
G1 X163.964 Y-143.36 Z-7.077
G1 X164.061 Y-143.163 Z-7.084
G1 X164.173 Y-142.974 Z-7.092
G1 X164.298 Y-142.793 Z-7.1
G1 X164.436 Y-142.622 Z-7.107
G1 X164.586 Y-142.462 Z-7.115
G1 X164.747 Y-142.313 Z-7.123
G1 X164.918 Y-142.176 Z-7.13
G1 X165.1 Y-142.052 Z-7.138
G1 X165.289 Y-141.941 Z-7.146
G1 X165.486 Y-141.844 Z-7.153
G1 X165.69 Y-141.762 Z-7.161
G1 X165.899 Y-141.695 Z-7.169
G1 X166.113 Y-141.644 Z-7.176
G1 X166.329 Y-141.608 Z-7.184
G1 X166.548 Y-141.588 Z-7.192
G1 X166.768 Y-141.584 Z-7.199
G1 X166.987 Y-141.596 Z-7.207
G1 X167.205 Y-141.624 Z-7.215
G1 X167.42 Y-141.667 Z-7.222
G1 X167.631 Y-141.727 Z-7.23
G1 X167.838 Y-141.801 Z-7.238
G1 X168.038 Y-141.89 Z-7.245
G1 X168.232 Y-141.994 Z-7.253
G1 X168.418 Y-142.111 Z-7.261
G1 X168.594 Y-142.242 Z-7.268
G1 X168.761 Y-142.385 Z-7.276
G1 X168.916 Y-142.54 Z-7.284
G1 X169.06 Y-142.705 Z-7.291
G1 X169.192 Y-142.881 Z-7.299
G1 X169.311 Y-143.066 Z-7.307
G1 X169.415 Y-143.259 Z-7.314
G1 X169.506 Y-143.459 Z-7.322
G1 X169.581 Y-143.665 Z-7.33
G1 X169.642 Y-143.876 Z-7.337
G1 X169.686 Y-144.091 Z-7.345
G1 X169.716 Y-144.309 Z-7.353
G1 X169.729 Y-144.528 Z-7.36
G1 X169.726 Y-144.748 Z-7.368
G1 X169.707 Y-144.966 Z-7.376
G1 X169.673 Y-145.183 Z-7.383
G1 X169.622 Y-145.397 Z-7.391
G1 X169.557 Y-145.606 Z-7.399
G1 X169.476 Y-145.811 Z-7.406
G1 X169.381 Y-146.008 Z-7.414
G1 X169.271 Y-146.199 Z-7.422
G1 X169.148 Y-146.381 Z-7.429
G1 X169.012 Y-146.553 Z-7.437
G1 X168.864 Y-146.715 Z-7.445
G1 X168.704 Y-146.866 Z-7.452
G1 X168.534 Y-147.005 Z-7.46
G1 X168.354 Y-147.131 Z-7.468
G1 X168.166 Y-147.243 Z-7.475
G1 X167.97 Y-147.342 Z-7.483
G1 X167.767 Y-147.426 Z-7.491
G1 X167.558 Y-147.495 Z-7.498
G1 X167.345 Y-147.549 Z-7.506
G1 X167.129 Y-147.587 Z-7.514
G1 X166.911 Y-147.61 Z-7.521
G1 X166.691 Y-147.616 Z-7.529
G1 X166.472 Y-147.606 Z-7.537
G1 X166.254 Y-147.581 Z-7.544
G1 X166.038 Y-147.539 Z-7.552
G1 X165.826 Y-147.483 Z-7.56
G1 X165.619 Y-147.41 Z-7.567
G1 X165.417 Y-147.323 Z-7.575
G1 X165.223 Y-147.222 Z-7.583
G1 X165.036 Y-147.106 Z-7.59
G1 X164.858 Y-146.978 Z-7.598
G1 X164.69 Y-146.836 Z-7.606
G1 X164.532 Y-146.683 Z-7.614
G1 X164.387 Y-146.519 Z-7.621
G1 X164.253 Y-146.345 Z-7.629
G1 X164.133 Y-146.161 Z-7.637
G1 X164.026 Y-145.969 Z-7.644
G1 X163.933 Y-145.77 Z-7.652
G1 X163.856 Y-145.565 Z-7.66
G1 X163.793 Y-145.354 Z-7.667
G1 X163.746 Y-145.14 Z-7.675
G1 X163.714 Y-144.923 Z-7.683
G1 X163.699 Y-144.703 Z-7.69
G1 Y-144.484 Z-7.698
G1 X163.716 Y-144.265 Z-7.706
G1 X163.748 Y-144.048 Z-7.713
G1 X163.796 Y-143.834 Z-7.721
G1 X163.86 Y-143.623 Z-7.729
G1 X163.938 Y-143.418 Z-7.736
G1 X164.031 Y-143.22 Z-7.744
G1 X164.139 Y-143.028 Z-7.752
G1 X164.26 Y-142.845 Z-7.759
G1 X164.394 Y-142.671 Z-7.767
G1 X164.541 Y-142.508 Z-7.775
G1 X164.699 Y-142.355 Z-7.782
G1 X164.867 Y-142.214 Z-7.79
G1 X165.046 Y-142.086 Z-7.798
G1 X165.233 Y-141.972 Z-7.805
G1 X165.428 Y-141.871 Z-7.813
G1 X165.63 Y-141.785 Z-7.821
G1 X165.838 Y-141.713 Z-7.828
G1 X166.05 Y-141.657 Z-7.836
G1 X166.266 Y-141.617 Z-7.844
G1 X166.484 Y-141.592 Z-7.851
G1 X166.703 Y-141.584 Z-7.859
G1 X166.923 Y-141.591 Z-7.867
G1 X167.141 Y-141.614 Z-7.874
G1 X167.357 Y-141.653 Z-7.882
G1 X167.57 Y-141.708 Z-7.89
G1 X167.778 Y-141.778 Z-7.897
G1 X167.981 Y-141.863 Z-7.905
G1 X168.176 Y-141.962 Z-7.913
G1 X168.364 Y-142.075 Z-7.92
G1 X168.544 Y-142.202 Z-7.928
G1 X168.713 Y-142.342 Z-7.936
G1 X168.872 Y-142.493 Z-7.943
G1 X169.02 Y-142.656 Z-7.951
G1 X169.155 Y-142.829 Z-7.959
G1 X169.277 Y-143.011 Z-7.966
G1 X169.386 Y-143.202 Z-7.974
G1 X169.481 Y-143.4 Z-7.982
G1 X169.561 Y-143.604 Z-7.989
G1 X169.626 Y-143.814 Z-7.997
G1 X169.675 Y-144.028 Z-8.005
G1 X169.709 Y-144.245 Z-8.012
G1 X169.727 Y-144.464 Z-8.02
G1 X169.728 Y-144.684 Z-8.028
G1 X169.714 Y-144.903 Z-8.035
G1 X169.684 Y-145.12 Z-8.043
G1 X169.639 Y-145.335 Z-8.051
G1 X169.577 Y-145.546 Z-8.058
G1 X169.501 Y-145.752 Z-8.066
G1 X169.41 Y-145.951 Z-8.074
G1 X169.304 Y-146.144 Z-8.081
G1 X169.185 Y-146.328 Z-8.089
G1 X169.053 Y-146.504 Z-8.097
G1 X168.908 Y-146.669 Z-8.104
G1 X168.752 Y-146.823 Z-8.112
G1 X168.585 Y-146.965 Z-8.12
G1 X168.408 Y-147.095 Z-8.127
G1 X168.222 Y-147.212 Z-8.135
G1 X168.028 Y-147.315 Z-8.143
G1 X167.827 Y-147.403 Z-8.15
G1 X167.62 Y-147.477 Z-8.158
G1 X167.408 Y-147.535 Z-8.166
G1 X167.193 Y-147.578 Z-8.173
G1 X166.975 Y-147.605 Z-8.181
G1 X166.755 Y-147.616 Z-8.189
G1 X166.536 Y-147.611 Z-8.196
G1 X166.317 Y-147.59 Z-8.204
G1 X166.101 Y-147.553 Z-8.212
G1 X165.888 Y-147.501 Z-8.219
G1 X165.679 Y-147.433 Z-8.227
G1 X165.475 Y-147.35 Z-8.235
G1 X165.279 Y-147.253 Z-8.242
G1 X165.089 Y-147.141 Z-8.25
G1 X164.909 Y-147.017 Z-8.258
G1 X164.738 Y-146.879 Z-8.265
G1 X164.577 Y-146.729 Z-8.273
G1 X164.428 Y-146.568 Z-8.281
G1 X164.291 Y-146.397 Z-8.288
G1 X164.166 Y-146.216 Z-8.296
G1 X164.056 Y-146.026 Z-8.304
G1 X163.959 Y-145.829 Z-8.311
G1 X163.877 Y-145.625 Z-8.319
G1 X163.81 Y-145.416 Z-8.327
G1 X163.758 Y-145.203 Z-8.334
G1 X163.722 Y-144.986 Z-8.342
G1 X163.702 Y-144.768 Z-8.35
G1 X163.698 Y-144.548 Z-8.357
G1 X163.709 Y-144.329 Z-8.365
G1 X163.737 Y-144.111 Z-8.373
G1 X163.78 Y-143.896 Z-8.38
G1 X163.839 Y-143.684 Z-8.388
G1 X163.914 Y-143.478 Z-8.396
G1 X164.003 Y-143.277 Z-8.403
G1 X164.106 Y-143.083 Z-8.411
G1 X164.223 Y-142.897 Z-8.419
G1 X164.354 Y-142.721 Z-8.426
G1 X164.497 Y-142.554 Z-8.434
G1 X164.651 Y-142.398 Z-8.442
G1 X164.817 Y-142.254 Z-8.449
G1 X164.993 Y-142.122 Z-8.457
G1 X165.178 Y-142.004 Z-8.465
G1 X165.37 Y-141.899 Z-8.472
G1 X165.57 Y-141.808 Z-8.48
G1 X165.777 Y-141.733 Z-8.488
G1 X165.988 Y-141.672 Z-8.495
G1 X166.203 Y-141.627 Z-8.503
G1 X166.42 Y-141.598 Z-8.511
G1 X166.639 Y-141.584 Z-8.518
G1 X166.859 Y-141.587 Z-8.526
G1 X167.078 Y-141.606 Z-8.534
G1 X167.295 Y-141.64 Z-8.541
G1 X167.508 Y-141.69 Z-8.549
G1 X167.718 Y-141.756 Z-8.557
G1 X167.922 Y-141.836 Z-8.565
G1 X168.12 Y-141.932 Z-8.572
G1 X168.31 Y-142.041 Z-8.58
G1 X168.492 Y-142.164 Z-8.588
G1 X168.665 Y-142.3 Z-8.595
G1 X168.827 Y-142.448 Z-8.603
G1 X168.978 Y-142.607 Z-8.611
G1 X169.117 Y-142.777 Z-8.618
G1 X169.243 Y-142.957 Z-8.626
G1 X169.356 Y-143.145 Z-8.634
G1 X169.455 Y-143.341 Z-8.641
G1 X169.539 Y-143.544 Z-8.649
G1 X169.608 Y-143.753 Z-8.657
G1 X169.662 Y-143.965 Z-8.664
G1 X169.701 Y-144.182 Z-8.672
G1 X169.723 Y-144.4 Z-8.68
G1 X169.73 Y-144.619 Z-8.687
G1 X169.72 Y-144.839 Z-8.695
G1 X169.695 Y-145.057 Z-8.703
G1 X169.654 Y-145.273 Z-8.71
G1 X169.597 Y-145.485 Z-8.718
G1 X169.525 Y-145.692 Z-8.726
G1 X169.438 Y-145.894 Z-8.733
G1 X169.337 Y-146.089 Z-8.741
G1 X169.221 Y-146.275 Z-8.749
G1 X169.093 Y-146.453 Z-8.756
G1 X168.952 Y-146.622 Z-8.764
G1 X168.799 Y-146.779 Z-8.772
G1 X168.635 Y-146.925 Z-8.779
G1 X168.46 Y-147.059 Z-8.787
G1 X168.277 Y-147.179 Z-8.795
G1 X168.085 Y-147.286 Z-8.802
G1 X167.886 Y-147.379 Z-8.81
G1 X167.681 Y-147.457 Z-8.818
G1 X167.47 Y-147.519 Z-8.825
G1 X167.256 Y-147.567 Z-8.833
G1 X167.039 Y-147.598 Z-8.841
G1 X166.82 Y-147.614 Z-8.848
G1 X166.6 Z-8.856
G1 X166.381 Y-147.598 Z-8.864
G1 X166.164 Y-147.565 Z-8.871
G1 X165.949 Y-147.518 Z-8.879
G1 X165.739 Y-147.454 Z-8.887
G1 X165.534 Y-147.376 Z-8.894
G1 X165.335 Y-147.283 Z-8.902
G1 X165.144 Y-147.175 Z-8.91
G1 X164.961 Y-147.054 Z-8.917
G1 X164.787 Y-146.92 Z-8.925
G1 X164.623 Y-146.774 Z-8.933
G1 X164.47 Y-146.616 Z-8.94
G1 X164.329 Y-146.448 Z-8.948
G1 X164.201 Y-146.269 Z-8.956
G1 X164.087 Y-146.082 Z-8.963
G1 X163.986 Y-145.887 Z-8.971
G1 X163.899 Y-145.685 Z-8.979
G1 X163.828 Y-145.478 Z-8.986
G1 X163.772 Y-145.265 Z-8.994
G1 X163.731 Y-145.05 Z-9.002
G1 X163.706 Y-144.831 Z-9.009
G1 X163.697 Y-144.612 Z-9.017
G2 X166.386 Y-141.901 I2.7 J0.011
G2 X169.097 Y-144.59 I0.011 J-2.7
G1 X169.098 Y-144.618
G1 Y-144.619
G1 X169.09 Y-144.656
G1 X169.069 Y-144.688
G1 X169.037 Y-144.709
G1 X169 Y-144.716
G1 X168.944 Y-144.717
G1 X168.943
G1 X168.906 Y-144.709
G1 X168.874 Y-144.688
G1 X168.853 Y-144.657
G1 X168.845 Y-144.619
G1 X168.51 Y-62.712
G1 X168.516 Y-62.673
G1 X168.534 Y-62.638
G1 X168.562 Y-62.61
G1 X168.597 Y-62.592
G1 X168.636 Y-62.585
G1 X168.675 Y-62.592
G1 X168.71 Y-62.609
G1 X168.738 Y-62.637
G1 X168.756 Y-62.672
G1 X168.762 Y-62.711
G1 X169.097 Y-144.59
G3 X170.432 Y-147.149 I3.146 J0.013
G2 X170.797 Y-149.26 I-0.872 J-1.238
G2 X169.565 Y-149.902 I-1.238 J0.872
G1 X165.653 Y-149.918
G3 X163.027 Y-151.034 I0.015 J-3.683
G2 X162.579 Y-151.04 I-0.227 J0.221
G2 X162.483 Y-150.814 I0.221 J0.227
G2 X162.577 Y-150.587 I0.317 J0.001
G3 X163.671 Y-147.953 I-2.589 J2.619
G1 X163.308 Y-59.301
G3 X162.192 Y-56.675 I-3.683 J-0.015
G2 X162.186 Y-56.227 I0.221 J0.227
G2 X162.412 Y-56.131 I0.227 J-0.221
G2 X162.638 Y-56.225 I0.001 J-0.317
G3 X165.273 Y-57.319 I2.62 J2.589
G1 X171.954 Y-57.292
G3 X174.58 Y-56.176 I-0.015 J3.683
G2 X175.028 Y-56.17 I0.227 J-0.221
G2 X175.124 Y-56.396 I-0.221 J-0.227
G2 X175.03 Y-56.623 I-0.317 J-0.001
G3 X173.936 Y-59.257 I2.589 J-2.619
G1 X174.299 Y-147.909
G3 X175.415 Y-150.535 I3.683 J0.015
G2 X175.421 Y-150.983 I-0.221 J-0.227
G2 X175.195 Y-151.079 I-0.227 J0.221
G2 X174.968 Y-150.985 I-0.001 J0.317
G3 X172.334 Y-149.891 I-2.619 J-2.589
G1 X169.565 Y-149.902
G0 Z6.096
G0 X99.837 Y-26.287
G1 Z3.556 F508.
G1 X99.847 Y-26.507 Z3.548
G1 X99.841 Y-26.726 Z3.541
G1 X99.82 Y-26.944 Z3.533
G1 X99.782 Y-27.161 Z3.525
G1 X99.729 Y-27.374 Z3.518
G1 X99.66 Y-27.582 Z3.51
G1 X99.577 Y-27.785 Z3.502
G1 X99.479 Y-27.981 Z3.495
G1 X99.367 Y-28.17 Z3.487
G1 X99.241 Y-28.35 Z3.479
G1 X99.103 Y-28.521 Z3.472
G1 X98.952 Y-28.681 Z3.464
G1 X98.791 Y-28.829 Z3.456
G1 X98.619 Y-28.966 Z3.449
G1 X98.438 Y-29.089 Z3.441
G1 X98.248 Y-29.199 Z3.433
G1 X98.05 Y-29.295 Z3.426
G1 X97.847 Y-29.377 Z3.418
G1 X97.637 Y-29.443 Z3.41
G1 X97.424 Y-29.494 Z3.403
G1 X97.207 Y-29.529 Z3.395
G1 X96.989 Y-29.549 Z3.387
G1 X96.769 Y-29.552 Z3.38
G1 X96.55 Y-29.54 Z3.372
G1 X96.332 Y-29.511 Z3.364
G1 X96.117 Y-29.467 Z3.357
G1 X95.906 Y-29.407 Z3.349
G1 X95.7 Y-29.333 Z3.341
G1 X95.5 Y-29.243 Z3.334
G1 X95.306 Y-29.139 Z3.326
G1 X95.121 Y-29.021 Z3.318
G1 X94.945 Y-28.89 Z3.311
G1 X94.779 Y-28.747 Z3.303
G1 X94.623 Y-28.592 Z3.295
G1 X94.48 Y-28.426 Z3.288
G1 X94.349 Y-28.25 Z3.28
G1 X94.231 Y-28.065 Z3.272
G1 X94.126 Y-27.872 Z3.265
G1 X94.036 Y-27.671 Z3.257
G1 X93.961 Y-27.465 Z3.249
G1 X93.901 Y-27.254 Z3.242
G1 X93.857 Y-27.039 Z3.234
G1 X93.828 Y-26.822 Z3.226
G1 X93.815 Y-26.602 Z3.219
G1 X93.819 Y-26.383 Z3.211
G1 X93.838 Y-26.164 Z3.203
G1 X93.873 Y-25.948 Z3.196
G1 X93.923 Y-25.734 Z3.188
G1 X93.989 Y-25.525 Z3.18
G1 X94.071 Y-25.321 Z3.173
G1 X94.166 Y-25.123 Z3.165
G1 X94.276 Y-24.933 Z3.157
G1 X94.399 Y-24.752 Z3.15
G1 X94.536 Y-24.58 Z3.142
G1 X94.684 Y-24.418 Z3.134
G1 X94.844 Y-24.267 Z3.127
G1 X95.014 Y-24.129 Z3.119
G1 X95.194 Y-24.003 Z3.111
G1 X95.382 Y-23.891 Z3.104
G1 X95.579 Y-23.793 Z3.096
G1 X95.781 Y-23.709 Z3.088
G1 X95.99 Y-23.64 Z3.081
G1 X96.203 Y-23.586 Z3.073
G1 X96.419 Y-23.548 Z3.065
G1 X96.637 Y-23.526 Z3.058
G1 X96.857 Y-23.52 Z3.05
G1 X97.076 Y-23.53 Z3.042
G1 X97.294 Y-23.556 Z3.035
G1 X97.509 Y-23.597 Z3.027
G1 X97.721 Y-23.655 Z3.019
G1 X97.928 Y-23.727 Z3.012
G1 X98.13 Y-23.814 Z3.004
G1 X98.324 Y-23.916 Z2.996
G1 X98.511 Y-24.031 Z2.989
G1 X98.689 Y-24.16 Z2.981
G1 X98.857 Y-24.302 Z2.973
G1 X99.014 Y-24.455 Z2.966
G1 X99.159 Y-24.619 Z2.958
G1 X99.293 Y-24.793 Z2.95
G1 X99.413 Y-24.977 Z2.943
G1 X99.519 Y-25.169 Z2.935
G1 X99.612 Y-25.368 Z2.927
G1 X99.689 Y-25.573 Z2.92
G1 X99.752 Y-25.784 Z2.912
G1 X99.799 Y-25.998 Z2.904
G1 X99.83 Y-26.215 Z2.897
G1 X99.846 Y-26.434 Z2.889
G1 X99.845 Y-26.654 Z2.881
G1 X99.828 Y-26.873 Z2.874
G1 X99.796 Y-27.09 Z2.866
G1 X99.748 Y-27.304 Z2.858
G1 X99.684 Y-27.514 Z2.851
G1 X99.606 Y-27.719 Z2.843
G1 X99.513 Y-27.917 Z2.835
G1 X99.405 Y-28.109 Z2.828
G1 X99.284 Y-28.292 Z2.82
G1 X99.15 Y-28.465 Z2.812
G1 X99.003 Y-28.629 Z2.805
G1 X98.845 Y-28.781 Z2.797
G1 X98.677 Y-28.922 Z2.789
G1 X98.498 Y-29.05 Z2.782
G1 X98.311 Y-29.164 Z2.774
G1 X98.116 Y-29.265 Z2.766
G1 X97.914 Y-29.351 Z2.759
G1 X97.707 Y-29.423 Z2.751
G1 X97.495 Y-29.479 Z2.743
G1 X97.279 Y-29.519 Z2.736
G1 X97.061 Y-29.544 Z2.728
G1 X96.842 Y-29.553 Z2.72
G1 X96.622 Y-29.545 Z2.713
G1 X96.404 Y-29.522 Z2.705
G1 X96.188 Y-29.483 Z2.697
G1 X95.975 Y-29.429 Z2.69
G1 X95.767 Y-29.359 Z2.682
G1 X95.565 Y-29.274 Z2.674
G1 X95.369 Y-29.175 Z2.667
G1 X95.181 Y-29.062 Z2.659
G1 X95.002 Y-28.935 Z2.651
G1 X94.832 Y-28.796 Z2.644
G1 X94.673 Y-28.644 Z2.636
G1 X94.526 Y-28.482 Z2.628
G1 X94.391 Y-28.309 Z2.621
G1 X94.268 Y-28.127 Z2.613
G1 X94.159 Y-27.936 Z2.605
G1 X94.065 Y-27.738 Z2.598
G1 X93.984 Y-27.534 Z2.59
G1 X93.919 Y-27.324 Z2.582
G1 X93.87 Y-27.11 Z2.575
G1 X93.836 Y-26.894 Z2.567
G1 X93.818 Y-26.675 Z2.559
G1 X93.816 Y-26.455 Z2.552
G1 X93.83 Y-26.236 Z2.544
G1 X93.859 Y-26.019 Z2.536
G1 X93.905 Y-25.804 Z2.529
G1 X93.966 Y-25.593 Z2.521
G1 X94.042 Y-25.388 Z2.513
G1 X94.133 Y-25.188 Z2.506
G1 X94.238 Y-24.995 Z2.498
G1 X94.357 Y-24.811 Z2.49
G1 X94.489 Y-24.635 Z2.483
G1 X94.634 Y-24.47 Z2.475
G1 X94.79 Y-24.316 Z2.467
G1 X94.957 Y-24.173 Z2.46
G1 X95.133 Y-24.043 Z2.452
G1 X95.319 Y-23.926 Z2.444
G1 X95.513 Y-23.823 Z2.437
G1 X95.714 Y-23.735 Z2.429
G1 X95.92 Y-23.661 Z2.421
G1 X96.132 Y-23.602 Z2.414
G1 X96.347 Y-23.559 Z2.406
G1 X96.565 Y-23.532 Z2.398
G1 X96.784 Y-23.521 Z2.391
G1 X97.004 Y-23.525 Z2.383
G1 X97.222 Y-23.546 Z2.375
G1 X97.439 Y-23.582 Z2.368
G1 X97.652 Y-23.634 Z2.36
G1 X97.861 Y-23.701 Z2.352
G1 X98.064 Y-23.784 Z2.345
G1 X98.261 Y-23.881 Z2.337
G1 X98.45 Y-23.992 Z2.329
G1 X98.631 Y-24.116 Z2.322
G1 X98.802 Y-24.254 Z2.314
G1 X98.963 Y-24.403 Z2.306
G1 X99.113 Y-24.564 Z2.299
G1 X99.25 Y-24.735 Z2.291
G1 X99.375 Y-24.915 Z2.283
G1 X99.486 Y-25.105 Z2.276
G1 X99.583 Y-25.301 Z2.268
G1 X99.665 Y-25.505 Z2.26
G1 X99.733 Y-25.714 Z2.253
G1 X99.785 Y-25.927 Z2.245
G1 X99.822 Y-26.143 Z2.237
G1 X99.842 Y-26.362 Z2.23
G1 X99.847 Y-26.581 Z2.222
G1 X99.836 Y-26.8 Z2.214
G1 X99.809 Y-27.018 Z2.207
G1 X99.766 Y-27.233 Z2.199
G1 X99.707 Y-27.445 Z2.191
G1 X99.633 Y-27.652 Z2.184
G1 X99.545 Y-27.853 Z2.176
G1 X99.442 Y-28.046 Z2.168
G1 X99.325 Y-28.232 Z2.161
G1 X99.195 Y-28.409 Z2.153
G1 X99.053 Y-28.576 Z2.145
G1 X98.899 Y-28.732 Z2.138
G1 X98.734 Y-28.877 Z2.13
G1 X98.558 Y-29.009 Z2.122
G1 X98.374 Y-29.128 Z2.115
G1 X98.181 Y-29.233 Z2.107
G1 X97.982 Y-29.325 Z2.099
G1 X97.776 Y-29.401 Z2.092
G1 X97.565 Y-29.462 Z2.084
G1 X97.351 Y-29.508 Z2.076
G1 X97.133 Y-29.538 Z2.069
G1 X96.914 Y-29.552 Z2.061
G1 X96.695 Y-29.55 Z2.053
G1 X96.476 Y-29.532 Z2.046
G1 X96.259 Y-29.498 Z2.038
G1 X96.045 Y-29.449 Z2.03
G1 X95.835 Y-29.384 Z2.023
G1 X95.631 Y-29.304 Z2.015
G1 X95.433 Y-29.209 Z2.007
G1 X95.242 Y-29.1 Z2
G1 X95.06 Y-28.978 Z1.992
G1 X94.887 Y-28.843 Z1.984
G1 X94.725 Y-28.695 Z1.977
G1 X94.573 Y-28.537 Z1.969
G1 X94.434 Y-28.367 Z1.961
G1 X94.307 Y-28.188 Z1.954
G1 X94.194 Y-28 Z1.946
G1 X94.094 Y-27.804 Z1.938
G1 X94.009 Y-27.602 Z1.931
G1 X93.939 Y-27.394 Z1.923
G1 X93.885 Y-27.181 Z1.915
G1 X93.845 Y-26.965 Z1.908
G1 X93.822 Y-26.747 Z1.9
G1 X93.815 Y-26.528 Z1.892
G1 X93.823 Y-26.309 Z1.885
G1 X93.848 Y-26.09 Z1.877
G1 X93.888 Y-25.875 Z1.869
G1 X93.944 Y-25.663 Z1.862
G1 X94.015 Y-25.455 Z1.854
G1 X94.101 Y-25.253 Z1.846
G1 X94.202 Y-25.058 Z1.839
G1 X94.316 Y-24.871 Z1.831
G1 X94.444 Y-24.692 Z1.823
G1 X94.585 Y-24.524 Z1.816
G1 X94.737 Y-24.366 Z1.808
G1 X94.9 Y-24.219 Z1.8
G1 X95.074 Y-24.085 Z1.793
G1 X95.257 Y-23.963 Z1.785
G1 X95.448 Y-23.856 Z1.777
G1 X95.647 Y-23.762 Z1.77
G1 X95.852 Y-23.684 Z1.762
G1 X96.062 Y-23.62 Z1.754
G1 X96.276 Y-23.572 Z1.747
G1 X96.493 Y-23.539 Z1.739
G1 X96.712 Y-23.523 Z1.731
G1 X96.931 Y-23.522 Z1.724
G1 X97.15 Y-23.537 Z1.716
G1 X97.367 Y-23.568 Z1.708
G1 X97.582 Y-23.615 Z1.701
G1 X97.792 Y-23.677 Z1.693
G1 X97.998 Y-23.755 Z1.685
G1 X98.197 Y-23.847 Z1.678
G1 X98.389 Y-23.954 Z1.67
G1 X98.572 Y-24.074 Z1.662
G1 X98.747 Y-24.207 Z1.655
G1 X98.911 Y-24.352 Z1.647
G1 X99.065 Y-24.509 Z1.64
G1 X99.206 Y-24.677 Z1.632
G1 X99.335 Y-24.855 Z1.624
G1 X99.451 Y-25.041 Z1.617
G1 X99.552 Y-25.236 Z1.609
G1 X99.64 Y-25.437 Z1.601
G1 X99.712 Y-25.644 Z1.594
G1 X99.77 Y-25.856 Z1.586
G1 X99.811 Y-26.072 Z1.578
G1 X99.837 Y-26.29 Z1.571
G1 X99.847 Y-26.509 Z1.563
G1 X99.841 Y-26.728 Z1.555
G1 X99.819 Y-26.947 Z1.548
G1 X99.782 Y-27.163 Z1.54
G1 X99.728 Y-27.376 Z1.532
G1 X99.659 Y-27.584 Z1.525
G1 X99.576 Y-27.787 Z1.517
G1 X99.478 Y-27.983 Z1.509
G1 X99.365 Y-28.172 Z1.502
G1 X99.24 Y-28.352 Z1.494
G1 X99.101 Y-28.522 Z1.486
G1 X98.951 Y-28.682 Z1.479
G1 X98.789 Y-28.831 Z1.471
G1 X98.617 Y-28.967 Z1.463
G1 X98.436 Y-29.09 Z1.456
G1 X98.246 Y-29.2 Z1.448
G1 X98.048 Y-29.296 Z1.44
G1 X97.845 Y-29.377 Z1.433
G1 X97.635 Y-29.443 Z1.425
G1 X97.422 Y-29.494 Z1.417
G1 X97.205 Y-29.529 Z1.41
G1 X96.986 Y-29.549 Z1.402
G1 X96.767 Y-29.552 Z1.394
G1 X96.548 Y-29.539 Z1.387
G1 X96.33 Y-29.511 Z1.379
G1 X96.115 Y-29.467 Z1.371
G1 X95.904 Y-29.407 Z1.364
G1 X95.698 Y-29.332 Z1.356
G1 X95.498 Y-29.242 Z1.348
G1 X95.304 Y-29.138 Z1.341
G1 X95.119 Y-29.02 Z1.333
G1 X94.943 Y-28.889 Z1.325
G1 X94.777 Y-28.745 Z1.318
G1 X94.622 Y-28.59 Z1.31
G1 X94.478 Y-28.424 Z1.302
G1 X94.347 Y-28.248 Z1.295
G1 X94.23 Y-28.063 Z1.287
G1 X94.125 Y-27.87 Z1.279
G1 X94.036 Y-27.67 Z1.272
G1 X93.961 Y-27.463 Z1.264
G1 X93.901 Y-27.252 Z1.256
G1 X93.857 Y-27.037 Z1.249
G1 X93.828 Y-26.819 Z1.241
G1 X93.815 Y-26.6 Z1.233
G1 X93.819 Y-26.381 Z1.226
G1 X93.838 Y-26.162 Z1.218
G1 X93.873 Y-25.946 Z1.21
G1 X93.924 Y-25.732 Z1.203
G1 X93.99 Y-25.523 Z1.195
G1 X94.071 Y-25.319 Z1.187
G1 X94.167 Y-25.122 Z1.18
G1 X94.277 Y-24.932 Z1.172
G1 X94.401 Y-24.75 Z1.164
G1 X94.537 Y-24.578 Z1.157
G1 X94.685 Y-24.416 Z1.149
G1 X94.845 Y-24.266 Z1.141
G1 X95.016 Y-24.128 Z1.134
G1 X95.196 Y-24.002 Z1.126
G1 X95.384 Y-23.89 Z1.118
G1 X95.58 Y-23.792 Z1.111
G1 X95.783 Y-23.708 Z1.103
G1 X95.992 Y-23.639 Z1.095
G1 X96.205 Y-23.586 Z1.088
G1 X96.421 Y-23.548 Z1.08
G1 X96.639 Y-23.526 Z1.072
G1 X96.859 Y-23.52 Z1.065
G1 X97.078 Y-23.53 Z1.057
G1 X97.296 Y-23.556 Z1.049
G1 X97.511 Y-23.598 Z1.042
G1 X97.723 Y-23.655 Z1.034
G1 X97.93 Y-23.728 Z1.026
G1 X98.132 Y-23.815 Z1.019
G1 X98.326 Y-23.917 Z1.011
G1 X98.513 Y-24.033 Z1.003
G1 X98.69 Y-24.161 Z0.996
G1 X98.858 Y-24.303 Z0.988
G1 X99.015 Y-24.456 Z0.98
G1 X99.161 Y-24.621 Z0.973
G1 X99.294 Y-24.795 Z0.965
G1 X99.414 Y-24.979 Z0.957
G1 X99.52 Y-25.171 Z0.95
G1 X99.613 Y-25.37 Z0.942
G1 X99.69 Y-25.575 Z0.934
G1 X99.752 Y-25.786 Z0.927
G1 X99.799 Y-26 Z0.919
G1 X99.83 Y-26.217 Z0.911
G1 X99.846 Y-26.436 Z0.904
G1 X99.845 Y-26.656 Z0.896
G1 X99.828 Y-26.875 Z0.888
G1 X99.796 Y-27.092 Z0.881
G1 X99.747 Y-27.306 Z0.873
G1 X99.684 Y-27.516 Z0.865
G1 X99.605 Y-27.721 Z0.858
G1 X99.512 Y-27.919 Z0.85
G1 X99.404 Y-28.111 Z0.842
G1 X99.283 Y-28.293 Z0.835
G1 X99.148 Y-28.467 Z0.827
G1 X99.002 Y-28.631 Z0.819
G1 X98.844 Y-28.783 Z0.812
G1 X98.675 Y-28.923 Z0.804
G1 X98.497 Y-29.051 Z0.796
G1 X98.309 Y-29.165 Z0.789
G1 X98.114 Y-29.266 Z0.781
G1 X97.913 Y-29.352 Z0.773
G1 X97.705 Y-29.423 Z0.766
G1 X97.493 Y-29.479 Z0.758
G1 X97.277 Y-29.52 Z0.75
G1 X97.059 Y-29.544 Z0.743
G1 X96.84 Y-29.553 Z0.735
G1 X96.62 Y-29.545 Z0.727
G1 X96.402 Y-29.522 Z0.72
G1 X96.186 Y-29.483 Z0.712
G1 X95.973 Y-29.428 Z0.704
G1 X95.765 Y-29.358 Z0.697
G1 X95.563 Y-29.273 Z0.689
G1 X95.367 Y-29.174 Z0.681
G1 X95.179 Y-29.06 Z0.674
G1 X95 Y-28.934 Z0.666
G1 X94.831 Y-28.794 Z0.658
G1 X94.672 Y-28.643 Z0.651
G1 X94.525 Y-28.48 Z0.643
G1 X94.389 Y-28.307 Z0.635
G1 X94.267 Y-28.125 Z0.628
G1 X94.158 Y-27.934 Z0.62
G1 X94.064 Y-27.736 Z0.612
G1 X93.984 Y-27.532 Z0.605
G1 X93.919 Y-27.322 Z0.597
G1 X93.869 Y-27.108 Z0.589
G1 X93.836 Y-26.892 Z0.582
G1 X93.818 Y-26.673 Z0.574
G1 X93.816 Y-26.453 Z0.566
G1 X93.83 Y-26.234 Z0.559
G1 X93.86 Y-26.017 Z0.551
G1 X93.905 Y-25.802 Z0.543
G1 X93.967 Y-25.591 Z0.536
G1 X94.043 Y-25.386 Z0.528
G1 X94.134 Y-25.186 Z0.52
G1 X94.239 Y-24.993 Z0.513
G1 X94.358 Y-24.809 Z0.505
G1 X94.491 Y-24.634 Z0.497
G1 X94.635 Y-24.469 Z0.49
G1 X94.791 Y-24.314 Z0.482
G1 X94.958 Y-24.172 Z0.474
G1 X95.135 Y-24.042 Z0.467
G1 X95.321 Y-23.925 Z0.459
G1 X95.515 Y-23.822 Z0.451
G1 X95.716 Y-23.734 Z0.444
G1 X95.922 Y-23.66 Z0.436
G1 X96.134 Y-23.602 Z0.428
G1 X96.349 Y-23.559 Z0.421
G1 X96.567 Y-23.532 Z0.413
G1 X96.786 Y-23.521 Z0.405
G1 X97.006 Y-23.525 Z0.398
G1 X97.224 Y-23.546 Z0.39
G1 X97.441 Y-23.582 Z0.382
G1 X97.654 Y-23.635 Z0.375
G1 X97.863 Y-23.702 Z0.367
G1 X98.066 Y-23.785 Z0.359
G1 X98.263 Y-23.882 Z0.352
G1 X98.452 Y-23.993 Z0.344
G1 X98.633 Y-24.117 Z0.336
G1 X98.804 Y-24.255 Z0.329
G1 X98.965 Y-24.404 Z0.321
G1 X99.114 Y-24.565 Z0.313
G1 X99.251 Y-24.736 Z0.306
G1 X99.376 Y-24.917 Z0.298
G1 X99.487 Y-25.107 Z0.29
G1 X99.584 Y-25.303 Z0.283
G1 X99.666 Y-25.507 Z0.275
G1 X99.733 Y-25.716 Z0.267
G1 X99.785 Y-25.929 Z0.26
G1 X99.822 Y-26.145 Z0.252
G1 X99.842 Y-26.364 Z0.244
G1 X99.847 Y-26.583 Z0.237
G1 X99.835 Y-26.803 Z0.229
G1 X99.808 Y-27.02 Z0.221
G1 X99.765 Y-27.236 Z0.214
G1 X99.707 Y-27.447 Z0.206
G1 X99.633 Y-27.654 Z0.198
G1 X99.544 Y-27.854 Z0.191
G1 X99.441 Y-28.048 Z0.183
G1 X99.324 Y-28.234 Z0.175
G1 X99.194 Y-28.411 Z0.168
G1 X99.052 Y-28.578 Z0.16
G1 X98.897 Y-28.734 Z0.152
G1 X98.732 Y-28.878 Z0.145
G1 X98.557 Y-29.01 Z0.137
G1 X98.372 Y-29.129 Z0.129
G1 X98.18 Y-29.234 Z0.122
G1 X97.98 Y-29.325 Z0.114
G1 X97.774 Y-29.402 Z0.106
G1 X97.563 Y-29.462 Z0.099
G1 X97.348 Y-29.508 Z0.091
G1 X97.131 Y-29.538 Z0.083
G1 X96.912 Y-29.552 Z0.076
G1 X96.693 Y-29.55 Z0.068
G1 X96.474 Y-29.531 Z0.06
G1 X96.257 Y-29.498 Z0.053
G1 X96.043 Y-29.448 Z0.045
G1 X95.833 Y-29.383 Z0.037
G1 X95.629 Y-29.303 Z0.03
G1 X95.431 Y-29.208 Z0.022
G1 X95.241 Y-29.099 Z0.014
G1 X95.058 Y-28.977 Z0.007
G1 X94.886 Y-28.842 Z-0.001
G1 X94.723 Y-28.694 Z-0.009
G1 X94.572 Y-28.535 Z-0.016
G1 X94.433 Y-28.365 Z-0.024
G1 X94.306 Y-28.186 Z-0.032
G1 X94.193 Y-27.998 Z-0.039
G1 X94.093 Y-27.802 Z-0.047
G1 X94.008 Y-27.6 Z-0.055
G1 X93.939 Y-27.392 Z-0.062
G1 X93.884 Y-27.179 Z-0.07
G1 X93.845 Y-26.963 Z-0.078
G1 X93.822 Y-26.745 Z-0.085
G1 X93.815 Y-26.526 Z-0.093
G1 X93.824 Y-26.306 Z-0.101
G1 X93.848 Y-26.088 Z-0.108
G1 X93.889 Y-25.873 Z-0.116
G1 X93.945 Y-25.661 Z-0.124
G1 X94.016 Y-25.453 Z-0.131
G1 X94.102 Y-25.251 Z-0.139
G1 X94.203 Y-25.056 Z-0.147
G1 X94.318 Y-24.869 Z-0.154
G1 X94.446 Y-24.691 Z-0.162
G1 X94.586 Y-24.522 Z-0.17
G1 X94.738 Y-24.364 Z-0.177
G1 X94.902 Y-24.218 Z-0.185
G1 X95.076 Y-24.084 Z-0.193
G1 X95.259 Y-23.962 Z-0.2
G1 X95.45 Y-23.855 Z-0.208
G1 X95.649 Y-23.762 Z-0.216
G1 X95.854 Y-23.683 Z-0.223
G1 X96.064 Y-23.619 Z-0.231
G1 X96.278 Y-23.571 Z-0.239
G1 X96.495 Y-23.539 Z-0.246
G1 X96.714 Y-23.522 Z-0.254
G1 X96.933 Z-0.262
G1 X97.152 Y-23.537 Z-0.269
G1 X97.369 Y-23.569 Z-0.277
G1 X97.584 Y-23.616 Z-0.285
G1 X97.794 Y-23.678 Z-0.292
G1 X98 Y-23.756 Z-0.3
G1 X98.199 Y-23.848 Z-0.308
G1 X98.391 Y-23.955 Z-0.315
G1 X98.574 Y-24.075 Z-0.323
G1 X98.748 Y-24.208 Z-0.331
G1 X98.913 Y-24.354 Z-0.338
G1 X99.066 Y-24.511 Z-0.346
G1 X99.207 Y-24.679 Z-0.354
G1 X99.336 Y-24.857 Z-0.361
G1 X99.452 Y-25.043 Z-0.369
G1 X99.553 Y-25.238 Z-0.377
G1 X99.641 Y-25.439 Z-0.384
G1 X99.713 Y-25.646 Z-0.392
G1 X99.77 Y-25.858 Z-0.4
G1 X99.812 Y-26.074 Z-0.407
G1 X99.837 Y-26.292 Z-0.415
G1 X99.847 Y-26.511 Z-0.423
G1 X99.841 Y-26.73 Z-0.43
G1 X99.819 Y-26.949 Z-0.438
G1 X99.781 Y-27.165 Z-0.446
G1 X99.728 Y-27.378 Z-0.453
G1 X99.659 Y-27.586 Z-0.461
G1 X99.575 Y-27.789 Z-0.469
G1 X99.477 Y-27.985 Z-0.476
G1 X99.364 Y-28.174 Z-0.484
G1 X99.238 Y-28.354 Z-0.492
G1 X99.1 Y-28.524 Z-0.499
G1 X98.949 Y-28.684 Z-0.507
G1 X98.788 Y-28.832 Z-0.515
G1 X98.616 Y-28.968 Z-0.522
G1 X98.434 Y-29.091 Z-0.53
G1 X98.244 Y-29.201 Z-0.538
G1 X98.047 Y-29.297 Z-0.545
G1 X97.843 Y-29.378 Z-0.553
G1 X97.633 Y-29.444 Z-0.561
G1 X97.42 Y-29.495 Z-0.568
G1 X97.203 Y-29.53 Z-0.576
G1 X96.984 Y-29.549 Z-0.584
G1 X96.765 Y-29.552 Z-0.591
G1 X96.546 Y-29.539 Z-0.599
G1 X96.328 Y-29.511 Z-0.607
G1 X96.113 Y-29.466 Z-0.614
G1 X95.902 Y-29.406 Z-0.622
G1 X95.696 Y-29.331 Z-0.63
G1 X95.496 Y-29.241 Z-0.637
G1 X95.303 Y-29.137 Z-0.645
G1 X95.118 Y-29.019 Z-0.653
G1 X94.942 Y-28.888 Z-0.66
G1 X94.776 Y-28.744 Z-0.668
G1 X94.621 Y-28.589 Z-0.676
G1 X94.477 Y-28.423 Z-0.683
G1 X94.346 Y-28.246 Z-0.691
G1 X94.228 Y-28.061 Z-0.699
G1 X94.125 Y-27.868 Z-0.706
G1 X94.035 Y-27.668 Z-0.714
G1 X93.96 Y-27.461 Z-0.722
G1 X93.9 Y-27.25 Z-0.729
G1 X93.856 Y-27.035 Z-0.737
G1 X93.828 Y-26.817 Z-0.745
G1 X93.815 Y-26.598 Z-0.752
G1 X93.819 Y-26.379 Z-0.76
G1 X93.838 Y-26.16 Z-0.768
G1 X93.874 Y-25.944 Z-0.775
G1 X93.925 Y-25.73 Z-0.783
G1 X93.991 Y-25.521 Z-0.791
G1 X94.072 Y-25.317 Z-0.798
G1 X94.168 Y-25.12 Z-0.806
G1 X94.278 Y-24.93 Z-0.814
G1 X94.402 Y-24.748 Z-0.821
G1 X94.538 Y-24.577 Z-0.829
G1 X94.687 Y-24.415 Z-0.837
G1 X94.847 Y-24.265 Z-0.844
G1 X95.017 Y-24.126 Z-0.852
G1 X95.197 Y-24.001 Z-0.86
G1 X95.386 Y-23.889 Z-0.867
G1 X95.582 Y-23.791 Z-0.875
G1 X95.785 Y-23.707 Z-0.883
G1 X95.994 Y-23.639 Z-0.89
G1 X96.207 Y-23.585 Z-0.898
G1 X96.423 Y-23.548 Z-0.906
G1 X96.641 Y-23.526 Z-0.913
G1 X96.861 Y-23.52 Z-0.921
G1 X97.08 Y-23.531 Z-0.929
G1 X97.298 Y-23.557 Z-0.936
G1 X97.513 Y-23.598 Z-0.944
G1 X97.725 Y-23.656 Z-0.952
G1 X97.932 Y-23.728 Z-0.959
G1 X98.134 Y-23.816 Z-0.967
G1 X98.328 Y-23.918 Z-0.975
G1 X98.514 Y-24.034 Z-0.982
G1 X98.692 Y-24.163 Z-0.99
G1 X98.86 Y-24.304 Z-0.998
G1 X99.017 Y-24.458 Z-1.005
G1 X99.162 Y-24.622 Z-1.013
G1 X99.295 Y-24.797 Z-1.021
G1 X99.415 Y-24.981 Z-1.028
G1 X99.521 Y-25.173 Z-1.036
G1 X99.613 Y-25.372 Z-1.044
G1 X99.691 Y-25.577 Z-1.051
G1 X99.753 Y-25.788 Z-1.059
G1 X99.8 Y-26.002 Z-1.067
G1 X99.831 Y-26.219 Z-1.074
G1 X99.846 Y-26.438 Z-1.082
G1 X99.845 Y-26.658 Z-1.09
G1 X99.828 Y-26.877 Z-1.097
G1 X99.795 Y-27.094 Z-1.105
G1 X99.747 Y-27.308 Z-1.113
G1 X99.683 Y-27.518 Z-1.12
G1 X99.604 Y-27.723 Z-1.128
G1 X99.511 Y-27.921 Z-1.136
G1 X99.403 Y-28.112 Z-1.143
G1 X99.281 Y-28.295 Z-1.151
G1 X99.147 Y-28.469 Z-1.159
G1 X99 Y-28.632 Z-1.166
G1 X98.842 Y-28.784 Z-1.174
G1 X98.674 Y-28.925 Z-1.182
G1 X98.495 Y-29.052 Z-1.189
G1 X98.308 Y-29.167 Z-1.197
G1 X98.112 Y-29.267 Z-1.205
G1 X97.911 Y-29.353 Z-1.212
G1 X97.703 Y-29.424 Z-1.22
G1 X97.491 Y-29.48 Z-1.228
G1 X97.275 Y-29.52 Z-1.235
G1 X97.057 Y-29.544 Z-1.243
G1 X96.837 Y-29.553 Z-1.251
G1 X96.618 Y-29.545 Z-1.258
G1 X96.4 Y-29.522 Z-1.266
G1 X96.184 Y-29.482 Z-1.274
G1 X95.971 Y-29.428 Z-1.281
G1 X95.763 Y-29.357 Z-1.289
G1 X95.561 Y-29.272 Z-1.297
G1 X95.366 Y-29.173 Z-1.304
G1 X95.178 Y-29.059 Z-1.312
G1 X94.999 Y-28.932 Z-1.32
G1 X94.829 Y-28.793 Z-1.327
G1 X94.67 Y-28.641 Z-1.335
G1 X94.523 Y-28.479 Z-1.343
G1 X94.388 Y-28.306 Z-1.35
G1 X94.266 Y-28.123 Z-1.358
G1 X94.157 Y-27.933 Z-1.366
G1 X94.063 Y-27.734 Z-1.373
G1 X93.983 Y-27.53 Z-1.381
G1 X93.918 Y-27.32 Z-1.389
G1 X93.869 Y-27.106 Z-1.396
G1 X93.835 Y-26.889 Z-1.404
G1 X93.818 Y-26.671 Z-1.412
G1 X93.816 Y-26.451 Z-1.419
G1 X93.83 Y-26.232 Z-1.427
G1 X93.86 Y-26.015 Z-1.435
G1 X93.906 Y-25.8 Z-1.442
G1 X93.967 Y-25.589 Z-1.45
G1 X94.044 Y-25.384 Z-1.458
G1 X94.135 Y-25.184 Z-1.465
G1 X94.24 Y-24.992 Z-1.473
G1 X94.36 Y-24.807 Z-1.481
G1 X94.492 Y-24.632 Z-1.488
G1 X94.637 Y-24.467 Z-1.496
G1 X94.793 Y-24.313 Z-1.504
G1 X94.96 Y-24.171 Z-1.511
G1 X95.137 Y-24.041 Z-1.519
G1 X95.323 Y-23.924 Z-1.527
G1 X95.517 Y-23.822 Z-1.534
G1 X95.718 Y-23.733 Z-1.542
G1 X95.924 Y-23.66 Z-1.55
G1 X96.136 Y-23.601 Z-1.557
G1 X96.351 Y-23.559 Z-1.565
G1 X96.569 Y-23.532 Z-1.573
G1 X96.788 Y-23.521 Z-1.58
G1 X97.008 Y-23.525 Z-1.588
G1 X97.226 Y-23.546 Z-1.596
G1 X97.443 Y-23.583 Z-1.603
G1 X97.656 Y-23.635 Z-1.611
G1 X97.865 Y-23.703 Z-1.619
G1 X98.068 Y-23.785 Z-1.626
G1 X98.265 Y-23.883 Z-1.634
G1 X98.454 Y-23.994 Z-1.642
G1 X98.634 Y-24.119 Z-1.649
G1 X98.805 Y-24.256 Z-1.657
G1 X98.966 Y-24.406 Z-1.665
G1 X99.115 Y-24.567 Z-1.672
G1 X99.253 Y-24.738 Z-1.68
G1 X99.377 Y-24.919 Z-1.688
G1 X99.488 Y-25.108 Z-1.695
G1 X99.585 Y-25.305 Z-1.703
G1 X99.667 Y-25.509 Z-1.711
G1 X99.734 Y-25.718 Z-1.718
G1 X99.786 Y-25.931 Z-1.726
G1 X99.822 Y-26.147 Z-1.734
G1 X99.842 Y-26.366 Z-1.741
G1 X99.847 Y-26.585 Z-1.749
G1 X99.835 Y-26.805 Z-1.757
G1 X99.808 Y-27.022 Z-1.764
G1 X99.765 Y-27.238 Z-1.772
G1 X99.706 Y-27.449 Z-1.78
G1 X99.632 Y-27.656 Z-1.787
G1 X99.543 Y-27.856 Z-1.795
G1 X99.44 Y-28.05 Z-1.803
G1 X99.323 Y-28.236 Z-1.81
G1 X99.193 Y-28.413 Z-1.818
G1 X99.05 Y-28.579 Z-1.826
G1 X98.896 Y-28.735 Z-1.833
G1 X98.73 Y-28.88 Z-1.841
G1 X98.555 Y-29.011 Z-1.849
G1 X98.37 Y-29.13 Z-1.856
G1 X98.178 Y-29.235 Z-1.864
G1 X97.978 Y-29.326 Z-1.872
G1 X97.772 Y-29.402 Z-1.879
G1 X97.561 Y-29.463 Z-1.887
G1 X97.346 Y-29.508 Z-1.895
G1 X97.129 Y-29.538 Z-1.902
G1 X96.91 Y-29.552 Z-1.91
G1 X96.69 Y-29.549 Z-1.918
G1 X96.472 Y-29.531 Z-1.925
G1 X96.255 Y-29.497 Z-1.933
G1 X96.041 Y-29.447 Z-1.941
G1 X95.832 Y-29.382 Z-1.948
G1 X95.627 Y-29.302 Z-1.956
G1 X95.429 Y-29.207 Z-1.964
G1 X95.239 Y-29.098 Z-1.971
G1 X95.057 Y-28.976 Z-1.979
G1 X94.884 Y-28.84 Z-1.987
G1 X94.722 Y-28.693 Z-1.994
G1 X94.57 Y-28.533 Z-2.002
G1 X94.431 Y-28.364 Z-2.01
G1 X94.305 Y-28.184 Z-2.017
G1 X94.192 Y-27.996 Z-2.025
G1 X94.092 Y-27.801 Z-2.033
G1 X94.008 Y-27.598 Z-2.04
G1 X93.938 Y-27.39 Z-2.048
G1 X93.884 Y-27.177 Z-2.056
G1 X93.845 Y-26.961 Z-2.063
G1 X93.822 Y-26.743 Z-2.071
G1 X93.815 Y-26.524 Z-2.079
G1 X93.824 Y-26.304 Z-2.086
G1 X93.849 Y-26.086 Z-2.094
G1 X93.889 Y-25.871 Z-2.102
G1 X93.945 Y-25.658 Z-2.109
G1 X94.017 Y-25.451 Z-2.117
G1 X94.103 Y-25.249 Z-2.125
G1 X94.204 Y-25.054 Z-2.132
G1 X94.319 Y-24.867 Z-2.14
G1 X94.447 Y-24.689 Z-2.148
G1 X94.587 Y-24.52 Z-2.155
G1 X94.74 Y-24.363 Z-2.163
G1 X94.904 Y-24.216 Z-2.17
G1 X95.077 Y-24.082 Z-2.178
G1 X95.261 Y-23.961 Z-2.186
G1 X95.452 Y-23.854 Z-2.193
G1 X95.651 Y-23.761 Z-2.201
G1 X95.856 Y-23.682 Z-2.209
G1 X96.066 Y-23.619 Z-2.216
G1 X96.28 Y-23.571 Z-2.224
G1 X96.497 Y-23.539 Z-2.232
G1 X96.716 Y-23.522 Z-2.239
G1 X96.935 Z-2.247
G1 X97.154 Y-23.538 Z-2.255
G1 X97.372 Y-23.569 Z-2.262
G1 X97.586 Y-23.616 Z-2.27
G1 X97.796 Y-23.679 Z-2.278
G1 X98.001 Y-23.757 Z-2.285
G1 X98.201 Y-23.849 Z-2.293
G1 X98.392 Y-23.956 Z-2.301
G1 X98.576 Y-24.076 Z-2.308
G1 X98.75 Y-24.209 Z-2.316
G1 X98.914 Y-24.355 Z-2.324
G1 X99.067 Y-24.512 Z-2.331
G1 X99.209 Y-24.68 Z-2.339
G1 X99.337 Y-24.858 Z-2.347
G1 X99.453 Y-25.045 Z-2.354
G1 X99.554 Y-25.24 Z-2.362
G1 X99.641 Y-25.441 Z-2.37
G1 X99.714 Y-25.648 Z-2.377
G1 X99.77 Y-25.86 Z-2.385
G1 X99.812 Y-26.076 Z-2.393
G1 X99.837 Y-26.294 Z-2.4
G1 X99.847 Y-26.513 Z-2.408
G1 X99.841 Y-26.732 Z-2.416
G1 X99.819 Y-26.951 Z-2.423
G1 X99.781 Y-27.167 Z-2.431
G1 X99.727 Y-27.38 Z-2.439
G1 X99.658 Y-27.588 Z-2.446
G1 X99.574 Y-27.791 Z-2.454
G1 X99.476 Y-27.987 Z-2.462
G1 X99.363 Y-28.175 Z-2.469
G1 X99.237 Y-28.355 Z-2.477
G1 X99.099 Y-28.525 Z-2.485
G1 X98.948 Y-28.685 Z-2.492
G1 X98.786 Y-28.833 Z-2.5
G1 X98.614 Y-28.969 Z-2.508
G1 X98.432 Y-29.093 Z-2.515
G1 X98.242 Y-29.202 Z-2.523
G1 X98.045 Y-29.298 Z-2.531
G1 X97.841 Y-29.379 Z-2.538
G1 X97.631 Y-29.445 Z-2.546
G1 X97.418 Y-29.495 Z-2.554
G1 X97.201 Y-29.53 Z-2.561
G1 X96.982 Y-29.549 Z-2.569
G1 X96.763 Y-29.552 Z-2.577
G1 X96.544 Y-29.539 Z-2.584
G1 X96.326 Y-29.51 Z-2.592
G1 X96.111 Y-29.466 Z-2.6
G1 X95.9 Y-29.405 Z-2.607
G1 X95.694 Y-29.33 Z-2.615
G1 X95.494 Y-29.24 Z-2.623
G1 X95.301 Y-29.136 Z-2.63
G1 X95.116 Y-29.018 Z-2.638
G1 X94.94 Y-28.886 Z-2.646
G1 X94.774 Y-28.743 Z-2.653
G1 X94.619 Y-28.587 Z-2.661
G1 X94.476 Y-28.421 Z-2.669
G1 X94.345 Y-28.245 Z-2.676
G1 X94.227 Y-28.059 Z-2.684
G1 X94.124 Y-27.866 Z-2.692
G1 X94.034 Y-27.666 Z-2.699
G1 X93.959 Y-27.459 Z-2.707
G1 X93.9 Y-27.248 Z-2.715
G1 X93.856 Y-27.033 Z-2.722
G1 X93.828 Y-26.815 Z-2.73
G1 X93.815 Y-26.596 Z-2.738
G1 X93.819 Y-26.377 Z-2.745
G1 X93.839 Y-26.158 Z-2.753
G1 X93.874 Y-25.942 Z-2.761
G1 X93.925 Y-25.728 Z-2.768
G1 X93.992 Y-25.519 Z-2.776
G1 X94.073 Y-25.315 Z-2.784
G1 X94.169 Y-25.118 Z-2.791
G1 X94.279 Y-24.928 Z-2.799
G1 X94.403 Y-24.747 Z-2.807
G1 X94.54 Y-24.575 Z-2.814
G1 X94.688 Y-24.413 Z-2.822
G1 X94.848 Y-24.263 Z-2.83
G1 X95.019 Y-24.125 Z-2.837
G1 X95.199 Y-24 Z-2.845
G1 X95.388 Y-23.888 Z-2.853
G1 X95.584 Y-23.79 Z-2.86
G1 X95.787 Y-23.707 Z-2.868
G1 X95.996 Y-23.638 Z-2.876
G1 X96.209 Y-23.585 Z-2.883
G1 X96.425 Y-23.548 Z-2.891
G1 X96.644 Y-23.526 Z-2.899
G1 X96.863 Y-23.52 Z-2.906
G1 X97.082 Y-23.531 Z-2.914
G1 X97.3 Y-23.557 Z-2.922
G1 X97.515 Y-23.599 Z-2.929
G1 X97.727 Y-23.656 Z-2.937
G1 X97.934 Y-23.729 Z-2.945
G1 X98.136 Y-23.817 Z-2.952
G1 X98.33 Y-23.919 Z-2.96
G1 X98.516 Y-24.035 Z-2.968
G1 X98.694 Y-24.164 Z-2.975
G1 X98.861 Y-24.306 Z-2.983
G1 X99.018 Y-24.459 Z-2.991
G1 X99.163 Y-24.624 Z-2.998
G1 X99.296 Y-24.799 Z-3.006
G1 X99.416 Y-24.982 Z-3.014
G1 X99.522 Y-25.174 Z-3.021
G1 X99.614 Y-25.374 Z-3.029
G1 X99.691 Y-25.579 Z-3.037
G1 X99.753 Y-25.79 Z-3.044
G1 X99.8 Y-26.004 Z-3.052
G1 X99.831 Y-26.222 Z-3.06
G1 X99.846 Y-26.441 Z-3.067
G1 X99.845 Y-26.66 Z-3.075
G1 X99.828 Y-26.879 Z-3.083
G1 X99.795 Y-27.096 Z-3.09
G1 X99.746 Y-27.31 Z-3.098
G1 X99.682 Y-27.52 Z-3.106
G1 X99.603 Y-27.725 Z-3.113
G1 X99.51 Y-27.923 Z-3.121
G1 X99.402 Y-28.114 Z-3.129
G1 X99.28 Y-28.297 Z-3.136
G1 X99.146 Y-28.47 Z-3.144
G1 X98.999 Y-28.634 Z-3.152
G1 X98.841 Y-28.786 Z-3.159
G1 X98.672 Y-28.926 Z-3.167
G1 X98.493 Y-29.053 Z-3.175
G1 X98.306 Y-29.168 Z-3.182
G1 X98.111 Y-29.268 Z-3.19
G1 X97.909 Y-29.354 Z-3.198
G1 X97.701 Y-29.425 Z-3.205
G1 X97.489 Y-29.48 Z-3.213
G1 X97.273 Y-29.52 Z-3.221
G1 X97.055 Y-29.544 Z-3.228
G1 X96.835 Y-29.553 Z-3.236
G1 X96.616 Y-29.545 Z-3.244
G1 X96.398 Y-29.521 Z-3.251
G1 X96.182 Y-29.482 Z-3.259
G1 X95.969 Y-29.427 Z-3.267
G1 X95.761 Y-29.357 Z-3.274
G1 X95.559 Y-29.271 Z-3.282
G1 X95.364 Y-29.172 Z-3.29
G1 X95.176 Y-29.058 Z-3.297
G1 X94.997 Y-28.931 Z-3.305
G1 X94.828 Y-28.791 Z-3.313
G1 X94.669 Y-28.64 Z-3.32
G1 X94.522 Y-28.477 Z-3.328
G1 X94.387 Y-28.304 Z-3.336
G1 X94.265 Y-28.121 Z-3.343
G1 X94.156 Y-27.931 Z-3.351
G1 X94.062 Y-27.732 Z-3.359
G1 X93.982 Y-27.528 Z-3.366
G1 X93.918 Y-27.318 Z-3.374
G1 X93.869 Y-27.104 Z-3.382
G1 X93.835 Y-26.887 Z-3.389
G1 X93.818 Y-26.669 Z-3.397
G1 X93.816 Y-26.449 Z-3.405
G1 X93.83 Y-26.23 Z-3.412
G1 X93.861 Y-26.013 Z-3.42
G1 X93.907 Y-25.798 Z-3.428
G1 X93.968 Y-25.587 Z-3.435
G1 X94.045 Y-25.382 Z-3.443
G1 X94.136 Y-25.182 Z-3.451
G1 X94.241 Y-24.99 Z-3.458
G1 X94.361 Y-24.806 Z-3.466
G1 X94.493 Y-24.631 Z-3.474
G1 X94.638 Y-24.466 Z-3.481
G1 X94.794 Y-24.312 Z-3.489
G1 X94.962 Y-24.169 Z-3.497
G1 X95.139 Y-24.04 Z-3.504
G1 X95.325 Y-23.923 Z-3.512
G1 X95.519 Y-23.821 Z-3.52
G1 X95.72 Y-23.732 Z-3.527
G1 X95.926 Y-23.659 Z-3.535
G1 X96.138 Y-23.601 Z-3.543
G1 X96.353 Y-23.558 Z-3.55
G1 X96.571 Y-23.531 Z-3.558
G1 X96.79 Y-23.52 Z-3.566
G1 X97.01 Y-23.526 Z-3.573
G1 X97.228 Y-23.546 Z-3.581
G1 X97.445 Y-23.583 Z-3.589
G1 X97.658 Y-23.636 Z-3.596
G1 X97.867 Y-23.704 Z-3.604
G1 X98.07 Y-23.786 Z-3.612
G1 X98.267 Y-23.884 Z-3.619
G1 X98.456 Y-23.995 Z-3.627
G1 X98.636 Y-24.12 Z-3.635
G1 X98.807 Y-24.258 Z-3.642
G1 X98.968 Y-24.407 Z-3.65
G1 X99.117 Y-24.568 Z-3.658
G1 X99.254 Y-24.74 Z-3.665
G1 X99.378 Y-24.921 Z-3.673
G1 X99.489 Y-25.11 Z-3.681
G1 X99.585 Y-25.307 Z-3.688
G1 X99.668 Y-25.511 Z-3.696
G1 X99.735 Y-25.72 Z-3.704
G1 X99.786 Y-25.933 Z-3.711
G1 X99.822 Y-26.15 Z-3.719
G1 X99.843 Y-26.368 Z-3.727
G1 X99.847 Y-26.588 Z-3.734
G1 X99.835 Y-26.807 Z-3.742
G1 X99.808 Y-27.024 Z-3.75
G1 X99.764 Y-27.24 Z-3.757
G1 X99.705 Y-27.451 Z-3.765
G1 X99.631 Y-27.658 Z-3.773
G1 X99.542 Y-27.858 Z-3.78
G1 X99.439 Y-28.052 Z-3.788
G1 X99.322 Y-28.238 Z-3.796
G1 X99.192 Y-28.414 Z-3.803
G1 X99.049 Y-28.581 Z-3.811
G1 X98.894 Y-28.737 Z-3.819
G1 X98.729 Y-28.881 Z-3.826
G1 X98.553 Y-29.013 Z-3.834
G1 X98.369 Y-29.131 Z-3.842
G1 X98.176 Y-29.236 Z-3.849
G1 X97.976 Y-29.327 Z-3.857
G1 X97.77 Y-29.403 Z-3.865
G1 X97.559 Y-29.464 Z-3.872
G1 X97.344 Y-29.509 Z-3.88
G1 X97.127 Y-29.538 Z-3.888
G1 X96.908 Y-29.552 Z-3.895
G1 X96.688 Y-29.549 Z-3.903
G1 X96.47 Y-29.531 Z-3.911
G1 X96.253 Y-29.497 Z-3.918
G1 X96.039 Y-29.447 Z-3.926
G1 X95.83 Y-29.382 Z-3.934
G1 X95.625 Y-29.301 Z-3.941
G1 X95.427 Y-29.206 Z-3.949
G1 X95.237 Y-29.097 Z-3.957
G1 X95.055 Y-28.974 Z-3.964
G1 X94.882 Y-28.839 Z-3.972
G1 X94.72 Y-28.691 Z-3.98
G1 X94.569 Y-28.532 Z-3.987
G1 X94.43 Y-28.362 Z-3.995
G1 X94.304 Y-28.183 Z-4.003
G1 X94.191 Y-27.995 Z-4.01
G1 X94.092 Y-27.799 Z-4.018
G1 X94.007 Y-27.596 Z-4.026
G1 X93.937 Y-27.388 Z-4.033
G1 X93.883 Y-27.175 Z-4.041
G1 X93.845 Y-26.959 Z-4.049
G1 X93.822 Y-26.741 Z-4.056
G1 X93.815 Y-26.522 Z-4.064
G2 X96.53 Y-23.833 I2.702 J-0.013
G2 X98.437 Y-24.634 I-0.013 J-2.702
G2 X99.219 Y-26.548 I-1.92 J-1.901
G1 Y-26.559
G1 X99.212 Y-26.6
G1 X99.193 Y-26.636
G1 X99.164 Y-26.665
G1 X99.127 Y-26.684
G1 X99.086 Y-26.69
G1 X99.065
G1 X99.024 Y-26.683
G1 X98.987 Y-26.665
G1 X98.958 Y-26.635
G1 X98.939 Y-26.598
G1 X98.933 Y-26.557
G1 X98.936 Y-26.047
G2 X99.079 Y-25.905 I0.143 J-0.001
G2 X99.221 Y-26.048 I-0.001 J-0.143
G1 X99.219 Y-26.548
G3 X100.541 Y-29.125 I3.141 J-0.015
G2 X100.9 Y-31.242 I-0.879 J-1.238
G2 X99.654 Y-31.881 I-1.238 J0.879
G1 X95.693 Y-31.862
G3 X93.057 Y-32.954 I-0.018 J-3.683
G2 X92.609 Y-32.956 I-0.225 J0.223
G2 X92.515 Y-32.729 I0.223 J0.225
G2 X92.611 Y-32.503 I0.317 J-0.002
G3 X93.729 Y-29.878 I-2.565 J2.643
G1 X93.765 Y-22.576
G3 X92.673 Y-19.94 I-3.683 J0.018
G2 X92.671 Y-19.492 I0.223 J0.225
G2 X92.897 Y-19.398 I0.225 J-0.223
G2 X93.123 Y-19.494 I-0.002 J-0.317
G3 X95.749 Y-20.613 I2.644 J2.564
G1 X102.462 Y-20.646
G3 X105.098 Y-19.554 I0.018 J3.683
G2 X105.546 Y-19.551 I0.225 J-0.223
G2 X105.64 Y-19.778 I-0.223 J-0.225
G2 X105.544 Y-20.004 I-0.317 J0.002
G3 X104.426 Y-22.629 I2.565 J-2.643
G1 X104.39 Y-29.931
G3 X105.482 Y-32.566 I3.683 J-0.018
G2 X105.484 Y-33.015 I-0.223 J-0.225
G2 X105.257 Y-33.109 I-0.225 J0.223
G2 X105.031 Y-33.012 I0.002 J0.317
G3 X102.406 Y-31.895 I-2.643 J-2.565
G1 X99.654 Y-31.881
G0 Z6.096
G0 X98.137 Y-29.255
G1 Z-1.524 F508.
G1 X97.935 Y-29.343 Z-1.532
G1 X97.728 Y-29.416 Z-1.539
G1 X97.517 Y-29.474 Z-1.547
G1 X97.301 Y-29.516 Z-1.555
G1 X97.083 Y-29.542 Z-1.562
G1 X96.864 Y-29.553 Z-1.57
G1 X96.644 Y-29.547 Z-1.578
G1 X96.426 Y-29.525 Z-1.585
G1 X96.209 Y-29.488 Z-1.593
G1 X95.996 Y-29.435 Z-1.601
G1 X95.788 Y-29.366 Z-1.608
G1 X95.584 Y-29.283 Z-1.616
G1 X95.388 Y-29.185 Z-1.624
G1 X95.199 Y-29.073 Z-1.631
G1 X95.019 Y-28.948 Z-1.639
G1 X94.848 Y-28.809 Z-1.647
G1 X94.688 Y-28.659 Z-1.654
G1 X94.539 Y-28.498 Z-1.662
G1 X94.403 Y-28.326 Z-1.67
G1 X94.279 Y-28.144 Z-1.677
G1 X94.169 Y-27.954 Z-1.685
G1 X94.073 Y-27.757 Z-1.693
G1 X93.991 Y-27.553 Z-1.7
G1 X93.925 Y-27.344 Z-1.708
G1 X93.874 Y-27.13 Z-1.716
G1 X93.838 Y-26.914 Z-1.723
G1 X93.819 Y-26.695 Z-1.731
G1 X93.815 Y-26.475 Z-1.739
G1 X93.828 Y-26.256 Z-1.746
G1 X93.856 Y-26.038 Z-1.754
G1 X93.9 Y-25.823 Z-1.762
G1 X93.96 Y-25.612 Z-1.769
G1 X94.035 Y-25.406 Z-1.777
G1 X94.124 Y-25.205 Z-1.785
G1 X94.228 Y-25.012 Z-1.792
G1 X94.346 Y-24.826 Z-1.8
G1 X94.477 Y-24.65 Z-1.808
G1 X94.621 Y-24.484 Z-1.815
G1 X94.776 Y-24.329 Z-1.823
G1 X94.942 Y-24.185 Z-1.831
G1 X95.118 Y-24.054 Z-1.838
G1 X95.303 Y-23.936 Z-1.846
G1 X95.496 Y-23.832 Z-1.854
G1 X95.697 Y-23.742 Z-1.861
G1 X95.903 Y-23.666 Z-1.869
G1 X96.114 Y-23.607 Z-1.877
G1 X96.329 Y-23.562 Z-1.884
G1 X96.547 Y-23.534 Z-1.892
G1 X96.766 Y-23.521 Z-1.9
G1 X96.986 Y-23.524 Z-1.907
G1 X97.205 Y-23.543 Z-1.915
G1 X97.421 Y-23.579 Z-1.923
G1 X97.635 Y-23.629 Z-1.93
G1 X97.844 Y-23.696 Z-1.938
G1 X98.048 Y-23.777 Z-1.946
G1 X98.246 Y-23.873 Z-1.953
G1 X98.436 Y-23.983 Z-1.961
G1 X98.617 Y-24.106 Z-1.969
G1 X98.789 Y-24.243 Z-1.976
G1 X98.951 Y-24.391 Z-1.984
G1 X99.102 Y-24.551 Z-1.992
G1 X99.24 Y-24.721 Z-2
G1 X99.366 Y-24.902 Z-2.007
G1 X99.478 Y-25.09 Z-2.015
G1 X99.576 Y-25.287 Z-2.023
G1 X99.66 Y-25.49 Z-2.03
G1 X99.728 Y-25.698 Z-2.038
G1 X99.782 Y-25.911 Z-2.046
G1 X99.819 Y-26.128 Z-2.053
G1 X99.841 Y-26.346 Z-2.061
G1 X99.847 Y-26.566 Z-2.069
G1 X99.837 Y-26.785 Z-2.076
G1 X99.811 Y-27.003 Z-2.084
G1 X99.769 Y-27.218 Z-2.092
G1 X99.712 Y-27.43 Z-2.099
G1 X99.639 Y-27.638 Z-2.107
G1 X99.552 Y-27.839 Z-2.115
G1 X99.45 Y-28.033 Z-2.122
G1 X99.334 Y-28.22 Z-2.13
G1 X99.205 Y-28.398 Z-2.138
G1 X99.063 Y-28.565 Z-2.145
G1 X98.909 Y-28.722 Z-2.153
G1 X98.745 Y-28.868 Z-2.161
G1 X98.57 Y-29.001 Z-2.168
G1 X98.386 Y-29.121 Z-2.176
G1 X98.194 Y-29.227 Z-2.184
G1 X97.995 Y-29.319 Z-2.191
G1 X97.789 Y-29.396 Z-2.199
G1 X97.579 Y-29.459 Z-2.207
G1 X97.364 Y-29.505 Z-2.214
G1 X97.147 Y-29.536 Z-2.222
G1 X96.928 Y-29.551 Z-2.23
G1 X96.708 Y-29.55 Z-2.237
G1 X96.489 Y-29.533 Z-2.245
G1 X96.272 Y-29.5 Z-2.253
G1 X96.058 Y-29.452 Z-2.26
G1 X95.848 Y-29.388 Z-2.268
G1 X95.643 Y-29.309 Z-2.276
G1 X95.445 Y-29.215 Z-2.283
G1 X95.253 Y-29.107 Z-2.291
G1 X95.071 Y-28.986 Z-2.299
G1 X94.897 Y-28.851 Z-2.306
G1 X94.734 Y-28.704 Z-2.314
G1 X94.582 Y-28.546 Z-2.322
G1 X94.441 Y-28.377 Z-2.329
G1 X94.314 Y-28.198 Z-2.337
G1 X94.2 Y-28.011 Z-2.345
G1 X94.099 Y-27.815 Z-2.352
G1 X94.014 Y-27.613 Z-2.36
G1 X93.943 Y-27.405 Z-2.368
G1 X93.887 Y-27.193 Z-2.375
G1 X93.847 Y-26.977 Z-2.383
G1 X93.823 Y-26.759 Z-2.391
G1 X93.815 Y-26.539 Z-2.398
G1 X93.823 Y-26.32 Z-2.406
G1 X93.846 Y-26.102 Z-2.414
G1 X93.886 Y-25.886 Z-2.421
G1 X93.941 Y-25.673 Z-2.429
G1 X94.011 Y-25.465 Z-2.437
G1 X94.097 Y-25.263 Z-2.444
G1 X94.197 Y-25.067 Z-2.452
G1 X94.311 Y-24.88 Z-2.46
G1 X94.438 Y-24.701 Z-2.467
G1 X94.578 Y-24.531 Z-2.475
G1 X94.729 Y-24.373 Z-2.483
G1 X94.892 Y-24.226 Z-2.49
G1 X95.066 Y-24.091 Z-2.498
G1 X95.248 Y-23.969 Z-2.506
G1 X95.439 Y-23.86 Z-2.513
G1 X95.638 Y-23.766 Z-2.521
G1 X95.842 Y-23.687 Z-2.529
G1 X96.052 Y-23.622 Z-2.536
G1 X96.266 Y-23.574 Z-2.544
G1 X96.483 Y-23.54 Z-2.552
G1 X96.702 Y-23.523 Z-2.559
G1 X96.922 Y-23.522 Z-2.567
G1 X97.141 Y-23.536 Z-2.575
G1 X97.358 Y-23.567 Z-2.582
G1 X97.573 Y-23.613 Z-2.59
G1 X97.784 Y-23.675 Z-2.598
G1 X97.989 Y-23.752 Z-2.605
G1 X98.189 Y-23.843 Z-2.613
G1 X98.381 Y-23.949 Z-2.621
G1 X98.565 Y-24.069 Z-2.628
G1 X98.74 Y-24.201 Z-2.636
G1 X98.905 Y-24.347 Z-2.644
G1 X99.059 Y-24.503 Z-2.651
G1 X99.201 Y-24.671 Z-2.659
G1 X99.33 Y-24.848 Z-2.667
G1 X99.447 Y-25.034 Z-2.674
G1 X99.549 Y-25.229 Z-2.682
