(1001)
(T1  D=6.35 CR=0 - ZMIN=-20.574 - FLAT END MILL)
G0 G40 G90 G17
G21

(2D CONTOUR2)
T1 M6
M3 S5000
G0 X-0.166 Y3.171
G0 Z6.096
G1 Z4.191 F508.
G1 Z-6.604
G3 X-3.171 Y-0.166 I0.166 J-3.171
G1 X-1.394 Y-34.062
G3 X-0.141 Y-36.426 I3.171 J0.166
G2 X0.018 Y-37.582 I-0.498 J-0.658
G2 X-0.535 Y-37.902 I-0.658 J0.498
G2 X-1.151 Y-37.731 I-0.104 J0.818
G3 X-3.285 Y-37.052 I-1.968 J-2.491
G1 X-5.868 Y-37.187
G3 X-8.752 Y-38.563 I0.218 J-4.169
G3 X-9.819 Y-41.575 I3.103 J-2.794
G1 X-8.354 Y-69.524
G3 X-6.978 Y-72.408 I4.169 J0.218
G3 X-3.966 Y-73.474 I2.794 J3.103
G1 X-2.224 Y-73.383
G3 X0.14 Y-72.13 I-0.166 J3.171
G2 X1.296 Y-71.971 I0.658 J-0.498
G2 X1.616 Y-72.524 I-0.498 J-0.658
G2 X1.445 Y-73.14 I-0.818 J-0.104
G3 X0.766 Y-75.274 I2.491 J-1.968
G1 X7.069 Y-195.548
G3 X8.322 Y-197.912 I3.171 J0.166
G2 X8.481 Y-199.069 I-0.498 J-0.658
G2 X7.928 Y-199.389 I-0.658 J0.498
G2 X7.312 Y-199.218 I-0.104 J0.819
G3 X5.178 Y-198.538 I-1.968 J-2.491
G1 X2.406 Y-198.683
G3 X-1.545 Y-203.071 I0.218 J-4.169
G1 X3.585 Y-300.948
G3 X4.959 Y-303.833 I4.17 J0.217
G3 X7.972 Y-304.901 I2.795 J3.102
G1 X7.974
G1 X9.905 Y-304.799
G3 X12.268 Y-303.546 I-0.167 J3.171
G2 X13.424 Y-303.386 I0.658 J-0.498
G2 X13.744 Y-303.94 I-0.498 J-0.658
G2 X13.573 Y-304.556 I-0.818 J-0.104
G3 X12.894 Y-306.69 I2.491 J-1.968
G1 X18.979 Y-422.811
G3 X21.873 Y-425.808 I3.171 J0.166
G1 X425.83 Y-461.149
G3 X428.252 Y-460.327 I0.277 J3.163
G3 X429.282 Y-457.986 I-2.145 J2.341
G1 Y-416.986
G3 X426.384 Y-413.823 I-3.175 J0
G1 X88.974 Y-384.304
G2 X72.706 Y-367.46 I1.556 J17.78
G1 X56.147 Y-52.327
G2 X72.791 Y-33.51 I17.896 J0.94
G1 X424.847 Y-8.866
G3 X427.8 Y-5.7 I-0.222 J3.167
G1 X427.807 Y13.315
G3 X426.818 Y15.618 I-3.175 J0.001
G3 X424.466 Y16.486 I-2.186 J-2.303
G1 X420.149 Y16.26
G3 X417.934 Y15.19 I0.166 J-3.171
G2 X416.77 Y15.117 I-0.619 J0.546
G2 X416.491 Y15.693 I0.546 J0.619
G2 X416.708 Y16.294 I0.824 J0.043
G3 X417.541 Y18.608 I-2.338 J2.148
G1 X417.424 Y20.841
G3 X413.036 Y24.792 I-4.169 J-0.219
G1 X395.536 Y23.875
G1 X395.534
G3 X391.585 Y19.488 I0.221 J-4.169
G1 Y19.487
G1 X391.685 Y17.582
G3 X392.938 Y15.218 I3.171 J0.166
G2 X393.098 Y14.062 I-0.498 J-0.658
G2 X392.544 Y13.742 I-0.658 J0.498
G2 X391.928 Y13.913 I-0.104 J0.818
G3 X389.794 Y14.593 I-1.968 J-2.491
G1 X233.476 Y6.4
G3 X231.261 Y5.33 I0.166 J-3.171
G2 X230.097 Y5.258 I-0.619 J0.546
G2 X229.819 Y5.833 I0.546 J0.619
G2 X230.035 Y6.434 I0.824 J0.043
G3 X230.868 Y8.749 I-2.338 J2.148
G1 X230.745 Y11.091
G3 X229.369 Y13.976 I-4.169 J-0.218
G3 X226.356 Y15.042 I-2.793 J-3.103
G1 X198.397 Y13.577
G3 X195.512 Y12.202 I0.217 J-4.17
G3 X194.444 Y9.19 I3.102 J-2.795
G1 X194.568 Y6.819
G3 X195.639 Y4.604 I3.171 J0.166
G2 X195.711 Y3.44 I-0.546 J-0.618
G2 X195.136 Y3.162 I-0.618 J0.546
G2 X194.535 Y3.378 I-0.043 J0.824
G3 X192.221 Y4.211 I-2.148 J-2.338
G1 X38.76 Y-3.832
G3 X36.396 Y-5.085 I0.166 J-3.171
G2 X35.24 Y-5.244 I-0.658 J0.498
G2 X34.92 Y-4.691 I0.498 J0.658
G2 X35.091 Y-4.075 I0.818 J0.104
G3 X35.77 Y-1.94 I-2.491 J1.968
G1 X35.623 Y0.865
G3 X34.247 Y3.75 I-4.169 J-0.218
G3 X31.235 Y4.816 I-2.794 J-3.103
G1 X-0.166 Y3.171
G1 Z-14.224
G3 X-3.171 Y-0.166 I0.166 J-3.171
G1 X-1.394 Y-34.062
G3 X-0.141 Y-36.426 I3.171 J0.166
G2 X0.018 Y-37.582 I-0.498 J-0.658
G2 X-0.535 Y-37.902 I-0.658 J0.498
G2 X-1.151 Y-37.731 I-0.104 J0.818
G3 X-3.285 Y-37.052 I-1.968 J-2.491
G1 X-5.868 Y-37.187
G3 X-8.752 Y-38.563 I0.218 J-4.169
G3 X-9.819 Y-41.575 I3.103 J-2.794
G1 X-8.354 Y-69.524
G3 X-6.978 Y-72.408 I4.169 J0.218
G3 X-3.966 Y-73.474 I2.794 J3.103
G1 X-2.224 Y-73.383
G3 X0.14 Y-72.13 I-0.166 J3.171
G2 X1.296 Y-71.971 I0.658 J-0.498
G2 X1.616 Y-72.524 I-0.498 J-0.658
G2 X1.445 Y-73.14 I-0.818 J-0.104
G3 X0.766 Y-75.274 I2.491 J-1.968
G1 X7.069 Y-195.548
G3 X8.322 Y-197.912 I3.171 J0.166
G2 X8.481 Y-199.069 I-0.498 J-0.658
G2 X7.928 Y-199.389 I-0.658 J0.498
G2 X7.312 Y-199.218 I-0.104 J0.819
G3 X5.178 Y-198.538 I-1.968 J-2.491
G1 X2.406 Y-198.683
G3 X-1.545 Y-203.071 I0.218 J-4.169
G1 X3.585 Y-300.948
G3 X4.959 Y-303.833 I4.17 J0.217
G3 X7.972 Y-304.901 I2.795 J3.102
G1 X7.974
G1 X9.905 Y-304.799
G3 X12.268 Y-303.546 I-0.167 J3.171
G2 X13.424 Y-303.386 I0.658 J-0.498
G2 X13.744 Y-303.94 I-0.498 J-0.658
G2 X13.573 Y-304.556 I-0.818 J-0.104
G3 X12.894 Y-306.69 I2.491 J-1.968
G1 X18.979 Y-422.811
G3 X21.873 Y-425.808 I3.171 J0.166
G1 X425.83 Y-461.149
G3 X428.252 Y-460.327 I0.277 J3.163
G3 X429.282 Y-457.986 I-2.145 J2.341
G1 Y-416.986
G3 X426.384 Y-413.823 I-3.175 J0
G1 X88.974 Y-384.304
G2 X72.706 Y-367.46 I1.556 J17.78
G1 X56.147 Y-52.327
G2 X72.791 Y-33.51 I17.896 J0.94
G1 X424.847 Y-8.866
G3 X427.8 Y-5.7 I-0.222 J3.167
G1 X427.807 Y13.315
G3 X426.818 Y15.618 I-3.175 J0.001
G3 X424.466 Y16.486 I-2.186 J-2.303
G1 X420.149 Y16.26
G3 X417.934 Y15.19 I0.166 J-3.171
G2 X416.77 Y15.117 I-0.619 J0.546
G2 X416.491 Y15.693 I0.546 J0.619
G2 X416.708 Y16.294 I0.824 J0.043
G3 X417.541 Y18.608 I-2.338 J2.148
G1 X417.424 Y20.841
G3 X413.036 Y24.792 I-4.169 J-0.219
G1 X395.536 Y23.875
G1 X395.534
G3 X391.585 Y19.488 I0.221 J-4.169
G1 Y19.487
G1 X391.685 Y17.582
G3 X392.938 Y15.218 I3.171 J0.166
G2 X393.098 Y14.062 I-0.498 J-0.658
G2 X392.544 Y13.742 I-0.658 J0.498
G2 X391.928 Y13.913 I-0.104 J0.818
G3 X389.794 Y14.593 I-1.968 J-2.491
G1 X233.476 Y6.4
G3 X231.261 Y5.33 I0.166 J-3.171
G2 X230.097 Y5.258 I-0.619 J0.546
G2 X229.819 Y5.833 I0.546 J0.619
G2 X230.035 Y6.434 I0.824 J0.043
G3 X230.868 Y8.749 I-2.338 J2.148
G1 X230.745 Y11.091
G3 X229.369 Y13.976 I-4.169 J-0.218
G3 X226.356 Y15.042 I-2.793 J-3.103
G1 X198.397 Y13.577
G3 X195.512 Y12.202 I0.217 J-4.17
G3 X194.444 Y9.19 I3.102 J-2.795
G1 X194.568 Y6.819
G3 X195.639 Y4.604 I3.171 J0.166
G2 X195.711 Y3.44 I-0.546 J-0.618
G2 X195.136 Y3.162 I-0.618 J0.546
G2 X194.535 Y3.378 I-0.043 J0.824
G3 X192.221 Y4.211 I-2.148 J-2.338
G1 X38.76 Y-3.832
G3 X36.396 Y-5.085 I0.166 J-3.171
G2 X35.24 Y-5.244 I-0.658 J0.498
G2 X34.92 Y-4.691 I0.498 J0.658
G2 X35.091 Y-4.075 I0.818 J0.104
G3 X35.77 Y-1.94 I-2.491 J1.968
G1 X35.623 Y0.865
G3 X34.247 Y3.75 I-4.169 J-0.218
G3 X31.235 Y4.816 I-2.794 J-3.103
G1 X-0.166 Y3.171
G1 Z-20.574
G3 X-3.171 Y-0.166 I0.166 J-3.171
G1 X-1.394 Y-34.062
G3 X-0.141 Y-36.426 I3.171 J0.166
G2 X0.018 Y-37.582 I-0.498 J-0.658
G2 X-0.535 Y-37.902 I-0.658 J0.498
G2 X-1.151 Y-37.731 I-0.104 J0.818
G3 X-3.285 Y-37.052 I-1.968 J-2.491
G1 X-5.868 Y-37.187
G3 X-8.752 Y-38.563 I0.218 J-4.169
G3 X-9.819 Y-41.575 I3.103 J-2.794
G1 X-8.354 Y-69.524
G3 X-6.978 Y-72.408 I4.169 J0.218
G3 X-3.966 Y-73.474 I2.794 J3.103
G1 X-2.224 Y-73.383
G3 X0.14 Y-72.13 I-0.166 J3.171
G2 X1.296 Y-71.971 I0.658 J-0.498
G2 X1.616 Y-72.524 I-0.498 J-0.658
G2 X1.445 Y-73.14 I-0.818 J-0.104
G3 X0.766 Y-75.274 I2.491 J-1.968
G1 X4.069 Y-138.311
G1 Z-18.034
G1 X4.667 Y-149.725
G1 Z-20.574
G1 X7.069 Y-195.548
G3 X8.322 Y-197.912 I3.171 J0.166
G2 X8.481 Y-199.069 I-0.498 J-0.658
G2 X7.928 Y-199.389 I-0.658 J0.498
G2 X7.312 Y-199.218 I-0.104 J0.819
G3 X5.178 Y-198.538 I-1.968 J-2.491
G1 X2.406 Y-198.683
G3 X-1.545 Y-203.071 I0.218 J-4.169
G1 X3.585 Y-300.948
G3 X4.959 Y-303.833 I4.17 J0.217
G3 X7.972 Y-304.901 I2.795 J3.102
G1 X7.974
G1 X9.905 Y-304.799
G3 X12.268 Y-303.546 I-0.167 J3.171
G2 X13.424 Y-303.386 I0.658 J-0.498
G2 X13.744 Y-303.94 I-0.498 J-0.658
G2 X13.573 Y-304.556 I-0.818 J-0.104
G3 X12.894 Y-306.69 I2.491 J-1.968
G1 X18.979 Y-422.811
G3 X21.873 Y-425.808 I3.171 J0.166
G1 X103.648 Y-432.962
G1 Z-18.034
G1 X115.035 Y-433.958
G1 Z-20.574
G1 X332.647 Y-452.997
G1 Z-18.034
G1 X344.034 Y-453.993
G1 Z-20.574
G1 X425.83 Y-461.149
G3 X428.252 Y-460.327 I0.277 J3.163
G3 X429.282 Y-457.986 I-2.145 J2.341
G1 Y-416.986
G3 X426.384 Y-413.823 I-3.175 J0
G1 X88.974 Y-384.304
G2 X72.706 Y-367.46 I1.556 J17.78
G1 X63.753 Y-197.081
G1 Z-18.034
G1 X63.153 Y-185.666
G1 Z-20.574
G1 X56.147 Y-52.327
G2 X72.791 Y-33.51 I17.896 J0.94
G1 X178.928 Y-26.08
G1 Z-18.034
G1 X190.33 Y-25.282
G1 Z-20.574
G1 X424.847 Y-8.866
G3 X427.8 Y-5.7 I-0.222 J3.167
G1 X427.807 Y13.315
G3 X426.818 Y15.618 I-3.175 J0.001
G3 X424.466 Y16.486 I-2.186 J-2.303
G1 X420.149 Y16.26
G3 X417.934 Y15.19 I0.166 J-3.171
G2 X416.77 Y15.117 I-0.619 J0.546
G2 X416.491 Y15.693 I0.546 J0.619
G2 X416.708 Y16.294 I0.824 J0.043
G3 X417.541 Y18.608 I-2.338 J2.148
G1 X417.424 Y20.841
G3 X413.036 Y24.792 I-4.169 J-0.219
G1 X395.536 Y23.875
G1 X395.534
G3 X391.585 Y19.488 I0.221 J-4.169
G1 Y19.487
G1 X391.685 Y17.582
G3 X392.938 Y15.218 I3.171 J0.166
G2 X393.098 Y14.062 I-0.498 J-0.658
G2 X392.544 Y13.742 I-0.658 J0.498
G2 X391.928 Y13.913 I-0.104 J0.818
G3 X389.794 Y14.593 I-1.968 J-2.491
G1 X306.155 Y10.209
G1 Z-18.034
G1 X294.741 Y9.611
G1 Z-20.574
G1 X233.476 Y6.4
G3 X231.261 Y5.33 I0.166 J-3.171
G2 X230.097 Y5.258 I-0.619 J0.546
G2 X229.819 Y5.833 I0.546 J0.619
G2 X230.035 Y6.434 I0.824 J0.043
G3 X230.868 Y8.749 I-2.338 J2.148
G1 X230.745 Y11.091
G3 X229.369 Y13.976 I-4.169 J-0.218
G3 X226.356 Y15.042 I-2.793 J-3.103
G1 X198.397 Y13.577
G3 X195.512 Y12.202 I0.217 J-4.17
G3 X194.444 Y9.19 I3.102 J-2.795
G1 X194.568 Y6.819
G3 X195.639 Y4.604 I3.171 J0.166
G2 X195.711 Y3.44 I-0.546 J-0.618
G2 X195.136 Y3.162 I-0.618 J0.546
G2 X194.535 Y3.378 I-0.043 J0.824
G3 X192.221 Y4.211 I-2.148 J-2.338
G1 X38.76 Y-3.832
G3 X36.396 Y-5.085 I0.166 J-3.171
G2 X35.24 Y-5.244 I-0.658 J0.498
G2 X34.92 Y-4.691 I0.498 J0.658
G2 X35.091 Y-4.075 I0.818 J0.104
G3 X35.77 Y-1.94 I-2.491 J1.968
G1 X35.623 Y0.865
G3 X34.247 Y3.75 I-4.169 J-0.218
G3 X31.235 Y4.816 I-2.794 J-3.103
G1 X-0.166 Y3.171
G0 Z6.096
G0 X206.591 Y-45.716
G1 Z4.191 F508.
G1 Z-6.604
G3 X206.301 Y-47.554 I14.817 J-3.279
G1 X191.22 Y-205.684
G3 X195.129 Y-217.366 I15.107 J-1.44
G3 X206.417 Y-222.299 I11.198 J10.242
G1 X597.134 Y-219.971
G3 X600.916 Y-218.297 I-0.03 J5.175
G3 X602.263 Y-214.387 I-3.811 J3.5
G1 X589.895 Y-58.67
G3 X547.093 Y-19.285 I-42.638 J-3.387
G1 X421.751 Y-19.766
G1 X421.541 Y-19.773
G1 X220.348 Y-33.857
G3 X206.591 Y-45.716 I1.06 J-15.138
G1 Z-14.224
G3 X206.301 Y-47.554 I14.817 J-3.279
G1 X191.22 Y-205.684
G3 X195.129 Y-217.366 I15.107 J-1.44
G3 X206.417 Y-222.299 I11.198 J10.242
G1 X597.134 Y-219.971
G3 X600.916 Y-218.297 I-0.03 J5.175
G3 X602.263 Y-214.387 I-3.811 J3.5
G1 X589.895 Y-58.67
G3 X547.093 Y-19.285 I-42.638 J-3.387
G1 X421.751 Y-19.766
G1 X421.541 Y-19.773
G1 X220.348 Y-33.857
G3 X206.591 Y-45.716 I1.06 J-15.138
G1 Z-20.574
G3 X206.301 Y-47.554 I14.817 J-3.279
G1 X200.205 Y-111.481
G1 Z-18.034
G1 X199.119 Y-122.86
G1 Z-20.574
G1 X191.22 Y-205.684
G3 X195.129 Y-217.366 I15.107 J-1.44
G3 X206.417 Y-222.299 I11.198 J10.242
G1 X271.322 Y-221.912
G1 Z-18.034
G1 X282.752 Y-221.844
G1 Z-20.574
G1 X502.987 Y-220.532
G1 Z-18.034
G1 X514.417 Y-220.464
G1 Z-20.574
G1 X597.134 Y-219.971
G3 X600.916 Y-218.297 I-0.03 J5.175
G3 X602.263 Y-214.387 I-3.811 J3.5
G1 X594.3 Y-114.125
G1 Z-18.034
G1 X593.395 Y-102.731
G1 Z-20.574
G1 X589.895 Y-58.67
G3 X547.093 Y-19.285 I-42.638 J-3.387
G1 X489.489 Y-19.506
G1 Z-18.034
G1 X478.059 Y-19.549
G1 Z-20.574
G1 X421.751 Y-19.766
G1 X421.541 Y-19.773
G1 X318.56 Y-26.982
G1 Z-18.034
G1 X307.158 Y-27.78
G1 Z-20.574
G1 X220.348 Y-33.857
G3 X206.591 Y-45.716 I1.06 J-15.138
G0 Z6.096
G0 X288.913 Y68.11
G1 Z4.191 F508.
G1 Z-6.604
G3 X291.506 Y65.702 I3.09 J0.729
G1 X640.073 Y10.468
G2 X655.014 Y-9.728 I-2.804 J-17.699
G1 X611.053 Y-322.219
G2 X593.379 Y-337.58 I-17.673 J2.486
G1 X254.68
G3 X251.517 Y-340.478 I0 J-3.175
G1 X247.944 Y-381.322
G3 X248.766 Y-383.744 I3.163 J-0.277
G3 X251.107 Y-384.774 I2.341 J2.145
G1 X656.607
G3 X659.751 Y-382.041 I0 J3.175
G1 X675.934 Y-266.893
G3 X675.443 Y-264.707 I-3.144 J0.442
G2 X675.68 Y-263.565 I0.689 J0.453
G2 X676.308 Y-263.448 I0.453 J-0.689
G2 X676.831 Y-263.815 I-0.175 J-0.806
G3 X679.076 Y-265.269 I2.688 J1.69
G1 X680.991 Y-265.539
G3 X684.085 Y-264.74 I0.583 J4.134
G3 X685.708 Y-261.987 I-2.512 J3.336
G1 Y-261.986
G1 X699.349 Y-164.927
G3 X698.549 Y-161.833 I-4.135 J0.581
G3 X695.794 Y-160.211 I-3.335 J-2.513
G1 X693.047 Y-159.825
G3 X690.861 Y-160.316 I-0.442 J-3.144
G2 X689.719 Y-160.079 I-0.453 J0.689
G2 X689.602 Y-159.451 I0.689 J0.453
G2 X689.969 Y-158.928 I0.806 J-0.175
G3 X691.423 Y-156.682 I-1.69 J2.688
G1 X708.185 Y-37.415
G3 X707.694 Y-35.229 I-3.144 J0.442
G2 X707.931 Y-34.087 I0.689 J0.453
G2 X708.559 Y-33.97 I0.453 J-0.689
G2 X709.082 Y-34.337 I-0.175 J-0.806
G3 X711.328 Y-35.791 I2.688 J1.69
G1 X713.056 Y-36.034
G3 X717.771 Y-32.481 I0.581 J4.134
G1 X721.666 Y-4.766
G3 X720.866 Y-1.672 I-4.134 J0.581
G3 X718.113 Y-0.05 I-3.334 J-2.512
G1 X715.552 Y0.31
G3 X713.366 Y-0.181 I-0.442 J-3.144
G2 X712.223 Y0.055 I-0.453 J0.69
G2 X712.107 Y0.683 I0.69 J0.453
G2 X712.474 Y1.207 I0.806 J-0.175
G3 X713.928 Y3.453 I-1.69 J2.688
G1 X718.652 Y37.065
G3 X715.95 Y40.651 I-3.144 J0.442
G1 X684.812 Y45.027
G3 X680.096 Y41.474 I-0.582 J-4.135
G1 X679.705 Y38.691
G3 X680.196 Y36.506 I3.144 J-0.442
G2 X679.959 Y35.363 I-0.689 J-0.453
G2 X679.331 Y35.246 I-0.453 J0.689
G2 X678.808 Y35.613 I0.175 J0.806
G3 X676.562 Y37.068 I-2.688 J-1.69
G1 X524.386 Y58.455
G3 X522.008 Y57.827 I-0.442 J-3.144
G2 X520.851 Y57.978 I-0.503 J0.654
G2 X520.688 Y58.596 I0.654 J0.503
G2 X521.015 Y59.144 I0.817 J-0.115
G3 X522.274 Y61.258 I-1.885 J2.555
G1 X522.604 Y63.607
G3 X521.804 Y66.701 I-4.134 J0.581
G3 X519.051 Y68.323 I-3.334 J-2.512
G1 X491.324 Y72.22
G3 X486.608 Y68.667 I-0.582 J-4.135
G1 Y68.666
G1 X486.282 Y66.342
G3 X486.91 Y63.965 I3.144 J-0.441
G2 X486.759 Y62.808 I-0.654 J-0.503
G2 X486.141 Y62.645 I-0.503 J0.654
G2 X485.592 Y62.972 I0.115 J0.817
G3 X483.479 Y64.231 I-2.555 J-1.885
G1 X328.47 Y86.016
G3 X326.284 Y85.525 I-0.442 J-3.144
G2 X325.141 Y85.762 I-0.453 J0.69
G2 X325.025 Y86.39 I0.69 J0.453
G2 X325.392 Y86.913 I0.806 J-0.175
G3 X326.846 Y89.16 I-1.69 J2.688
G1 X327.111 Y91.049
G3 X326.311 Y94.142 I-4.134 J0.581
G3 X323.558 Y95.764 I-3.334 J-2.513
G1 X306.205 Y98.203
G3 X303.111 Y97.402 I-0.581 J-4.134
G3 X301.49 Y94.649 I2.513 J-3.334
G1 X301.179 Y92.435
G3 X301.806 Y90.058 I3.144 J-0.442
G2 X301.655 Y88.9 I-0.654 J-0.503
G2 X301.038 Y88.737 I-0.503 J0.654
G2 X300.489 Y89.064 I0.115 J0.817
G3 X298.376 Y90.323 I-2.555 J-1.885
G1 X294.095 Y90.925
G3 X291.676 Y90.265 I-0.442 J-3.144
G3 X290.49 Y88.056 I1.977 J-2.484
G1 X288.84 Y69.114
G3 X288.913 Y68.11 I3.163 J-0.276
G0 Z6.096
G0 X160.687 Y-234.485
G1 Z4.191 F508.
G1 Z-6.604
G3 X154.965 Y-245.714 I7.447 J-10.868
G1 X157.04 Y-321.092
G3 X170.289 Y-333.905 I13.17 J0.362
G1 X513.287 Y-331.861
G3 X526.382 Y-318.891 I-0.078 J13.174
G1 X527.559 Y-243.495
G3 X523.746 Y-234.018 I-13.173 J0.205
G3 X514.306 Y-230.115 I-9.36 J-9.271
G1 X168.057 Y-232.178
G3 X160.687 Y-234.485 I0.077 J-13.174
G1 Z-14.224
G3 X154.965 Y-245.714 I7.447 J-10.868
G1 X157.04 Y-321.092
G3 X170.289 Y-333.905 I13.17 J0.362
G1 X513.287 Y-331.861
G3 X526.382 Y-318.891 I-0.078 J13.174
G1 X527.559 Y-243.495
G3 X523.746 Y-234.018 I-13.173 J0.205
G3 X514.306 Y-230.115 I-9.36 J-9.271
G1 X168.057 Y-232.178
G3 X160.687 Y-234.485 I0.077 J-13.174
G0 Z6.096
G0 X288.913 Y68.11
G1 Z-3.429 F508.
G1 Z-14.224
G3 X291.506 Y65.702 I3.09 J0.729
G1 X640.073 Y10.468
G2 X655.014 Y-9.728 I-2.804 J-17.699
G1 X611.053 Y-322.219
G2 X593.379 Y-337.58 I-17.673 J2.486
G1 X254.68
G3 X251.517 Y-340.478 I0 J-3.175
G1 X247.944 Y-381.322
G3 X248.766 Y-383.744 I3.163 J-0.277
G3 X251.107 Y-384.774 I2.341 J2.145
G1 X656.607
G3 X659.751 Y-382.041 I0 J3.175
G1 X675.934 Y-266.893
G3 X675.443 Y-264.707 I-3.144 J0.442
G2 X675.68 Y-263.565 I0.689 J0.453
G2 X676.308 Y-263.448 I0.453 J-0.689
G2 X676.831 Y-263.815 I-0.175 J-0.806
G3 X679.076 Y-265.269 I2.688 J1.69
G1 X680.991 Y-265.539
G3 X684.085 Y-264.74 I0.583 J4.134
G3 X685.708 Y-261.987 I-2.512 J3.336
G1 Y-261.986
G1 X699.349 Y-164.927
G3 X698.549 Y-161.833 I-4.135 J0.581
G3 X695.794 Y-160.211 I-3.335 J-2.513
G1 X693.047 Y-159.825
G3 X690.861 Y-160.316 I-0.442 J-3.144
G2 X689.719 Y-160.079 I-0.453 J0.689
G2 X689.602 Y-159.451 I0.689 J0.453
G2 X689.969 Y-158.928 I0.806 J-0.175
G3 X691.423 Y-156.682 I-1.69 J2.688
G1 X708.185 Y-37.415
G3 X707.694 Y-35.229 I-3.144 J0.442
G2 X707.931 Y-34.087 I0.689 J0.453
G2 X708.559 Y-33.97 I0.453 J-0.689
G2 X709.082 Y-34.337 I-0.175 J-0.806
G3 X711.328 Y-35.791 I2.688 J1.69
G1 X713.056 Y-36.034
G3 X717.771 Y-32.481 I0.581 J4.134
G1 X721.666 Y-4.766
G3 X720.866 Y-1.672 I-4.134 J0.581
G3 X718.113 Y-0.05 I-3.334 J-2.512
G1 X715.552 Y0.31
G3 X713.366 Y-0.181 I-0.442 J-3.144
G2 X712.223 Y0.055 I-0.453 J0.69
G2 X712.107 Y0.683 I0.69 J0.453
G2 X712.474 Y1.207 I0.806 J-0.175
G3 X713.928 Y3.453 I-1.69 J2.688
G1 X718.652 Y37.065
G3 X715.95 Y40.651 I-3.144 J0.442
G1 X684.812 Y45.027
G3 X680.096 Y41.474 I-0.582 J-4.135
G1 X679.705 Y38.691
G3 X680.196 Y36.506 I3.144 J-0.442
G2 X679.959 Y35.363 I-0.689 J-0.453
G2 X679.331 Y35.246 I-0.453 J0.689
G2 X678.808 Y35.613 I0.175 J0.806
G3 X676.562 Y37.068 I-2.688 J-1.69
G1 X524.386 Y58.455
G3 X522.008 Y57.827 I-0.442 J-3.144
G2 X520.851 Y57.978 I-0.503 J0.654
G2 X520.688 Y58.596 I0.654 J0.503
G2 X521.015 Y59.144 I0.817 J-0.115
G3 X522.274 Y61.258 I-1.885 J2.555
G1 X522.604 Y63.607
G3 X521.804 Y66.701 I-4.134 J0.581
G3 X519.051 Y68.323 I-3.334 J-2.512
G1 X491.324 Y72.22
G3 X486.608 Y68.667 I-0.582 J-4.135
G1 Y68.666
G1 X486.282 Y66.342
G3 X486.91 Y63.965 I3.144 J-0.441
G2 X486.759 Y62.808 I-0.654 J-0.503
G2 X486.141 Y62.645 I-0.503 J0.654
G2 X485.592 Y62.972 I0.115 J0.817
G3 X483.479 Y64.231 I-2.555 J-1.885
G1 X328.47 Y86.016
G3 X326.284 Y85.525 I-0.442 J-3.144
G2 X325.141 Y85.762 I-0.453 J0.69
G2 X325.025 Y86.39 I0.69 J0.453
G2 X325.392 Y86.913 I0.806 J-0.175
G3 X326.846 Y89.16 I-1.69 J2.688
G1 X327.111 Y91.049
G3 X326.311 Y94.142 I-4.134 J0.581
G3 X323.558 Y95.764 I-3.334 J-2.513
G1 X306.205 Y98.203
G3 X303.111 Y97.402 I-0.581 J-4.134
G3 X301.49 Y94.649 I2.513 J-3.334
G1 X301.179 Y92.435
G3 X301.806 Y90.058 I3.144 J-0.442
G2 X301.655 Y88.9 I-0.654 J-0.503
G2 X301.038 Y88.737 I-0.503 J0.654
G2 X300.489 Y89.064 I0.115 J0.817
G3 X298.376 Y90.323 I-2.555 J-1.885
G1 X294.095 Y90.925
G3 X291.676 Y90.265 I-0.442 J-3.144
G3 X290.49 Y88.056 I1.977 J-2.484
G1 X288.84 Y69.114
G3 X288.913 Y68.11 I3.163 J-0.276
G1 Z-20.574
G3 X291.506 Y65.702 I3.09 J0.729
G1 X510.898 Y30.937
G1 Z-18.034
G1 X522.188 Y29.148
G1 Z-20.574
G1 X640.073 Y10.468
G2 X655.014 Y-9.728 I-2.804 J-17.699
G1 X637.564 Y-133.767
G1 Z-18.034
G1 X635.972 Y-145.086
G1 Z-20.574
G1 X611.053 Y-322.219
G2 X593.379 Y-337.58 I-17.673 J2.486
G1 X546.322
G1 Z-18.034
G1 X534.892
G1 Z-20.574
G1 X254.68
G3 X251.517 Y-340.478 I0 J-3.175
G1 X247.944 Y-381.322
G3 X248.766 Y-383.744 I3.163 J-0.277
G3 X251.107 Y-384.774 I2.341 J2.145
G1 X352.323
G1 Z-18.034
G1 X363.753
G1 Z-20.574
G1 X596.665
G1 Z-18.034
G1 X608.095
G1 Z-20.574
G1 X652.955
G1 Z-18.034
G1 X656.607
G3 X659.751 Y-382.041 I0 J3.175
G1 X660.546 Y-376.382
G1 Z-20.574
G1 X666.589 Y-333.384
G1 Z-18.034
G1 X668.18 Y-322.066
G1 Z-20.574
G1 X675.934 Y-266.893
G3 X675.443 Y-264.707 I-3.144 J0.442
G2 X675.68 Y-263.565 I0.689 J0.453
G2 X676.308 Y-263.448 I0.453 J-0.689
G2 X676.831 Y-263.815 I-0.175 J-0.806
G3 X678.371 Y-265.085 I2.688 J1.69
G1 Z-18.034
G3 X679.076 Y-265.269 I1.148 J2.96
G1 X680.991 Y-265.539
G3 X684.085 Y-264.74 I0.583 J4.134
G3 X685.708 Y-261.987 I-2.512 J3.336
G1 Y-261.986
G1 X687.17 Y-251.583
G1 Z-20.574
G1 X694.451 Y-199.777
G1 Z-18.034
G1 X696.744 Y-183.459
G1 Z-20.574
G1 X698.603 Y-170.235
G1 Z-18.034
G1 X699.349 Y-164.927
G3 X698.549 Y-161.833 I-4.135 J0.581
G3 X695.794 Y-160.211 I-3.335 J-2.513
G1 X693.259 Y-159.855
G1 Z-20.574
G1 X693.047 Y-159.825
G3 X690.861 Y-160.316 I-0.442 J-3.144
G2 X689.719 Y-160.079 I-0.453 J0.689
G2 X689.602 Y-159.451 I0.689 J0.453
G2 X689.969 Y-158.928 I0.806 J-0.175
G3 X691.423 Y-156.682 I-1.69 J2.688
G1 X699.202 Y-101.332
G1 Z-18.034
G1 X700.793 Y-90.014
G1 Z-20.574
G1 X701.834 Y-82.607
G1 Z-18.034
G1 X703.575 Y-70.219
G1 Z-20.574
G1 X708.185 Y-37.415
G3 X707.694 Y-35.229 I-3.144 J0.442
G2 X707.931 Y-34.087 I0.689 J0.453
G2 X708.559 Y-33.97 I0.453 J-0.689
G2 X709.082 Y-34.337 I-0.175 J-0.806
G3 X710.584 Y-35.592 I2.688 J1.69
G1 Z-18.034
G3 X711.328 Y-35.791 I1.186 J2.945
G1 X713.056 Y-36.034
G3 X717.771 Y-32.481 I0.581 J4.134
G1 X720.084 Y-16.022
G1 Z-20.574
G1 X720.921 Y-10.068
G1 Z-18.034
G1 X721.666 Y-4.766
G3 X720.866 Y-1.672 I-4.134 J0.581
G3 X718.113 Y-0.05 I-3.334 J-2.512
G1 X715.552 Y0.31
G3 X714.702 Y0.314 I-0.442 J-3.144
G1 Z-20.574
G3 X713.366 Y-0.181 I0.408 J-3.149
G2 X712.223 Y0.055 I-0.453 J0.69
G2 X712.107 Y0.683 I0.69 J0.453
G2 X712.474 Y1.207 I0.806 J-0.175
G3 X713.928 Y3.453 I-1.69 J2.688
G1 X718.21 Y33.921
G1 Z-18.034
G1 X718.652 Y37.065
G3 X715.95 Y40.651 I-3.144 J0.442
G1 X710.29 Y41.446
G1 Z-20.574
G1 X700.584 Y42.81
G1 Z-18.034
G1 X689.266 Y44.401
G1 Z-20.574
G1 X684.812 Y45.027
G3 X680.096 Y41.474 I-0.582 J-4.135
G1 X679.705 Y38.691
G3 X680.196 Y36.506 I3.144 J-0.442
G2 X679.959 Y35.363 I-0.689 J-0.453
G2 X679.331 Y35.246 I-0.453 J0.689
G2 X678.808 Y35.613 I0.175 J0.806
G3 X676.562 Y37.068 I-2.688 J-1.69
G1 X648.539 Y41.006
G1 Z-18.034
G1 X637.221 Y42.597
G1 Z-20.574
G1 X568.633 Y52.236
G1 Z-18.034
G1 X557.315 Y53.827
G1 Z-20.574
G1 X524.386 Y58.455
G3 X522.008 Y57.827 I-0.442 J-3.144
G2 X520.851 Y57.978 I-0.503 J0.654
G2 X520.688 Y58.596 I0.654 J0.503
G2 X521.015 Y59.144 I0.817 J-0.115
G3 X522.274 Y61.258 I-1.885 J2.555
G1 X522.604 Y63.607
G3 X521.804 Y66.701 I-4.134 J0.581
G3 X519.051 Y68.323 I-3.334 J-2.512
G1 X491.324 Y72.22
G3 X486.608 Y68.667 I-0.582 J-4.135
G1 Y68.666
G1 X486.282 Y66.342
G3 X486.91 Y63.965 I3.144 J-0.441
G2 X486.759 Y62.808 I-0.654 J-0.503
G2 X486.141 Y62.645 I-0.503 J0.654
G2 X485.592 Y62.972 I0.115 J0.817
G3 X483.479 Y64.231 I-2.555 J-1.885
G1 X456.774 Y67.984
G1 Z-18.034
G1 X445.455 Y69.575
G1 Z-20.574
G1 X328.47 Y86.016
G3 X326.284 Y85.525 I-0.442 J-3.144
G2 X325.141 Y85.762 I-0.453 J0.69
G2 X325.025 Y86.39 I0.69 J0.453
G2 X325.392 Y86.913 I0.806 J-0.175
G3 X326.846 Y89.16 I-1.69 J2.688
G1 X327.111 Y91.049
G3 X326.311 Y94.142 I-4.134 J0.581
G3 X323.558 Y95.764 I-3.334 J-2.513
G1 X306.205 Y98.203
G3 X303.111 Y97.402 I-0.581 J-4.134
G3 X301.49 Y94.649 I2.513 J-3.334
G1 X301.179 Y92.435
G3 X301.806 Y90.058 I3.144 J-0.442
G2 X301.655 Y88.9 I-0.654 J-0.503
G2 X301.038 Y88.737 I-0.503 J0.654
G2 X300.489 Y89.064 I0.115 J0.817
G3 X298.376 Y90.323 I-2.555 J-1.885
G1 X294.095 Y90.925
G3 X291.676 Y90.265 I-0.442 J-3.144
G3 X290.49 Y88.056 I1.977 J-2.484
G1 X288.84 Y69.114
G3 X288.913 Y68.11 I3.163 J-0.276
G0 Z6.096
G0 X160.687 Y-234.485
G1 Z-11.049 F508.
G1 Z-20.574
G3 X154.965 Y-245.714 I7.447 J-10.868
G1 X155.719 Y-273.087
G1 Z-18.034
G1 X156.033 Y-284.512
G1 Z-20.574
G1 X157.04 Y-321.092
G3 X170.289 Y-333.905 I13.17 J0.362
G1 X337.704 Y-332.907
G1 Z-18.034
G1 X349.134 Y-332.839
G1 Z-20.574
G1 X513.287 Y-331.861
G3 X526.382 Y-318.891 I-0.078 J13.174
G1 X526.768 Y-294.114
G1 Z-18.034
G1 X526.947 Y-282.685
G1 Z-20.574
G1 X527.559 Y-243.495
G3 X523.746 Y-234.018 I-13.173 J0.205
G3 X514.306 Y-230.115 I-9.36 J-9.271
G1 X353.224 Y-231.075
G1 Z-18.034
G1 X341.794 Y-231.143
G1 Z-20.574
G1 X168.057 Y-232.178
G3 X160.687 Y-234.485 I0.077 J-13.174
G0 Z6.096

(2D POCKET1)
G0 Z11.176
G0 X238.238 Y-119.81
G0 Z6.096
G1 Z3.556 F508.
G1 X238.248 Y-120.029 Z3.548
G1 X238.242 Y-120.249 Z3.541
G1 X238.22 Y-120.467 Z3.533
G1 X238.183 Y-120.683 Z3.525
G1 X238.129 Y-120.896 Z3.518
G1 X238.061 Y-121.105 Z3.51
G1 X237.977 Y-121.308 Z3.502
G1 X237.879 Y-121.504 Z3.495
G1 X237.767 Y-121.693 Z3.487
G1 X237.642 Y-121.873 Z3.479
G1 X237.503 Y-122.043 Z3.472
G1 X237.353 Y-122.203 Z3.464
G1 X237.192 Y-122.352 Z3.456
G1 X237.02 Y-122.488 Z3.449
G1 X236.838 Y-122.612 Z3.441
G1 X236.648 Y-122.722 Z3.433
G1 X236.451 Y-122.818 Z3.426
G1 X236.247 Y-122.899 Z3.418
G1 X236.038 Y-122.966 Z3.41
G1 X235.825 Y-123.017 Z3.403
G1 X235.608 Y-123.052 Z3.395
G1 X235.389 Y-123.071 Z3.387
G1 X235.17 Y-123.075 Z3.38
G1 X234.951 Y-123.062 Z3.372
G1 X234.733 Y-123.034 Z3.364
G1 X234.518 Y-122.99 Z3.357
G1 X234.307 Y-122.93 Z3.349
G1 X234.101 Y-122.855 Z3.341
G1 X233.9 Y-122.766 Z3.334
G1 X233.707 Y-122.662 Z3.326
G1 X233.522 Y-122.544 Z3.318
G1 X233.346 Y-122.413 Z3.311
G1 X233.179 Y-122.27 Z3.303
G1 X233.024 Y-122.115 Z3.295
G1 X232.88 Y-121.949 Z3.288
G1 X232.749 Y-121.773 Z3.28
G1 X232.631 Y-121.588 Z3.272
G1 X232.527 Y-121.394 Z3.265
G1 X232.437 Y-121.194 Z3.257
G1 X232.362 Y-120.988 Z3.249
G1 X232.302 Y-120.777 Z3.242
G1 X232.258 Y-120.562 Z3.234
G1 X232.229 Y-120.344 Z3.226
G1 X232.216 Y-120.125 Z3.219
G1 X232.219 Y-119.906 Z3.211
G1 X232.238 Y-119.687 Z3.203
G1 X232.273 Y-119.47 Z3.196
G1 X232.324 Y-119.257 Z3.188
G1 X232.39 Y-119.048 Z3.18
G1 X232.471 Y-118.844 Z3.173
G1 X232.567 Y-118.646 Z3.165
G1 X232.677 Y-118.456 Z3.157
G1 X232.8 Y-118.275 Z3.15
G1 X232.936 Y-118.102 Z3.142
G1 X233.085 Y-117.941 Z3.134
G1 X233.244 Y-117.79 Z3.127
G1 X233.415 Y-117.652 Z3.119
G1 X233.594 Y-117.526 Z3.111
G1 X233.783 Y-117.414 Z3.104
G1 X233.979 Y-117.315 Z3.096
G1 X234.182 Y-117.231 Z3.088
G1 X234.39 Y-117.163 Z3.081
G1 X234.603 Y-117.109 Z3.073
G1 X234.819 Y-117.071 Z3.065
G1 X235.038 Y-117.049 Z3.058
G1 X235.257 Y-117.043 Z3.05
G1 X235.476 Y-117.053 Z3.042
G1 X235.694 Y-117.079 Z3.035
G1 X235.91 Y-117.12 Z3.027
G1 X236.122 Y-117.177 Z3.019
G1 X236.329 Y-117.25 Z3.012
G1 X236.53 Y-117.337 Z3.004
G1 X236.725 Y-117.439 Z2.996
G1 X236.912 Y-117.554 Z2.989
G1 X237.089 Y-117.683 Z2.981
G1 X237.257 Y-117.824 Z2.973
G1 X237.414 Y-117.977 Z2.966
G1 X237.56 Y-118.142 Z2.958
G1 X237.693 Y-118.316 Z2.95
G1 X237.813 Y-118.5 Z2.943
G1 X237.92 Y-118.692 Z2.935
G1 X238.012 Y-118.891 Z2.927
G1 X238.09 Y-119.096 Z2.92
G1 X238.152 Y-119.306 Z2.912
G1 X238.199 Y-119.521 Z2.904
G1 X238.231 Y-119.738 Z2.897
G1 X238.246 Y-119.957 Z2.889
G1 Y-120.176 Z2.881
G1 X238.229 Y-120.395 Z2.874
G1 X238.197 Y-120.612 Z2.866
G1 X238.149 Y-120.826 Z2.858
G1 X238.085 Y-121.037 Z2.851
G1 X238.007 Y-121.241 Z2.843
G1 X237.913 Y-121.44 Z2.835
G1 X237.806 Y-121.631 Z2.828
G1 X237.685 Y-121.814 Z2.82
G1 X237.55 Y-121.988 Z2.812
G1 X237.404 Y-122.152 Z2.805
G1 X237.246 Y-122.304 Z2.797
G1 X237.078 Y-122.445 Z2.789
G1 X236.899 Y-122.573 Z2.782
G1 X236.712 Y-122.687 Z2.774
G1 X236.517 Y-122.788 Z2.766
G1 X236.315 Y-122.874 Z2.759
G1 X236.108 Y-122.945 Z2.751
G1 X235.895 Y-123.001 Z2.743
G1 X235.68 Y-123.042 Z2.736
G1 X235.462 Y-123.067 Z2.728
G1 X235.242 Y-123.075 Z2.72
G1 X235.023 Y-123.068 Z2.713
G1 X234.805 Y-123.045 Z2.705
G1 X234.589 Y-123.006 Z2.697
G1 X234.376 Y-122.952 Z2.69
G1 X234.168 Y-122.882 Z2.682
G1 X233.966 Y-122.797 Z2.674
G1 X233.77 Y-122.698 Z2.667
G1 X233.582 Y-122.584 Z2.659
G1 X233.403 Y-122.458 Z2.651
G1 X233.233 Y-122.318 Z2.644
G1 X233.074 Y-122.167 Z2.636
G1 X232.927 Y-122.005 Z2.628
G1 X232.791 Y-121.832 Z2.621
G1 X232.669 Y-121.65 Z2.613
G1 X232.56 Y-121.459 Z2.605
G1 X232.465 Y-121.261 Z2.598
G1 X232.385 Y-121.057 Z2.59
G1 X232.32 Y-120.847 Z2.582
G1 X232.271 Y-120.633 Z2.575
G1 X232.237 Y-120.416 Z2.567
G1 X232.219 Y-120.198 Z2.559
G1 X232.216 Y-119.978 Z2.552
G1 X232.23 Y-119.759 Z2.544
G1 X232.26 Y-119.542 Z2.536
G1 X232.306 Y-119.327 Z2.529
G1 X232.367 Y-119.116 Z2.521
G1 X232.443 Y-118.91 Z2.513
G1 X232.534 Y-118.711 Z2.506
G1 X232.639 Y-118.518 Z2.498
G1 X232.758 Y-118.334 Z2.49
G1 X232.89 Y-118.158 Z2.483
G1 X233.034 Y-117.993 Z2.475
G1 X233.19 Y-117.839 Z2.467
G1 X233.357 Y-117.696 Z2.46
G1 X233.534 Y-117.566 Z2.452
G1 X233.72 Y-117.449 Z2.444
G1 X233.914 Y-117.346 Z2.437
G1 X234.114 Y-117.257 Z2.429
G1 X234.321 Y-117.184 Z2.421
G1 X234.533 Y-117.125 Z2.414
G1 X234.748 Y-117.082 Z2.406
G1 X234.966 Y-117.055 Z2.398
G1 X235.185 Y-117.043 Z2.391
G1 X235.404 Y-117.048 Z2.383
G1 X235.623 Y-117.068 Z2.375
G1 X235.839 Y-117.105 Z2.368
G1 X236.052 Y-117.157 Z2.36
G1 X236.261 Y-117.224 Z2.352
G1 X236.465 Y-117.306 Z2.345
G1 X236.662 Y-117.403 Z2.337
G1 X236.851 Y-117.514 Z2.329
G1 X237.032 Y-117.639 Z2.322
G1 X237.203 Y-117.776 Z2.314
G1 X237.364 Y-117.926 Z2.306
G1 X237.513 Y-118.086 Z2.299
G1 X237.651 Y-118.257 Z2.291
G1 X237.775 Y-118.438 Z2.283
G1 X237.886 Y-118.627 Z2.276
G1 X237.983 Y-118.824 Z2.268
G1 X238.066 Y-119.028 Z2.26
G1 X238.134 Y-119.236 Z2.253
G1 X238.186 Y-119.45 Z2.245
G1 X238.222 Y-119.666 Z2.237
G1 X238.243 Y-119.884 Z2.23
G1 X238.248 Y-120.104 Z2.222
G1 X238.236 Y-120.323 Z2.214
G1 X238.209 Y-120.541 Z2.207
G1 X238.166 Y-120.756 Z2.199
G1 X238.108 Y-120.968 Z2.191
G1 X238.034 Y-121.174 Z2.184
G1 X237.946 Y-121.375 Z2.176
G1 X237.843 Y-121.569 Z2.168
G1 X237.726 Y-121.755 Z2.161
G1 X237.596 Y-121.932 Z2.153
G1 X237.454 Y-122.099 Z2.145
G1 X237.299 Y-122.255 Z2.138
G1 X237.134 Y-122.4 Z2.13
G1 X236.959 Y-122.532 Z2.122
G1 X236.775 Y-122.651 Z2.115
G1 X236.582 Y-122.756 Z2.107
G1 X236.382 Y-122.847 Z2.099
G1 X236.177 Y-122.924 Z2.092
G1 X235.966 Y-122.985 Z2.084
G1 X235.751 Y-123.03 Z2.076
G1 X235.534 Y-123.06 Z2.069
G1 X235.315 Y-123.074 Z2.061
G1 X235.095 Y-123.072 Z2.053
G1 X234.877 Y-123.054 Z2.046
G1 X234.66 Y-123.021 Z2.038
G1 X234.446 Y-122.971 Z2.03
G1 X234.236 Y-122.906 Z2.023
G1 X234.032 Y-122.827 Z2.015
G1 X233.834 Y-122.732 Z2.007
G1 X233.643 Y-122.623 Z2
G1 X233.461 Y-122.501 Z1.992
G1 X233.288 Y-122.366 Z1.984
G1 X233.125 Y-122.218 Z1.977
G1 X232.974 Y-122.059 Z1.969
G1 X232.834 Y-121.89 Z1.961
G1 X232.708 Y-121.711 Z1.954
G1 X232.594 Y-121.523 Z1.946
G1 X232.495 Y-121.327 Z1.938
G1 X232.41 Y-121.125 Z1.931
G1 X232.34 Y-120.917 Z1.923
G1 X232.285 Y-120.704 Z1.915
G1 X232.246 Y-120.488 Z1.908
G1 X232.223 Y-120.27 Z1.9
G1 X232.215 Y-120.051 Z1.892
G1 X232.224 Y-119.831 Z1.885
G1 X232.249 Y-119.613 Z1.877
G1 X232.289 Y-119.398 Z1.869
G1 X232.345 Y-119.185 Z1.862
G1 X232.416 Y-118.978 Z1.854
G1 X232.502 Y-118.776 Z1.846
G1 X232.603 Y-118.581 Z1.839
G1 X232.717 Y-118.393 Z1.831
G1 X232.845 Y-118.215 Z1.823
G1 X232.985 Y-118.046 Z1.816
G1 X233.138 Y-117.888 Z1.808
G1 X233.301 Y-117.742 Z1.8
G1 X233.475 Y-117.608 Z1.793
G1 X233.658 Y-117.486 Z1.785
G1 X233.849 Y-117.379 Z1.777
G1 X234.047 Y-117.285 Z1.77
G1 X234.252 Y-117.206 Z1.762
G1 X234.462 Y-117.143 Z1.754
G1 X234.676 Y-117.094 Z1.747
G1 X234.893 Y-117.062 Z1.739
G1 X235.112 Y-117.045 Z1.731
G1 X235.332 Z1.724
G1 X235.551 Y-117.06 Z1.716
G1 X235.768 Y-117.091 Z1.708
G1 X235.982 Y-117.138 Z1.701
G1 X236.193 Y-117.2 Z1.693
G1 X236.398 Y-117.278 Z1.685
G1 X236.597 Y-117.37 Z1.678
G1 X236.789 Y-117.476 Z1.67
G1 X236.973 Y-117.596 Z1.662
G1 X237.147 Y-117.73 Z1.655
G1 X237.312 Y-117.875 Z1.647
G1 X237.465 Y-118.032 Z1.64
G1 X237.607 Y-118.2 Z1.632
G1 X237.736 Y-118.377 Z1.624
G1 X237.851 Y-118.564 Z1.617
G1 X237.953 Y-118.758 Z1.609
G1 X238.04 Y-118.96 Z1.601
G1 X238.113 Y-119.167 Z1.594
G1 X238.17 Y-119.379 Z1.586
G1 X238.212 Y-119.594 Z1.578
G1 X238.238 Y-119.812 Z1.571
G1 X238.248 Y-120.031 Z1.563
G1 X238.242 Y-120.251 Z1.555
G1 X238.22 Y-120.469 Z1.548
G1 X238.182 Y-120.685 Z1.54
G1 X238.129 Y-120.898 Z1.532
G1 X238.06 Y-121.107 Z1.525
G1 X237.976 Y-121.31 Z1.517
G1 X237.878 Y-121.506 Z1.509
G1 X237.766 Y-121.695 Z1.502
G1 X237.64 Y-121.875 Z1.494
G1 X237.502 Y-122.045 Z1.486
G1 X237.352 Y-122.205 Z1.479
G1 X237.19 Y-122.353 Z1.471
G1 X237.018 Y-122.49 Z1.463
G1 X236.837 Y-122.613 Z1.456
G1 X236.647 Y-122.723 Z1.448
G1 X236.449 Y-122.819 Z1.44
G1 X236.245 Y-122.9 Z1.433
G1 X236.036 Y-122.966 Z1.425
G1 X235.822 Y-123.017 Z1.417
G1 X235.606 Y-123.052 Z1.41
G1 X235.387 Y-123.071 Z1.402
G1 X235.168 Y-123.075 Z1.394
G1 X234.949 Y-123.062 Z1.387
G1 X234.731 Y-123.034 Z1.379
G1 X234.516 Y-122.989 Z1.371
G1 X234.305 Y-122.93 Z1.364
G1 X234.099 Y-122.855 Z1.356
G1 X233.898 Y-122.765 Z1.348
G1 X233.705 Y-122.661 Z1.341
G1 X233.52 Y-122.543 Z1.333
G1 X233.344 Y-122.412 Z1.325
G1 X233.178 Y-122.268 Z1.318
G1 X233.023 Y-122.113 Z1.31
G1 X232.879 Y-121.947 Z1.302
G1 X232.748 Y-121.771 Z1.295
G1 X232.63 Y-121.586 Z1.287
G1 X232.526 Y-121.393 Z1.279
G1 X232.436 Y-121.192 Z1.272
G1 X232.361 Y-120.986 Z1.264
G1 X232.302 Y-120.775 Z1.256
G1 X232.257 Y-120.56 Z1.249
G1 X232.229 Y-120.342 Z1.241
G1 X232.216 Y-120.123 Z1.233
G1 X232.219 Y-119.904 Z1.226
G1 X232.239 Y-119.685 Z1.218
G1 X232.274 Y-119.468 Z1.21
G1 X232.325 Y-119.255 Z1.203
G1 X232.391 Y-119.046 Z1.195
G1 X232.472 Y-118.842 Z1.187
G1 X232.568 Y-118.644 Z1.18
G1 X232.678 Y-118.454 Z1.172
G1 X232.801 Y-118.273 Z1.164
G1 X232.938 Y-118.101 Z1.157
G1 X233.086 Y-117.939 Z1.149
G1 X233.246 Y-117.789 Z1.141
G1 X233.416 Y-117.65 Z1.134
G1 X233.596 Y-117.525 Z1.126
G1 X233.785 Y-117.413 Z1.118
G1 X233.981 Y-117.314 Z1.111
G1 X234.184 Y-117.231 Z1.103
G1 X234.392 Y-117.162 Z1.095
G1 X234.605 Y-117.109 Z1.088
G1 X234.822 Y-117.071 Z1.08
G1 X235.04 Y-117.049 Z1.072
G1 X235.259 Y-117.043 Z1.065
G1 X235.479 Y-117.053 Z1.057
G1 X235.697 Y-117.079 Z1.049
G1 X235.912 Y-117.121 Z1.042
G1 X236.124 Y-117.178 Z1.034
G1 X236.331 Y-117.25 Z1.026
G1 X236.532 Y-117.338 Z1.019
G1 X236.727 Y-117.44 Z1.011
G1 X236.913 Y-117.555 Z1.003
G1 X237.091 Y-117.684 Z0.996
G1 X237.259 Y-117.826 Z0.988
G1 X237.416 Y-117.979 Z0.98
G1 X237.561 Y-118.143 Z0.973
G1 X237.694 Y-118.318 Z0.965
G1 X237.815 Y-118.501 Z0.957
G1 X237.921 Y-118.693 Z0.95
G1 X238.013 Y-118.893 Z0.942
G1 X238.091 Y-119.098 Z0.934
G1 X238.153 Y-119.308 Z0.927
G1 X238.2 Y-119.523 Z0.919
G1 X238.231 Y-119.74 Z0.911
G1 X238.246 Y-119.959 Z0.904
G1 Y-120.178 Z0.896
G1 X238.229 Y-120.397 Z0.888
G1 X238.196 Y-120.614 Z0.881
G1 X238.148 Y-120.828 Z0.873
G1 X238.084 Y-121.039 Z0.865
G1 X238.006 Y-121.243 Z0.858
G1 X237.912 Y-121.442 Z0.85
G1 X237.805 Y-121.633 Z0.842
G1 X237.683 Y-121.816 Z0.835
G1 X237.549 Y-121.99 Z0.827
G1 X237.403 Y-122.153 Z0.819
G1 X237.245 Y-122.306 Z0.812
G1 X237.076 Y-122.446 Z0.804
G1 X236.897 Y-122.574 Z0.796
G1 X236.71 Y-122.688 Z0.789
G1 X236.515 Y-122.789 Z0.781
G1 X236.313 Y-122.875 Z0.773
G1 X236.106 Y-122.946 Z0.766
G1 X235.893 Y-123.002 Z0.758
G1 X235.678 Y-123.042 Z0.75
G1 X235.46 Y-123.067 Z0.743
G1 X235.24 Y-123.075 Z0.735
G1 X235.021 Y-123.068 Z0.727
G1 X234.803 Y-123.045 Z0.72
G1 X234.587 Y-123.006 Z0.712
G1 X234.374 Y-122.951 Z0.704
G1 X234.166 Y-122.881 Z0.697
G1 X233.964 Y-122.796 Z0.689
G1 X233.768 Y-122.697 Z0.681
G1 X233.58 Y-122.583 Z0.674
G1 X233.401 Y-122.456 Z0.666
G1 X233.232 Y-122.317 Z0.658
G1 X233.073 Y-122.165 Z0.651
G1 X232.925 Y-122.003 Z0.643
G1 X232.79 Y-121.83 Z0.635
G1 X232.668 Y-121.648 Z0.628
G1 X232.559 Y-121.457 Z0.62
G1 X232.464 Y-121.259 Z0.612
G1 X232.384 Y-121.055 Z0.605
G1 X232.32 Y-120.845 Z0.597
G1 X232.27 Y-120.631 Z0.589
G1 X232.236 Y-120.414 Z0.582
G1 X232.218 Y-120.196 Z0.574
G1 X232.217 Y-119.976 Z0.566
G1 X232.231 Y-119.757 Z0.559
G1 X232.26 Y-119.54 Z0.551
G1 X232.306 Y-119.325 Z0.543
G1 X232.367 Y-119.114 Z0.536
G1 X232.444 Y-118.908 Z0.528
G1 X232.535 Y-118.709 Z0.52
G1 X232.64 Y-118.516 Z0.513
G1 X232.759 Y-118.332 Z0.505
G1 X232.891 Y-118.157 Z0.497
G1 X233.036 Y-117.991 Z0.49
G1 X233.192 Y-117.837 Z0.482
G1 X233.359 Y-117.695 Z0.474
G1 X233.536 Y-117.565 Z0.467
G1 X233.722 Y-117.448 Z0.459
G1 X233.916 Y-117.345 Z0.451
G1 X234.116 Y-117.257 Z0.444
G1 X234.323 Y-117.183 Z0.436
G1 X234.535 Y-117.125 Z0.428
G1 X234.75 Y-117.082 Z0.421
G1 X234.968 Y-117.055 Z0.413
G1 X235.187 Y-117.043 Z0.405
G1 X235.406 Y-117.048 Z0.398
G1 X235.625 Y-117.069 Z0.39
G1 X235.841 Y-117.105 Z0.382
G1 X236.054 Y-117.157 Z0.375
G1 X236.263 Y-117.225 Z0.367
G1 X236.467 Y-117.307 Z0.359
G1 X236.663 Y-117.404 Z0.352
G1 X236.853 Y-117.516 Z0.344
G1 X237.033 Y-117.64 Z0.336
G1 X237.204 Y-117.778 Z0.329
G1 X237.365 Y-117.927 Z0.321
G1 X237.515 Y-118.088 Z0.313
G1 X237.652 Y-118.259 Z0.306
G1 X237.776 Y-118.44 Z0.298
G1 X237.887 Y-118.629 Z0.29
G1 X237.984 Y-118.826 Z0.283
G1 X238.067 Y-119.03 Z0.275
G1 X238.134 Y-119.238 Z0.267
G1 X238.186 Y-119.452 Z0.26
G1 X238.222 Y-119.668 Z0.252
G1 X238.243 Y-119.887 Z0.244
G1 X238.248 Y-120.106 Z0.237
G1 X238.236 Y-120.325 Z0.229
G1 X238.209 Y-120.543 Z0.221
G1 X238.166 Y-120.758 Z0.214
G1 X238.107 Y-120.97 Z0.206
G1 X238.033 Y-121.176 Z0.198
G1 X237.945 Y-121.377 Z0.191
G1 X237.842 Y-121.571 Z0.183
G1 X237.725 Y-121.757 Z0.175
G1 X237.595 Y-121.934 Z0.168
G1 X237.452 Y-122.1 Z0.16
G1 X237.298 Y-122.257 Z0.152
G1 X237.133 Y-122.401 Z0.145
G1 X236.957 Y-122.533 Z0.137
G1 X236.773 Y-122.652 Z0.129
G1 X236.58 Y-122.757 Z0.122
G1 X236.381 Y-122.848 Z0.114
G1 X236.175 Y-122.924 Z0.106
G1 X235.964 Y-122.985 Z0.099
G1 X235.749 Y-123.031 Z0.091
G1 X235.532 Y-123.06 Z0.083
G1 X235.313 Y-123.074 Z0.076
G1 X235.093 Y-123.072 Z0.068
G1 X234.874 Y-123.054 Z0.06
G1 X234.658 Y-123.02 Z0.053
G1 X234.444 Y-122.971 Z0.045
G1 X234.234 Y-122.906 Z0.037
G1 X234.03 Y-122.826 Z0.03
G1 X233.832 Y-122.731 Z0.022
G1 X233.641 Y-122.622 Z0.014
G1 X233.459 Y-122.5 Z0.007
G1 X233.286 Y-122.364 Z-0.001
G1 X233.124 Y-122.217 Z-0.009
G1 X232.973 Y-122.058 Z-0.016
G1 X232.833 Y-121.888 Z-0.024
G1 X232.707 Y-121.709 Z-0.032
G1 X232.593 Y-121.521 Z-0.039
G1 X232.494 Y-121.325 Z-0.047
G1 X232.409 Y-121.123 Z-0.055
G1 X232.339 Y-120.915 Z-0.062
G1 X232.285 Y-120.702 Z-0.07
G1 X232.246 Y-120.486 Z-0.078
G1 X232.223 Y-120.268 Z-0.085
G1 X232.215 Y-120.049 Z-0.093
G1 X232.224 Y-119.829 Z-0.101
G1 X232.249 Y-119.611 Z-0.108
G1 X232.289 Y-119.395 Z-0.116
G1 X232.345 Y-119.183 Z-0.124
G1 X232.417 Y-118.976 Z-0.131
G1 X232.503 Y-118.774 Z-0.139
G1 X232.604 Y-118.579 Z-0.147
G1 X232.718 Y-118.392 Z-0.154
G1 X232.846 Y-118.213 Z-0.162
G1 X232.987 Y-118.045 Z-0.17
G1 X233.139 Y-117.887 Z-0.177
G1 X233.303 Y-117.74 Z-0.185
G1 X233.476 Y-117.606 Z-0.193
G1 X233.659 Y-117.485 Z-0.2
G1 X233.851 Y-117.378 Z-0.208
G1 X234.049 Y-117.284 Z-0.216
G1 X234.254 Y-117.206 Z-0.223
G1 X234.464 Y-117.142 Z-0.231
G1 X234.678 Y-117.094 Z-0.239
G1 X234.896 Y-117.062 Z-0.246
G1 X235.114 Y-117.045 Z-0.254
G1 X235.334 Z-0.262
G1 X235.553 Y-117.06 Z-0.269
G1 X235.77 Y-117.091 Z-0.277
G1 X235.984 Y-117.138 Z-0.285
G1 X236.195 Y-117.201 Z-0.292
G1 X236.4 Y-117.278 Z-0.3
G1 X236.599 Y-117.371 Z-0.308
G1 X236.791 Y-117.477 Z-0.315
G1 X236.975 Y-117.598 Z-0.323
G1 X237.149 Y-117.731 Z-0.331
G1 X237.313 Y-117.876 Z-0.338
G1 X237.467 Y-118.034 Z-0.346
G1 X237.608 Y-118.201 Z-0.354
G1 X237.737 Y-118.379 Z-0.361
G1 X237.852 Y-118.566 Z-0.369
G1 X237.954 Y-118.76 Z-0.377
G1 X238.041 Y-118.962 Z-0.384
G1 X238.114 Y-119.169 Z-0.392
G1 X238.171 Y-119.381 Z-0.4
G1 X238.212 Y-119.596 Z-0.407
G1 X238.238 Y-119.814 Z-0.415
G1 X238.248 Y-120.034 Z-0.423
G1 X238.242 Y-120.253 Z-0.43
G1 X238.22 Y-120.471 Z-0.438
G1 X238.182 Y-120.688 Z-0.446
G1 X238.128 Y-120.9 Z-0.453
G1 X238.059 Y-121.109 Z-0.461
G1 X237.976 Y-121.312 Z-0.469
G1 X237.877 Y-121.508 Z-0.476
G1 X237.765 Y-121.696 Z-0.484
G1 X237.639 Y-121.876 Z-0.492
G1 X237.501 Y-122.046 Z-0.499
G1 X237.35 Y-122.206 Z-0.507
G1 X237.188 Y-122.355 Z-0.515
G1 X237.016 Y-122.491 Z-0.522
G1 X236.835 Y-122.614 Z-0.53
G1 X236.645 Y-122.724 Z-0.538
G1 X236.447 Y-122.82 Z-0.545
G1 X236.243 Y-122.901 Z-0.553
G1 X236.034 Y-122.967 Z-0.561
G1 X235.82 Y-123.017 Z-0.568
G1 X235.604 Y-123.052 Z-0.576
G1 X235.385 Y-123.072 Z-0.584
G1 X235.166 Y-123.075 Z-0.591
G1 X234.947 Y-123.062 Z-0.599
G1 X234.729 Y-123.033 Z-0.607
G1 X234.514 Y-122.989 Z-0.614
G1 X234.303 Y-122.929 Z-0.622
G1 X234.097 Y-122.854 Z-0.63
G1 X233.896 Y-122.764 Z-0.637
G1 X233.703 Y-122.66 Z-0.645
G1 X233.518 Y-122.542 Z-0.653
G1 X233.342 Y-122.41 Z-0.66
G1 X233.176 Y-122.267 Z-0.668
G1 X233.021 Y-122.111 Z-0.676
G1 X232.878 Y-121.945 Z-0.683
G1 X232.747 Y-121.769 Z-0.691
G1 X232.629 Y-121.584 Z-0.699
G1 X232.525 Y-121.391 Z-0.706
G1 X232.436 Y-121.19 Z-0.714
G1 X232.361 Y-120.984 Z-0.722
G1 X232.301 Y-120.773 Z-0.729
G1 X232.257 Y-120.558 Z-0.737
G1 X232.229 Y-120.34 Z-0.745
G1 X232.216 Y-120.121 Z-0.752
G1 X232.22 Y-119.902 Z-0.76
G1 X232.239 Y-119.683 Z-0.768
G1 X232.274 Y-119.466 Z-0.775
G1 X232.325 Y-119.253 Z-0.783
G1 X232.391 Y-119.044 Z-0.791
G1 X232.473 Y-118.84 Z-0.798
G1 X232.569 Y-118.642 Z-0.806
G1 X232.679 Y-118.453 Z-0.814
G1 X232.802 Y-118.271 Z-0.821
G1 X232.939 Y-118.099 Z-0.829
G1 X233.088 Y-117.938 Z-0.837
G1 X233.247 Y-117.787 Z-0.844
G1 X233.418 Y-117.649 Z-0.852
G1 X233.598 Y-117.524 Z-0.86
G1 X233.787 Y-117.412 Z-0.867
G1 X233.983 Y-117.314 Z-0.875
G1 X234.186 Y-117.23 Z-0.883
G1 X234.394 Y-117.161 Z-0.89
G1 X234.607 Y-117.108 Z-0.898
G1 X234.824 Y-117.071 Z-0.906
G1 X235.042 Y-117.049 Z-0.913
G1 X235.261 Y-117.043 Z-0.921
G1 X235.481 Y-117.053 Z-0.929
G1 X235.699 Y-117.079 Z-0.936
G1 X235.914 Y-117.121 Z-0.944
G1 X236.126 Y-117.179 Z-0.952
G1 X236.333 Y-117.251 Z-0.959
G1 X236.534 Y-117.339 Z-0.967
G1 X236.729 Y-117.441 Z-0.975
G1 X236.915 Y-117.556 Z-0.982
G1 X237.093 Y-117.685 Z-0.99
G1 X237.26 Y-117.827 Z-0.998
G1 X237.417 Y-117.98 Z-1.005
G1 X237.563 Y-118.145 Z-1.013
G1 X237.696 Y-118.319 Z-1.021
G1 X237.816 Y-118.503 Z-1.028
G1 X237.922 Y-118.695 Z-1.036
G1 X238.014 Y-118.895 Z-1.044
G1 X238.091 Y-119.1 Z-1.051
G1 X238.153 Y-119.31 Z-1.059
G1 X238.2 Y-119.525 Z-1.067
G1 X238.231 Y-119.742 Z-1.074
G1 X238.246 Y-119.961 Z-1.082
G1 X238.245 Y-120.181 Z-1.09
G1 X238.229 Y-120.399 Z-1.097
G1 X238.196 Y-120.616 Z-1.105
G1 X238.148 Y-120.831 Z-1.113
G1 X238.084 Y-121.041 Z-1.12
G1 X238.005 Y-121.245 Z-1.128
G1 X237.911 Y-121.444 Z-1.136
G1 X237.804 Y-121.635 Z-1.143
G1 X237.682 Y-121.818 Z-1.151
G1 X237.548 Y-121.991 Z-1.159
G1 X237.401 Y-122.155 Z-1.166
G1 X237.243 Y-122.307 Z-1.174
G1 X237.074 Y-122.447 Z-1.182
G1 X236.896 Y-122.575 Z-1.189
G1 X236.708 Y-122.689 Z-1.197
G1 X236.513 Y-122.79 Z-1.205
G1 X236.311 Y-122.876 Z-1.212
G1 X236.104 Y-122.947 Z-1.22
G1 X235.891 Y-123.002 Z-1.228
G1 X235.676 Y-123.043 Z-1.235
G1 X235.457 Y-123.067 Z-1.243
G1 X235.238 Y-123.075 Z-1.251
G1 X235.019 Y-123.068 Z-1.258
G1 X234.801 Y-123.044 Z-1.266
G1 X234.585 Y-123.005 Z-1.274
G1 X234.372 Y-122.95 Z-1.281
G1 X234.164 Y-122.88 Z-1.289
G1 X233.962 Y-122.795 Z-1.297
G1 X233.766 Y-122.696 Z-1.304
G1 X233.578 Y-122.582 Z-1.312
G1 X233.399 Y-122.455 Z-1.32
G1 X233.23 Y-122.316 Z-1.327
G1 X233.071 Y-122.164 Z-1.335
G1 X232.924 Y-122.001 Z-1.343
G1 X232.789 Y-121.828 Z-1.35
G1 X232.667 Y-121.646 Z-1.358
G1 X232.558 Y-121.455 Z-1.366
G1 X232.464 Y-121.257 Z-1.373
G1 X232.384 Y-121.053 Z-1.381
G1 X232.319 Y-120.843 Z-1.389
G1 X232.27 Y-120.629 Z-1.396
G1 X232.236 Y-120.412 Z-1.404
G1 X232.218 Y-120.193 Z-1.412
G1 X232.217 Y-119.974 Z-1.419
G1 X232.231 Y-119.755 Z-1.427
G1 X232.261 Y-119.538 Z-1.435
G1 X232.307 Y-119.323 Z-1.442
G1 X232.368 Y-119.112 Z-1.45
G1 X232.444 Y-118.906 Z-1.458
G1 X232.536 Y-118.707 Z-1.465
G1 X232.641 Y-118.514 Z-1.473
G1 X232.76 Y-118.33 Z-1.481
G1 X232.893 Y-118.155 Z-1.488
G1 X233.037 Y-117.99 Z-1.496
G1 X233.193 Y-117.836 Z-1.504
G1 X233.361 Y-117.693 Z-1.511
G1 X233.538 Y-117.564 Z-1.519
G1 X233.723 Y-117.447 Z-1.527
G1 X233.917 Y-117.344 Z-1.534
G1 X234.118 Y-117.256 Z-1.542
G1 X234.325 Y-117.182 Z-1.55
G1 X234.537 Y-117.124 Z-1.557
G1 X234.752 Y-117.081 Z-1.565
G1 X234.97 Y-117.054 Z-1.573
G1 X235.189 Y-117.043 Z-1.58
G1 X235.408 Y-117.048 Z-1.588
G1 X235.627 Y-117.069 Z-1.596
G1 X235.843 Y-117.106 Z-1.603
G1 X236.056 Y-117.158 Z-1.611
G1 X236.265 Y-117.226 Z-1.619
G1 X236.469 Y-117.308 Z-1.626
G1 X236.665 Y-117.405 Z-1.634
G1 X236.854 Y-117.517 Z-1.642
G1 X237.035 Y-117.641 Z-1.649
G1 X237.206 Y-117.779 Z-1.657
G1 X237.367 Y-117.929 Z-1.665
G1 X237.516 Y-118.089 Z-1.672
G1 X237.653 Y-118.261 Z-1.68
G1 X237.777 Y-118.442 Z-1.688
G1 X237.888 Y-118.631 Z-1.695
G1 X237.985 Y-118.828 Z-1.703
G1 X238.067 Y-119.032 Z-1.711
G1 X238.135 Y-119.24 Z-1.718
G1 X238.187 Y-119.454 Z-1.726
G1 X238.223 Y-119.67 Z-1.734
G1 X238.243 Y-119.889 Z-1.741
G1 X238.248 Y-120.108 Z-1.749
G1 X238.236 Y-120.327 Z-1.757
G1 X238.209 Y-120.545 Z-1.764
G1 X238.165 Y-120.76 Z-1.772
G1 X238.107 Y-120.972 Z-1.78
G1 X238.033 Y-121.178 Z-1.787
G1 X237.944 Y-121.379 Z-1.795
G1 X237.841 Y-121.573 Z-1.803
G1 X237.724 Y-121.758 Z-1.81
G1 X237.593 Y-121.935 Z-1.818
G1 X237.451 Y-122.102 Z-1.826
G1 X237.296 Y-122.258 Z-1.833
G1 X237.131 Y-122.402 Z-1.841
G1 X236.956 Y-122.534 Z-1.849
G1 X236.771 Y-122.653 Z-1.856
G1 X236.578 Y-122.758 Z-1.864
G1 X236.379 Y-122.849 Z-1.872
G1 X236.173 Y-122.925 Z-1.879
G1 X235.962 Y-122.986 Z-1.887
G1 X235.747 Y-123.031 Z-1.895
G1 X235.53 Y-123.061 Z-1.902
G1 X235.311 Y-123.074 Z-1.91
G1 X235.091 Y-123.072 Z-1.918
G1 X234.872 Y-123.054 Z-1.925
G1 X234.656 Y-123.02 Z-1.933
G1 X234.442 Y-122.97 Z-1.941
G1 X234.232 Y-122.905 Z-1.948
G1 X234.028 Y-122.825 Z-1.956
G1 X233.83 Y-122.73 Z-1.964
G1 X233.639 Y-122.621 Z-1.971
G1 X233.457 Y-122.498 Z-1.979
G1 X233.285 Y-122.363 Z-1.987
G1 X233.122 Y-122.215 Z-1.994
G1 X232.971 Y-122.056 Z-2.002
G1 X232.832 Y-121.887 Z-2.01
G1 X232.705 Y-121.707 Z-2.017
G1 X232.592 Y-121.519 Z-2.025
G1 X232.493 Y-121.323 Z-2.033
G1 X232.408 Y-121.121 Z-2.04
G1 X232.339 Y-120.913 Z-2.048
G1 X232.284 Y-120.7 Z-2.056
G1 X232.245 Y-120.484 Z-2.063
G1 X232.222 Y-120.266 Z-2.071
G1 X232.215 Y-120.046 Z-2.079
G1 X232.224 Y-119.827 Z-2.086
G1 X232.249 Y-119.609 Z-2.094
G1 X232.29 Y-119.393 Z-2.102
G1 X232.346 Y-119.181 Z-2.109
G1 X232.417 Y-118.974 Z-2.117
G1 X232.504 Y-118.772 Z-2.125
G1 X232.605 Y-118.577 Z-2.132
G1 X232.719 Y-118.39 Z-2.14
G1 X232.847 Y-118.212 Z-2.148
G1 X232.988 Y-118.043 Z-2.155
G1 X233.141 Y-117.885 Z-2.163
G1 X233.304 Y-117.739 Z-2.17
G1 X233.478 Y-117.605 Z-2.178
G1 X233.661 Y-117.484 Z-2.186
G1 X233.853 Y-117.377 Z-2.193
G1 X234.051 Y-117.283 Z-2.201
G1 X234.256 Y-117.205 Z-2.209
G1 X234.466 Y-117.142 Z-2.216
G1 X234.681 Y-117.094 Z-2.224
G1 X234.898 Y-117.061 Z-2.232
G1 X235.117 Y-117.045 Z-2.239
G1 X235.336 Z-2.247
G1 X235.555 Y-117.06 Z-2.255
G1 X235.772 Y-117.092 Z-2.262
G1 X235.986 Y-117.139 Z-2.27
G1 X236.197 Y-117.202 Z-2.278
G1 X236.402 Y-117.279 Z-2.285
G1 X236.601 Y-117.372 Z-2.293
G1 X236.793 Y-117.478 Z-2.301
G1 X236.976 Y-117.599 Z-2.308
G1 X237.151 Y-117.732 Z-2.316
G1 X237.315 Y-117.878 Z-2.324
G1 X237.468 Y-118.035 Z-2.331
G1 X237.609 Y-118.203 Z-2.339
G1 X237.738 Y-118.381 Z-2.347
G1 X237.853 Y-118.568 Z-2.354
G1 X237.955 Y-118.762 Z-2.362
G1 X238.042 Y-118.964 Z-2.37
G1 X238.114 Y-119.171 Z-2.377
G1 X238.171 Y-119.383 Z-2.385
G1 X238.213 Y-119.598 Z-2.393
G1 X238.238 Y-119.816 Z-2.4
G1 X238.248 Y-120.036 Z-2.408
G1 X238.242 Y-120.255 Z-2.416
G1 X238.219 Y-120.473 Z-2.423
G1 X238.181 Y-120.69 Z-2.431
G1 X238.128 Y-120.902 Z-2.439
G1 X238.059 Y-121.111 Z-2.446
G1 X237.975 Y-121.314 Z-2.454
G1 X237.876 Y-121.51 Z-2.462
G1 X237.764 Y-121.698 Z-2.469
G1 X237.638 Y-121.878 Z-2.477
G1 X237.499 Y-122.048 Z-2.485
G1 X237.349 Y-122.208 Z-2.492
G1 X237.187 Y-122.356 Z-2.5
G1 X237.015 Y-122.492 Z-2.508
G1 X236.833 Y-122.615 Z-2.515
G1 X236.643 Y-122.725 Z-2.523
G1 X236.445 Y-122.821 Z-2.531
G1 X236.241 Y-122.901 Z-2.538
G1 X236.032 Y-122.967 Z-2.546
G1 X235.818 Y-123.018 Z-2.554
G1 X235.602 Y-123.053 Z-2.561
G1 X235.383 Y-123.072 Z-2.569
G1 X235.164 Y-123.075 Z-2.577
G1 X234.944 Y-123.062 Z-2.584
G1 X234.727 Y-123.033 Z-2.592
G1 X234.512 Y-122.988 Z-2.6
G1 X234.301 Y-122.928 Z-2.607
G1 X234.095 Y-122.853 Z-2.615
G1 X233.895 Y-122.763 Z-2.623
G1 X233.701 Y-122.658 Z-2.63
G1 X233.517 Y-122.54 Z-2.638
G1 X233.341 Y-122.409 Z-2.646
G1 X233.175 Y-122.265 Z-2.653
G1 X233.02 Y-122.11 Z-2.661
G1 X232.877 Y-121.944 Z-2.669
G1 X232.746 Y-121.767 Z-2.676
G1 X232.628 Y-121.582 Z-2.684
G1 X232.524 Y-121.389 Z-2.692
G1 X232.435 Y-121.188 Z-2.699
G1 X232.36 Y-120.982 Z-2.707
G1 X232.301 Y-120.771 Z-2.715
G1 X232.257 Y-120.556 Z-2.722
G1 X232.228 Y-120.338 Z-2.73
G1 X232.216 Y-120.119 Z-2.738
G1 X232.22 Y-119.899 Z-2.745
G1 X232.239 Y-119.681 Z-2.753
G1 X232.275 Y-119.464 Z-2.761
G1 X232.326 Y-119.251 Z-2.768
G1 X232.392 Y-119.042 Z-2.776
G1 X232.474 Y-118.838 Z-2.784
G1 X232.57 Y-118.641 Z-2.791
G1 X232.68 Y-118.451 Z-2.799
G1 X232.804 Y-118.269 Z-2.807
G1 X232.94 Y-118.098 Z-2.814
G1 X233.089 Y-117.936 Z-2.822
G1 X233.249 Y-117.786 Z-2.83
G1 X233.42 Y-117.648 Z-2.837
G1 X233.6 Y-117.523 Z-2.845
G1 X233.789 Y-117.411 Z-2.853
G1 X233.985 Y-117.313 Z-2.86
G1 X234.188 Y-117.229 Z-2.868
G1 X234.396 Y-117.161 Z-2.876
G1 X234.609 Y-117.108 Z-2.883
G1 X234.826 Y-117.07 Z-2.891
G1 X235.044 Y-117.049 Z-2.899
G1 X235.264 Y-117.043 Z-2.906
G1 X235.483 Y-117.053 Z-2.914
G1 X235.701 Y-117.08 Z-2.922
G1 X235.916 Y-117.122 Z-2.929
G1 X236.128 Y-117.179 Z-2.937
G1 X236.335 Y-117.252 Z-2.945
G1 X236.536 Y-117.34 Z-2.952
G1 X236.73 Y-117.442 Z-2.96
G1 X236.917 Y-117.558 Z-2.968
G1 X237.094 Y-117.687 Z-2.975
G1 X237.262 Y-117.828 Z-2.983
G1 X237.419 Y-117.982 Z-2.991
G1 X237.564 Y-118.147 Z-2.998
G1 X237.697 Y-118.321 Z-3.006
G1 X237.817 Y-118.505 Z-3.014
G1 X237.923 Y-118.697 Z-3.021
G1 X238.015 Y-118.896 Z-3.029
G1 X238.092 Y-119.102 Z-3.037
G1 X238.154 Y-119.312 Z-3.044
G1 X238.201 Y-119.527 Z-3.052
G1 X238.231 Y-119.744 Z-3.06
G1 X238.246 Y-119.963 Z-3.067
G1 X238.245 Y-120.183 Z-3.075
G1 X238.228 Y-120.402 Z-3.083
G1 X238.196 Y-120.619 Z-3.09
G1 X238.147 Y-120.833 Z-3.098
G1 X238.083 Y-121.043 Z-3.106
G1 X238.004 Y-121.247 Z-3.113
G1 X237.91 Y-121.446 Z-3.121
G1 X237.802 Y-121.637 Z-3.129
G1 X237.681 Y-121.82 Z-3.136
G1 X237.546 Y-121.993 Z-3.144
G1 X237.4 Y-122.156 Z-3.152
G1 X237.241 Y-122.308 Z-3.159
G1 X237.073 Y-122.449 Z-3.167
G1 X236.894 Y-122.576 Z-3.175
G1 X236.706 Y-122.69 Z-3.182
G1 X236.511 Y-122.791 Z-3.19
G1 X236.309 Y-122.876 Z-3.198
G1 X236.102 Y-122.947 Z-3.205
G1 X235.889 Y-123.003 Z-3.213
G1 X235.673 Y-123.043 Z-3.221
G1 X235.455 Y-123.067 Z-3.228
G1 X235.236 Y-123.075 Z-3.236
G1 X235.017 Y-123.068 Z-3.244
G1 X234.798 Y-123.044 Z-3.251
G1 X234.583 Y-123.005 Z-3.259
G1 X234.37 Y-122.95 Z-3.267
G1 X234.162 Y-122.879 Z-3.274
G1 X233.96 Y-122.794 Z-3.282
G1 X233.764 Y-122.695 Z-3.29
G1 X233.577 Y-122.581 Z-3.297
G1 X233.398 Y-122.454 Z-3.305
G1 X233.228 Y-122.314 Z-3.313
G1 X233.07 Y-122.162 Z-3.32
G1 X232.922 Y-122 Z-3.328
G1 X232.787 Y-121.827 Z-3.336
G1 X232.665 Y-121.644 Z-3.343
G1 X232.557 Y-121.453 Z-3.351
G1 X232.463 Y-121.255 Z-3.359
G1 X232.383 Y-121.051 Z-3.366
G1 X232.318 Y-120.841 Z-3.374
G1 X232.269 Y-120.627 Z-3.382
G1 X232.236 Y-120.41 Z-3.389
G1 X232.218 Y-120.191 Z-3.397
G1 X232.217 Y-119.972 Z-3.405
G1 X232.231 Y-119.753 Z-3.412
G1 X232.261 Y-119.535 Z-3.42
G1 X232.307 Y-119.321 Z-3.428
G1 X232.369 Y-119.11 Z-3.435
G1 X232.445 Y-118.904 Z-3.443
G1 X232.537 Y-118.705 Z-3.451
G1 X232.642 Y-118.513 Z-3.458
G1 X232.761 Y-118.328 Z-3.466
G1 X232.894 Y-118.153 Z-3.474
G1 X233.039 Y-117.988 Z-3.481
G1 X233.195 Y-117.834 Z-3.489
G1 X233.362 Y-117.692 Z-3.497
G1 X233.539 Y-117.562 Z-3.504
G1 X233.725 Y-117.446 Z-3.512
G1 X233.919 Y-117.343 Z-3.52
G1 X234.12 Y-117.255 Z-3.527
G1 X234.327 Y-117.182 Z-3.535
G1 X234.539 Y-117.124 Z-3.543
G1 X234.754 Y-117.081 Z-3.55
G1 X234.972 Y-117.054 Z-3.558
G1 X235.191 Y-117.043 Z-3.566
G1 X235.41 Y-117.048 Z-3.573
G1 X235.629 Y-117.069 Z-3.581
G1 X235.845 Y-117.106 Z-3.589
G1 X236.058 Y-117.158 Z-3.596
G1 X236.267 Y-117.226 Z-3.604
G1 X236.47 Y-117.309 Z-3.612
G1 X236.667 Y-117.406 Z-3.619
G1 X236.856 Y-117.518 Z-3.627
G1 X237.037 Y-117.643 Z-3.635
G1 X237.208 Y-117.78 Z-3.642
G1 X237.368 Y-117.93 Z-3.65
G1 X237.517 Y-118.091 Z-3.658
G1 X237.654 Y-118.262 Z-3.665
G1 X237.779 Y-118.443 Z-3.673
G1 X237.889 Y-118.633 Z-3.681
G1 X237.986 Y-118.83 Z-3.688
G1 X238.068 Y-119.033 Z-3.696
G1 X238.135 Y-119.242 Z-3.704
G1 X238.187 Y-119.456 Z-3.711
G1 X238.223 Y-119.672 Z-3.719
G1 X238.243 Y-119.891 Z-3.727
G1 X238.247 Y-120.11 Z-3.734
G1 X238.236 Y-120.329 Z-3.742
G1 X238.208 Y-120.547 Z-3.75
G1 X238.165 Y-120.762 Z-3.757
G1 X238.106 Y-120.974 Z-3.765
G1 X238.032 Y-121.18 Z-3.773
G1 X237.943 Y-121.381 Z-3.78
G1 X237.84 Y-121.575 Z-3.788
G1 X237.722 Y-121.76 Z-3.796
G1 X237.592 Y-121.937 Z-3.803
G1 X237.449 Y-122.104 Z-3.811
G1 X237.295 Y-122.259 Z-3.819
G1 X237.129 Y-122.404 Z-3.826
G1 X236.954 Y-122.535 Z-3.834
G1 X236.769 Y-122.654 Z-3.842
G1 X236.577 Y-122.759 Z-3.849
G1 X236.377 Y-122.85 Z-3.857
G1 X236.171 Y-122.926 Z-3.865
G1 X235.96 Y-122.986 Z-3.872
G1 X235.745 Y-123.031 Z-3.88
G1 X235.528 Y-123.061 Z-3.888
G1 X235.308 Y-123.074 Z-3.895
G1 X235.089 Y-123.072 Z-3.903
G1 X234.87 Y-123.054 Z-3.911
G1 X234.653 Y-123.02 Z-3.918
G1 X234.44 Y-122.97 Z-3.926
G1 X234.23 Y-122.904 Z-3.934
G1 X234.026 Y-122.824 Z-3.941
G1 X233.828 Y-122.729 Z-3.949
G1 X233.638 Y-122.62 Z-3.957
G1 X233.456 Y-122.497 Z-3.964
G1 X233.283 Y-122.362 Z-3.972
G1 X233.121 Y-122.214 Z-3.98
G1 X232.97 Y-122.055 Z-3.987
G1 X232.831 Y-121.885 Z-3.995
G1 X232.704 Y-121.705 Z-4.003
G1 X232.591 Y-121.517 Z-4.01
G1 X232.492 Y-121.321 Z-4.018
G1 X232.408 Y-121.119 Z-4.026
G1 X232.338 Y-120.911 Z-4.033
G1 X232.284 Y-120.698 Z-4.041
G1 X232.245 Y-120.482 Z-4.049
G1 X232.222 Y-120.264 Z-4.056
G1 X232.215 Y-120.044 Z-4.064
G1 Y-120.034
G1 X232.222 Y-119.993
G1 X232.241 Y-119.956
G1 X232.271 Y-119.927
G1 X232.307 Y-119.909
G1 X232.348 Y-119.902
G1 X232.859 Y-119.905
G2 X233.001 Y-120.048 I-0.001 J-0.143
G2 X232.959 Y-120.149 I-0.143 J0.001
G2 X232.858 Y-120.19 I-0.1 J0.101
G1 X232.347 Y-120.188
G1 X232.306 Y-120.181
G1 X232.269 Y-120.162
G1 X232.24 Y-120.133
G1 X232.222 Y-120.096
G1 X232.215 Y-120.055
G1 Y-120.044
G3 X230.893 Y-117.468 I-3.14 J0.015
G2 X230.533 Y-115.351 I0.879 J1.238
G2 X231.779 Y-114.712 I1.238 J-0.879
G1 X236.329 Y-114.734
G3 X238.965 Y-113.642 I0.018 J3.683
G2 X239.413 Y-113.64 I0.226 J-0.223
G2 X239.507 Y-113.867 I-0.223 J-0.226
G2 X239.411 Y-114.093 I-0.317 J0.002
G3 X238.293 Y-116.718 I2.565 J-2.643
G1 X238.26 Y-123.432
G3 X239.352 Y-126.067 I3.683 J-0.018
G2 X239.354 Y-126.515 I-0.223 J-0.225
G2 X239.127 Y-126.609 I-0.225 J0.223
G2 X238.902 Y-126.513 I0.002 J0.317
G3 X236.277 Y-125.395 I-2.643 J-2.565
G1 X228.974 Y-125.359
G3 X226.338 Y-126.451 I-0.018 J-3.683
G2 X225.89 Y-126.453 I-0.225 J0.223
G2 X225.796 Y-126.227 I0.223 J0.225
G2 X225.892 Y-126.001 I0.317 J-0.002
G3 X227.011 Y-123.375 I-2.564 J2.644
G1 X227.044 Y-116.662
G3 X225.952 Y-114.026 I-3.683 J0.018
G2 X225.95 Y-113.578 I0.223 J0.225
G2 X226.176 Y-113.484 I0.225 J-0.223
G2 X226.402 Y-113.58 I-0.002 J-0.317
G3 X229.027 Y-114.698 I2.643 J2.565
G1 X231.779 Y-114.712
G0 Z6.096
G0 X236.537 Y-122.778
G1 Z-1.524 F508.
G1 X236.336 Y-122.866 Z-1.532
G1 X236.129 Y-122.939 Z-1.539
G1 X235.917 Y-122.996 Z-1.547
G1 X235.702 Y-123.039 Z-1.555
G1 X235.484 Y-123.065 Z-1.562
G1 X235.264 Y-123.075 Z-1.57
G1 X235.045 Y-123.07 Z-1.578
G1 X234.826 Y-123.048 Z-1.585
G1 X234.61 Y-123.011 Z-1.593
G1 X234.397 Y-122.958 Z-1.601
G1 X234.188 Y-122.889 Z-1.608
G1 X233.985 Y-122.806 Z-1.616
G1 X233.789 Y-122.708 Z-1.624
G1 X233.6 Y-122.596 Z-1.631
G1 X233.42 Y-122.47 Z-1.639
G1 X233.249 Y-122.332 Z-1.647
G1 X233.089 Y-122.182 Z-1.654
G1 X232.94 Y-122.02 Z-1.662
G1 X232.803 Y-121.849 Z-1.67
G1 X232.68 Y-121.667 Z-1.677
G1 X232.57 Y-121.477 Z-1.685
G1 X232.473 Y-121.28 Z-1.693
G1 X232.392 Y-121.076 Z-1.7
G1 X232.325 Y-120.867 Z-1.708
G1 X232.274 Y-120.653 Z-1.716
G1 X232.239 Y-120.436 Z-1.723
G1 X232.22 Y-120.218 Z-1.731
G1 X232.216 Y-119.998 Z-1.739
G1 X232.228 Y-119.779 Z-1.746
G1 X232.257 Y-119.561 Z-1.754
G1 X232.301 Y-119.346 Z-1.762
G1 X232.361 Y-119.135 Z-1.769
G1 X232.435 Y-118.928 Z-1.777
G1 X232.525 Y-118.728 Z-1.785
G1 X232.629 Y-118.535 Z-1.792
G1 X232.747 Y-118.349 Z-1.8
G1 X232.878 Y-118.173 Z-1.808
G1 X233.021 Y-118.007 Z-1.815
G1 X233.177 Y-117.851 Z-1.823
G1 X233.343 Y-117.708 Z-1.831
G1 X233.519 Y-117.577 Z-1.838
G1 X233.704 Y-117.459 Z-1.846
G1 X233.897 Y-117.354 Z-1.854
G1 X234.097 Y-117.264 Z-1.861
G1 X234.304 Y-117.189 Z-1.869
G1 X234.515 Y-117.129 Z-1.877
G1 X234.73 Y-117.085 Z-1.884
G1 X234.948 Y-117.056 Z-1.892
G1 X235.167 Y-117.044 Z-1.9
G1 X235.386 Y-117.047 Z-1.907
G1 X235.605 Y-117.066 Z-1.915
G1 X235.822 Y-117.101 Z-1.923
G1 X236.036 Y-117.152 Z-1.93
G1 X236.245 Y-117.218 Z-1.938
G1 X236.449 Y-117.299 Z-1.946
G1 X236.646 Y-117.395 Z-1.953
G1 X236.836 Y-117.505 Z-1.961
G1 X237.018 Y-117.629 Z-1.969
G1 X237.19 Y-117.765 Z-1.976
G1 X237.352 Y-117.914 Z-1.984
G1 X237.502 Y-118.074 Z-1.992
G1 X237.641 Y-118.244 Z-2
G1 X237.766 Y-118.424 Z-2.007
G1 X237.879 Y-118.613 Z-2.015
G1 X237.977 Y-118.809 Z-2.023
G1 X238.06 Y-119.012 Z-2.03
G1 X238.129 Y-119.221 Z-2.038
G1 X238.182 Y-119.434 Z-2.046
G1 X238.22 Y-119.65 Z-2.053
G1 X238.242 Y-119.869 Z-2.061
G1 X238.248 Y-120.088 Z-2.069
G1 X238.238 Y-120.308 Z-2.076
G1 X238.212 Y-120.526 Z-2.084
G1 X238.17 Y-120.741 Z-2.092
G1 X238.112 Y-120.953 Z-2.099
G1 X238.04 Y-121.16 Z-2.107
G1 X237.952 Y-121.362 Z-2.115
G1 X237.85 Y-121.556 Z-2.122
G1 X237.734 Y-121.743 Z-2.13
G1 X237.605 Y-121.92 Z-2.138
G1 X237.464 Y-122.088 Z-2.145
G1 X237.31 Y-122.245 Z-2.153
G1 X237.146 Y-122.39 Z-2.161
G1 X236.971 Y-122.523 Z-2.168
G1 X236.787 Y-122.643 Z-2.176
G1 X236.595 Y-122.75 Z-2.184
G1 X236.396 Y-122.842 Z-2.191
G1 X236.19 Y-122.919 Z-2.199
G1 X235.979 Y-122.981 Z-2.207
G1 X235.765 Y-123.028 Z-2.214
G1 X235.548 Y-123.059 Z-2.222
G1 X235.328 Y-123.074 Z-2.23
G1 X235.109 Y-123.073 Z-2.237
G1 X234.89 Y-123.056 Z-2.245
G1 X234.673 Y-123.023 Z-2.253
G1 X234.459 Y-122.975 Z-2.26
G1 X234.249 Y-122.911 Z-2.268
G1 X234.044 Y-122.832 Z-2.276
G1 X233.845 Y-122.738 Z-2.283
G1 X233.654 Y-122.63 Z-2.291
G1 X233.471 Y-122.508 Z-2.299
G1 X233.298 Y-122.374 Z-2.306
G1 X233.134 Y-122.227 Z-2.314
G1 X232.982 Y-122.069 Z-2.322
G1 X232.842 Y-121.9 Z-2.329
G1 X232.714 Y-121.721 Z-2.337
G1 X232.6 Y-121.533 Z-2.345
G1 X232.5 Y-121.338 Z-2.352
G1 X232.414 Y-121.136 Z-2.36
G1 X232.343 Y-120.928 Z-2.368
G1 X232.288 Y-120.716 Z-2.375
G1 X232.248 Y-120.5 Z-2.383
G1 X232.224 Y-120.282 Z-2.391
G1 X232.215 Y-120.062 Z-2.398
G1 X232.223 Y-119.843 Z-2.406
G1 X232.247 Y-119.625 Z-2.414
G1 X232.286 Y-119.409 Z-2.421
G1 X232.342 Y-119.196 Z-2.429
G1 X232.412 Y-118.988 Z-2.437
G1 X232.497 Y-118.786 Z-2.444
G1 X232.597 Y-118.59 Z-2.452
G1 X232.711 Y-118.402 Z-2.46
G1 X232.838 Y-118.223 Z-2.467
G1 X232.978 Y-118.054 Z-2.475
G1 X233.13 Y-117.896 Z-2.483
G1 X233.293 Y-117.748 Z-2.49
G1 X233.466 Y-117.614 Z-2.498
G1 X233.649 Y-117.492 Z-2.506
G1 X233.84 Y-117.383 Z-2.513
G1 X234.038 Y-117.289 Z-2.521
G1 X234.243 Y-117.21 Z-2.529
G1 X234.453 Y-117.145 Z-2.536
G1 X234.667 Y-117.096 Z-2.544
G1 X234.884 Y-117.063 Z-2.552
G1 X235.103 Y-117.046 Z-2.559
G1 X235.322 Y-117.044 Z-2.567
G1 X235.541 Y-117.059 Z-2.575
G1 X235.759 Y-117.089 Z-2.582
G1 X235.974 Y-117.136 Z-2.59
G1 X236.184 Y-117.197 Z-2.598
G1 X236.39 Y-117.274 Z-2.605
G1 X236.589 Y-117.366 Z-2.613
G1 X236.782 Y-117.472 Z-2.621
G1 X236.966 Y-117.591 Z-2.628
G1 X237.141 Y-117.724 Z-2.636
G1 X237.306 Y-117.869 Z-2.644
G1 X237.46 Y-118.026 Z-2.651
G1 X237.602 Y-118.193 Z-2.659
G1 X237.731 Y-118.371 Z-2.667
G1 X237.847 Y-118.557 Z-2.674
G1 X237.95 Y-118.751 Z-2.682
G1 X238.038 Y-118.952 Z-2.69
G1 X238.111 Y-119.159 Z-2.697
G1 X238.168 Y-119.371 Z-2.705
G1 X238.211 Y-119.587 Z-2.713
G1 X238.237 Y-119.805 Z-2.72
G1 X238.248 Y-120.024 Z-2.728
G1 X238.242 Y-120.244 Z-2.736
G1 X238.221 Y-120.462 Z-2.743
G1 X238.184 Y-120.679 Z-2.751
G1 X238.131 Y-120.892 Z-2.759
G1 X238.063 Y-121.1 Z-2.766
G1 X237.979 Y-121.304 Z-2.774
G1 X237.881 Y-121.5 Z-2.782
G1 X237.77 Y-121.689 Z-2.789
G1 X237.644 Y-121.869 Z-2.797
G1 X237.506 Y-122.04 Z-2.805
G1 X237.356 Y-122.2 Z-2.812
G1 X237.195 Y-122.349 Z-2.82
G1 X237.023 Y-122.486 Z-2.828
G1 X236.842 Y-122.61 Z-2.835
G1 X236.652 Y-122.72 Z-2.843
G1 X236.454 Y-122.816 Z-2.851
G1 X236.251 Y-122.898 Z-2.858
G1 X236.041 Y-122.965 Z-2.866
G1 X235.828 Y-123.016 Z-2.874
G1 X235.611 Y-123.051 Z-2.881
G1 X235.393 Y-123.071 Z-2.889
G1 X235.173 Y-123.075 Z-2.897
G1 X234.954 Y-123.063 Z-2.904
G1 X234.736 Y-123.034 Z-2.912
G1 X234.521 Y-122.99 Z-2.92
G1 X234.309 Y-122.931 Z-2.927
G1 X234.103 Y-122.856 Z-2.935
G1 X233.902 Y-122.767 Z-2.943
G1 X233.709 Y-122.663 Z-2.951
G1 X233.524 Y-122.545 Z-2.958
G1 X233.347 Y-122.414 Z-2.966
G1 X233.181 Y-122.271 Z-2.974
G1 X233.025 Y-122.116 Z-2.981
G1 X232.882 Y-121.95 Z-2.989
G1 X232.75 Y-121.774 Z-2.997
G1 X232.632 Y-121.589 Z-3.004
G1 X232.528 Y-121.396 Z-3.012
G1 X232.438 Y-121.196 Z-3.02
G1 X232.362 Y-120.989 Z-3.027
G1 X232.302 Y-120.778 Z-3.035
G1 X232.258 Y-120.563 Z-3.043
G1 X232.229 Y-120.346 Z-3.05
G1 X232.216 Y-120.126 Z-3.058
G1 X232.219 Y-119.907 Z-3.066
G1 X232.238 Y-119.688 Z-3.073
G1 X232.273 Y-119.471 Z-3.081
G1 X232.324 Y-119.258 Z-3.089
G1 X232.39 Y-119.048 Z-3.096
G1 X232.471 Y-118.844 Z-3.104
G1 X232.567 Y-118.646 Z-3.112
G1 X232.677 Y-118.456 Z-3.119
G1 X232.8 Y-118.275 Z-3.127
G1 X232.936 Y-118.103 Z-3.135
G1 X233.085 Y-117.941 Z-3.142
G1 X233.244 Y-117.79 Z-3.15
G1 X233.415 Y-117.652 Z-3.158
G1 X233.595 Y-117.526 Z-3.165
G1 X233.783 Y-117.413 Z-3.173
G1 X233.98 Y-117.315 Z-3.181
G1 X234.183 Y-117.231 Z-3.188
G1 X234.391 Y-117.162 Z-3.196
G1 X234.604 Y-117.109 Z-3.204
G1 X234.82 Y-117.071 Z-3.211
G1 X235.039 Y-117.049 Z-3.219
G1 X235.258 Y-117.043 Z-3.227
G1 X235.478 Y-117.053 Z-3.234
G1 X235.696 Y-117.079 Z-3.242
G1 X235.911 Y-117.12 Z-3.25
G1 X236.123 Y-117.178 Z-3.257
G1 X236.331 Y-117.25 Z-3.265
G1 X236.532 Y-117.338 Z-3.273
G1 X236.726 Y-117.439 Z-3.28
G1 X236.913 Y-117.555 Z-3.288
G1 X237.091 Y-117.684 Z-3.296
G1 X237.259 Y-117.826 Z-3.303
G1 X237.416 Y-117.979 Z-3.311
G1 X237.561 Y-118.143 Z-3.319
G1 X237.695 Y-118.318 Z-3.326
G1 X237.815 Y-118.502 Z-3.334
G1 X237.921 Y-118.694 Z-3.342
G1 X238.013 Y-118.893 Z-3.349
G1 X238.091 Y-119.099 Z-3.357
G1 X238.153 Y-119.309 Z-3.365
G1 X238.2 Y-119.524 Z-3.372
G1 X238.231 Y-119.741 Z-3.38
G1 X238.246 Y-119.96 Z-3.388
G1 X238.245 Y-120.18 Z-3.395
G1 X238.229 Y-120.399 Z-3.403
G1 X238.196 Y-120.616 Z-3.411
G1 X238.148 Y-120.83 Z-3.418
G1 X238.084 Y-121.04 Z-3.426
G1 X238.005 Y-121.245 Z-3.434
G1 X237.911 Y-121.443 Z-3.441
G1 X237.804 Y-121.635 Z-3.449
G1 X237.682 Y-121.818 Z-3.457
G1 X237.548 Y-121.991 Z-3.464
G1 X237.401 Y-122.155 Z-3.472
G1 X237.243 Y-122.307 Z-3.48
G1 X237.074 Y-122.447 Z-3.487
G1 X236.895 Y-122.575 Z-3.495
G1 X236.708 Y-122.689 Z-3.503
G1 X236.513 Y-122.79 Z-3.51
G1 X236.311 Y-122.876 Z-3.518
G1 X236.103 Y-122.947 Z-3.526
G1 X235.891 Y-123.003 Z-3.533
G1 X235.675 Y-123.043 Z-3.541
G1 X235.456 Y-123.067 Z-3.549
G1 X235.237 Y-123.075 Z-3.556
G1 X235.018 Y-123.068 Z-3.564
G1 X234.799 Y-123.044 Z-3.572
G1 X234.583 Y-123.005 Z-3.579
G1 X234.371 Y-122.95 Z-3.587
G1 X234.163 Y-122.88 Z-3.595
G1 X233.96 Y-122.794 Z-3.602
G1 X233.765 Y-122.695 Z-3.61
G1 X233.577 Y-122.581 Z-3.618
G1 X233.398 Y-122.454 Z-3.625
G1 X233.228 Y-122.314 Z-3.633
G1 X233.07 Y-122.162 Z-3.641
G1 X232.922 Y-122 Z-3.648
G1 X232.787 Y-121.826 Z-3.656
G1 X232.665 Y-121.644 Z-3.664
G1 X232.557 Y-121.453 Z-3.671
G1 X232.462 Y-121.255 Z-3.679
G1 X232.383 Y-121.05 Z-3.687
G1 X232.318 Y-120.84 Z-3.694
G1 X232.269 Y-120.626 Z-3.702
G1 X232.236 Y-120.409 Z-3.71
G1 X232.218 Y-120.19 Z-3.717
G1 X232.217 Y-119.971 Z-3.725
G1 X232.231 Y-119.752 Z-3.733
G1 X232.261 Y-119.534 Z-3.74
G1 X232.307 Y-119.32 Z-3.748
G1 X232.369 Y-119.109 Z-3.756
G1 X232.446 Y-118.903 Z-3.763
G1 X232.537 Y-118.703 Z-3.771
G1 X232.643 Y-118.511 Z-3.779
G1 X232.763 Y-118.327 Z-3.786
G1 X232.895 Y-118.152 Z-3.794
G1 X233.04 Y-117.987 Z-3.802
G1 X233.197 Y-117.833 Z-3.809
G1 X233.364 Y-117.691 Z-3.817
G1 X233.541 Y-117.561 Z-3.825
G1 X233.727 Y-117.445 Z-3.832
G1 X233.922 Y-117.342 Z-3.84
G1 X234.123 Y-117.254 Z-3.848
G1 X234.33 Y-117.181 Z-3.855
G1 X234.541 Y-117.123 Z-3.863
G1 X234.757 Y-117.081 Z-3.871
G1 X234.975 Y-117.054 Z-3.879
G1 X235.194 Y-117.043 Z-3.886
G1 X235.414 Y-117.048 Z-3.894
G1 X235.632 Y-117.07 Z-3.902
G1 X235.849 Y-117.107 Z-3.909
G1 X236.062 Y-117.159 Z-3.917
G1 X236.271 Y-117.228 Z-3.925
G1 X236.474 Y-117.311 Z-3.932
G1 X236.67 Y-117.408 Z-3.94
G1 X236.86 Y-117.52 Z-3.948
G1 X237.04 Y-117.645 Z-3.955
G1 X237.211 Y-117.783 Z-3.963
G1 X237.371 Y-117.933 Z-3.971
G1 X237.52 Y-118.094 Z-3.978
G1 X237.657 Y-118.266 Z-3.986
G1 X237.781 Y-118.447 Z-3.994
G1 X237.892 Y-118.637 Z-4.001
G1 X237.988 Y-118.834 Z-4.009
G1 X238.07 Y-119.038 Z-4.017
G1 X238.137 Y-119.247 Z-4.024
G1 X238.188 Y-119.461 Z-4.032
G1 X238.224 Y-119.677 Z-4.04
G1 X238.243 Y-119.896 Z-4.047
G1 X238.247 Y-120.116 Z-4.055
G1 X238.235 Y-120.335 Z-4.063
G1 X238.207 Y-120.553 Z-4.07
G1 X238.163 Y-120.768 Z-4.078
G1 X238.104 Y-120.979 Z-4.086
G1 X238.03 Y-121.186 Z-4.093
G1 X237.94 Y-121.386 Z-4.101
G1 X237.837 Y-121.58 Z-4.109
G1 X237.719 Y-121.765 Z-4.116
G1 X237.588 Y-121.942 Z-4.124
G1 X237.445 Y-122.108 Z-4.132
G1 X237.29 Y-122.264 Z-4.139
G1 X237.124 Y-122.408 Z-4.147
G1 X236.949 Y-122.539 Z-4.155
G1 X236.764 Y-122.657 Z-4.162
G1 X236.57 Y-122.762 Z-4.17
G1 X236.37 Y-122.852 Z-4.178
G1 X236.164 Y-122.928 Z-4.185
G1 X235.953 Y-122.988 Z-4.193
G1 X235.738 Y-123.033 Z-4.201
G1 X235.52 Y-123.062 Z-4.208
G1 X235.301 Y-123.075 Z-4.216
G1 X235.082 Y-123.072 Z-4.224
G1 X234.863 Y-123.053 Z-4.231
G1 X234.646 Y-123.018 Z-4.239
G1 X234.432 Y-122.968 Z-4.247
G1 X234.223 Y-122.902 Z-4.254
G1 X234.019 Y-122.821 Z-4.262
G1 X233.821 Y-122.725 Z-4.27
G1 X233.631 Y-122.616 Z-4.277
G1 X233.449 Y-122.492 Z-4.285
G1 X233.277 Y-122.356 Z-4.293
G1 X233.115 Y-122.208 Z-4.3
G1 X232.964 Y-122.048 Z-4.308
G1 X232.825 Y-121.878 Z-4.316
G1 X232.7 Y-121.698 Z-4.323
G1 X232.587 Y-121.51 Z-4.331
G1 X232.489 Y-121.313 Z-4.339
G1 X232.405 Y-121.11 Z-4.346
G1 X232.336 Y-120.902 Z-4.354
G1 X232.282 Y-120.689 Z-4.362
G1 X232.244 Y-120.473 Z-4.369
G1 X232.222 Y-120.254 Z-4.377
G1 X232.215 Y-120.035 Z-4.385
G1 X232.225 Y-119.816 Z-4.392
G1 X232.251 Y-119.597 Z-4.4
G1 X232.292 Y-119.382 Z-4.408
G1 X232.349 Y-119.17 Z-4.415
G1 X232.422 Y-118.963 Z-4.423
G1 X232.509 Y-118.761 Z-4.431
G1 X232.611 Y-118.566 Z-4.438
G1 X232.726 Y-118.38 Z-4.446
G1 X232.855 Y-118.202 Z-4.454
G1 X232.996 Y-118.034 Z-4.461
G1 X233.15 Y-117.877 Z-4.469
G1 X233.314 Y-117.731 Z-4.477
G1 X233.488 Y-117.598 Z-4.484
G1 X233.672 Y-117.477 Z-4.492
G1 X233.864 Y-117.371 Z-4.5
G1 X234.063 Y-117.278 Z-4.507
G1 X234.269 Y-117.201 Z-4.515
G1 X234.479 Y-117.138 Z-4.523
G1 X234.694 Y-117.091 Z-4.53
G1 X234.911 Y-117.06 Z-4.538
G1 X235.13 Y-117.045 Z-4.546
G1 X235.35 Z-4.553
G1 X235.569 Y-117.062 Z-4.561
G1 X235.786 Y-117.094 Z-4.569
G1 X236 Y-117.142 Z-4.576
G1 X236.21 Y-117.206 Z-4.584
G1 X236.415 Y-117.285 Z-4.592
G1 X236.614 Y-117.378 Z-4.599
G1 X236.805 Y-117.486 Z-4.607
G1 X236.988 Y-117.607 Z-4.615
G1 X237.162 Y-117.741 Z-4.622
G1 X237.325 Y-117.888 Z-4.63
G1 X237.478 Y-118.046 Z-4.638
G1 X237.618 Y-118.215 Z-4.645
G1 X237.746 Y-118.393 Z-4.653
G1 X237.861 Y-118.581 Z-4.661
G1 X237.961 Y-118.776 Z-4.668
G1 X238.047 Y-118.978 Z-4.676
G1 X238.119 Y-119.186 Z-4.684
G1 X238.175 Y-119.398 Z-4.691
G1 X238.215 Y-119.614 Z-4.699
G1 X238.239 Y-119.832 Z-4.707
G1 X238.248 Y-120.051 Z-4.714
G1 X238.24 Y-120.271 Z-4.722
G1 X238.217 Y-120.489 Z-4.73
G1 X238.178 Y-120.705 Z-4.737
G1 X238.123 Y-120.918 Z-4.745
G1 X238.053 Y-121.126 Z-4.753
G1 X237.968 Y-121.328 Z-4.76
G1 X237.868 Y-121.524 Z-4.768
G1 X237.755 Y-121.712 Z-4.776
G1 X237.628 Y-121.891 Z-4.783
G1 X237.488 Y-122.061 Z-4.791
G1 X237.337 Y-122.219 Z-4.799
G1 X237.174 Y-122.367 Z-4.807
G1 X237.001 Y-122.502 Z-4.814
G1 X236.818 Y-122.624 Z-4.822
G1 X236.628 Y-122.733 Z-4.83
G1 X236.429 Y-122.827 Z-4.837
G1 X236.225 Y-122.907 Z-4.845
G1 X236.015 Y-122.972 Z-4.853
G1 X235.801 Y-123.021 Z-4.86
G1 X235.584 Y-123.055 Z-4.868
G1 X235.365 Y-123.072 Z-4.876
G1 X235.146 Y-123.074 Z-4.883
G1 X234.927 Y-123.06 Z-4.891
G1 X234.709 Y-123.03 Z-4.899
G1 X234.494 Y-122.984 Z-4.906
G1 X234.283 Y-122.923 Z-4.914
G1 X234.078 Y-122.846 Z-4.922
G1 X233.878 Y-122.755 Z-4.929
G1 X233.686 Y-122.649 Z-4.937
G1 X233.501 Y-122.53 Z-4.945
G1 X233.326 Y-122.397 Z-4.952
G1 X233.161 Y-122.252 Z-4.96
G1 X233.007 Y-122.096 Z-4.968
G1 X232.865 Y-121.929 Z-4.975
G1 X232.735 Y-121.752 Z-4.983
G1 X232.618 Y-121.565 Z-4.991
G1 X232.516 Y-121.371 Z-4.998
G1 X232.428 Y-121.17 Z-5.006
G1 X232.354 Y-120.963 Z-5.014
G1 X232.296 Y-120.752 Z-5.021
G1 X232.253 Y-120.536 Z-5.029
G1 X232.227 Y-120.318 Z-5.037
G1 X232.216 Y-120.099 Z-5.044
G1 X232.221 Y-119.879 Z-5.052
G1 X232.242 Y-119.661 Z-5.06
G1 X232.279 Y-119.444 Z-5.067
G1 X232.331 Y-119.231 Z-5.075
G1 X232.399 Y-119.022 Z-5.083
G1 X232.482 Y-118.819 Z-5.09
G1 X232.58 Y-118.622 Z-5.098
G1 X232.691 Y-118.433 Z-5.106
G1 X232.816 Y-118.253 Z-5.113
G1 X232.954 Y-118.082 Z-5.121
G1 X233.104 Y-117.921 Z-5.129
G1 X233.265 Y-117.772 Z-5.136
G1 X233.437 Y-117.635 Z-5.144
G1 X233.618 Y-117.511 Z-5.152
G1 X233.807 Y-117.4 Z-5.159
G1 X234.005 Y-117.304 Z-5.167
G1 X234.208 Y-117.222 Z-5.175
G1 X234.417 Y-117.155 Z-5.182
G1 X234.631 Y-117.103 Z-5.19
G1 X234.847 Y-117.068 Z-5.198
G1 X235.066 Y-117.047 Z-5.205
G1 X235.286 Y-117.043 Z-5.213
G1 X235.505 Y-117.055 Z-5.221
G1 X235.723 Y-117.083 Z-5.228
G1 X235.938 Y-117.127 Z-5.236
G1 X236.149 Y-117.186 Z-5.244
G1 X236.356 Y-117.26 Z-5.251
G1 X236.557 Y-117.349 Z-5.259
G1 X236.75 Y-117.453 Z-5.267
G1 X236.936 Y-117.57 Z-5.274
G1 X237.112 Y-117.701 Z-5.282
G1 X237.279 Y-117.844 Z-5.29
G1 X237.435 Y-117.999 Z-5.297
G1 X237.579 Y-118.165 Z-5.305
G1 X237.71 Y-118.34 Z-5.313
G1 X237.829 Y-118.525 Z-5.32
G1 X237.933 Y-118.718 Z-5.328
G1 X238.024 Y-118.918 Z-5.336
G1 X238.099 Y-119.124 Z-5.343
G1 X238.16 Y-119.336 Z-5.351
G1 X238.205 Y-119.551 Z-5.359
G1 X238.234 Y-119.768 Z-5.366
G1 X238.247 Y-119.987 Z-5.374
G1 X238.244 Y-120.207 Z-5.382
G1 X238.226 Y-120.426 Z-5.389
G1 X238.191 Y-120.642 Z-5.397
G1 X238.141 Y-120.856 Z-5.405
G1 X238.075 Y-121.066 Z-5.412
G1 X237.994 Y-121.27 Z-5.42
G1 X237.899 Y-121.468 Z-5.428
G1 X237.789 Y-121.658 Z-5.435
G1 X237.666 Y-121.84 Z-5.443
G1 X237.53 Y-122.012 Z-5.451
G1 X237.382 Y-122.174 Z-5.458
G1 X237.222 Y-122.325 Z-5.466
G1 X237.052 Y-122.464 Z-5.474
G1 X236.873 Y-122.59 Z-5.481
G1 X236.684 Y-122.703 Z-5.489
G1 X236.488 Y-122.801 Z-5.497
G1 X236.285 Y-122.885 Z-5.504
G1 X236.077 Y-122.955 Z-5.512
G1 X235.864 Y-123.008 Z-5.52
G1 X235.648 Y-123.047 Z-5.527
G1 X235.429 Y-123.069 Z-5.535
G1 X235.21 Y-123.075 Z-5.543
G1 X234.99 Y-123.066 Z-5.55
G1 X234.772 Y-123.04 Z-5.558
G1 X234.557 Y-122.999 Z-5.566
G1 X234.345 Y-122.942 Z-5.573
G1 X234.137 Y-122.87 Z-5.581
G1 X233.936 Y-122.783 Z-5.589
G1 X233.741 Y-122.681 Z-5.596
G1 X233.554 Y-122.566 Z-5.604
G1 X233.376 Y-122.437 Z-5.612
G1 X233.208 Y-122.296 Z-5.619
G1 X233.051 Y-122.143 Z-5.627
G1 X232.905 Y-121.979 Z-5.635
G1 X232.771 Y-121.804 Z-5.642
G1 X232.651 Y-121.621 Z-5.65
G1 X232.544 Y-121.429 Z-5.658
G1 X232.452 Y-121.23 Z-5.665
G1 X232.374 Y-121.024 Z-5.673
G1 X232.311 Y-120.814 Z-5.681
G1 X232.264 Y-120.599 Z-5.688
G1 X232.233 Y-120.382 Z-5.696
G1 X232.217 Y-120.163 Z-5.704
G1 X232.218 Y-119.944 Z-5.711
G1 X232.234 Y-119.725 Z-5.719
G1 X232.266 Y-119.507 Z-5.727
G1 X232.314 Y-119.293 Z-5.734
G1 X232.378 Y-119.083 Z-5.742
G1 X232.456 Y-118.878 Z-5.75
G1 X232.55 Y-118.679 Z-5.758
G1 X232.657 Y-118.488 Z-5.765
G1 X232.778 Y-118.305 Z-5.773
G1 X232.912 Y-118.131 Z-5.781
G1 X233.059 Y-117.967 Z-5.788
G1 X233.217 Y-117.815 Z-5.796
G1 X233.385 Y-117.674 Z-5.804
G1 X233.564 Y-117.546 Z-5.811
G1 X233.751 Y-117.431 Z-5.819
G1 X233.946 Y-117.331 Z-5.827
G1 X234.148 Y-117.244 Z-5.834
G1 X234.356 Y-117.173 Z-5.842
G1 X234.568 Y-117.117 Z-5.85
G1 X234.784 Y-117.076 Z-5.857
G1 X235.002 Y-117.052 Z-5.865
G1 X235.222 Y-117.043 Z-5.873
G1 X235.441 Y-117.05 Z-5.88
G1 X235.659 Y-117.073 Z-5.888
G1 X235.875 Y-117.112 Z-5.896
G1 X236.088 Y-117.167 Z-5.903
G1 X236.296 Y-117.237 Z-5.911
G1 X236.499 Y-117.322 Z-5.919
G1 X236.694 Y-117.421 Z-5.926
G1 X236.882 Y-117.535 Z-5.934
G1 X237.062 Y-117.662 Z-5.942
G1 X237.231 Y-117.801 Z-5.949
G1 X237.39 Y-117.953 Z-5.957
G1 X237.538 Y-118.115 Z-5.965
G1 X237.673 Y-118.288 Z-5.972
G1 X237.796 Y-118.47 Z-5.98
G1 X237.904 Y-118.661 Z-5.988
G1 X237.999 Y-118.859 Z-5.995
G1 X238.079 Y-119.064 Z-6.003
G1 X238.144 Y-119.274 Z-6.011
G1 X238.193 Y-119.487 Z-6.018
G1 X238.227 Y-119.704 Z-6.026
G1 X238.245 Y-119.923 Z-6.034
G1 X238.247 Y-120.143 Z-6.041
G1 X238.233 Y-120.362 Z-6.049
G1 X238.203 Y-120.579 Z-6.057
G1 X238.157 Y-120.794 Z-6.064
G1 X238.096 Y-121.005 Z-6.072
G1 X238.019 Y-121.211 Z-6.08
G1 X237.928 Y-121.411 Z-6.087
G1 X237.823 Y-121.603 Z-6.095
G1 X237.703 Y-121.788 Z-6.103
G1 X237.571 Y-121.963 Z-6.11
G1 X237.427 Y-122.128 Z-6.118
G1 X237.27 Y-122.282 Z-6.126
G1 X237.103 Y-122.425 Z-6.133
G1 X236.926 Y-122.555 Z-6.141
G1 X236.74 Y-122.671 Z-6.149
G1 X236.546 Y-122.774 Z-6.156
G1 X236.345 Y-122.862 Z-6.164
G1 X236.138 Y-122.936 Z-6.172
G1 X235.926 Y-122.994 Z-6.179
G1 X235.711 Y-123.037 Z-6.187
G1 X235.493 Y-123.064 Z-6.195
G1 X235.274 Y-123.075 Z-6.202
G1 X235.054 Y-123.07 Z-6.21
G1 X234.836 Y-123.049 Z-6.218
G1 X234.619 Y-123.013 Z-6.225
G1 X234.406 Y-122.96 Z-6.233
G1 X234.197 Y-122.892 Z-6.241
G1 X233.994 Y-122.81 Z-6.248
G1 X233.797 Y-122.712 Z-6.256
G1 X233.608 Y-122.601 Z-6.264
G1 X233.427 Y-122.476 Z-6.271
G1 X233.256 Y-122.338 Z-6.279
G1 X233.096 Y-122.189 Z-6.287
G1 X232.946 Y-122.028 Z-6.294
G1 X232.809 Y-121.856 Z-6.302
G1 X232.685 Y-121.675 Z-6.31
G1 X232.574 Y-121.486 Z-6.317
G1 X232.477 Y-121.288 Z-6.325
G1 X232.395 Y-121.085 Z-6.333
G1 X232.328 Y-120.876 Z-6.34
G1 X232.276 Y-120.662 Z-6.348
G1 X232.24 Y-120.446 Z-6.356
G1 X232.22 Y-120.227 Z-6.363
G1 X232.216 Y-120.008 Z-6.371
G1 X232.228 Y-119.788 Z-6.379
G1 X232.255 Y-119.57 Z-6.386
G1 X232.299 Y-119.355 Z-6.394
G1 X232.358 Y-119.144 Z-6.402
G1 X232.432 Y-118.937 Z-6.409
G1 X232.521 Y-118.736 Z-6.417
G1 X232.624 Y-118.543 Z-6.425
G1 X232.742 Y-118.357 Z-6.432
G1 X232.872 Y-118.18 Z-6.44
G1 X233.015 Y-118.014 Z-6.448
G1 X233.17 Y-117.858 Z-6.455
G1 X233.335 Y-117.714 Z-6.463
G1 X233.511 Y-117.582 Z-6.471
G1 X233.696 Y-117.463 Z-6.478
G1 X233.889 Y-117.358 Z-6.486
G1 X234.089 Y-117.268 Z-6.494
G1 X234.295 Y-117.192 Z-6.501
G1 X234.506 Y-117.132 Z-6.509
G1 X234.721 Y-117.087 Z-6.517
G1 X234.938 Y-117.057 Z-6.524
G1 X235.157 Y-117.044 Z-6.532
G1 X235.377 Y-117.046 Z-6.54
G1 X235.596 Y-117.065 Z-6.547
G1 X235.813 Y-117.099 Z-6.555
G1 X236.026 Y-117.15 Z-6.563
G1 X236.236 Y-117.215 Z-6.57
G1 X236.44 Y-117.296 Z-6.578
G1 X236.638 Y-117.391 Z-6.586
G1 X236.828 Y-117.5 Z-6.593
G1 X237.01 Y-117.623 Z-6.601
G1 X237.183 Y-117.759 Z-6.609
G1 X237.345 Y-117.907 Z-6.616
G1 X237.496 Y-118.067 Z-6.624
G1 X237.635 Y-118.237 Z-6.632
G1 X237.761 Y-118.416 Z-6.639
G1 X237.874 Y-118.605 Z-6.647
G1 X237.973 Y-118.801 Z-6.655
G1 X238.057 Y-119.003 Z-6.662
G1 X238.126 Y-119.212 Z-6.67
G1 X238.18 Y-119.425 Z-6.678
G1 X238.219 Y-119.641 Z-6.686
G1 X238.241 Y-119.859 Z-6.693
G1 X238.248 Y-120.079 Z-6.701
G1 X238.238 Y-120.298 Z-6.709
G1 X238.213 Y-120.516 Z-6.716
G1 X238.172 Y-120.732 Z-6.724
G1 X238.115 Y-120.944 Z-6.732
G1 X238.043 Y-121.151 Z-6.739
G1 X237.956 Y-121.353 Z-6.747
G1 X237.855 Y-121.548 Z-6.755
G1 X237.74 Y-121.735 Z-6.762
G1 X237.611 Y-121.913 Z-6.77
G1 X237.47 Y-122.081 Z-6.778
G1 X237.317 Y-122.238 Z-6.785
G1 X237.153 Y-122.384 Z-6.793
G1 X236.979 Y-122.518 Z-6.801
G1 X236.795 Y-122.639 Z-6.808
G1 X236.603 Y-122.745 Z-6.816
G1 X236.404 Y-122.838 Z-6.824
G1 X236.199 Y-122.916 Z-6.831
G1 X235.989 Y-122.979 Z-6.839
G1 X235.774 Y-123.026 Z-6.847
G1 X235.557 Y-123.058 Z-6.854
G1 X235.338 Y-123.074 Z-6.862
G1 X235.118 Y-123.073 Z-6.87
G1 X234.899 Y-123.057 Z-6.877
G1 X234.682 Y-123.025 Z-6.885
G1 X234.468 Y-122.977 Z-6.893
G1 X234.258 Y-122.914 Z-6.9
G1 X234.052 Y-122.835 Z-6.908
G1 X233.854 Y-122.742 Z-6.916
G1 X233.662 Y-122.635 Z-6.923
G1 X233.479 Y-122.514 Z-6.931
G1 X233.305 Y-122.38 Z-6.939
G1 X233.141 Y-122.234 Z-6.946
G1 X232.989 Y-122.076 Z-6.954
G1 X232.848 Y-121.907 Z-6.962
G1 X232.72 Y-121.729 Z-6.969
G1 X232.605 Y-121.542 Z-6.977
G1 X232.504 Y-121.347 Z-6.985
G1 X232.418 Y-121.145 Z-6.992
G1 X232.346 Y-120.937 Z-7
G1 X232.29 Y-120.725 Z-7.008
G1 X232.249 Y-120.509 Z-7.015
G1 X232.224 Y-120.291 Z-7.023
G1 X232.215 Y-120.072 Z-7.031
G1 X232.222 Y-119.852 Z-7.038
G1 X232.246 Y-119.634 Z-7.046
G1 X232.284 Y-119.418 Z-7.054
G1 X232.339 Y-119.205 Z-7.061
G1 X232.409 Y-118.997 Z-7.069
G1 X232.493 Y-118.794 Z-7.077
G1 X232.593 Y-118.598 Z-7.084
G1 X232.706 Y-118.41 Z-7.092
G1 X232.833 Y-118.231 Z-7.1
G1 X232.972 Y-118.061 Z-7.107
G1 X233.123 Y-117.902 Z-7.115
G1 X233.286 Y-117.755 Z-7.123
G1 X233.459 Y-117.619 Z-7.13
G1 X233.641 Y-117.497 Z-7.138
G1 X233.831 Y-117.388 Z-7.146
G1 X234.03 Y-117.293 Z-7.153
G1 X234.234 Y-117.213 Z-7.161
G1 X234.444 Y-117.148 Z-7.169
G1 X234.658 Y-117.098 Z-7.176
G1 X234.875 Y-117.064 Z-7.184
G1 X235.093 Y-117.046 Z-7.192
G1 X235.313 Y-117.044 Z-7.199
G1 X235.532 Y-117.058 Z-7.207
G1 X235.75 Y-117.088 Z-7.215
G1 X235.964 Y-117.133 Z-7.222
G1 X236.175 Y-117.194 Z-7.23
G1 X236.381 Y-117.271 Z-7.238
G1 X236.581 Y-117.362 Z-7.245
G1 X236.774 Y-117.467 Z-7.253
G1 X236.958 Y-117.586 Z-7.261
G1 X237.134 Y-117.718 Z-7.268
G1 X237.299 Y-117.863 Z-7.276
G1 X237.453 Y-118.019 Z-7.284
G1 X237.596 Y-118.186 Z-7.291
G1 X237.726 Y-118.363 Z-7.299
G1 X237.842 Y-118.549 Z-7.307
G1 X237.945 Y-118.743 Z-7.314
G1 X238.034 Y-118.944 Z-7.322
G1 X238.108 Y-119.15 Z-7.33
G1 X238.166 Y-119.362 Z-7.337
G1 X238.209 Y-119.577 Z-7.345
G1 X238.236 Y-119.795 Z-7.353
G1 X238.248 Y-120.015 Z-7.36
G1 X238.243 Y-120.234 Z-7.368
G1 X238.222 Y-120.453 Z-7.376
G1 X238.186 Y-120.669 Z-7.383
G1 X238.133 Y-120.883 Z-7.391
G1 X238.066 Y-121.091 Z-7.399
G1 X237.983 Y-121.295 Z-7.406
G1 X237.886 Y-121.492 Z-7.414
G1 X237.775 Y-121.681 Z-7.422
G1 X237.65 Y-121.862 Z-7.429
G1 X237.512 Y-122.033 Z-7.437
G1 X237.363 Y-122.194 Z-7.445
G1 X237.202 Y-122.343 Z-7.452
G1 X237.03 Y-122.48 Z-7.46
G1 X236.85 Y-122.605 Z-7.468
G1 X236.66 Y-122.716 Z-7.475
G1 X236.463 Y-122.813 Z-7.483
G1 X236.26 Y-122.895 Z-7.491
G1 X236.05 Y-122.962 Z-7.498
G1 X235.837 Y-123.014 Z-7.506
G1 X235.621 Y-123.05 Z-7.514
G1 X235.402 Y-123.071 Z-7.521
G1 X235.182 Y-123.075 Z-7.529
G1 X234.963 Y-123.063 Z-7.537
G1 X234.745 Y-123.036 Z-7.544
G1 X234.53 Y-122.993 Z-7.552
G1 X234.318 Y-122.934 Z-7.56
G1 X234.112 Y-122.86 Z-7.567
G1 X233.911 Y-122.771 Z-7.575
G1 X233.717 Y-122.668 Z-7.583
G1 X233.531 Y-122.551 Z-7.59
G1 X233.355 Y-122.42 Z-7.598
G1 X233.188 Y-122.278 Z-7.606
G1 X233.032 Y-122.123 Z-7.614
G1 X232.888 Y-121.957 Z-7.621
G1 X232.756 Y-121.782 Z-7.629
G1 X232.637 Y-121.597 Z-7.637
G1 X232.532 Y-121.404 Z-7.644
G1 X232.441 Y-121.204 Z-7.652
G1 X232.365 Y-120.998 Z-7.66
G1 X232.305 Y-120.787 Z-7.667
G1 X232.259 Y-120.573 Z-7.675
G1 X232.23 Y-120.355 Z-7.683
G1 X232.216 Y-120.136 Z-7.69
G1 X232.219 Y-119.916 Z-7.698
G1 X232.237 Y-119.697 Z-7.706
G1 X232.271 Y-119.481 Z-7.713
G1 X232.321 Y-119.267 Z-7.721
G1 X232.387 Y-119.057 Z-7.729
G1 X232.467 Y-118.853 Z-7.736
G1 X232.562 Y-118.655 Z-7.744
G1 X232.671 Y-118.464 Z-7.752
G1 X232.794 Y-118.282 Z-7.759
G1 X232.93 Y-118.11 Z-7.767
G1 X233.078 Y-117.947 Z-7.775
G1 X233.237 Y-117.796 Z-7.782
G1 X233.407 Y-117.657 Z-7.79
G1 X233.587 Y-117.531 Z-7.798
G1 X233.775 Y-117.418 Z-7.805
G1 X233.971 Y-117.319 Z-7.813
G1 X234.174 Y-117.235 Z-7.821
G1 X234.382 Y-117.165 Z-7.828
G1 X234.595 Y-117.111 Z-7.836
G1 X234.811 Y-117.072 Z-7.844
G1 X235.029 Y-117.05 Z-7.851
G1 X235.249 Y-117.043 Z-7.859
G1 X235.468 Y-117.052 Z-7.867
G1 X235.686 Y-117.077 Z-7.874
G1 X235.902 Y-117.118 Z-7.882
G1 X236.114 Y-117.175 Z-7.89
G1 X236.322 Y-117.247 Z-7.897
G1 X236.523 Y-117.334 Z-7.905
G1 X236.718 Y-117.435 Z-7.913
G1 X236.905 Y-117.55 Z-7.92
G1 X237.083 Y-117.678 Z-7.928
G1 X237.252 Y-117.819 Z-7.936
G1 X237.409 Y-117.972 Z-7.943
G1 X237.555 Y-118.136 Z-7.951
G1 X237.689 Y-118.31 Z-7.959
G1 X237.81 Y-118.494 Z-7.966
G1 X237.917 Y-118.685 Z-7.974
G1 X238.01 Y-118.884 Z-7.982
G1 X238.088 Y-119.09 Z-7.989
G1 X238.151 Y-119.3 Z-7.997
G1 X238.198 Y-119.514 Z-8.005
G1 X238.23 Y-119.732 Z-8.012
G1 X238.246 Y-119.951 Z-8.02
G1 Y-120.17 Z-8.028
G1 X238.23 Y-120.389 Z-8.035
G1 X238.198 Y-120.606 Z-8.043
G1 X238.15 Y-120.821 Z-8.051
G1 X238.087 Y-121.031 Z-8.058
G1 X238.009 Y-121.236 Z-8.066
G1 X237.916 Y-121.435 Z-8.074
G1 X237.809 Y-121.627 Z-8.081
G1 X237.688 Y-121.81 Z-8.089
G1 X237.554 Y-121.984 Z-8.097
G1 X237.408 Y-122.148 Z-8.104
G1 X237.25 Y-122.301 Z-8.112
G1 X237.082 Y-122.442 Z-8.12
G1 X236.903 Y-122.57 Z-8.127
G1 X236.716 Y-122.685 Z-8.135
G1 X236.521 Y-122.786 Z-8.143
G1 X236.32 Y-122.872 Z-8.15
G1 X236.112 Y-122.944 Z-8.158
G1 X235.9 Y-123.001 Z-8.166
G1 X235.684 Y-123.041 Z-8.173
G1 X235.466 Y-123.066 Z-8.181
G1 X235.246 Y-123.075 Z-8.189
G1 X235.027 Y-123.068 Z-8.196
G1 X234.809 Y-123.046 Z-8.204
G1 X234.593 Y-123.007 Z-8.212
G1 X234.38 Y-122.953 Z-8.219
G1 X234.172 Y-122.883 Z-8.227
G1 X233.969 Y-122.798 Z-8.235
G1 X233.773 Y-122.699 Z-8.242
G1 X233.585 Y-122.586 Z-8.25
G1 X233.405 Y-122.46 Z-8.258
G1 X233.236 Y-122.32 Z-8.265
G1 X233.076 Y-122.169 Z-8.273
G1 X232.929 Y-122.007 Z-8.281
G1 X232.793 Y-121.834 Z-8.288
G1 X232.67 Y-121.652 Z-8.296
G1 X232.561 Y-121.461 Z-8.304
G1 X232.466 Y-121.263 Z-8.311
G1 X232.386 Y-121.059 Z-8.319
G1 X232.321 Y-120.849 Z-8.327
G1 X232.271 Y-120.636 Z-8.334
G1 X232.237 Y-120.419 Z-8.342
G1 X232.219 Y-120.2 Z-8.35
G1 X232.216 Y-119.98 Z-8.357
G1 X232.23 Y-119.761 Z-8.365
G1 X232.26 Y-119.544 Z-8.373
G1 X232.305 Y-119.329 Z-8.38
G1 X232.366 Y-119.118 Z-8.388
G1 X232.442 Y-118.912 Z-8.396
G1 X232.533 Y-118.712 Z-8.403
G1 X232.638 Y-118.519 Z-8.411
G1 X232.757 Y-118.335 Z-8.419
G1 X232.889 Y-118.159 Z-8.426
G1 X233.034 Y-117.994 Z-8.434
G1 X233.19 Y-117.839 Z-8.442
G1 X233.357 Y-117.697 Z-8.449
G1 X233.533 Y-117.566 Z-8.457
G1 X233.719 Y-117.45 Z-8.465
G1 X233.913 Y-117.346 Z-8.472
G1 X234.114 Y-117.258 Z-8.48
G1 X234.321 Y-117.184 Z-8.488
G1 X234.532 Y-117.125 Z-8.495
G1 X234.748 Y-117.082 Z-8.503
G1 X234.965 Y-117.055 Z-8.511
G1 X235.185 Y-117.043 Z-8.518
G1 X235.404 Y-117.048 Z-8.526
G1 X235.623 Y-117.068 Z-8.534
G1 X235.839 Y-117.105 Z-8.541
G1 X236.053 Y-117.157 Z-8.549
G1 X236.262 Y-117.224 Z-8.557
G1 X236.465 Y-117.307 Z-8.565
G1 X236.662 Y-117.404 Z-8.572
G1 X236.852 Y-117.515 Z-8.58
G1 X237.032 Y-117.639 Z-8.588
G1 X237.204 Y-117.777 Z-8.595
G1 X237.364 Y-117.926 Z-8.603
G1 X237.514 Y-118.087 Z-8.611
G1 X237.651 Y-118.258 Z-8.618
G1 X237.776 Y-118.439 Z-8.626
G1 X237.887 Y-118.629 Z-8.634
G1 X237.984 Y-118.826 Z-8.641
G1 X238.067 Y-119.029 Z-8.649
G1 X238.134 Y-119.238 Z-8.657
G1 X238.186 Y-119.451 Z-8.664
G1 X238.222 Y-119.668 Z-8.672
G1 X238.243 Y-119.887 Z-8.68
G1 X238.248 Y-120.106 Z-8.687
G1 X238.236 Y-120.325 Z-8.695
G1 X238.209 Y-120.543 Z-8.703
G1 X238.166 Y-120.759 Z-8.71
G1 X238.107 Y-120.97 Z-8.718
G1 X238.033 Y-121.177 Z-8.726
G1 X237.944 Y-121.378 Z-8.733
G1 X237.841 Y-121.572 Z-8.741
G1 X237.724 Y-121.757 Z-8.749
G1 X237.594 Y-121.934 Z-8.756
G1 X237.452 Y-122.101 Z-8.764
G1 X237.297 Y-122.257 Z-8.772
G1 X237.132 Y-122.402 Z-8.779
G1 X236.956 Y-122.534 Z-8.787
G1 X236.772 Y-122.653 Z-8.795
G1 X236.579 Y-122.758 Z-8.802
G1 X236.379 Y-122.849 Z-8.81
G1 X236.173 Y-122.925 Z-8.818
G1 X235.962 Y-122.986 Z-8.825
G1 X235.747 Y-123.031 Z-8.833
G1 X235.53 Y-123.061 Z-8.841
G1 X235.311 Y-123.074 Z-8.848
G1 X235.091 Y-123.072 Z-8.856
G1 X234.872 Y-123.054 Z-8.864
G1 X234.655 Y-123.02 Z-8.871
G1 X234.441 Y-122.97 Z-8.879
G1 X234.232 Y-122.905 Z-8.887
G1 X234.027 Y-122.825 Z-8.894
G1 X233.829 Y-122.73 Z-8.902
G1 X233.639 Y-122.621 Z-8.91
G1 X233.457 Y-122.498 Z-8.917
G1 X233.284 Y-122.362 Z-8.925
G1 X233.122 Y-122.215 Z-8.933
G1 X232.97 Y-122.055 Z-8.94
G1 X232.831 Y-121.886 Z-8.948
G1 X232.705 Y-121.706 Z-8.956
G1 X232.592 Y-121.518 Z-8.963
G1 X232.492 Y-121.322 Z-8.971
G1 X232.408 Y-121.119 Z-8.979
G1 X232.338 Y-120.911 Z-8.986
G1 X232.284 Y-120.698 Z-8.994
G1 X232.245 Y-120.482 Z-9.002
G1 X232.222 Y-120.264 Z-9.009
G1 X232.215 Y-120.044 Z-9.017
G1 Y-120.034
G1 X232.222 Y-119.993
G1 X232.241 Y-119.956
G1 X232.271 Y-119.927
G1 X232.307 Y-119.909
G1 X232.348 Y-119.902
G1 X232.859 Y-119.905
G2 X233.001 Y-120.048 I-0.001 J-0.143
G2 X232.959 Y-120.149 I-0.143 J0.001
G2 X232.858 Y-120.19 I-0.1 J0.101
G1 X232.347 Y-120.188
G1 X232.306 Y-120.181
G1 X232.269 Y-120.162
G1 X232.24 Y-120.133
G1 X232.222 Y-120.096
G1 X232.215 Y-120.055
G1 Y-120.044
G3 X230.893 Y-117.468 I-3.14 J0.015
G2 X230.533 Y-115.351 I0.879 J1.238
G2 X231.779 Y-114.712 I1.238 J-0.879
G1 X236.329 Y-114.734
G3 X238.965 Y-113.642 I0.018 J3.683
G2 X239.413 Y-113.64 I0.226 J-0.223
G2 X239.507 Y-113.867 I-0.223 J-0.226
G2 X239.411 Y-114.093 I-0.317 J0.002
G3 X238.293 Y-116.718 I2.565 J-2.643
G1 X238.26 Y-123.432
G3 X239.352 Y-126.067 I3.683 J-0.018
G2 X239.354 Y-126.515 I-0.223 J-0.225
G2 X239.127 Y-126.609 I-0.225 J0.223
G2 X238.902 Y-126.513 I0.002 J0.317
G3 X236.277 Y-125.395 I-2.643 J-2.565
G1 X228.974 Y-125.359
G3 X226.338 Y-126.451 I-0.018 J-3.683
G2 X225.89 Y-126.453 I-0.225 J0.223
G2 X225.796 Y-126.227 I0.223 J0.225
G2 X225.892 Y-126.001 I0.317 J-0.002
G3 X227.011 Y-123.375 I-2.564 J2.644
G1 X227.044 Y-116.662
G3 X225.952 Y-114.026 I-3.683 J0.018
G2 X225.95 Y-113.578 I0.223 J0.225
G2 X226.176 Y-113.484 I0.225 J-0.223
G2 X226.402 Y-113.58 I-0.002 J-0.317
G3 X229.027 Y-114.698 I2.643 J2.565
G1 X231.779 Y-114.712
G0 Z6.096
G0 X345.095 Y-50.44
G1 Z3.556 F508.
G1 X345.083 Y-50.221 Z3.548
G1 X345.087 Y-50.001 Z3.541
G1 X345.106 Y-49.783 Z3.533
G1 X345.142 Y-49.566 Z3.525
G1 X345.193 Y-49.353 Z3.518
G1 X345.26 Y-49.144 Z3.51
G1 X345.342 Y-48.94 Z3.502
G1 X345.438 Y-48.743 Z3.495
G1 X345.548 Y-48.553 Z3.487
G1 X345.672 Y-48.372 Z3.479
G1 X345.809 Y-48.2 Z3.472
G1 X345.958 Y-48.039 Z3.464
G1 X346.118 Y-47.889 Z3.456
G1 X346.289 Y-47.751 Z3.449
G1 X346.469 Y-47.626 Z3.441
G1 X346.658 Y-47.514 Z3.433
G1 X346.854 Y-47.416 Z3.426
G1 X347.057 Y-47.333 Z3.418
G1 X347.266 Y-47.265 Z3.41
G1 X347.479 Y-47.212 Z3.403
G1 X347.695 Y-47.175 Z3.395
G1 X347.914 Y-47.153 Z3.387
G1 X348.133 Y-47.148 Z3.38
G1 X348.352 Y-47.159 Z3.372
G1 X348.57 Y-47.185 Z3.364
G1 X348.786 Y-47.227 Z3.357
G1 X348.997 Y-47.285 Z3.349
G1 X349.204 Y-47.358 Z3.341
G1 X349.406 Y-47.446 Z3.334
G1 X349.6 Y-47.548 Z3.326
G1 X349.786 Y-47.664 Z3.318
G1 X349.963 Y-47.793 Z3.311
G1 X350.131 Y-47.935 Z3.303
G1 X350.287 Y-48.089 Z3.295
G1 X350.433 Y-48.254 Z3.288
G1 X350.565 Y-48.428 Z3.28
G1 X350.685 Y-48.612 Z3.272
G1 X350.791 Y-48.805 Z3.265
G1 X350.883 Y-49.004 Z3.257
G1 X350.96 Y-49.21 Z3.249
G1 X351.021 Y-49.42 Z3.242
G1 X351.068 Y-49.635 Z3.234
G1 X351.098 Y-49.852 Z3.226
G1 X351.113 Y-50.071 Z3.219
G1 X351.112 Y-50.29 Z3.211
G1 X351.095 Y-50.509 Z3.203
G1 X351.062 Y-50.726 Z3.196
G1 X351.013 Y-50.94 Z3.188
G1 X350.949 Y-51.15 Z3.18
G1 X350.87 Y-51.355 Z3.173
G1 X350.776 Y-51.553 Z3.165
G1 X350.668 Y-51.744 Z3.157
G1 X350.546 Y-51.927 Z3.15
G1 X350.411 Y-52.1 Z3.142
G1 X350.264 Y-52.263 Z3.134
G1 X350.106 Y-52.415 Z3.127
G1 X349.937 Y-52.555 Z3.119
G1 X349.758 Y-52.683 Z3.111
G1 X349.571 Y-52.797 Z3.104
G1 X349.375 Y-52.897 Z3.096
G1 X349.173 Y-52.982 Z3.088
G1 X348.966 Y-53.053 Z3.081
G1 X348.753 Y-53.108 Z3.073
G1 X348.537 Y-53.148 Z3.065
G1 X348.319 Y-53.172 Z3.058
G1 X348.1 Y-53.18 Z3.05
G1 X347.88 Y-53.172 Z3.042
G1 X347.662 Y-53.149 Z3.035
G1 X347.446 Y-53.109 Z3.027
G1 X347.234 Y-53.054 Z3.019
G1 X347.026 Y-52.983 Z3.012
G1 X346.824 Y-52.898 Z3.004
G1 X346.629 Y-52.798 Z2.996
G1 X346.441 Y-52.684 Z2.989
G1 X346.262 Y-52.557 Z2.981
G1 X346.093 Y-52.417 Z2.973
G1 X345.934 Y-52.265 Z2.966
G1 X345.787 Y-52.102 Z2.958
G1 X345.653 Y-51.929 Z2.95
G1 X345.531 Y-51.747 Z2.943
G1 X345.422 Y-51.556 Z2.935
G1 X345.328 Y-51.357 Z2.927
G1 X345.249 Y-51.153 Z2.92
G1 X345.184 Y-50.943 Z2.912
G1 X345.136 Y-50.729 Z2.904
G1 X345.102 Y-50.512 Z2.897
G1 X345.085 Y-50.293 Z2.889
G1 X345.083 Y-50.074 Z2.881
G1 X345.098 Y-49.855 Z2.874
G1 X345.128 Y-49.638 Z2.866
G1 X345.175 Y-49.423 Z2.858
G1 X345.236 Y-49.212 Z2.851
G1 X345.313 Y-49.007 Z2.843
G1 X345.405 Y-48.807 Z2.835
G1 X345.51 Y-48.615 Z2.828
G1 X345.63 Y-48.431 Z2.82
G1 X345.762 Y-48.256 Z2.812
G1 X345.907 Y-48.091 Z2.805
G1 X346.064 Y-47.937 Z2.797
G1 X346.231 Y-47.795 Z2.789
G1 X346.408 Y-47.666 Z2.782
G1 X346.595 Y-47.549 Z2.774
G1 X346.789 Y-47.447 Z2.766
G1 X346.99 Y-47.359 Z2.759
G1 X347.197 Y-47.286 Z2.751
G1 X347.408 Y-47.228 Z2.743
G1 X347.624 Y-47.185 Z2.736
G1 X347.841 Y-47.159 Z2.728
G1 X348.061 Y-47.148 Z2.72
G1 X348.28 Y-47.153 Z2.713
G1 X348.499 Y-47.174 Z2.705
G1 X348.715 Y-47.211 Z2.697
G1 X348.928 Y-47.264 Z2.69
G1 X349.137 Y-47.332 Z2.682
G1 X349.34 Y-47.415 Z2.674
G1 X349.536 Y-47.513 Z2.667
G1 X349.725 Y-47.624 Z2.659
G1 X349.906 Y-47.749 Z2.651
G1 X350.077 Y-47.887 Z2.644
G1 X350.237 Y-48.037 Z2.636
G1 X350.386 Y-48.198 Z2.628
G1 X350.523 Y-48.37 Z2.621
G1 X350.647 Y-48.551 Z2.613
G1 X350.757 Y-48.74 Z2.605
G1 X350.854 Y-48.937 Z2.598
G1 X350.936 Y-49.141 Z2.59
G1 X351.003 Y-49.35 Z2.582
G1 X351.054 Y-49.564 Z2.575
G1 X351.09 Y-49.78 Z2.567
G1 X351.11 Y-49.999 Z2.559
G1 X351.114 Y-50.218 Z2.552
G1 X351.102 Y-50.437 Z2.544
G1 X351.074 Y-50.655 Z2.536
G1 X351.031 Y-50.87 Z2.529
G1 X350.972 Y-51.081 Z2.521
G1 X350.897 Y-51.288 Z2.513
G1 X350.808 Y-51.488 Z2.506
G1 X350.705 Y-51.682 Z2.498
G1 X350.588 Y-51.868 Z2.49
G1 X350.457 Y-52.044 Z2.483
G1 X350.314 Y-52.211 Z2.475
G1 X350.159 Y-52.366 Z2.467
G1 X349.994 Y-52.51 Z2.46
G1 X349.818 Y-52.642 Z2.452
G1 X349.634 Y-52.76 Z2.444
G1 X349.441 Y-52.865 Z2.437
G1 X349.241 Y-52.956 Z2.429
G1 X349.035 Y-53.031 Z2.421
G1 X348.824 Y-53.092 Z2.414
G1 X348.609 Y-53.137 Z2.406
G1 X348.391 Y-53.166 Z2.398
G1 X348.172 Y-53.179 Z2.391
G1 X347.953 Y-53.177 Z2.383
G1 X347.734 Y-53.158 Z2.375
G1 X347.517 Y-53.124 Z2.368
G1 X347.304 Y-53.074 Z2.36
G1 X347.094 Y-53.008 Z2.352
G1 X346.89 Y-52.928 Z2.345
G1 X346.692 Y-52.833 Z2.337
G1 X346.502 Y-52.723 Z2.329
G1 X346.32 Y-52.6 Z2.322
G1 X346.148 Y-52.465 Z2.314
G1 X345.986 Y-52.317 Z2.306
G1 X345.835 Y-52.157 Z2.299
G1 X345.696 Y-51.987 Z2.291
G1 X345.569 Y-51.808 Z2.283
G1 X345.457 Y-51.62 Z2.276
G1 X345.358 Y-51.424 Z2.268
G1 X345.273 Y-51.221 Z2.26
G1 X345.204 Y-51.013 Z2.253
G1 X345.15 Y-50.8 Z2.245
G1 X345.112 Y-50.584 Z2.237
G1 X345.089 Y-50.366 Z2.23
G1 X345.082 Y-50.146 Z2.222
G1 X345.091 Y-49.927 Z2.214
G1 X345.117 Y-49.709 Z2.207
G1 X345.158 Y-49.493 Z2.199
G1 X345.214 Y-49.281 Z2.191
G1 X345.286 Y-49.074 Z2.184
G1 X345.373 Y-48.872 Z2.176
G1 X345.474 Y-48.678 Z2.168
G1 X345.589 Y-48.491 Z2.161
G1 X345.717 Y-48.313 Z2.153
G1 X345.858 Y-48.144 Z2.145
G1 X346.011 Y-47.987 Z2.138
G1 X346.175 Y-47.841 Z2.13
G1 X346.349 Y-47.707 Z2.122
G1 X346.532 Y-47.586 Z2.115
G1 X346.724 Y-47.479 Z2.107
G1 X346.923 Y-47.386 Z2.099
G1 X347.128 Y-47.308 Z2.092
G1 X347.338 Y-47.245 Z2.084
G1 X347.552 Y-47.198 Z2.076
G1 X347.769 Y-47.166 Z2.069
G1 X347.988 Y-47.15 Z2.061
G1 X348.208 Z2.053
G1 X348.427 Y-47.166 Z2.046
G1 X348.644 Y-47.198 Z2.038
G1 X348.858 Y-47.245 Z2.03
G1 X349.068 Y-47.308 Z2.023
G1 X349.273 Y-47.386 Z2.015
G1 X349.472 Y-47.479 Z2.007
G1 X349.664 Y-47.586 Z2
G1 X349.847 Y-47.707 Z1.992
G1 X350.021 Y-47.84 Z1.984
G1 X350.185 Y-47.986 Z1.977
G1 X350.338 Y-48.144 Z1.969
G1 X350.479 Y-48.312 Z1.961
G1 X350.607 Y-48.49 Z1.954
G1 X350.723 Y-48.677 Z1.946
G1 X350.824 Y-48.872 Z1.938
G1 X350.91 Y-49.073 Z1.931
G1 X350.982 Y-49.281 Z1.923
G1 X351.039 Y-49.493 Z1.915
G1 X351.08 Y-49.708 Z1.908
G1 X351.105 Y-49.926 Z1.9
G1 X351.115 Y-50.146 Z1.892
G1 X351.108 Y-50.365 Z1.885
G1 X351.085 Y-50.583 Z1.877
G1 X351.047 Y-50.799 Z1.869
G1 X350.993 Y-51.012 Z1.862
G1 X350.924 Y-51.22 Z1.854
G1 X350.839 Y-51.423 Z1.846
G1 X350.741 Y-51.619 Z1.839
G1 X350.628 Y-51.807 Z1.831
G1 X350.502 Y-51.987 Z1.823
G1 X350.363 Y-52.157 Z1.816
G1 X350.212 Y-52.316 Z1.808
G1 X350.05 Y-52.464 Z1.8
G1 X349.877 Y-52.6 Z1.793
G1 X349.695 Y-52.723 Z1.785
G1 X349.505 Y-52.832 Z1.777
G1 X349.307 Y-52.927 Z1.77
G1 X349.103 Y-53.008 Z1.762
G1 X348.894 Y-53.074 Z1.754
G1 X348.68 Y-53.124 Z1.747
G1 X348.463 Y-53.158 Z1.739
G1 X348.245 Y-53.177 Z1.731
G1 X348.025 Y-53.179 Z1.724
G1 X347.806 Y-53.166 Z1.716
G1 X347.589 Y-53.137 Z1.708
G1 X347.374 Y-53.092 Z1.701
G1 X347.163 Y-53.032 Z1.693
G1 X346.957 Y-52.956 Z1.685
G1 X346.757 Y-52.866 Z1.678
G1 X346.564 Y-52.761 Z1.67
G1 X346.379 Y-52.642 Z1.662
G1 X346.203 Y-52.511 Z1.655
G1 X346.038 Y-52.367 Z1.647
G1 X345.883 Y-52.211 Z1.64
G1 X345.74 Y-52.045 Z1.632
G1 X345.61 Y-51.868 Z1.624
G1 X345.492 Y-51.683 Z1.617
G1 X345.389 Y-51.489 Z1.609
G1 X345.3 Y-51.289 Z1.601
G1 X345.225 Y-51.082 Z1.594
G1 X345.166 Y-50.871 Z1.586
G1 X345.122 Y-50.656 Z1.578
G1 X345.095 Y-50.438 Z1.571
G1 X345.083 Y-50.219 Z1.563
G1 X345.087 Y-49.999 Z1.555
G1 X345.107 Y-49.781 Z1.548
G1 X345.142 Y-49.564 Z1.54
G1 X345.194 Y-49.351 Z1.532
G1 X345.261 Y-49.142 Z1.525
G1 X345.342 Y-48.938 Z1.517
G1 X345.439 Y-48.741 Z1.509
G1 X345.549 Y-48.551 Z1.502
G1 X345.673 Y-48.37 Z1.494
G1 X345.81 Y-48.199 Z1.486
G1 X345.959 Y-48.038 Z1.479
G1 X346.12 Y-47.888 Z1.471
G1 X346.29 Y-47.75 Z1.463
G1 X346.471 Y-47.625 Z1.456
G1 X346.66 Y-47.513 Z1.448
G1 X346.856 Y-47.415 Z1.44
G1 X347.059 Y-47.332 Z1.433
G1 X347.268 Y-47.264 Z1.425
G1 X347.481 Y-47.212 Z1.417
G1 X347.697 Y-47.175 Z1.41
G1 X347.916 Y-47.153 Z1.402
G1 X348.135 Y-47.148 Z1.394
G1 X348.355 Y-47.159 Z1.387
G1 X348.572 Y-47.185 Z1.379
G1 X348.788 Y-47.228 Z1.371
G1 X348.999 Y-47.286 Z1.364
G1 X349.206 Y-47.359 Z1.356
G1 X349.407 Y-47.447 Z1.348
G1 X349.602 Y-47.549 Z1.341
G1 X349.788 Y-47.665 Z1.333
G1 X349.965 Y-47.795 Z1.325
G1 X350.132 Y-47.937 Z1.318
G1 X350.289 Y-48.091 Z1.31
G1 X350.434 Y-48.255 Z1.302
G1 X350.566 Y-48.43 Z1.295
G1 X350.686 Y-48.614 Z1.287
G1 X350.792 Y-48.807 Z1.279
G1 X350.883 Y-49.006 Z1.272
G1 X350.96 Y-49.212 Z1.264
G1 X351.022 Y-49.422 Z1.256
G1 X351.068 Y-49.637 Z1.249
G1 X351.099 Y-49.854 Z1.241
G1 X351.113 Y-50.073 Z1.233
G1 X351.112 Y-50.293 Z1.226
G1 X351.095 Y-50.511 Z1.218
G1 X351.061 Y-50.728 Z1.21
G1 X351.013 Y-50.942 Z1.203
G1 X350.948 Y-51.152 Z1.195
G1 X350.869 Y-51.357 Z1.187
G1 X350.775 Y-51.555 Z1.18
G1 X350.667 Y-51.746 Z1.172
G1 X350.545 Y-51.929 Z1.164
G1 X350.41 Y-52.102 Z1.157
G1 X350.263 Y-52.265 Z1.149
G1 X350.104 Y-52.417 Z1.141
G1 X349.935 Y-52.556 Z1.134
G1 X349.756 Y-52.684 Z1.126
G1 X349.569 Y-52.798 Z1.118
G1 X349.373 Y-52.898 Z1.111
G1 X349.171 Y-52.983 Z1.103
G1 X348.964 Y-53.054 Z1.095
G1 X348.751 Y-53.109 Z1.088
G1 X348.535 Y-53.149 Z1.08
G1 X348.317 Y-53.172 Z1.072
G1 X348.098 Y-53.18 Z1.065
G1 X347.878 Y-53.172 Z1.057
G1 X347.66 Y-53.148 Z1.049
G1 X347.444 Y-53.109 Z1.042
G1 X347.232 Y-53.053 Z1.034
G1 X347.024 Y-52.983 Z1.026
G1 X346.822 Y-52.897 Z1.019
G1 X346.627 Y-52.797 Z1.011
G1 X346.439 Y-52.683 Z1.003
G1 X346.26 Y-52.556 Z0.996
G1 X346.091 Y-52.416 Z0.988
G1 X345.933 Y-52.264 Z0.98
G1 X345.786 Y-52.101 Z0.973
G1 X345.651 Y-51.927 Z0.965
G1 X345.53 Y-51.745 Z0.957
G1 X345.421 Y-51.554 Z0.95
G1 X345.327 Y-51.356 Z0.942
G1 X345.248 Y-51.151 Z0.934
G1 X345.184 Y-50.941 Z0.927
G1 X345.135 Y-50.727 Z0.919
G1 X345.102 Y-50.51 Z0.911
G1 X345.085 Y-50.291 Z0.904
G1 X345.084 Y-50.072 Z0.896
G1 X345.098 Y-49.853 Z0.888
G1 X345.129 Y-49.635 Z0.881
G1 X345.175 Y-49.421 Z0.873
G1 X345.237 Y-49.21 Z0.865
G1 X345.314 Y-49.005 Z0.858
G1 X345.405 Y-48.805 Z0.85
G1 X345.511 Y-48.613 Z0.842
G1 X345.631 Y-48.429 Z0.835
G1 X345.764 Y-48.254 Z0.827
G1 X345.909 Y-48.09 Z0.819
G1 X346.065 Y-47.936 Z0.812
G1 X346.233 Y-47.794 Z0.804
G1 X346.41 Y-47.665 Z0.796
G1 X346.596 Y-47.548 Z0.789
G1 X346.791 Y-47.446 Z0.781
G1 X346.992 Y-47.358 Z0.773
G1 X347.199 Y-47.285 Z0.766
G1 X347.41 Y-47.227 Z0.758
G1 X347.626 Y-47.185 Z0.75
G1 X347.844 Y-47.159 Z0.743
G1 X348.063 Y-47.148 Z0.735
G1 X348.282 Y-47.153 Z0.727
G1 X348.501 Y-47.175 Z0.72
G1 X348.717 Y-47.212 Z0.712
G1 X348.93 Y-47.265 Z0.704
G1 X349.139 Y-47.333 Z0.697
G1 X349.342 Y-47.416 Z0.689
G1 X349.538 Y-47.514 Z0.681
G1 X349.727 Y-47.625 Z0.674
G1 X349.907 Y-47.751 Z0.666
G1 X350.078 Y-47.889 Z0.658
G1 X350.238 Y-48.039 Z0.651
G1 X350.387 Y-48.2 Z0.643
G1 X350.524 Y-48.371 Z0.635
G1 X350.648 Y-48.553 Z0.628
G1 X350.758 Y-48.742 Z0.62
G1 X350.855 Y-48.939 Z0.612
G1 X350.937 Y-49.143 Z0.605
G1 X351.003 Y-49.352 Z0.597
G1 X351.055 Y-49.566 Z0.589
G1 X351.09 Y-49.782 Z0.582
G1 X351.11 Y-50.001 Z0.574
G1 X351.114 Y-50.22 Z0.566
G1 X351.102 Y-50.439 Z0.559
G1 X351.074 Y-50.657 Z0.551
G1 X351.03 Y-50.872 Z0.543
G1 X350.971 Y-51.083 Z0.536
G1 X350.897 Y-51.29 Z0.528
G1 X350.807 Y-51.49 Z0.52
G1 X350.704 Y-51.684 Z0.513
G1 X350.586 Y-51.869 Z0.505
G1 X350.456 Y-52.046 Z0.497
G1 X350.313 Y-52.212 Z0.49
G1 X350.158 Y-52.368 Z0.482
G1 X349.992 Y-52.512 Z0.474
G1 X349.817 Y-52.643 Z0.467
G1 X349.632 Y-52.762 Z0.459
G1 X349.439 Y-52.866 Z0.451
G1 X349.239 Y-52.956 Z0.444
G1 X349.033 Y-53.032 Z0.436
G1 X348.822 Y-53.092 Z0.428
G1 X348.607 Y-53.137 Z0.421
G1 X348.389 Y-53.166 Z0.413
G1 X348.17 Y-53.179 Z0.405
G1 X347.951 Y-53.177 Z0.398
G1 X347.732 Y-53.158 Z0.39
G1 X347.515 Y-53.123 Z0.382
G1 X347.302 Y-53.073 Z0.375
G1 X347.092 Y-53.008 Z0.367
G1 X346.888 Y-52.927 Z0.359
G1 X346.69 Y-52.832 Z0.352
G1 X346.5 Y-52.722 Z0.344
G1 X346.318 Y-52.599 Z0.336
G1 X346.146 Y-52.463 Z0.329
G1 X345.984 Y-52.315 Z0.321
G1 X345.833 Y-52.156 Z0.313
G1 X345.694 Y-51.986 Z0.306
G1 X345.568 Y-51.806 Z0.298
G1 X345.456 Y-51.618 Z0.29
G1 X345.357 Y-51.422 Z0.283
G1 X345.273 Y-51.219 Z0.275
G1 X345.203 Y-51.011 Z0.267
G1 X345.15 Y-50.798 Z0.26
G1 X345.111 Y-50.582 Z0.252
G1 X345.089 Y-50.364 Z0.244
G1 X345.082 Y-50.144 Z0.237
G1 X345.092 Y-49.925 Z0.229
G1 X345.117 Y-49.707 Z0.221
G1 X345.158 Y-49.491 Z0.214
G1 X345.215 Y-49.279 Z0.206
G1 X345.287 Y-49.072 Z0.198
G1 X345.374 Y-48.87 Z0.191
G1 X345.475 Y-48.676 Z0.183
G1 X345.59 Y-48.489 Z0.175
G1 X345.719 Y-48.311 Z0.168
G1 X345.86 Y-48.143 Z0.16
G1 X346.013 Y-47.985 Z0.152
G1 X346.176 Y-47.839 Z0.145
G1 X346.351 Y-47.706 Z0.137
G1 X346.534 Y-47.585 Z0.129
G1 X346.726 Y-47.478 Z0.122
G1 X346.925 Y-47.386 Z0.114
G1 X347.13 Y-47.308 Z0.106
G1 X347.34 Y-47.245 Z0.099
G1 X347.554 Y-47.197 Z0.091
G1 X347.771 Y-47.166 Z0.083
G1 X347.99 Y-47.15 Z0.076
G1 X348.21 Z0.068
G1 X348.429 Y-47.166 Z0.06
G1 X348.646 Y-47.198 Z0.053
G1 X348.86 Y-47.246 Z0.045
G1 X349.07 Y-47.309 Z0.037
G1 X349.275 Y-47.387 Z0.03
G1 X349.474 Y-47.48 Z0.022
G1 X349.666 Y-47.587 Z0.014
G1 X349.849 Y-47.708 Z0.007
G1 X350.023 Y-47.842 Z-0.001
G1 X350.187 Y-47.988 Z-0.009
G1 X350.339 Y-48.145 Z-0.016
G1 X350.48 Y-48.314 Z-0.024
