%
(Made in : Autodesk CAM Post Processor)
(G Code optimized for OpenBuilds OX CNC 1000 x 750 with GRBL V0.9j controller)

(Program Name : 1001)
(2 Operations :)
(1 : 2D Contour2)
(  Tool : Flat End Mill 2 Flutes, Diam = 6.35mm, Len = 25.4mm)
(  Spindle : RPM = 5000, set router dial to 1)
(  Machining time : 12 min 6 sec)
(2 : 2D Pocket1)
(  Tool : Flat End Mill 2 Flutes, Diam = 6.35mm, Len = 25.4mm)
(  Spindle : RPM = 5000, set router dial to 1)
(  Machining time : 6 min 41 sec)

G90 G94
G17
G21

(Operation 1 of 2 : 2D Contour2)

G53 G0 Z-10
G54
S5000 M3
G4 P1.0
X-27.2952 Y-85.0152
Z6.096
G1 F508
Z4.191
Z-6.604
G3 X-27.434 Y-89.0996 I14.9588 J-2.5529
G1 X-11.4034 Y-247.1334
G3 X2.7253 Y-260.7465 I15.0978 J1.5311
G1 X203.9983 Y-273.6215
X204.2075 Y-273.628
X329.5495 Y-273.371
G3 X372.1165 Y-233.7346 I-0.0874 J42.7691
G1 X383.5565 Y-77.9474
G3 X378.3965 Y-72.3931 I-5.1607 J0.3796
G1 X-12.3364
G3 X-27.2952 Y-85.0152 J-15.175
G1 Z-14.224
G3 X-27.434 Y-89.0996 I14.9588 J-2.5529
G1 X-11.4034 Y-247.1334
G3 X2.7253 Y-260.7465 I15.0978 J1.5311
G1 X203.9983 Y-273.6215
X204.2075 Y-273.628
X329.5495 Y-273.371
G3 X372.1165 Y-233.7346 I-0.0874 J42.7691
G1 X383.5565 Y-77.9474
G3 X378.3965 Y-72.3931 I-5.1607 J0.3796
G1 X-12.3364
G3 X-27.2952 Y-85.0152 J-15.175
G1 Z-16.51
G3 X-27.434 Y-89.0996 I14.9588 J-2.5529
G1 X-26.0823 Y-102.4248
Z-19.05
X-23.0166 Y-132.6476
Z-16.51
X-21.8631 Y-144.0192
Z-19.05
X-20.7957 Y-154.5416
Z-16.51
X-19.4788 Y-167.5242
Z-19.05
X-18.1929 Y-180.2006
Z-16.51
X-17.0394 Y-191.5723
Z-19.05
X-13.5114 Y-226.3516
Z-16.51
X-12.3579 Y-237.7232
Z-19.05
X-11.9505 Y-241.7402
Z-16.51
X-11.4034 Y-247.1334
G3 X-0.9859 Y-260.0377 I15.0978 J1.5311
G1 Z-19.05
G3 X2.7253 Y-260.7465 I4.6804 J14.4354
G1 X46.474 Y-263.545
Z-16.51
X59.1251 Y-264.3543
Z-19.05
X147.066 Y-269.9797
Z-16.51
X158.4727 Y-270.7094
Z-19.05
X189.806 Y-272.7137
Z-16.51
X201.2127 Y-273.4433
Z-19.05
X203.9983 Y-273.6215
X204.2075 Y-273.628
X293.1055 Y-273.4457
Z-16.51
X304.5355 Y-273.4223
Z-19.05
X329.5495 Y-273.371
G3 X334.8854 Y-273.0258 I-0.0874 J42.7691
G1 Z-16.51
G3 X345.9278 Y-270.0745 I-5.4233 J42.424
G1 Z-19.05
G3 X372.1165 Y-233.7346 I-16.4657 J39.4726
G1 X373.3591 Y-216.8132
Z-16.51
X374.1962 Y-205.4139
Z-19.05
X377.9442 Y-154.3742
Z-16.51
X379.3186 Y-135.6579
Z-19.05
X383.5565 Y-77.9474
G3 X378.3965 Y-72.3931 I-5.1607 J0.3796
G1 X339.856
Z-16.51
X328.426
Z-19.05
X82.4773
Z-16.51
X71.0473
Z-19.05
X-12.3364
G3 X-24.0918 Y-77.9717 J-15.175
G1 Z-16.51
G3 X-27.2952 Y-85.0152 I11.7554 J-9.5965
G0 Z6.096
X-11.4488 Y-20.7226
G1 Z4.191 F508
Z-6.604
G3 X-11.4603 Y-21.1504 I4.1622 J-0.3258
G1 X-10.7522 Y-50.1241
G3 X-7.5006 Y-53.2206 I3.1741 J0.0776
G1 X46.093 Y-51.9108
G3 X48.3877 Y-50.8469 I-0.0776 J3.1741
G2 X49.6094 Y-51.9558 I0.6164 J-0.5483
G3 X48.7648 Y-54.1907 I2.3295 J-2.1573
G1 X48.8254 Y-56.6705
G3 X53.1013 Y-60.7422 I4.1738 J0.1021
G1 X69.0964 Y-60.3513
G3 X73.1683 Y-56.0756 I-0.1019 J4.1738
G1 X73.1143 Y-53.8665
G3 X72.0504 Y-51.5718 I-3.174 J-0.0776
G2 X73.1593 Y-50.3501 I0.5483 J0.6164
G3 X75.3942 Y-51.1947 I2.1573 J2.3295
G1 X162.79 Y-49.0587
X250.1864 Y-51.1947
G3 X252.4213 Y-50.3501 I0.0776 J3.1741
G2 X253.5305 Y-51.572 I0.5607 J-0.6054
G3 X252.4669 Y-53.8665 I2.1105 J-2.3721
G1 X252.413 Y-56.075
G3 X256.4846 Y-60.3513 I4.1734 J-0.1029
G1 X272.4791 Y-60.7421
G3 X276.7551 Y-56.6703 I0.1025 J4.1734
G1 X276.816 Y-54.1912
G3 X275.9716 Y-51.9558 I-3.174 J0.0781
G2 X277.193 Y-50.8472 I0.6052 J0.5604
G3 X279.4874 Y-51.9108 I2.372 J2.1105
G1 X333.0814 Y-53.2206
G3 X336.333 Y-50.1241 I0.0776 J3.174
G1 X337.041 Y-21.1504
G3 X332.896 Y-16.8735 I-4.1739 J0.1019
G1 X330.7323 Y-16.8583
G3 X328.4734 Y-17.7797 I-0.0223 J-3.1749
G2 X327.344 Y-16.5778 I-0.5811 J0.5855
G3 X328.4081 Y-14.2828 I-2.11 J2.3725
G1 X328.7551 Y-0.0775
G3 X325.581 Y3.175 I-3.1741 J0.0775
G1 X0
G3 X-3.1741 Y-0.0776 J-3.175
G1 X-2.8269 Y-14.2829
G3 X-1.763 Y-16.5776 I3.1741 J0.0776
G2 X-2.8925 Y-17.7796 I-0.5483 J-0.6164
G3 X-5.1512 Y-16.8583 I-2.2365 J-2.2536
G1 X-7.3157 Y-16.8735
G3 X-11.4488 Y-20.7226 I0.0291 J-4.1749
G1 Z-14.224
G3 X-11.4603 Y-21.1504 I4.1622 J-0.3258
G1 X-10.7522 Y-50.1241
G3 X-7.5006 Y-53.2206 I3.1741 J0.0776
G1 X46.093 Y-51.9108
G3 X48.3877 Y-50.8469 I-0.0776 J3.1741
G2 X49.6094 Y-51.9558 I0.6164 J-0.5483
G3 X48.7648 Y-54.1907 I2.3295 J-2.1573
G1 X48.8254 Y-56.6705
G3 X53.1013 Y-60.7422 I4.1738 J0.1021
G1 X69.0964 Y-60.3513
G3 X73.1683 Y-56.0756 I-0.1019 J4.1738
G1 X73.1143 Y-53.8665
G3 X72.0504 Y-51.5718 I-3.174 J-0.0776
G2 X73.1593 Y-50.3501 I0.5483 J0.6164
G3 X75.3942 Y-51.1947 I2.1573 J2.3295
G1 X162.79 Y-49.0587
X250.1864 Y-51.1947
G3 X252.4213 Y-50.3501 I0.0776 J3.1741
G2 X253.5305 Y-51.572 I0.5607 J-0.6054
G3 X252.4669 Y-53.8665 I2.1105 J-2.3721
G1 X252.413 Y-56.075
G3 X256.4846 Y-60.3513 I4.1734 J-0.1029
G1 X272.4791 Y-60.7421
G3 X276.7551 Y-56.6703 I0.1025 J4.1734
G1 X276.816 Y-54.1912
G3 X275.9716 Y-51.9558 I-3.174 J0.0781
G2 X277.193 Y-50.8472 I0.6052 J0.5604
G3 X279.4874 Y-51.9108 I2.372 J2.1105
G1 X333.0814 Y-53.2206
G3 X336.333 Y-50.1241 I0.0776 J3.174
G1 X337.041 Y-21.1504
G3 X332.896 Y-16.8735 I-4.1739 J0.1019
G1 X330.7323 Y-16.8583
G3 X328.4734 Y-17.7797 I-0.0223 J-3.1749
G2 X327.344 Y-16.5778 I-0.5811 J0.5855
G3 X328.4081 Y-14.2828 I-2.11 J2.3725
G1 X328.7551 Y-0.0775
G3 X325.581 Y3.175 I-3.1741 J0.0775
G1 X0
G3 X-3.1741 Y-0.0776 J-3.175
G1 X-2.8269 Y-14.2829
G3 X-1.763 Y-16.5776 I3.1741 J0.0776
G2 X-2.8925 Y-17.7796 I-0.5483 J-0.6164
G3 X-5.1512 Y-16.8583 I-2.2365 J-2.2536
G1 X-7.3157 Y-16.8735
G3 X-11.4488 Y-20.7226 I0.0291 J-4.1749
G1 Z-16.51
G3 X-11.4603 Y-21.1504 I4.1622 J-0.3258
G1 X-11.3356 Y-26.2521
Z-19.05
X-11.1693 Y-33.0593
Z-16.51
X-10.89 Y-44.4859
Z-19.05
X-10.7522 Y-50.1241
G3 X-7.5006 Y-53.2206 I3.1741 J0.0776
G1 X19.6802 Y-52.5563
Z-16.51
X31.1068 Y-52.277
Z-19.05
X46.093 Y-51.9108
G3 X48.3877 Y-50.8469 I-0.0776 J3.1741
G2 X49.6094 Y-51.9558 I0.6164 J-0.5483
G3 X48.7648 Y-54.1907 I2.3295 J-2.1573
G1 X48.8254 Y-56.6705
G3 X53.1013 Y-60.7422 I4.1738 J0.1021
G1 X69.0964 Y-60.3513
G3 X73.1683 Y-56.0756 I-0.1019 J4.1738
G1 X73.1143 Y-53.8665
G3 X72.0504 Y-51.5718 I-3.174 J-0.0776
G2 X73.1593 Y-50.3501 I0.5483 J0.6164
G3 X75.3942 Y-51.1947 I2.1573 J2.3295
G1 X162.79 Y-49.0587
X166.9601 Y-49.1607
Z-16.51
X178.3867 Y-49.4399
Z-19.05
X250.1864 Y-51.1947
G3 X252.4213 Y-50.3501 I0.0776 J3.1741
G2 X253.5305 Y-51.572 I0.5607 J-0.6054
G3 X252.4669 Y-53.8665 I2.1105 J-2.3721
G1 X252.413 Y-56.075
G3 X256.4846 Y-60.3513 I4.1734 J-0.1029
G1 X272.4791 Y-60.7421
G3 X276.7551 Y-56.6703 I0.1025 J4.1734
G1 X276.816 Y-54.1912
G3 X275.9716 Y-51.9558 I-3.174 J0.0781
G2 X277.193 Y-50.8472 I0.6052 J0.5604
G3 X279.4874 Y-51.9108 I2.372 J2.1105
G1 X333.0814 Y-53.2206
G3 X336.333 Y-50.1241 I0.0776 J3.174
G1 X337.041 Y-21.1504
G3 X332.896 Y-16.8735 I-4.1739 J0.1019
G1 X330.7323 Y-16.8583
G3 X328.4734 Y-17.7797 I-0.0223 J-3.1749
G2 X327.344 Y-16.5778 I-0.5811 J0.5855
G3 X328.4081 Y-14.2828 I-2.11 J2.3725
G1 X328.7551 Y-0.0775
G3 X325.581 Y3.175 I-3.1741 J0.0775
G1 X306.841
Z-16.51
X295.411
Z-19.05
X249.017
Z-16.51
X213.363
Z-19.05
X90.552
Z-16.51
X79.122
Z-19.05
X3.0984
Z-16.51
X0
G3 X-3.1741 Y-0.0776 J-3.175
G1 X-3.0344 Y-5.7909
Z-19.05
X-2.8269 Y-14.2829
G3 X-1.763 Y-16.5776 I3.1741 J0.0776
G2 X-2.8925 Y-17.7796 I-0.5483 J-0.6164
G3 X-3.3678 Y-17.3914 I-2.2365 J-2.2536
G1 Z-16.51
G3 X-5.1512 Y-16.8583 I-1.7611 J-2.6418
G1 X-7.3157 Y-16.8735
G3 X-11.4488 Y-20.7226 I0.0291 J-4.1749
G0 Z6.096

(Operation 2 of 2 : 2D Pocket1)

G54
S5000 M3
X127.3716 Y-243.9462
Z11.176
Z6.096
G1 Z3.556 F508
G2 X127.464 Y-244.4638 Z2.9126 I3.0042 J0.2693
X127.6449 Y-244.9575 Z2.2692 I2.9118 J0.7868
X127.9087 Y-245.4122 Z1.6257 I2.7309 J1.2805
X128.2475 Y-245.8143 Z0.9823 I2.4671 J1.7353
X128.651 Y-246.1514 Z0.3389 I2.1283 J2.1373
X129.1069 Y-246.4133 Z-0.3045 I1.7248 J2.4744
X129.6013 Y-246.5921 Z-0.948 I1.2689 J2.7363
X130.1193 Y-246.6823 Z-1.5914 I0.7745 J2.9151
X130.6451 Y-246.6811 Z-2.2348 I0.2565 J3.0053
X131.1626 Y-246.5887 Z-2.8782 I-0.2693 J3.0042
X131.6563 Y-246.4079 Z-3.5217 I-0.7868 J2.9118
X133.392 Y-243.6715 Z-4.064 I-1.2805 J2.7309
G1 X133.3921 Y-243.6992
Y-243.6993
X133.3847 Y-243.7368
X133.3635 Y-243.7685
X133.3318 Y-243.7898
X133.2944 Y-243.7973
X51.3863 Y-243.9506
X51.386
X51.3473 Y-243.9445
X51.3123 Y-243.9267
X51.2845 Y-243.899
X51.2667 Y-243.864
X51.2605 Y-243.8253
Y-243.8251
X51.2666 Y-243.7863
X51.2844 Y-243.7514
X51.3121 Y-243.7236
X51.3471 Y-243.7057
X51.3858 Y-243.6995
X133.2939 Y-243.5462
X133.2941
X133.3315 Y-243.5536
X133.3633 Y-243.5748
X133.3845 Y-243.6065
X133.392 Y-243.6439
Y-243.6715
G3 X134.7197 Y-246.2337 I3.1471 J0.0056
G2 X133.8468 Y-248.9842 I-0.8757 J-1.2359
G1 X47.964 Y-249.145
G3 X45.3361 Y-250.2546 I0.0069 J-3.683
G1 X45.2847 Y-250.2971
X45.2256 Y-250.328
X45.1614 Y-250.3458
X45.0948 Y-250.3498
X45.0289 Y-250.3397
X44.9665 Y-250.3161
X44.9105 Y-250.28
X44.8632 Y-250.2329
X44.8269 Y-250.177
X44.803 Y-250.1147
X44.7927 Y-250.0488
X44.7965 Y-249.9823
X44.814 Y-249.9179
X44.8446 Y-249.8587
X44.887 Y-249.8072
G3 X45.9868 Y-247.1751 I-2.5832 J2.6252
G1 X45.9743 Y-240.4951
G3 X44.8644 Y-237.8669 I-3.683 J-0.0069
G1 X44.8219 Y-237.8156
X44.791 Y-237.7565
X44.7732 Y-237.6922
X44.7692 Y-237.6256
X44.7793 Y-237.5597
X44.8029 Y-237.4973
X44.839 Y-237.4413
X44.8861 Y-237.3941
X44.942 Y-237.3577
X45.0043 Y-237.3339
X45.0702 Y-237.3236
X45.1367 Y-237.3273
X45.2011 Y-237.3449
X45.2603 Y-237.3755
X45.3118 Y-237.4179
G3 X47.9442 Y-238.518 I2.6255 J2.5829
G1 X136.5959 Y-238.352
G3 X139.2239 Y-237.2422 I-0.0069 J3.683
G1 X139.2753 Y-237.1997
X139.3345 Y-237.1688
X139.3988 Y-237.1509
X139.4655 Y-237.147
X139.5315 Y-237.157
X139.5939 Y-237.1807
X139.65 Y-237.2168
X139.6973 Y-237.2639
X139.7337 Y-237.3199
X139.7575 Y-237.3822
X139.7679 Y-237.4482
X139.7641 Y-237.5148
X139.7466 Y-237.5792
X139.7159 Y-237.6385
X139.6735 Y-237.6901
G3 X138.574 Y-240.3216 I2.5835 J-2.6249
G1 X138.586 Y-247.0016
G3 X139.6958 Y-249.6299 I3.683 J0.0066
G1 X139.7383 Y-249.6813
X139.7692 Y-249.7404
X139.787 Y-249.8047
X139.7909 Y-249.8712
X139.7809 Y-249.9372
X139.7573 Y-249.9995
X139.7211 Y-250.0555
X139.6741 Y-250.1028
X139.6182 Y-250.1391
X139.5559 Y-250.163
X139.49 Y-250.1733
X139.4234 Y-250.1695
X139.3591 Y-250.152
X139.2999 Y-250.1213
X139.2484 Y-250.079
G3 X136.6161 Y-248.979 I-2.6254 J-2.583
G1 X133.8468 Y-248.9842
G0 Z6.096
X129.0518 Y-240.9668
G1 Z-1.524 F508
G2 X128.6013 Y-241.2379 Z-2.1674 I1.324 J-2.7101
X128.2047 Y-241.5831 Z-2.8108 I1.7745 J-2.439
X127.8741 Y-241.9919 Z-3.4543 I2.1711 J-2.0938
X127.6195 Y-242.4519 Z-4.0977 I2.5017 J-1.685
X127.4487 Y-242.9492 Z-4.7411 I2.7563 J-1.225
X127.3668 Y-243.4685 Z-5.3845 I2.9271 J-0.7278
X127.3763 Y-243.9942 Z-6.028 I3.009 J-0.2084
X127.477 Y-244.5102 Z-6.6714 I2.9995 J0.3173
X127.6657 Y-245.001 Z-7.3148 I2.8989 J0.8333
X127.9368 Y-245.4514 Z-7.9582 I2.7101 J1.324
X128.282 Y-245.848 Z-8.6017 I2.439 J1.7745
X133.392 Y-243.6715 Z-9.017 I2.0938 J2.1711
G1 X133.3921 Y-243.6992
Y-243.6993
X133.3847 Y-243.7368
X133.3635 Y-243.7685
X133.3318 Y-243.7898
X133.2944 Y-243.7973
X51.3863 Y-243.9506
X51.386
X51.3473 Y-243.9445
X51.3123 Y-243.9267
X51.2845 Y-243.899
X51.2667 Y-243.864
X51.2605 Y-243.8253
Y-243.8251
X51.2666 Y-243.7863
X51.2844 Y-243.7514
X51.3121 Y-243.7236
X51.3471 Y-243.7057
X51.3858 Y-243.6995
X133.2939 Y-243.5462
X133.2941
X133.3315 Y-243.5536
X133.3633 Y-243.5748
X133.3845 Y-243.6065
X133.392 Y-243.6439
Y-243.6715
G3 X134.7197 Y-246.2337 I3.1471 J0.0056
G2 X133.8468 Y-248.9842 I-0.8757 J-1.2359
G1 X47.964 Y-249.145
G3 X45.3361 Y-250.2546 I0.0069 J-3.683
G1 X45.2847 Y-250.2971
X45.2256 Y-250.328
X45.1614 Y-250.3458
X45.0948 Y-250.3498
X45.0289 Y-250.3397
X44.9665 Y-250.3161
X44.9105 Y-250.28
X44.8632 Y-250.2329
X44.8269 Y-250.177
X44.803 Y-250.1147
X44.7927 Y-250.0488
X44.7965 Y-249.9823
X44.814 Y-249.9179
X44.8446 Y-249.8587
X44.887 Y-249.8072
G3 X45.9868 Y-247.1751 I-2.5832 J2.6252
G1 X45.9743 Y-240.4951
G3 X44.8644 Y-237.8669 I-3.683 J-0.0069
G1 X44.8219 Y-237.8156
X44.791 Y-237.7565
X44.7732 Y-237.6922
X44.7692 Y-237.6256
X44.7793 Y-237.5597
X44.8029 Y-237.4973
X44.839 Y-237.4413
X44.8861 Y-237.3941
X44.942 Y-237.3577
X45.0043 Y-237.3339
X45.0702 Y-237.3236
X45.1367 Y-237.3273
X45.2011 Y-237.3449
X45.2603 Y-237.3755
X45.3118 Y-237.4179
G3 X47.9442 Y-238.518 I2.6255 J2.5829
G1 X136.5959 Y-238.352
G3 X139.2239 Y-237.2422 I-0.0069 J3.683
G1 X139.2753 Y-237.1997
X139.3345 Y-237.1688
X139.3988 Y-237.1509
X139.4655 Y-237.147
X139.5315 Y-237.157
X139.5939 Y-237.1807
X139.65 Y-237.2168
X139.6973 Y-237.2639
X139.7337 Y-237.3199
X139.7575 Y-237.3822
X139.7679 Y-237.4482
X139.7641 Y-237.5148
X139.7466 Y-237.5792
X139.7159 Y-237.6385
X139.6735 Y-237.6901
G3 X138.574 Y-240.3216 I2.5835 J-2.6249
G1 X138.586 Y-247.0016
G3 X139.6958 Y-249.6299 I3.683 J0.0066
G1 X139.7383 Y-249.6813
X139.7692 Y-249.7404
X139.787 Y-249.8047
X139.7909 Y-249.8712
X139.7809 Y-249.9372
X139.7573 Y-249.9995
X139.7211 Y-250.0555
X139.6741 Y-250.1028
X139.6182 Y-250.1391
X139.5559 Y-250.163
X139.49 Y-250.1733
X139.4234 Y-250.1695
X139.3591 Y-250.152
X139.2999 Y-250.1213
X139.2484 Y-250.079
G3 X136.6161 Y-248.979 I-2.6254 J-2.583
G1 X133.8468 Y-248.9842
G0 Z6.096
X14.492 Y-175.2444
G1 Z3.556 F508
G2 X15.0087 Y-175.1474 Z2.9126 I-0.2963 J3.0017
X15.5007 Y-174.962 Z2.2692 I-0.8131 J2.9046
X15.9531 Y-174.6941 Z1.6257 I-1.3051 J2.7193
X16.3521 Y-174.3517 Z0.9823 I-1.7575 J2.4513
X16.6855 Y-173.9452 Z0.3389 I-2.1564 J2.1089
X16.9433 Y-173.4869 Z-0.3045 I-2.4899 J1.7024
X17.1176 Y-172.9909 Z-0.948 I-2.7477 J1.2442
X17.2031 Y-172.4721 Z-1.5914 I-2.922 J0.7482
X17.1973 Y-171.9464 Z-2.2348 I-3.0075 J0.2294
X17.1002 Y-171.4297 Z-2.8782 I-3.0017 J-0.2963
X16.9149 Y-170.9377 Z-3.5217 I-2.9046 J-0.8131
X14.163 Y-169.2267 Z-4.064 I-2.7193 J-1.3051
X14.2215 Y-174.6302 I0.0292 J-2.7018
G1 X14.2111 Y-174.6304
X14.1702 Y-174.6243
X14.1331 Y-174.6059
X14.1036 Y-174.577
X14.0844 Y-174.5404
X14.0775 Y-174.4996
X14.0772 Y-174.4789
X14.0833 Y-174.438
X14.1016 Y-174.4009
X14.1306 Y-174.3713
X14.1672 Y-174.3521
X14.208 Y-174.3452
X14.8169 Y-174.3386
X14.8578 Y-174.3447
X14.8949 Y-174.363
X14.9245 Y-174.392
X14.9436 Y-174.4286
X14.9506 Y-174.4694
X14.9508 Y-174.4901
X14.9448 Y-174.531
X14.9264 Y-174.5681
X14.8974 Y-174.5977
X14.8608 Y-174.6169
X14.82 Y-174.6238
X14.2215 Y-174.6302
G3 X11.6667 Y-175.9933 I0.034 J-3.1394
G2 X8.8963 Y-175.1507 I-1.252 J0.8591
G1 X8.8531 Y-171.1889
G3 X7.7196 Y-168.5708 I-3.6828 J-0.0401
G1 X7.6765 Y-168.5199
X7.6451 Y-168.461
X7.6268 Y-168.3969
X7.6222 Y-168.3304
X7.6316 Y-168.2643
X7.6547 Y-168.2017
X7.6903 Y-168.1454
X7.737 Y-168.0977
X7.7926 Y-168.0608
X7.8546 Y-168.0364
X7.9204 Y-168.0255
X7.9871 Y-168.0286
X8.0516 Y-168.0456
X8.1111 Y-168.0757
X8.163 Y-168.1176
G3 X10.8047 Y-169.1938 I2.6019 J2.6066
G1 X18.1064 Y-169.1148
G3 X20.725 Y-167.981 I-0.0398 J3.6828
G1 X20.776 Y-167.938
X20.8348 Y-167.9066
X20.8988 Y-167.8882
X20.9653 Y-167.8836
X21.0313 Y-167.8931
X21.0939 Y-167.9161
X21.1502 Y-167.9517
X21.1979 Y-167.9983
X21.2347 Y-168.0539
X21.2591 Y-168.1159
X21.27 Y-168.1817
X21.2669 Y-168.2482
X21.2499 Y-168.3127
X21.2198 Y-168.3722
X21.1779 Y-168.424
G3 X20.1017 Y-171.0661 I2.6066 J-2.602
G1 X20.1749 Y-177.7802
G3 X21.3085 Y-180.3982 I3.6828 J0.0401
G1 X21.3515 Y-180.4491
X21.3829 Y-180.508
X21.4013 Y-180.5721
X21.4058 Y-180.6386
X21.3964 Y-180.7047
X21.3733 Y-180.7673
X21.3377 Y-180.8236
X21.291 Y-180.8713
X21.2355 Y-180.9082
X21.1734 Y-180.9326
X21.1076 Y-180.9435
X21.041 Y-180.9404
X20.9764 Y-180.9234
X20.9169 Y-180.8933
X20.865 Y-180.8514
G3 X18.2233 Y-179.7752 I-2.6019 J-2.6066
G1 X10.9216 Y-179.8542
G3 X8.3029 Y-180.9881 I0.0398 J-3.6828
G1 X8.252 Y-181.031
X8.1932 Y-181.0624
X8.1291 Y-181.0808
X8.0626 Y-181.0854
X7.9967 Y-181.0759
X7.9341 Y-181.0529
X7.8778 Y-181.0173
X7.8301 Y-180.9707
X7.7933 Y-180.9151
X7.7689 Y-180.8531
X7.758 Y-180.7874
X7.7611 Y-180.7208
X7.7781 Y-180.6563
X7.8082 Y-180.5968
X7.8501 Y-180.545
G3 X8.9263 Y-177.9029 I-2.6066 J2.602
G1 X8.8963 Y-175.1507
G0 Z6.096
X11.4976 Y-173.5912
G1 Z-1.524 F508
G2 X11.7727 Y-174.0392 Z-2.1674 I2.6981 J1.3484
X12.1215 Y-174.4326 Z-2.8108 I2.4229 J1.7964
X12.5332 Y-174.7595 Z-3.4543 I2.0742 J2.1899
X12.9955 Y-175.01 Z-4.0977 I1.6624 J2.5168
X13.4943 Y-175.1763 Z-4.7411 I1.2001 J2.7672
X14.0144 Y-175.2535 Z-5.3845 I0.7013 J2.9336
X14.5399 Y-175.2393 Z-6.028 I0.1813 J3.0108
X15.055 Y-175.134 Z-6.6714 I-0.3443 J2.9965
X15.544 Y-174.9408 Z-7.3148 I-0.8594 J2.8912
X15.9921 Y-174.6657 Z-7.9582 I-1.3484 J2.6981
X16.3855 Y-174.3169 Z-8.6017 I-1.7964 J2.4229
X14.163 Y-169.2267 Z-9.017 I-2.1899 J2.0742
X14.2215 Y-174.6302 I0.0292 J-2.7018
G1 X14.2111 Y-174.6304
X14.1702 Y-174.6243
X14.1331 Y-174.6059
X14.1036 Y-174.577
X14.0844 Y-174.5404
X14.0775 Y-174.4996
X14.0772 Y-174.4789
X14.0833 Y-174.438
X14.1016 Y-174.4009
X14.1306 Y-174.3713
X14.1672 Y-174.3521
X14.208 Y-174.3452
X14.8169 Y-174.3386
X14.8578 Y-174.3447
X14.8949 Y-174.363
X14.9245 Y-174.392
X14.9436 Y-174.4286
X14.9506 Y-174.4694
X14.9508 Y-174.4901
X14.9448 Y-174.531
X14.9264 Y-174.5681
X14.8974 Y-174.5977
X14.8608 Y-174.6169
X14.82 Y-174.6238
X14.2215 Y-174.6302
G3 X11.6667 Y-175.9933 I0.034 J-3.1394
G2 X8.8963 Y-175.1507 I-1.252 J0.8591
G1 X8.8531 Y-171.1889
G3 X7.7196 Y-168.5708 I-3.6828 J-0.0401
G1 X7.6765 Y-168.5199
X7.6451 Y-168.461
X7.6268 Y-168.3969
X7.6222 Y-168.3304
X7.6316 Y-168.2643
X7.6547 Y-168.2017
X7.6903 Y-168.1454
X7.737 Y-168.0977
X7.7926 Y-168.0608
X7.8546 Y-168.0364
X7.9204 Y-168.0255
X7.9871 Y-168.0286
X8.0516 Y-168.0456
X8.1111 Y-168.0757
X8.163 Y-168.1176
G3 X10.8047 Y-169.1938 I2.6019 J2.6066
G1 X18.1064 Y-169.1148
G3 X20.725 Y-167.981 I-0.0398 J3.6828
G1 X20.776 Y-167.938
X20.8348 Y-167.9066
X20.8988 Y-167.8882
X20.9653 Y-167.8836
X21.0313 Y-167.8931
X21.0939 Y-167.9161
X21.1502 Y-167.9517
X21.1979 Y-167.9983
X21.2347 Y-168.0539
X21.2591 Y-168.1159
X21.27 Y-168.1817
X21.2669 Y-168.2482
X21.2499 Y-168.3127
X21.2198 Y-168.3722
X21.1779 Y-168.424
G3 X20.1017 Y-171.0661 I2.6066 J-2.602
G1 X20.1749 Y-177.7802
G3 X21.3085 Y-180.3982 I3.6828 J0.0401
G1 X21.3515 Y-180.4491
X21.3829 Y-180.508
X21.4013 Y-180.5721
X21.4058 Y-180.6386
X21.3964 Y-180.7047
X21.3733 Y-180.7673
X21.3377 Y-180.8236
X21.291 Y-180.8713
X21.2355 Y-180.9082
X21.1734 Y-180.9326
X21.1076 Y-180.9435
X21.041 Y-180.9404
X20.9764 Y-180.9234
X20.9169 Y-180.8933
X20.865 Y-180.8514
G3 X18.2233 Y-179.7752 I-2.6019 J-2.6066
G1 X10.9216 Y-179.8542
G3 X8.3029 Y-180.9881 I0.0398 J-3.6828
G1 X8.252 Y-181.031
X8.1932 Y-181.0624
X8.1291 Y-181.0808
X8.0626 Y-181.0854
X7.9967 Y-181.0759
X7.9341 Y-181.0529
X7.8778 Y-181.0173
X7.8301 Y-180.9707
X7.7933 Y-180.9151
X7.7689 Y-180.8531
X7.758 Y-180.7874
X7.7611 Y-180.7208
X7.7781 Y-180.6563
X7.8082 Y-180.5968
X7.8501 Y-180.545
G3 X8.9263 Y-177.9029 I-2.6066 J2.602
G1 X8.8963 Y-175.1507
G0 Z6.096
X295.4635 Y-244.0529
G1 Z3.556 F508
G2 X295.9807 Y-243.9585 Z2.9126 I-0.281 J3.0031
X296.4737 Y-243.7757 Z2.2692 I-0.7983 J2.9087
X296.9274 Y-243.5101 Z1.6257 I-1.2912 J2.7259
X297.3281 Y-243.1697 Z0.9823 I-1.7449 J2.4603
X297.6636 Y-242.7649 Z0.3389 I-2.1457 J2.1199
X297.9238 Y-242.308 Z-0.3045 I-2.4812 J1.7151
X298.1006 Y-241.8129 Z-0.948 I-2.7413 J1.2582
X298.1888 Y-241.2945 Z-1.5914 I-2.9181 J0.763
X298.1856 Y-240.7688 Z-2.2348 I-3.0063 J0.2447
X298.0912 Y-240.2516 Z-2.8782 I-3.0031 J-0.281
X297.9084 Y-239.7586 Z-3.5217 I-2.9087 J-0.7983
X295.1652 Y-238.0336 Z-4.064 I-2.7259 J-1.2912
X295.1967 Y-243.5367 I0.0158 J-2.7515
G1 X283.4038 Y-243.6042
X283.3495 Y-243.5968
X283.2994 Y-243.5742
X283.2578 Y-243.5386
X283.2278 Y-243.4926
X283.2121 Y-243.44
X283.2118 Y-243.3852
X283.2269 Y-243.3324
X283.2563 Y-243.2861
X283.2975 Y-243.2499
X283.3473 Y-243.2269
X283.4016 Y-243.2187
X295.2095 Y-243.1505
X295.2556 Y-243.1562
X295.2987 Y-243.1738
X295.3357 Y-243.2019
X295.3642 Y-243.2386
X295.3822 Y-243.2814
X295.3886 Y-243.3274
X295.3887 Y-243.3576
X295.3829 Y-243.4037
X295.3654 Y-243.4467
X295.3373 Y-243.4837
X295.3006 Y-243.5122
X295.2578 Y-243.5303
X295.2118 Y-243.5366
X295.1967 Y-243.5367
G3 X291.3206 Y-246.1529 I0.0242 J-4.2152
G2 X287.4446 Y-248.7692 I-3.9002 J1.5989
G1 X279.9579 Y-248.8121
G3 X277.3341 Y-249.932 I0.0211 J-3.6829
G1 X277.2829 Y-249.9747
X277.224 Y-250.0058
X277.1599 Y-250.0238
X277.0934 Y-250.0281
X277.0275 Y-250.0183
X276.9651 Y-249.9949
X276.909 Y-249.9591
X276.8616 Y-249.9122
X276.8251 Y-249.8565
X276.801 Y-249.7944
X276.7905 Y-249.7286
X276.7939 Y-249.6621
X276.8112 Y-249.5978
X276.8416 Y-249.5385
X276.8837 Y-249.4868
G3 X277.9729 Y-246.8509 I-2.5937 J2.6149
G1 X277.9339 Y-240.0359
G3 X276.8135 Y-237.4116 I-3.6829 J-0.0211
G1 X276.7707 Y-237.3604
X276.7396 Y-237.3014
X276.7216 Y-237.2372
X276.7173 Y-237.1706
X276.7271 Y-237.1047
X276.7505 Y-237.0422
X276.7864 Y-236.986
X276.8333 Y-236.9386
X276.8891 Y-236.902
X276.9513 Y-236.8779
X277.0172 Y-236.8673
X277.0838 Y-236.8708
X277.1482 Y-236.8881
X277.2076 Y-236.9186
X277.2592 Y-236.9607
G3 X279.8963 Y-238.0509 I2.6158 J2.5927
G1 X298.5723 Y-237.9429
G3 X301.1955 Y-236.8234 I-0.0213 J3.6829
G1 X301.2467 Y-236.7807
X301.3057 Y-236.7496
X301.3699 Y-236.7316
X301.4364 Y-236.7273
X301.5024 Y-236.7371
X301.5648 Y-236.7605
X301.621 Y-236.7964
X301.6684 Y-236.8433
X301.705 Y-236.8991
X301.7291 Y-236.9613
X301.7397 Y-237.0271
X301.7362 Y-237.0937
X301.7189 Y-237.1581
X301.6885 Y-237.2175
X301.6463 Y-237.2692
G3 X300.5571 Y-239.9051 I2.5937 J-2.6148
G1 X300.5961 Y-246.7201
G3 X301.716 Y-249.3439 I3.6829 J0.0211
G1 X301.7588 Y-249.3951
X301.7899 Y-249.4541
X301.8079 Y-249.5183
X301.8122 Y-249.5849
X301.8024 Y-249.6509
X301.779 Y-249.7133
X301.7431 Y-249.7695
X301.6962 Y-249.817
X301.6404 Y-249.8535
X301.5782 Y-249.8776
X301.5123 Y-249.8882
X301.4457 Y-249.8847
X301.3813 Y-249.8674
X301.322 Y-249.837
X301.2703 Y-249.7948
G3 X298.6339 Y-248.7051 I-2.6153 J-2.5932
G1 X287.4446 Y-248.7692
G0 Z6.096
X292.4776 Y-242.3845
G1 Z-1.524 F508
G2 X292.7504 Y-242.8339 Z-2.1674 I2.7049 J1.3347
X293.0972 Y-243.2291 Z-2.8108 I2.432 J1.7841
X293.5073 Y-243.5581 Z-3.4543 I2.0853 J2.1793
X293.9683 Y-243.8109 Z-4.0977 I1.6752 J2.5083
X294.4662 Y-243.9798 Z-4.7411 I1.2142 J2.7611
X294.9859 Y-244.0597 Z-5.3845 I0.7163 J2.93
X295.5115 Y-244.0481 Z-6.028 I0.1966 J3.0098
X296.0272 Y-243.9454 Z-6.6714 I-0.3291 J2.9983
X296.5171 Y-243.7547 Z-7.3148 I-0.8447 J2.8956
X296.9666 Y-243.4819 Z-7.9582 I-1.3347 J2.7049
X297.3618 Y-243.1351 Z-8.6017 I-1.7841 J2.432
X295.1652 Y-238.0336 Z-9.017 I-2.1793 J2.0853
X295.1967 Y-243.5367 I0.0158 J-2.7515
G1 X283.4038 Y-243.6042
X283.3495 Y-243.5968
X283.2994 Y-243.5742
X283.2578 Y-243.5386
X283.2278 Y-243.4926
X283.2121 Y-243.44
X283.2118 Y-243.3852
X283.2269 Y-243.3324
X283.2563 Y-243.2861
X283.2975 Y-243.2499
X283.3473 Y-243.2269
X283.4016 Y-243.2187
X295.2095 Y-243.1505
X295.2556 Y-243.1562
X295.2987 Y-243.1738
X295.3357 Y-243.2019
X295.3642 Y-243.2386
X295.3822 Y-243.2814
X295.3886 Y-243.3274
X295.3887 Y-243.3576
X295.3829 Y-243.4037
X295.3654 Y-243.4467
X295.3373 Y-243.4837
X295.3006 Y-243.5122
X295.2578 Y-243.5303
X295.2118 Y-243.5366
X295.1967 Y-243.5367
G3 X291.3206 Y-246.1529 I0.0242 J-4.2152
G2 X287.4446 Y-248.7692 I-3.9002 J1.5989
G1 X279.9579 Y-248.8121
G3 X277.3341 Y-249.932 I0.0211 J-3.6829
G1 X277.2829 Y-249.9747
X277.224 Y-250.0058
X277.1599 Y-250.0238
X277.0934 Y-250.0281
X277.0275 Y-250.0183
X276.9651 Y-249.9949
X276.909 Y-249.9591
X276.8616 Y-249.9122
X276.8251 Y-249.8565
X276.801 Y-249.7944
X276.7905 Y-249.7286
X276.7939 Y-249.6621
X276.8112 Y-249.5978
X276.8416 Y-249.5385
X276.8837 Y-249.4868
G3 X277.9729 Y-246.8509 I-2.5937 J2.6149
G1 X277.9339 Y-240.0359
G3 X276.8135 Y-237.4116 I-3.6829 J-0.0211
G1 X276.7707 Y-237.3604
X276.7396 Y-237.3014
X276.7216 Y-237.2372
X276.7173 Y-237.1706
X276.7271 Y-237.1047
X276.7505 Y-237.0422
X276.7864 Y-236.986
X276.8333 Y-236.9386
X276.8891 Y-236.902
X276.9513 Y-236.8779
X277.0172 Y-236.8673
X277.0838 Y-236.8708
X277.1482 Y-236.8881
X277.2076 Y-236.9186
X277.2592 Y-236.9607
G3 X279.8963 Y-238.0509 I2.6158 J2.5927
G1 X298.5723 Y-237.9429
G3 X301.1955 Y-236.8234 I-0.0213 J3.6829
G1 X301.2467 Y-236.7807
X301.3057 Y-236.7496
X301.3699 Y-236.7316
X301.4364 Y-236.7273
X301.5024 Y-236.7371
X301.5648 Y-236.7605
X301.621 Y-236.7964
X301.6684 Y-236.8433
X301.705 Y-236.8991
X301.7291 Y-236.9613
X301.7397 Y-237.0271
X301.7362 Y-237.0937
X301.7189 Y-237.1581
X301.6885 Y-237.2175
X301.6463 Y-237.2692
G3 X300.5571 Y-239.9051 I2.5937 J-2.6148
G1 X300.5961 Y-246.7201
G3 X301.716 Y-249.3439 I3.6829 J0.0211
G1 X301.7588 Y-249.3951
X301.7899 Y-249.4541
X301.8079 Y-249.5183
X301.8122 Y-249.5849
X301.8024 Y-249.6509
X301.779 Y-249.7133
X301.7431 Y-249.7695
X301.6962 Y-249.817
X301.6404 Y-249.8535
X301.5782 Y-249.8776
X301.5123 Y-249.8882
X301.4457 Y-249.8847
X301.3813 Y-249.8674
X301.322 Y-249.837
X301.2703 Y-249.7948
G3 X298.6339 Y-248.7051 I-2.6153 J-2.5932
G1 X287.4446 Y-248.7692
G0 Z6.096
X343.6545 Y-157.1456
G1 Z3.556 F508
G2 X344.1712 Y-157.0483 Z2.9126 I-0.2977 J3.0015
X344.6632 Y-156.8628 Z2.2692 I-0.8144 J2.9042
X345.1154 Y-156.5946 Z1.6257 I-1.3064 J2.7187
X345.5142 Y-156.252 Z0.9823 I-1.7586 J2.4505
X345.8475 Y-155.8453 Z0.3389 I-2.1574 J2.1079
X346.1051 Y-155.387 Z-0.3045 I-2.4907 J1.7013
X346.2791 Y-154.8909 Z-0.948 I-2.7483 J1.2429
X346.3644 Y-154.3721 Z-1.5914 I-2.9223 J0.7468
X346.3583 Y-153.8463 Z-2.2348 I-3.0076 J0.228
X346.261 Y-153.3297 Z-2.8782 I-3.0015 J-0.2977
X346.0755 Y-152.8377 Z-3.5217 I-2.9042 J-0.8144
X343.3228 Y-151.128 Z-4.064 I-2.7187 J-1.3064
G1 X343.3615 Y-151.1337
X343.3966 Y-151.1511
X343.4246 Y-151.1784
X343.4427 Y-151.2131
X343.4493 Y-151.2517
X343.9226 Y-193.2073
X343.9156 Y-193.2448
X343.8947 Y-193.2768
X343.8632 Y-193.2984
X343.8258 Y-193.3063
X343.7715 Y-193.3069
X343.7339 Y-193.2999
X343.7019 Y-193.279
X343.6803 Y-193.2475
X343.6725 Y-193.2101
X343.1991 Y-151.2545
X343.2048 Y-151.2158
X343.2222 Y-151.1807
X343.2496 Y-151.1527
X343.2842 Y-151.1346
X343.3228 Y-151.128
G3 X345.9017 Y-149.8455 I-0.0374 J3.3092
G2 X348.6321 Y-150.7622 I1.2056 J-0.9339
G1 X349.1482 Y-196.5155
G3 X350.2826 Y-199.1329 I3.6828 J0.0415
G1 X350.3258 Y-199.1842
X350.3573 Y-199.2434
X350.3756 Y-199.3079
X350.3799 Y-199.3748
X350.37 Y-199.4411
X350.3464 Y-199.5039
X350.3102 Y-199.5602
X350.2629 Y-199.6077
X350.2066 Y-199.6442
X350.1439 Y-199.668
X350.0777 Y-199.6781
X350.0107 Y-199.6741
X349.9462 Y-199.656
X349.8869 Y-199.6247
X349.8354 Y-199.5817
G3 X347.1445 Y-198.4572 I-2.6494 J-2.5583
G1 X340.5706 Y-198.5312
G3 X337.9049 Y-199.7168 I0.0414 J-3.6828
G1 X337.8544 Y-199.761
X337.7958 Y-199.7936
X337.7316 Y-199.8132
X337.6648 Y-199.8188
X337.5983 Y-199.8102
X337.535 Y-199.7878
X337.4779 Y-199.7526
X337.4295 Y-199.7061
X337.3919 Y-199.6506
X337.3669 Y-199.5883
X337.3556 Y-199.5222
X337.3584 Y-199.4552
X337.3752 Y-199.3902
X337.4054 Y-199.3303
X337.4475 Y-199.278
G3 X338.5228 Y-196.6355 I-2.6075 J2.601
G1 X337.9728 Y-147.8815
G3 X336.8384 Y-145.2641 I-3.6828 J-0.0415
G1 X336.7954 Y-145.2131
X336.764 Y-145.1543
X336.7456 Y-145.0903
X336.741 Y-145.0238
X336.7505 Y-144.9578
X336.7735 Y-144.8952
X336.8091 Y-144.8389
X336.8557 Y-144.7912
X336.9112 Y-144.7544
X336.9732 Y-144.7299
X337.039 Y-144.719
X337.1056 Y-144.7221
X337.17 Y-144.7391
X337.2295 Y-144.7691
X337.2814 Y-144.811
G3 X339.9233 Y-145.8858 I2.6006 J2.608
G1 X346.6024 Y-145.8108
G3 X349.2199 Y-144.6764 I-0.0414 J3.6828
G1 X349.2709 Y-144.6334
X349.3297 Y-144.602
X349.3937 Y-144.5836
X349.4602 Y-144.5791
X349.5262 Y-144.5885
X349.5888 Y-144.6115
X349.6451 Y-144.6471
X349.6928 Y-144.6937
X349.7296 Y-144.7492
X349.7541 Y-144.8112
X349.765 Y-144.877
X349.7619 Y-144.9436
X349.7449 Y-145.008
X349.7149 Y-145.0675
X349.673 Y-145.1194
G3 X348.5982 Y-147.7616 I2.608 J-2.6006
G1 X348.6321 Y-150.7622
G0 Z6.096
X340.6594 Y-155.4937
G1 Z-1.524 F508
G2 X340.9347 Y-155.9416 Z-2.1674 I2.6974 J1.3497
X341.2837 Y-156.3349 Z-2.8108 I2.4221 J1.7976
X341.6956 Y-156.6616 Z-3.4543 I2.0731 J2.1908
X342.158 Y-156.9119 Z-4.0977 I1.6612 J2.5176
X342.6569 Y-157.078 Z-4.7411 I1.1988 J2.7678
X343.177 Y-157.1549 Z-5.3845 I0.7 J2.9339
X343.7025 Y-157.1404 Z-6.028 I0.1799 J3.0109
X344.2176 Y-157.0349 Z-6.6714 I-0.3457 J2.9964
X344.7065 Y-156.8415 Z-7.3148 I-0.8608 J2.8908
X345.1544 Y-156.5661 Z-7.9582 I-1.3497 J2.6974
X345.5477 Y-156.2172 Z-8.6017 I-1.7976 J2.4221
X343.3228 Y-151.128 Z-9.017 I-2.1909 J2.0731
G1 X343.3615 Y-151.1337
X343.3966 Y-151.1511
X343.4246 Y-151.1784
X343.4427 Y-151.2131
X343.4493 Y-151.2517
X343.9226 Y-193.2073
X343.9156 Y-193.2448
X343.8947 Y-193.2768
X343.8632 Y-193.2984
X343.8258 Y-193.3063
X343.7715 Y-193.3069
X343.7339 Y-193.2999
X343.7019 Y-193.279
X343.6803 Y-193.2475
X343.6725 Y-193.2101
X343.1991 Y-151.2545
X343.2048 Y-151.2158
X343.2222 Y-151.1807
X343.2496 Y-151.1527
X343.2842 Y-151.1346
X343.3228 Y-151.128
G3 X345.9017 Y-149.8455 I-0.0374 J3.3092
G2 X348.6321 Y-150.7622 I1.2056 J-0.9339
G1 X349.1482 Y-196.5155
G3 X350.2826 Y-199.1329 I3.6828 J0.0415
G1 X350.3258 Y-199.1842
X350.3573 Y-199.2434
X350.3756 Y-199.3079
X350.3799 Y-199.3748
X350.37 Y-199.4411
X350.3464 Y-199.5039
X350.3102 Y-199.5602
X350.2629 Y-199.6077
X350.2066 Y-199.6442
X350.1439 Y-199.668
X350.0777 Y-199.6781
X350.0107 Y-199.6741
X349.9462 Y-199.656
X349.8869 Y-199.6247
X349.8354 Y-199.5817
G3 X347.1445 Y-198.4572 I-2.6494 J-2.5583
G1 X340.5706 Y-198.5312
G3 X337.9049 Y-199.7168 I0.0414 J-3.6828
G1 X337.8544 Y-199.761
X337.7958 Y-199.7936
X337.7316 Y-199.8132
X337.6648 Y-199.8188
X337.5983 Y-199.8102
X337.535 Y-199.7878
X337.4779 Y-199.7526
X337.4295 Y-199.7061
X337.3919 Y-199.6506
X337.3669 Y-199.5883
X337.3556 Y-199.5222
X337.3584 Y-199.4552
X337.3752 Y-199.3902
X337.4054 Y-199.3303
X337.4475 Y-199.278
G3 X338.5228 Y-196.6355 I-2.6075 J2.601
G1 X337.9728 Y-147.8815
G3 X336.8384 Y-145.2641 I-3.6828 J-0.0415
G1 X336.7954 Y-145.2131
X336.764 Y-145.1543
X336.7456 Y-145.0903
X336.741 Y-145.0238
X336.7505 Y-144.9578
X336.7735 Y-144.8952
X336.8091 Y-144.8389
X336.8557 Y-144.7912
X336.9112 Y-144.7544
X336.9732 Y-144.7299
X337.039 Y-144.719
X337.1056 Y-144.7221
X337.17 Y-144.7391
X337.2295 Y-144.7691
X337.2814 Y-144.811
G3 X339.9233 Y-145.8858 I2.6006 J2.608
G1 X346.6024 Y-145.8108
G3 X349.2199 Y-144.6764 I-0.0414 J3.6828
G1 X349.2709 Y-144.6334
X349.3297 Y-144.602
X349.3937 Y-144.5836
X349.4602 Y-144.5791
X349.5262 Y-144.5885
X349.5888 Y-144.6115
X349.6451 Y-144.6471
X349.6928 Y-144.6937
X349.7296 Y-144.7492
X349.7541 Y-144.8112
X349.765 Y-144.877
X349.7619 Y-144.9436
X349.7449 Y-145.008
X349.7149 Y-145.0675
X349.673 Y-145.1194
G3 X348.5982 Y-147.7616 I2.608 J-2.6006
G1 X348.6321 Y-150.7622
G0 Z11.176

G53 Z-10
M5
G4 P1.0
G53 X-10 Y-10
M30
%
