%
(Made in : Autodesk CAM Post Processor)
(G Code optimized for OpenBuilds OX CNC 1000 x 750 with GRBL V0.9j controller)

(Program Name : 1001)
(3 Operations :)
(1 : 2D Contour2)
(  Tool : Flat End Mill 2 Flutes, Diam = 6.35mm, Len = 25.4mm)
(  Spindle : RPM = 5000, set router dial to 1)
(  Machining time : 8 min 58 sec)
(2 : Drill1)
(  Tool : Flat End Mill 2 Flutes, Diam = 6.35mm, Len = 25.4mm)
(  Spindle : RPM = 5000, set router dial to 1)
(  Machining time : 5 sec)
(3 : Drill2)
(  Tool : Flat End Mill 2 Flutes, Diam = 6.35mm, Len = 25.4mm)
(  Spindle : RPM = 5000, set router dial to 1)
(  Machining time : 9 sec)

G90 G94
G17
G21

(Operation 1 of 3 : 2D Contour2)

G53 G0 Z-10
G54
S5000 M3
G4 P1.0
X1.9342 Y-3.4955
Z6.096
G1 F508
Z4.191
Z-6.604
X84.346 Y-15.6796
G3 X87.0042 Y-15.875 I2.6582 J17.9796
G1 X700.3972
X697.3796 Y-50.369
X81.1121
G3 X81.6343 Y-44.1884 I-6.1861 J3.6351
X73.6828 Y-39.6668 I-6.7087 J-2.5453
G1 X67.6296 Y-37.0163
G3 X59.0472 Y-34.1874 I-6.0362 J-3.8796
X54.4199 Y-41.074 I2.5455 J-6.7083
G1 X15.486 Y-24.0263
G3 X17.2675 Y-16.2639 I-4.9267 J5.2164
X9.3196 Y-11.742 I-6.7086 J-2.5455
G1 X0.0923 Y-7.6964
X1.9342 Y-3.4955
Z-14.224
X84.346 Y-15.6796
G3 X87.0042 Y-15.875 I2.6582 J17.9796
G1 X700.3972
X697.3796 Y-50.369
X81.1121
G3 X81.6343 Y-44.1884 I-6.1861 J3.6351
X73.6828 Y-39.6668 I-6.7087 J-2.5453
G1 X67.6296 Y-37.0163
G3 X59.0472 Y-34.1874 I-6.0362 J-3.8796
X54.4199 Y-41.074 I2.5455 J-6.7083
G1 X15.486 Y-24.0263
G3 X17.2675 Y-16.2639 I-4.9267 J5.2164
X9.3196 Y-11.742 I-6.7086 J-2.5455
G1 X0.0923 Y-7.6964
X1.9342 Y-3.4955
Z-20.066
X84.346 Y-15.6796
G3 X87.0042 Y-15.875 I2.6582 J17.9796
G1 X95.125
Z-17.526
X106.555
Z-20.066
X228.4
Z-17.526
X239.83
Z-20.066
X492.845
Z-17.526
X504.275
Z-20.066
X700.3972
X697.7129 Y-46.559
Z-17.526
X697.3796 Y-50.369
X694.574
Z-20.066
X667.218
Z-17.526
X655.788
Z-20.066
X642.687
Z-17.526
X631.257
Z-20.066
X628.698
Z-17.526
X617.268
Z-20.066
X606.217
Z-17.526
X594.787
Z-20.066
X573.201
Z-17.526
X559.459
Z-20.066
X515.377
Z-17.526
X503.947
Z-20.066
X498.869
Z-17.526
X479.724
Z-20.066
X458.864
Z-17.526
X447.434
Z-20.066
X444.827
Z-17.526
X433.397
Z-20.066
X421.514
Z-17.526
X410.084
Z-20.066
X356.913
Z-17.526
X337.408
Z-20.066
X325.7
Z-17.526
X306.128
Z-20.066
X297.392
Z-17.526
X285.962
Z-20.066
X255.179
Z-17.526
X243.749
Z-20.066
X235.153
Z-17.526
X223.723
Z-20.066
X182.299
Z-17.526
X164
Z-20.066
X137.898
Z-17.526
X126.468
Z-20.066
X126.2
Z-17.526
X114.77
Z-20.066
X81.9981
Z-17.526
X81.1121
G3 X81.2852 Y-50.0569 I-6.1861 J3.6351
G1 Z-20.066
G3 X81.6343 Y-44.1884 I-6.3592 J3.3229
X73.6828 Y-39.6668 I-6.7087 J-2.5453
G1 X67.6296 Y-37.0163
G3 X59.0472 Y-34.1874 I-6.0362 J-3.8796
X55.3668 Y-37.3294 I2.5455 J-6.7083
G1 Z-17.526
G3 X54.4199 Y-41.074 I6.2259 J-3.5664
G1 X48.398 Y-38.4372
Z-20.066
X27.2748 Y-29.1882
Z-17.526
X15.486 Y-24.0263
G3 X17.2978 Y-21.2748 I-4.9267 J5.2164
G1 Z-20.066
G3 X17.2675 Y-16.2639 I-6.7385 J2.4649
X9.3196 Y-11.742 I-6.7086 J-2.5455
G1 X3.5817 Y-9.2263
Z-17.526
X0.0923 Y-7.6964
X1.1123 Y-5.3702
Z-20.066
X1.9342 Y-3.4955
G0 Z6.096

(Operation 2 of 3 : Drill1)

G54
S5000 M3
X302.3519 Y-34.792
Z6.096
G1 Z-19.05 F508
G0 Z6.096
X372.8429 Y-34.559
G1 Z-19.05 F508
G0 Z6.096

(Operation 3 of 3 : Drill2)

G54
S5000 M3
X452.5809 Y-34.335
Z6.096
G1 Z-13.984 F508
G0 Z6.096
X526.3929 Y-34.033
G1 Z-13.984 F508
G0 Z6.096
X605.8009 Y-33.809
G1 Z-13.984 F508
G0 Z6.096
X693.7319 Y-33.513
G1 Z-13.984 F508
G0 Z6.096

G53 Z-10
M5
G4 P1.0
G53 X-10 Y-10
M30
%
