%
(Made in : Autodesk CAM Post Processor)
(G Code optimized for OpenBuilds OX CNC 1000 x 750 with GRBL V0.9j controller)

(Program Name : 1001)
(3 Operations :)
(1 : 2D Contour2)
(  Tool : Flat End Mill 2 Flutes, Diam = 6.35mm, Len = 25.4mm)
(  Spindle : RPM = 5000, set router dial to 1)
(  Machining time : 15 min 4 sec)
(2 : 2D Pocket1)
(  Tool : Flat End Mill 2 Flutes, Diam = 6.35mm, Len = 25.4mm)
(  Spindle : RPM = 5000, set router dial to 1)
(  Machining time : 1 min 29 sec)
(3 : Drill2)
(  Tool : Flat End Mill 2 Flutes, Diam = 6.35mm, Len = 25.4mm)
(  Spindle : RPM = 5000, set router dial to 1)
(  Machining time : 14 sec)

G90 G94
G17
G21

(Operation 1 of 3 : 2D Contour2)

G53 G0 Z-10
G54
S5000 M3
G4 P1.0
X53.581 Y82.197
Z6.096
G1 F508
Z4.191
Z-6.604
X53.5554 Y82.0374
X49.6603 Y54.3224
G3 X53.2135 Y49.607 I4.1344 J-0.581
G1 X55.7748 Y49.2471
G3 X57.9603 Y49.7379 I0.4418 J3.1441
G2 X58.8524 Y48.35 I0.4531 J-0.6894
G3 X57.398 Y46.1038 I1.6897 J-2.6881
G1 X52.6742 Y12.492
G3 X55.3764 Y8.906 I3.1441 J-0.4419
G1 X86.515 Y4.5298
G3 X91.2304 Y8.0831 I0.581 J4.1343
G1 X91.6215 Y10.8655
G3 X91.1307 Y13.0512 I-3.1441 J0.4419
G2 X92.5185 Y13.9433 I0.6894 J0.4531
G3 X94.7647 Y12.4889 I2.688 J1.6897
G1 X246.9401 Y-8.898
G3 X249.318 Y-8.2703 I0.4419 J3.1441
G2 X250.3113 Y-9.5883 I0.5032 J-0.654
G3 X249.053 Y-11.6998 I1.8857 J-2.5543
G1 X248.722 Y-14.05
G3 X252.2753 Y-18.7663 I4.134 J-0.5821
G1 X280.0031 Y-22.6632
G3 X284.7181 Y-19.1101 I0.5807 J4.1343
G1 X285.045 Y-16.7872
G3 X284.4173 Y-14.4086 I-3.144 J0.4425
G2 X285.7352 Y-13.4155 I0.6539 J0.5032
G3 X287.8481 Y-14.6745 I2.5548 J1.8851
G1 X442.8571 Y-36.4597
G3 X445.0428 Y-35.9688 I0.4419 J3.1441
G2 X445.9352 Y-37.3568 I0.4532 J-0.6895
G3 X444.481 Y-39.6021 I1.6898 J-2.688
G1 X444.215 Y-41.4911
G3 X447.7682 Y-46.2074 I4.1341 J-0.5821
G1 X465.1208 Y-48.6462
G3 X469.837 Y-45.0938 I0.5815 J4.1347
G1 X469.8371 Y-45.0926
X470.1481 Y-42.8783
G3 X469.5203 Y-40.5005 I-3.1441 J0.4416
G2 X470.8382 Y-39.5075 I0.6539 J0.5032
G3 X472.9511 Y-40.7665 I2.5548 J1.8851
G1 X477.2321 Y-41.3682
G3 X480.837 Y-38.4996 I0.4419 J3.1441
G1 X482.487 Y-19.557
G3 X479.8209 Y-16.1456 I-3.163 J0.2755
G1 X131.2529 Y39.0886
G2 X116.312 Y59.2848 I2.805 J17.6998
G1 X160.274 Y371.7757
G2 X177.948 Y387.137 I17.674 J-2.4867
G1 X516.646
G3 X519.8089 Y390.0352 J3.175
G1 X523.3829 Y430.8792
G3 X520.22 Y434.331 I-3.163 J0.2768
G1 X114.72
G3 X111.5759 Y431.5979 J-3.175
G1 X95.3927 Y316.4499
G3 X95.8835 Y314.2642 I3.1441 J-0.4419
G2 X94.4954 Y313.3718 I-0.6895 J-0.4532
G3 X92.2491 Y314.8261 I-2.6879 J-1.6898
G1 X90.3344 Y315.0951
G3 X85.6187 Y311.5418 I-0.5814 J-4.1342
G1 X71.9781 Y214.4848
G3 X75.5317 Y209.7678 I4.1341 J-0.5826
G1 X78.2805 Y209.3819
G3 X80.4656 Y209.8726 I0.4415 J3.1441
G2 X81.3581 Y208.4841 I0.4532 J-0.6897
G3 X79.9035 Y206.2379 I1.6895 J-2.6881
G1 X63.1416 Y86.9713
G3 X63.6324 Y84.7857 I3.1441 J-0.4419
G2 X62.2444 Y83.8935 I-0.6895 J-0.4531
G3 X59.9983 Y85.3479 I-2.688 J-1.6897
G1 X58.2708 Y85.5907
G3 X53.581 Y82.197 I-0.581 J-4.1344
G1 Z-14.224
X53.5554 Y82.0374
X49.6603 Y54.3224
G3 X53.2135 Y49.607 I4.1344 J-0.581
G1 X55.7748 Y49.2471
G3 X57.9603 Y49.7379 I0.4418 J3.1441
G2 X58.8524 Y48.35 I0.4531 J-0.6894
G3 X57.398 Y46.1038 I1.6897 J-2.6881
G1 X52.6742 Y12.492
G3 X55.3764 Y8.906 I3.1441 J-0.4419
G1 X86.515 Y4.5298
G3 X91.2304 Y8.0831 I0.581 J4.1343
G1 X91.6215 Y10.8655
G3 X91.1307 Y13.0512 I-3.1441 J0.4419
G2 X92.5185 Y13.9433 I0.6894 J0.4531
G3 X94.7647 Y12.4889 I2.688 J1.6897
G1 X246.9401 Y-8.898
G3 X249.318 Y-8.2703 I0.4419 J3.1441
G2 X250.3113 Y-9.5883 I0.5032 J-0.654
G3 X249.053 Y-11.6998 I1.8857 J-2.5543
G1 X248.722 Y-14.05
G3 X252.2753 Y-18.7663 I4.134 J-0.5821
G1 X280.0031 Y-22.6632
G3 X284.7181 Y-19.1101 I0.5807 J4.1343
G1 X285.045 Y-16.7872
G3 X284.4173 Y-14.4086 I-3.144 J0.4425
G2 X285.7352 Y-13.4155 I0.6539 J0.5032
G3 X287.8481 Y-14.6745 I2.5548 J1.8851
G1 X442.8571 Y-36.4597
G3 X445.0428 Y-35.9688 I0.4419 J3.1441
G2 X445.9352 Y-37.3568 I0.4532 J-0.6895
G3 X444.481 Y-39.6021 I1.6898 J-2.688
G1 X444.215 Y-41.4911
G3 X447.7682 Y-46.2074 I4.1341 J-0.5821
G1 X465.1208 Y-48.6462
G3 X469.837 Y-45.0938 I0.5815 J4.1347
G1 X469.8371 Y-45.0926
X470.1481 Y-42.8783
G3 X469.5203 Y-40.5005 I-3.1441 J0.4416
G2 X470.8382 Y-39.5075 I0.6539 J0.5032
G3 X472.9511 Y-40.7665 I2.5548 J1.8851
G1 X477.2321 Y-41.3682
G3 X480.837 Y-38.4996 I0.4419 J3.1441
G1 X482.487 Y-19.557
G3 X479.8209 Y-16.1456 I-3.163 J0.2755
G1 X131.2529 Y39.0886
G2 X116.312 Y59.2848 I2.805 J17.6998
G1 X160.274 Y371.7757
G2 X177.948 Y387.137 I17.674 J-2.4867
G1 X516.646
G3 X519.8089 Y390.0352 J3.175
G1 X523.3829 Y430.8792
G3 X520.22 Y434.331 I-3.163 J0.2768
G1 X114.72
G3 X111.5759 Y431.5979 J-3.175
G1 X95.3927 Y316.4499
G3 X95.8835 Y314.2642 I3.1441 J-0.4419
G2 X94.4954 Y313.3718 I-0.6895 J-0.4532
G3 X92.2491 Y314.8261 I-2.6879 J-1.6898
G1 X90.3344 Y315.0951
G3 X85.6187 Y311.5418 I-0.5814 J-4.1342
G1 X71.9781 Y214.4848
G3 X75.5317 Y209.7678 I4.1341 J-0.5826
G1 X78.2805 Y209.3819
G3 X80.4656 Y209.8726 I0.4415 J3.1441
G2 X81.3581 Y208.4841 I0.4532 J-0.6897
G3 X79.9035 Y206.2379 I1.6895 J-2.6881
G1 X63.1416 Y86.9713
G3 X63.6324 Y84.7857 I3.1441 J-0.4419
G2 X62.2444 Y83.8935 I-0.6895 J-0.4531
G3 X59.9983 Y85.3479 I-2.688 J-1.6897
G1 X58.2708 Y85.5907
G3 X53.581 Y82.197 I-0.581 J-4.1344
G1 Z-16.51
X53.5554 Y82.0374
X51.2422 Y65.5785
Z-19.05
X50.4055 Y59.6244
Z-16.51
X49.6603 Y54.3224
G3 X53.2135 Y49.607 I4.1344 J-0.581
G1 X55.7748 Y49.2471
G3 X56.6245 Y49.2425 I0.4418 J3.1441
G1 Z-19.05
G3 X57.9603 Y49.7379 I-0.4079 J3.1487
G2 X58.8524 Y48.35 I0.4531 J-0.6894
G3 X57.398 Y46.1038 I1.6897 J-2.6881
G1 X53.1161 Y15.6361
Z-16.51
X52.6742 Y12.492
G3 X55.3764 Y8.906 I3.1441 J-0.4419
G1 X61.0358 Y8.1106
Z-19.05
X70.7421 Y6.7465
Z-16.51
X82.0609 Y5.1558
Z-19.05
X86.515 Y4.5298
G3 X91.2304 Y8.0831 I0.581 J4.1343
G1 X91.6215 Y10.8655
G3 X91.1307 Y13.0512 I-3.1441 J0.4419
G2 X92.5185 Y13.9433 I0.6894 J0.4531
G3 X94.7647 Y12.4889 I2.688 J1.6897
G1 X122.7868 Y8.5507
Z-16.51
X134.1055 Y6.9599
Z-19.05
X202.6937 Y-2.6795
Z-16.51
X214.0125 Y-4.2703
Z-19.05
X246.9401 Y-8.898
G3 X249.318 Y-8.2703 I0.4419 J3.1441
G2 X250.3113 Y-9.5883 I0.5032 J-0.654
G3 X249.053 Y-11.6998 I1.8857 J-2.5543
G1 X248.722 Y-14.05
G3 X252.2753 Y-18.7663 I4.134 J-0.5821
G1 X280.0031 Y-22.6632
G3 X284.7181 Y-19.1101 I0.5807 J4.1343
G1 X285.045 Y-16.7872
G3 X284.4173 Y-14.4086 I-3.144 J0.4425
G2 X285.7352 Y-13.4155 I0.6539 J0.5032
G3 X287.8481 Y-14.6745 I2.5548 J1.8851
G1 X314.5527 Y-18.4276
Z-16.51
X325.8715 Y-20.0184
Z-19.05
X442.8571 Y-36.4597
G3 X445.0428 Y-35.9688 I0.4419 J3.1441
G2 X445.9352 Y-37.3568 I0.4532 J-0.6895
G3 X444.481 Y-39.6021 I1.6898 J-2.688
G1 X444.215 Y-41.4911
G3 X447.7682 Y-46.2074 I4.1341 J-0.5821
G1 X465.1208 Y-48.6462
G3 X469.837 Y-45.0938 I0.5815 J4.1347
G1 X469.8371 Y-45.0926
X470.1481 Y-42.8783
G3 X469.5203 Y-40.5005 I-3.1441 J0.4416
G2 X470.8382 Y-39.5075 I0.6539 J0.5032
G3 X472.9511 Y-40.7665 I2.5548 J1.8851
G1 X477.2321 Y-41.3682
G3 X480.837 Y-38.4996 I0.4419 J3.1441
G1 X482.1914 Y-22.9505
Z-16.51
X482.487 Y-19.557
G3 X479.8209 Y-16.1456 I-3.163 J0.2755
G1 X474.1763 Y-15.2512
Z-19.05
X467.4665 Y-14.1879
Z-16.51
X456.1773 Y-12.3991
Z-19.05
X449.5405 Y-11.3474
Z-16.51
X438.2513 Y-9.5585
Z-19.05
X284.2295 Y14.8479
Z-16.51
X272.9403 Y16.6367
Z-19.05
X260.4285 Y18.6194
Z-16.51
X249.1393 Y20.4083
Z-19.05
X131.2529 Y39.0886
G2 X116.312 Y59.2848 I2.805 J17.6998
G1 X130.4148 Y159.5304
Z-16.51
X132.0072 Y170.849
Z-19.05
X133.7622 Y183.3244
Z-16.51
X135.3546 Y194.6429
Z-19.05
X146.994 Y277.3784
Z-16.51
X148.5863 Y288.697
Z-19.05
X160.274 Y371.7757
G2 X177.948 Y387.137 I17.674 J-2.4867
G1 X225.004
Z-16.51
X236.434
Z-19.05
X241.928
Z-16.51
X253.358
Z-19.05
X418.083
Z-16.51
X433.641
Z-19.05
X488.593
Z-16.51
X500.023
Z-19.05
X513.1811
Z-16.51
X516.646
G3 X519.8089 Y390.0352 J3.175
G1 X520.3071 Y395.7285
Z-19.05
X523.1293 Y427.981
Z-16.51
X523.3829 Y430.8792
G3 X520.22 Y434.331 I-3.163 J0.2768
G1 X514.505
Z-19.05
X438.424
Z-16.51
X426.994
Z-19.05
X419.004
Z-16.51
X407.574
Z-19.05
X174.662
Z-16.51
X163.232
Z-19.05
X118.3724
Z-16.51
X114.72
G3 X111.5759 Y431.5979 J-3.175
G1 X110.7805 Y425.9385
Z-19.05
X104.7376 Y382.9412
Z-16.51
X103.1468 Y371.6225
Z-19.05
X95.3927 Y316.4499
G3 X95.8835 Y314.2642 I3.1441 J-0.4419
G2 X94.4954 Y313.3718 I-0.6895 J-0.4532
G3 X92.9558 Y314.6421 I-2.6879 J-1.6898
G1 Z-16.51
G3 X92.2491 Y314.8261 I-1.1483 J-2.9601
G1 X90.3344 Y315.0951
G3 X85.6187 Y311.5418 I-0.5814 J-4.1342
G1 X84.1567 Y301.1395
Z-19.05
X76.8759 Y249.3343
Z-16.51
X74.5826 Y233.0165
Z-19.05
X72.724 Y219.7922
Z-16.51
X71.9781 Y214.4848
G3 X75.5317 Y209.7678 I4.1341 J-0.5826
G1 X78.0679 Y209.4117
Z-19.05
X78.2805 Y209.3819
G3 X80.4656 Y209.8726 I0.4415 J3.1441
G2 X81.3581 Y208.4841 I0.4532 J-0.6897
G3 X79.9035 Y206.2379 I1.6895 J-2.6881
G1 X72.1247 Y150.8893
Z-16.51
X70.534 Y139.5705
Z-19.05
X69.4929 Y132.1633
Z-16.51
X67.752 Y119.7755
Z-19.05
X63.1416 Y86.9713
G3 X63.6324 Y84.7857 I3.1441 J-0.4419
G2 X62.2444 Y83.8935 I-0.6895 J-0.4531
G3 X60.7425 Y85.1489 I-2.688 J-1.6897
G1 Z-16.51
G3 X59.9983 Y85.3479 I-1.1861 J-2.9451
G1 X58.2708 Y85.5907
G3 X53.581 Y82.197 I-0.581 J-4.1344
G0 Z6.096

(Operation 2 of 3 : 2D Pocket1)

G54
S5000 M3
X122.4829 Y331.0979
Z11.176
Z6.096
G1 Z3.556 F508
G2 X123.0084 Y331.1156 Z2.9126 I0.1614 J3.0119
X123.5228 Y331.2243 Z2.2692 I-0.364 J2.9942
X124.0105 Y331.4207 Z1.6257 I-0.8784 J2.8855
X124.4567 Y331.6988 Z0.9823 I-1.3662 J2.6891
X124.8479 Y332.0501 Z0.3389 I-1.8124 J2.411
X125.172 Y332.464 Z-0.3045 I-2.2035 J2.0597
X125.4194 Y332.928 Z-0.948 I-2.5277 J1.6458
X125.5825 Y333.4278 Z-1.5914 I-2.7751 J1.1818
X125.6563 Y333.9484 Z-2.2348 I-2.9381 J0.682
X125.6386 Y334.4738 Z-2.8782 I-3.0119 J0.1614
X125.5299 Y334.9882 Z-3.5217 I-2.9942 J-0.364
X123.0686 Y337.0961 Z-4.064 I-2.8855 J-0.8784
G1 X124.4307 Y336.9026
X124.4925 Y336.8875
X124.5501 Y336.8606
X124.6014 Y336.8231
X124.6444 Y336.7762
X124.6775 Y336.7218
X124.6993 Y336.6621
X124.709 Y336.5992
X124.7062 Y336.5357
X124.319 Y333.8119
X124.3039 Y333.7501
X124.2771 Y333.6925
X124.2395 Y333.6411
X124.1926 Y333.5981
X124.1383 Y333.5651
X124.0785 Y333.5433
X124.0156 Y333.5336
X123.9521 Y333.5363
X98.9492 Y337.0888
X98.8874 Y337.1039
X98.8297 Y337.1307
X98.7783 Y337.1683
X98.7352 Y337.2152
X98.7021 Y337.2696
X98.6802 Y337.3294
X98.6704 Y337.3923
X98.6731 Y337.4559
X99.0559 Y340.1802
X99.0709 Y340.2419
X99.0977 Y340.2996
X99.1351 Y340.3509
X99.1819 Y340.3939
X99.2362 Y340.4269
X99.2959 Y340.4487
X99.3587 Y340.4585
X99.4222 Y340.4557
X123.0686 Y337.0961
G3 X126.1461 Y338.3772 I0.4594 J3.2334
G2 X128.6432 Y340.5855 I6.5345 J-4.8729
G3 X129.28 Y341.045 I-1.8242 J3.1995
G1 X129.3341 Y341.0841
X129.3952 Y341.1111
X129.4605 Y341.1247
X129.5273 Y341.1243
X129.5925 Y341.1099
X129.6532 Y341.0822
X129.7068 Y341.0425
X129.7509 Y340.9924
X129.7836 Y340.9342
X129.8033 Y340.8704
X129.8093 Y340.8039
X129.8012 Y340.7377
X129.7794 Y340.6746
X129.745 Y340.6174
X129.6993 Y340.5687
G3 X128.4587 Y338.2984 I2.4057 J-2.7887
G1 X127.4317 Y331.0744
G3 X127.9907 Y328.5478 I3.6463 J-0.5184
G1 X128.0209 Y328.4884
X128.0381 Y328.4239
X128.0414 Y328.3573
X128.0308 Y328.2914
X128.0065 Y328.2293
X127.9698 Y328.1736
X127.9223 Y328.1268
X127.866 Y328.091
X127.8035 Y328.0677
X127.7375 Y328.0581
X127.6709 Y328.0625
X127.6067 Y328.0807
X127.5478 Y328.1119
X127.4967 Y328.1548
X127.4557 Y328.2074
G3 X124.8471 Y329.9074 I-3.1267 J-1.9464
G1 X95.0264 Y334.1443
X94.9578 Y334.1622
X94.8947 Y334.1948
X94.8406 Y334.2406
X94.7979 Y334.2973
X94.7689 Y334.3621
X94.755 Y334.4316
X94.757 Y334.5026
X96.1069 Y344.1082
X96.1247 Y344.177
X96.1573 Y344.24
X96.2031 Y344.2943
X96.2599 Y344.3369
X96.3247 Y344.3659
X96.3944 Y344.3797
X96.4653 Y344.3777
X126.3009 Y340.1386
G3 X128.6432 Y340.5855 I0.5181 J3.6464
G0 Z6.096
X119.7733 Y333.1853
G1 Z-1.524 F508
G2 X119.9774 Y332.7008 Z-2.1674 I2.8711 J0.9245
X120.2626 Y332.2591 Z-2.8108 I2.6669 J1.409
X120.6201 Y331.8736 Z-3.4543 I2.3818 J1.8507
X121.0392 Y331.5561 Z-4.0977 I2.0242 J2.2362
X121.507 Y331.3162 Z-4.7411 I1.6051 J2.5537
X122.0094 Y331.1611 Z-5.3845 I1.1373 J2.7936
X122.5311 Y331.0957 Z-6.028 I0.6349 J2.9487
X123.0562 Y331.1218 Z-6.6714 I0.1133 J3.0141
X123.5688 Y331.2387 Z-7.3148 I-0.4119 J2.988
X124.0533 Y331.4429 Z-7.9582 I-0.9245 J2.8711
X124.495 Y331.728 Z-8.6017 I-1.409 J2.6669
X123.0686 Y337.0961 Z-9.017 I-1.8507 J2.3818
G1 X124.4307 Y336.9026
X124.4925 Y336.8875
X124.5501 Y336.8606
X124.6014 Y336.8231
X124.6444 Y336.7762
X124.6775 Y336.7218
X124.6993 Y336.6621
X124.709 Y336.5992
X124.7062 Y336.5357
X124.319 Y333.8119
X124.3039 Y333.7501
X124.2771 Y333.6925
X124.2395 Y333.6411
X124.1926 Y333.5981
X124.1383 Y333.5651
X124.0785 Y333.5433
X124.0156 Y333.5336
X123.9521 Y333.5363
X98.9492 Y337.0888
X98.8874 Y337.1039
X98.8297 Y337.1307
X98.7783 Y337.1683
X98.7352 Y337.2152
X98.7021 Y337.2696
X98.6802 Y337.3294
X98.6704 Y337.3923
X98.6731 Y337.4559
X99.0559 Y340.1802
X99.0709 Y340.2419
X99.0977 Y340.2996
X99.1351 Y340.3509
X99.1819 Y340.3939
X99.2362 Y340.4269
X99.2959 Y340.4487
X99.3587 Y340.4585
X99.4222 Y340.4557
X123.0686 Y337.0961
G3 X126.1461 Y338.3772 I0.4594 J3.2334
G2 X128.6432 Y340.5855 I6.5345 J-4.8729
G3 X129.28 Y341.045 I-1.8242 J3.1995
G1 X129.3341 Y341.0841
X129.3952 Y341.1111
X129.4605 Y341.1247
X129.5273 Y341.1243
X129.5925 Y341.1099
X129.6532 Y341.0822
X129.7068 Y341.0425
X129.7509 Y340.9924
X129.7836 Y340.9342
X129.8033 Y340.8704
X129.8093 Y340.8039
X129.8012 Y340.7377
X129.7794 Y340.6746
X129.745 Y340.6174
X129.6993 Y340.5687
G3 X128.4587 Y338.2984 I2.4057 J-2.7887
G1 X127.4317 Y331.0744
G3 X127.9907 Y328.5478 I3.6463 J-0.5184
G1 X128.0209 Y328.4884
X128.0381 Y328.4239
X128.0414 Y328.3573
X128.0308 Y328.2914
X128.0065 Y328.2293
X127.9698 Y328.1736
X127.9223 Y328.1268
X127.866 Y328.091
X127.8035 Y328.0677
X127.7375 Y328.0581
X127.6709 Y328.0625
X127.6067 Y328.0807
X127.5478 Y328.1119
X127.4967 Y328.1548
X127.4557 Y328.2074
G3 X124.8471 Y329.9074 I-3.1267 J-1.9464
G1 X95.0264 Y334.1443
X94.9578 Y334.1622
X94.8947 Y334.1948
X94.8406 Y334.2406
X94.7979 Y334.2973
X94.7689 Y334.3621
X94.755 Y334.4316
X94.757 Y334.5026
X96.1069 Y344.1082
X96.1247 Y344.177
X96.1573 Y344.24
X96.2031 Y344.2943
X96.2599 Y344.3369
X96.3247 Y344.3659
X96.3944 Y344.3797
X96.4653 Y344.3777
X126.3009 Y340.1386
G3 X128.6432 Y340.5855 I0.5181 J3.6464
G0 Z11.176

(Operation 3 of 3 : Drill2)

G54
S5000 M3
X118.7083 Y409.0374
Z6.096
G1 Z-13.984 F508
G0 Z6.096
X189.1988 Y409.2752
G1 Z-13.984 F508
G0 Z6.096
X268.9371 Y409.5047
G1 Z-13.984 F508
G0 Z6.096
X342.7488 Y409.8113
G1 Z-13.984 F508
G0 Z6.096
X422.1568 Y410.041
G1 Z-13.984 F508
G0 Z6.096
X510.088 Y410.3421
G1 Z-13.984 F508
G0 Z6.096

G53 Z-10
M5
G4 P1.0
G53 X-10 Y-10
M30
%
