(1001)
(T1  D=6.35 CR=0 - ZMIN=-20.574 - FLAT END MILL)
G0 G40 G90 G17
G21

(2D CONTOUR2)
T1 M6
M3 S5000
G0 X-170.436 Y333.901
G0 Z6.096
G1 Z4.191 F508.
G1 Z-6.604
G3 X-172.629 Y332.855 I0.166 J-3.171
G3 X-173.441 Y330.564 I2.359 J-2.124
G1 X-171.664 Y296.668
G3 X-170.411 Y294.304 I3.171 J0.166
G2 X-170.251 Y293.147 I-0.498 J-0.658
G2 X-170.805 Y292.827 I-0.658 J0.498
G2 X-171.421 Y292.998 I-0.104 J0.819
G3 X-173.555 Y293.678 I-1.968 J-2.491
G1 X-176.138 Y293.543
G1 X-176.14
G3 X-180.089 Y289.156 I0.221 J-4.17
G1 Y289.155
G1 X-178.624 Y261.206
G3 X-177.248 Y258.322 I4.169 J0.219
G3 X-174.236 Y257.255 I2.793 J3.103
G1 X-172.494 Y257.346
G3 X-170.13 Y258.599 I-0.166 J3.171
G2 X-168.973 Y258.759 I0.658 J-0.498
G2 X-168.653 Y258.205 I-0.498 J-0.658
G2 X-168.824 Y257.589 I-0.819 J-0.104
G3 X-169.504 Y255.455 I2.491 J-1.968
G1 X-163.201 Y135.181
G3 X-161.948 Y132.817 I3.171 J0.166
G2 X-161.788 Y131.661 I-0.498 J-0.657
G2 X-162.342 Y131.341 I-0.657 J0.498
G2 X-162.957 Y131.512 I-0.104 J0.818
G3 X-165.093 Y132.192 I-1.969 J-2.491
G1 X-167.865 Y132.046
G3 X-171.815 Y127.658 I0.219 J-4.169
G1 X-166.685 Y29.781
G3 X-165.309 Y26.896 I4.169 J0.218
G3 X-162.296 Y25.829 I2.793 J3.102
G1 X-160.366 Y25.93
G3 X-158.001 Y27.184 I-0.166 J3.171
G2 X-156.845 Y27.343 I0.658 J-0.498
G2 X-156.525 Y26.79 I-0.498 J-0.658
G2 X-156.696 Y26.174 I-0.819 J-0.104
G3 X-157.376 Y24.039 I2.491 J-1.968
G1 X-151.291 Y-92.081
G3 X-148.397 Y-95.078 I3.171 J0.166
G1 X255.56 Y-130.42
G3 X257.982 Y-129.598 I0.277 J3.163
G3 X259.012 Y-127.257 I-2.145 J2.341
G1 Y-86.257
G3 X256.114 Y-83.094 I-3.175 J0
G1 X-81.296 Y-53.574
G2 X-97.563 Y-36.731 I1.556 J17.78
G1 X-114.122 Y278.403
G2 X-97.478 Y297.22 I17.896 J0.941
G1 X254.577 Y321.864
G3 X257.53 Y325.03 I-0.222 J3.167
G1 X257.537 Y344.044
G3 X256.548 Y346.348 I-3.175 J0.001
G3 X254.196 Y347.216 I-2.186 J-2.303
G1 X249.879 Y346.99
G3 X247.665 Y345.92 I0.166 J-3.171
G2 X246.5 Y345.847 I-0.619 J0.546
G2 X246.222 Y346.423 I0.546 J0.619
G2 X246.438 Y347.024 I0.824 J0.043
G3 X247.271 Y349.338 I-2.338 J2.148
G1 X247.154 Y351.571
G1 Y351.573
G3 X242.767 Y355.522 I-4.17 J-0.221
G1 X242.766
G1 X225.267 Y354.605
G3 X221.315 Y350.218 I0.218 J-4.17
G1 Y350.217
G1 X221.415 Y348.312
G3 X222.668 Y345.948 I3.171 J0.166
G2 X222.828 Y344.792 I-0.498 J-0.658
G2 X222.274 Y344.472 I-0.657 J0.498
G2 X221.659 Y344.643 I-0.104 J0.818
G3 X219.525 Y345.322 I-1.968 J-2.492
G1 X63.206 Y337.13
G3 X60.992 Y336.06 I0.166 J-3.171
G2 X59.827 Y335.987 I-0.619 J0.546
G2 X59.549 Y336.563 I0.546 J0.619
G2 X59.765 Y337.164 I0.824 J0.043
G3 X60.598 Y339.478 I-2.338 J2.148
G1 X60.475 Y341.821
G1 Y341.823
G3 X56.088 Y345.772 I-4.169 J-0.221
G1 X28.126 Y344.307
G3 X24.175 Y339.919 I0.219 J-4.169
G1 X24.299 Y337.549
G3 X25.369 Y335.334 I3.171 J0.166
G2 X25.442 Y334.17 I-0.546 J-0.619
G2 X24.866 Y333.892 I-0.619 J0.546
G2 X24.265 Y334.108 I-0.043 J0.824
G3 X21.951 Y334.941 I-2.148 J-2.338
G1 X-131.509 Y326.898
G3 X-133.874 Y325.644 I0.166 J-3.171
G2 X-135.03 Y325.485 I-0.658 J0.498
G2 X-135.35 Y326.038 I0.498 J0.658
G2 X-135.179 Y326.654 I0.819 J0.104
G3 X-134.499 Y328.789 I-2.491 J1.969
G1 X-134.646 Y331.595
G3 X-136.022 Y334.479 I-4.169 J-0.219
G3 X-139.034 Y335.546 I-2.793 J-3.103
G1 X-170.436 Y333.901
G1 Z-14.224
G3 X-172.629 Y332.855 I0.166 J-3.171
G3 X-173.441 Y330.564 I2.359 J-2.124
G1 X-171.664 Y296.668
G3 X-170.411 Y294.304 I3.171 J0.166
G2 X-170.251 Y293.147 I-0.498 J-0.658
G2 X-170.805 Y292.827 I-0.658 J0.498
G2 X-171.421 Y292.998 I-0.104 J0.819
G3 X-173.555 Y293.678 I-1.968 J-2.491
G1 X-176.138 Y293.543
G1 X-176.14
G3 X-180.089 Y289.156 I0.221 J-4.17
G1 Y289.155
G1 X-178.624 Y261.206
G3 X-177.248 Y258.322 I4.169 J0.219
G3 X-174.236 Y257.255 I2.793 J3.103
G1 X-172.494 Y257.346
G3 X-170.13 Y258.599 I-0.166 J3.171
G2 X-168.973 Y258.759 I0.658 J-0.498
G2 X-168.653 Y258.205 I-0.498 J-0.658
G2 X-168.824 Y257.589 I-0.819 J-0.104
G3 X-169.504 Y255.455 I2.491 J-1.968
G1 X-163.201 Y135.181
G3 X-161.948 Y132.817 I3.171 J0.166
G2 X-161.788 Y131.661 I-0.498 J-0.657
G2 X-162.342 Y131.341 I-0.657 J0.498
G2 X-162.957 Y131.512 I-0.104 J0.818
G3 X-165.093 Y132.192 I-1.969 J-2.491
G1 X-167.865 Y132.046
G3 X-171.815 Y127.658 I0.219 J-4.169
G1 X-166.685 Y29.781
G3 X-165.309 Y26.896 I4.169 J0.218
G3 X-162.296 Y25.829 I2.793 J3.102
G1 X-160.366 Y25.93
G3 X-158.001 Y27.184 I-0.166 J3.171
G2 X-156.845 Y27.343 I0.658 J-0.498
G2 X-156.525 Y26.79 I-0.498 J-0.658
G2 X-156.696 Y26.174 I-0.819 J-0.104
G3 X-157.376 Y24.039 I2.491 J-1.968
G1 X-151.291 Y-92.081
G3 X-148.397 Y-95.078 I3.171 J0.166
G1 X255.56 Y-130.42
G3 X257.982 Y-129.598 I0.277 J3.163
G3 X259.012 Y-127.257 I-2.145 J2.341
G1 Y-86.257
G3 X256.114 Y-83.094 I-3.175 J0
G1 X-81.296 Y-53.574
G2 X-97.563 Y-36.731 I1.556 J17.78
G1 X-114.122 Y278.403
G2 X-97.478 Y297.22 I17.896 J0.941
G1 X254.577 Y321.864
G3 X257.53 Y325.03 I-0.222 J3.167
G1 X257.537 Y344.044
G3 X256.548 Y346.348 I-3.175 J0.001
G3 X254.196 Y347.216 I-2.186 J-2.303
G1 X249.879 Y346.99
G3 X247.665 Y345.92 I0.166 J-3.171
G2 X246.5 Y345.847 I-0.619 J0.546
G2 X246.222 Y346.423 I0.546 J0.619
G2 X246.438 Y347.024 I0.824 J0.043
G3 X247.271 Y349.338 I-2.338 J2.148
G1 X247.154 Y351.571
G1 Y351.573
G3 X242.767 Y355.522 I-4.17 J-0.221
G1 X242.766
G1 X225.267 Y354.605
G3 X221.315 Y350.218 I0.218 J-4.17
G1 Y350.217
G1 X221.415 Y348.312
G3 X222.668 Y345.948 I3.171 J0.166
G2 X222.828 Y344.792 I-0.498 J-0.658
G2 X222.274 Y344.472 I-0.657 J0.498
G2 X221.659 Y344.643 I-0.104 J0.818
G3 X219.525 Y345.322 I-1.968 J-2.492
G1 X63.206 Y337.13
G3 X60.992 Y336.06 I0.166 J-3.171
G2 X59.827 Y335.987 I-0.619 J0.546
G2 X59.549 Y336.563 I0.546 J0.619
G2 X59.765 Y337.164 I0.824 J0.043
G3 X60.598 Y339.478 I-2.338 J2.148
G1 X60.475 Y341.821
G1 Y341.823
G3 X56.088 Y345.772 I-4.169 J-0.221
G1 X28.126 Y344.307
G3 X24.175 Y339.919 I0.219 J-4.169
G1 X24.299 Y337.549
G3 X25.369 Y335.334 I3.171 J0.166
G2 X25.442 Y334.17 I-0.546 J-0.619
G2 X24.866 Y333.892 I-0.619 J0.546
G2 X24.265 Y334.108 I-0.043 J0.824
G3 X21.951 Y334.941 I-2.148 J-2.338
G1 X-131.509 Y326.898
G3 X-133.874 Y325.644 I0.166 J-3.171
G2 X-135.03 Y325.485 I-0.658 J0.498
G2 X-135.35 Y326.038 I0.498 J0.658
G2 X-135.179 Y326.654 I0.819 J0.104
G3 X-134.499 Y328.789 I-2.491 J1.969
G1 X-134.646 Y331.595
G3 X-136.022 Y334.479 I-4.169 J-0.219
G3 X-139.034 Y335.546 I-2.793 J-3.103
G1 X-170.436 Y333.901
G1 Z-20.574
G3 X-172.629 Y332.855 I0.166 J-3.171
G3 X-173.441 Y330.564 I2.359 J-2.124
G1 X-171.664 Y296.668
G3 X-170.411 Y294.304 I3.171 J0.166
G2 X-170.251 Y293.147 I-0.498 J-0.658
G2 X-170.805 Y292.827 I-0.658 J0.498
G2 X-171.421 Y292.998 I-0.104 J0.819
G3 X-173.555 Y293.678 I-1.968 J-2.491
G1 X-176.138 Y293.543
G1 X-176.14
G3 X-180.089 Y289.156 I0.221 J-4.17
G1 Y289.155
G1 X-178.624 Y261.206
G3 X-177.248 Y258.322 I4.169 J0.219
G3 X-174.236 Y257.255 I2.793 J3.103
G1 X-172.494 Y257.346
G3 X-170.13 Y258.599 I-0.166 J3.171
G2 X-168.973 Y258.759 I0.658 J-0.498
G2 X-168.653 Y258.205 I-0.498 J-0.658
G2 X-168.824 Y257.589 I-0.819 J-0.104
G3 X-169.504 Y255.455 I2.491 J-1.968
G1 X-168.23 Y231.155
G1 Z-18.034
G1 X-167.632 Y219.741
G1 Z-20.574
G1 X-166.2 Y192.418
G1 Z-18.034
G1 X-165.602 Y181.004
G1 Z-20.574
G1 X-164.406 Y158.189
G1 Z-18.034
G1 X-163.808 Y146.775
G1 Z-20.574
G1 X-163.201 Y135.181
G3 X-161.948 Y132.817 I3.171 J0.166
G2 X-161.788 Y131.661 I-0.498 J-0.657
G2 X-162.342 Y131.341 I-0.657 J0.498
G2 X-162.957 Y131.512 I-0.104 J0.818
G3 X-165.093 Y132.192 I-1.969 J-2.491
G1 X-167.865 Y132.046
G3 X-171.815 Y127.658 I0.219 J-4.169
G1 X-169.055 Y75.002
G1 Z-18.034
G1 X-168.457 Y63.587
G1 Z-20.574
G1 X-166.685 Y29.781
G3 X-165.309 Y26.896 I4.169 J0.218
G3 X-162.296 Y25.829 I2.793 J3.102
G1 X-160.366 Y25.93
G3 X-158.001 Y27.184 I-0.166 J3.171
G2 X-156.845 Y27.343 I0.658 J-0.498
G2 X-156.525 Y26.79 I-0.498 J-0.658
G2 X-156.696 Y26.174 I-0.819 J-0.104
G3 X-157.376 Y24.039 I2.491 J-1.968
G1 X-154.486 Y-31.112
G1 Z-18.034
G1 X-153.887 Y-42.526
G1 Z-20.574
G1 X-151.291 Y-92.081
G3 X-148.397 Y-95.078 I3.171 J0.166
G1 X-111.792 Y-98.281
G1 Z-18.034
G1 X-100.405 Y-99.277
G1 Z-20.574
G1 X-66.622 Y-102.232
G1 Z-18.034
G1 X-55.235 Y-103.229
G1 Z-20.574
G1 X59.56 Y-113.272
G1 Z-18.034
G1 X70.947 Y-114.268
G1 Z-20.574
G1 X162.378 Y-122.267
G1 Z-18.034
G1 X173.764 Y-123.264
G1 Z-20.574
G1 X255.56 Y-130.42
G3 X257.982 Y-129.598 I0.277 J3.163
G3 X259.012 Y-127.257 I-2.145 J2.341
G1 Y-120.429
G1 Z-18.034
G1 Y-108.999
G1 Z-20.574
G1 Y-89.722
G1 Z-18.034
G1 Y-86.257
G3 X256.114 Y-83.094 I-3.175 J0
G1 X250.42 Y-82.596
G1 Z-20.574
G1 X213.615 Y-79.376
G1 Z-18.034
G1 X202.228 Y-78.38
G1 Z-20.574
G1 X191.183 Y-77.413
G1 Z-18.034
G1 X179.796 Y-76.417
G1 Z-20.574
G1 X172.15 Y-75.748
G1 Z-18.034
G1 X156.576 Y-74.386
G1 Z-20.574
G1 X134.305 Y-72.437
G1 Z-18.034
G1 X122.918 Y-71.441
G1 Z-20.574
G1 X96.635 Y-69.141
G1 Z-18.034
G1 X85.249 Y-68.145
G1 Z-20.574
G1 X24.248 Y-62.808
G1 Z-18.034
G1 X12.861 Y-61.812
G1 Z-20.574
G1 X-81.296 Y-53.574
G2 X-97.563 Y-36.731 I1.556 J17.78
G1 X-101.052 Y29.666
G1 Z-18.034
G1 X-101.652 Y41.081
G1 Z-20.574
G1 X-101.676 Y41.542
G1 Z-18.034
G1 X-102.276 Y52.956
G1 Z-20.574
G1 X-106.516 Y133.648
G1 Z-18.034
G1 X-107.116 Y145.063
G1 Z-20.574
G1 X-109.867 Y197.409
G1 Z-18.034
G1 X-110.466 Y208.824
G1 Z-20.574
G1 X-114.122 Y278.403
G2 X-97.478 Y297.22 I17.896 J0.941
G1 X-62.841 Y299.644
G1 Z-18.034
G1 X-51.439 Y300.443
G1 Z-20.574
G1 X8.658 Y304.649
G1 Z-18.034
G1 X20.06 Y305.447
G1 Z-20.574
G1 X20.369 Y305.469
G1 Z-18.034
G1 X31.771 Y306.267
G1 Z-20.574
G1 X81.67 Y309.76
G1 Z-18.034
G1 X93.072 Y310.558
G1 Z-20.574
G1 X136.145 Y313.573
G1 Z-18.034
G1 X147.547 Y314.372
G1 Z-20.574
G1 X187.732 Y317.185
G1 Z-18.034
G1 X199.134 Y317.983
G1 Z-20.574
G1 X251.179 Y321.626
G1 Z-18.034
G1 X254.577 Y321.864
G3 X257.53 Y325.03 I-0.222 J3.167
G1 X257.532 Y330.745
G1 Z-20.574
G1 X257.536 Y341.032
G1 Z-18.034
G1 X257.537 Y344.044
G3 X256.548 Y346.348 I-3.175 J0.001
G3 X254.196 Y347.216 I-2.186 J-2.303
G1 X249.879 Y346.99
G3 X248.505 Y346.596 I0.166 J-3.171
G1 Z-20.574
G3 X247.665 Y345.92 I1.54 J-2.777
G2 X246.5 Y345.847 I-0.619 J0.546
G2 X246.234 Y346.32 I0.546 J0.619
G1 Z-18.034
G2 X246.438 Y347.024 I0.812 J0.146
G3 X247.271 Y349.338 I-2.338 J2.148
G1 X247.154 Y351.571
G1 Y351.573
G3 X242.767 Y355.522 I-4.17 J-0.221
G1 X242.766
G1 X238.848 Y355.316
G1 Z-20.574
G1 X225.267 Y354.605
G3 X221.315 Y350.218 I0.218 J-4.17
G1 Y350.217
G1 X221.415 Y348.312
G3 X222.668 Y345.948 I3.171 J0.166
G2 X222.828 Y344.792 I-0.498 J-0.658
G2 X222.274 Y344.472 I-0.657 J0.498
G2 X221.659 Y344.643 I-0.104 J0.818
G3 X219.525 Y345.322 I-1.968 J-2.492
G1 X203.578 Y344.486
G1 Z-18.034
G1 X192.164 Y343.888
G1 Z-20.574
G1 X135.885 Y340.938
G1 Z-18.034
G1 X124.471 Y340.34
G1 Z-20.574
G1 X63.206 Y337.13
G3 X60.992 Y336.06 I0.166 J-3.171
G2 X59.827 Y335.987 I-0.619 J0.546
G2 X59.549 Y336.563 I0.546 J0.619
G2 X59.765 Y337.164 I0.824 J0.043
G3 X60.598 Y339.478 I-2.338 J2.148
G1 X60.475 Y341.821
G1 Y341.823
G3 X56.088 Y345.772 I-4.169 J-0.221
G1 X28.126 Y344.307
G3 X24.175 Y339.919 I0.219 J-4.169
G1 X24.299 Y337.549
G3 X25.369 Y335.334 I3.171 J0.166
G2 X25.442 Y334.17 I-0.546 J-0.619
G2 X24.866 Y333.892 I-0.619 J0.546
G2 X24.265 Y334.108 I-0.043 J0.824
G3 X21.951 Y334.941 I-2.148 J-2.338
G1 X-22.236 Y332.625
G1 Z-18.034
G1 X-33.65 Y332.027
G1 Z-20.574
G1 X-92.054 Y328.966
G1 Z-18.034
G1 X-103.469 Y328.367
G1 Z-20.574
G1 X-131.509 Y326.898
G3 X-133.874 Y325.644 I0.166 J-3.171
G2 X-135.03 Y325.485 I-0.658 J0.498
G2 X-135.35 Y326.038 I0.498 J0.658
G2 X-135.179 Y326.654 I0.819 J0.104
G3 X-134.499 Y328.789 I-2.491 J1.969
G1 X-134.646 Y331.595
G3 X-136.022 Y334.479 I-4.169 J-0.219
G3 X-139.034 Y335.546 I-2.793 J-3.103
G1 X-170.436 Y333.901
G0 Z6.096

(2D POCKET1)
G0 Z11.176
G0 X-149.868 Y2.035
G0 Z6.096
G1 Z3.556 F508.
G1 X-149.845 Y1.817 Z3.548
G1 X-149.838 Y1.598 Z3.541
G1 X-149.847 Y1.378 Z3.533
G1 X-149.873 Y1.16 Z3.525
G1 X-149.914 Y0.945 Z3.518
G1 X-149.97 Y0.733 Z3.51
G1 X-150.042 Y0.525 Z3.502
G1 X-150.128 Y0.324 Z3.495
G1 X-150.23 Y0.129 Z3.487
G1 X-150.345 Y-0.058 Z3.479
G1 X-150.473 Y-0.236 Z3.472
G1 X-150.614 Y-0.405 Z3.464
G1 X-150.766 Y-0.562 Z3.456
G1 X-150.93 Y-0.708 Z3.449
G1 X-151.104 Y-0.842 Z3.441
G1 X-151.288 Y-0.963 Z3.433
G1 X-151.479 Y-1.07 Z3.426
G1 X-151.678 Y-1.163 Z3.418
G1 X-151.883 Y-1.241 Z3.41
G1 X-152.093 Y-1.304 Z3.403
G1 X-152.307 Y-1.352 Z3.395
G1 X-152.525 Y-1.384 Z3.387
G1 X-152.743 Y-1.4 Z3.38
G1 X-152.963 Z3.372
G1 X-153.182 Y-1.384 Z3.364
G1 X-153.399 Y-1.352 Z3.357
G1 X-153.613 Y-1.305 Z3.349
G1 X-153.824 Y-1.242 Z3.341
G1 X-154.029 Y-1.164 Z3.334
G1 X-154.228 Y-1.071 Z3.326
G1 X-154.419 Y-0.964 Z3.318
G1 X-154.603 Y-0.843 Z3.311
G1 X-154.777 Y-0.71 Z3.303
G1 X-154.941 Y-0.564 Z3.295
G1 X-155.094 Y-0.406 Z3.288
G1 X-155.235 Y-0.238 Z3.28
G1 X-155.363 Y-0.06 Z3.272
G1 X-155.478 Y0.127 Z3.265
G1 X-155.579 Y0.321 Z3.257
G1 X-155.666 Y0.523 Z3.249
G1 X-155.738 Y0.73 Z3.242
G1 X-155.795 Y0.942 Z3.234
G1 X-155.836 Y1.158 Z3.226
G1 X-155.861 Y1.376 Z3.219
G1 X-155.871 Y1.595 Z3.211
G1 X-155.864 Y1.815 Z3.203
G1 X-155.842 Y2.033 Z3.196
G1 X-155.803 Y2.249 Z3.188
G1 X-155.749 Y2.462 Z3.18
G1 X-155.68 Y2.67 Z3.173
G1 X-155.596 Y2.873 Z3.165
G1 X-155.497 Y3.069 Z3.157
G1 X-155.384 Y3.257 Z3.15
G1 X-155.258 Y3.437 Z3.142
G1 X-155.119 Y3.607 Z3.134
G1 X-154.969 Y3.766 Z3.127
G1 X-154.806 Y3.914 Z3.119
G1 X-154.634 Y4.05 Z3.111
G1 X-154.452 Y4.173 Z3.104
G1 X-154.262 Y4.282 Z3.096
G1 X-154.064 Y4.378 Z3.088
G1 X-153.86 Y4.458 Z3.081
G1 X-153.651 Y4.524 Z3.073
G1 X-153.437 Y4.574 Z3.065
G1 X-153.22 Y4.609 Z3.058
G1 X-153.002 Y4.627 Z3.05
G1 X-152.782 Y4.63 Z3.042
G1 X-152.563 Y4.617 Z3.035
G1 X-152.346 Y4.588 Z3.027
G1 X-152.131 Y4.543 Z3.019
G1 X-151.92 Y4.482 Z3.012
G1 X-151.714 Y4.407 Z3.004
G1 X-151.514 Y4.316 Z2.996
G1 X-151.321 Y4.212 Z2.989
G1 X-151.136 Y4.093 Z2.981
G1 X-150.96 Y3.962 Z2.973
G1 X-150.795 Y3.818 Z2.966
G1 X-150.64 Y3.662 Z2.958
G1 X-150.497 Y3.496 Z2.95
G1 X-150.366 Y3.319 Z2.943
G1 X-150.249 Y3.134 Z2.935
G1 X-150.145 Y2.94 Z2.927
G1 X-150.056 Y2.74 Z2.92
G1 X-149.982 Y2.533 Z2.912
G1 X-149.922 Y2.322 Z2.904
G1 X-149.879 Y2.107 Z2.897
G1 X-149.851 Y1.889 Z2.889
G1 X-149.839 Y1.67 Z2.881
G1 X-149.843 Y1.451 Z2.874
G1 X-149.863 Y1.232 Z2.866
G1 X-149.898 Y1.016 Z2.858
G1 X-149.95 Y0.802 Z2.851
G1 X-150.016 Y0.593 Z2.843
G1 X-150.098 Y0.389 Z2.835
G1 X-150.195 Y0.192 Z2.828
G1 X-150.305 Y0.003 Z2.82
G1 X-150.429 Y-0.178 Z2.812
G1 X-150.566 Y-0.35 Z2.805
G1 X-150.715 Y-0.511 Z2.797
G1 X-150.875 Y-0.661 Z2.789
G1 X-151.046 Y-0.799 Z2.782
G1 X-151.226 Y-0.924 Z2.774
G1 X-151.415 Y-1.036 Z2.766
G1 X-151.612 Y-1.134 Z2.759
G1 X-151.815 Y-1.217 Z2.751
G1 X-152.023 Y-1.285 Z2.743
G1 X-152.236 Y-1.338 Z2.736
G1 X-152.453 Y-1.375 Z2.728
G1 X-152.671 Y-1.396 Z2.72
G1 X-152.891 Y-1.401 Z2.713
G1 X-153.11 Y-1.391 Z2.705
G1 X-153.328 Y-1.364 Z2.697
G1 X-153.543 Y-1.322 Z2.69
G1 X-153.755 Y-1.264 Z2.682
G1 X-153.962 Y-1.191 Z2.674
G1 X-154.163 Y-1.103 Z2.667
G1 X-154.357 Y-1.001 Z2.659
G1 X-154.543 Y-0.885 Z2.651
G1 X-154.72 Y-0.755 Z2.644
G1 X-154.888 Y-0.613 Z2.636
G1 X-155.044 Y-0.46 Z2.628
G1 X-155.189 Y-0.295 Z2.621
G1 X-155.322 Y-0.12 Z2.613
G1 X-155.442 Y0.064 Z2.605
G1 X-155.548 Y0.256 Z2.598
G1 X-155.639 Y0.456 Z2.59
G1 X-155.716 Y0.661 Z2.582
G1 X-155.778 Y0.872 Z2.575
G1 X-155.824 Y1.086 Z2.567
G1 X-155.855 Y1.304 Z2.559
G1 X-155.869 Y1.523 Z2.552
G1 X-155.868 Y1.742 Z2.544
G1 X-155.851 Y1.961 Z2.536
G1 X-155.818 Y2.178 Z2.529
G1 X-155.769 Y2.392 Z2.521
G1 X-155.705 Y2.602 Z2.513
G1 X-155.625 Y2.806 Z2.506
G1 X-155.531 Y3.005 Z2.498
G1 X-155.423 Y3.196 Z2.49
G1 X-155.301 Y3.378 Z2.483
G1 X-155.167 Y3.552 Z2.475
G1 X-155.02 Y3.715 Z2.467
G1 X-154.861 Y3.866 Z2.46
G1 X-154.692 Y4.006 Z2.452
G1 X-154.513 Y4.134 Z2.444
G1 X-154.326 Y4.248 Z2.437
G1 X-154.13 Y4.348 Z2.429
G1 X-153.928 Y4.433 Z2.421
G1 X-153.72 Y4.504 Z2.414
G1 X-153.508 Y4.559 Z2.406
G1 X-153.292 Y4.599 Z2.398
G1 X-153.074 Y4.623 Z2.391
G1 X-152.855 Y4.631 Z2.383
G1 X-152.635 Y4.623 Z2.375
G1 X-152.417 Y4.599 Z2.368
G1 X-152.201 Y4.559 Z2.36
G1 X-151.989 Y4.504 Z2.352
G1 X-151.781 Y4.433 Z2.345
G1 X-151.579 Y4.348 Z2.337
G1 X-151.384 Y4.248 Z2.329
G1 X-151.196 Y4.134 Z2.322
G1 X-151.017 Y4.007 Z2.314
G1 X-150.848 Y3.867 Z2.306
G1 X-150.69 Y3.715 Z2.299
G1 X-150.543 Y3.552 Z2.291
G1 X-150.408 Y3.379 Z2.283
G1 X-150.286 Y3.196 Z2.276
G1 X-150.178 Y3.005 Z2.268
G1 X-150.084 Y2.807 Z2.26
G1 X-150.004 Y2.602 Z2.253
G1 X-149.94 Y2.392 Z2.245
G1 X-149.891 Y2.178 Z2.237
G1 X-149.858 Y1.961 Z2.23
G1 X-149.841 Y1.743 Z2.222
G1 X-149.84 Y1.523 Z2.214
G1 X-149.854 Y1.304 Z2.207
G1 X-149.885 Y1.087 Z2.199
G1 X-149.931 Y0.872 Z2.191
G1 X-149.993 Y0.662 Z2.184
G1 X-150.07 Y0.456 Z2.176
G1 X-150.161 Y0.257 Z2.168
G1 X-150.267 Y0.064 Z2.161
G1 X-150.387 Y-0.12 Z2.153
G1 X-150.519 Y-0.295 Z2.145
G1 X-150.664 Y-0.459 Z2.138
G1 X-150.821 Y-0.613 Z2.13
G1 X-150.988 Y-0.755 Z2.122
G1 X-151.166 Y-0.884 Z2.115
G1 X-151.352 Y-1.001 Z2.107
G1 X-151.546 Y-1.103 Z2.099
G1 X-151.747 Y-1.191 Z2.092
G1 X-151.954 Y-1.264 Z2.084
G1 X-152.166 Y-1.322 Z2.076
G1 X-152.381 Y-1.364 Z2.069
G1 X-152.599 Y-1.391 Z2.061
G1 X-152.818 Y-1.401 Z2.053
G1 X-153.037 Y-1.396 Z2.046
G1 X-153.256 Y-1.375 Z2.038
G1 X-153.472 Y-1.338 Z2.03
G1 X-153.685 Y-1.285 Z2.023
G1 X-153.894 Y-1.217 Z2.015
G1 X-154.097 Y-1.134 Z2.007
G1 X-154.294 Y-1.036 Z2
G1 X-154.483 Y-0.925 Z1.992
G1 X-154.663 Y-0.799 Z1.984
G1 X-154.834 Y-0.662 Z1.977
G1 X-154.994 Y-0.512 Z1.969
G1 X-155.143 Y-0.35 Z1.961
G1 X-155.28 Y-0.179 Z1.954
G1 X-155.404 Y0.002 Z1.946
G1 X-155.514 Y0.192 Z1.938
G1 X-155.611 Y0.389 Z1.931
G1 X-155.692 Y0.593 Z1.923
G1 X-155.759 Y0.802 Z1.915
G1 X-155.811 Y1.015 Z1.908
G1 X-155.846 Y1.232 Z1.9
G1 X-155.866 Y1.45 Z1.892
G1 X-155.87 Y1.67 Z1.885
G1 X-155.858 Y1.889 Z1.877
G1 X-155.83 Y2.107 Z1.869
G1 X-155.787 Y2.322 Z1.862
G1 X-155.727 Y2.533 Z1.854
G1 X-155.653 Y2.74 Z1.846
G1 X-155.564 Y2.94 Z1.839
G1 X-155.46 Y3.134 Z1.831
G1 X-155.343 Y3.319 Z1.823
G1 X-155.212 Y3.495 Z1.816
G1 X-155.069 Y3.662 Z1.808
G1 X-154.915 Y3.818 Z1.8
G1 X-154.749 Y3.962 Z1.793
G1 X-154.573 Y4.093 Z1.785
G1 X-154.389 Y4.212 Z1.777
G1 X-154.196 Y4.316 Z1.77
G1 X-153.996 Y4.407 Z1.762
G1 X-153.79 Y4.482 Z1.754
G1 X-153.579 Y4.543 Z1.747
G1 X-153.364 Y4.588 Z1.739
G1 X-153.146 Y4.617 Z1.731
G1 X-152.927 Y4.63 Z1.724
G1 X-152.708 Y4.627 Z1.716
G1 X-152.489 Y4.609 Z1.708
G1 X-152.272 Y4.574 Z1.701
G1 X-152.059 Y4.524 Z1.693
G1 X-151.849 Y4.458 Z1.685
G1 X-151.645 Y4.378 Z1.678
G1 X-151.447 Y4.282 Z1.67
G1 X-151.257 Y4.173 Z1.662
G1 X-151.075 Y4.05 Z1.655
G1 X-150.903 Y3.914 Z1.647
G1 X-150.741 Y3.766 Z1.64
G1 X-150.59 Y3.607 Z1.632
G1 X-150.451 Y3.437 Z1.624
G1 X-150.325 Y3.257 Z1.617
G1 X-150.212 Y3.069 Z1.609
G1 X-150.113 Y2.873 Z1.601
G1 X-150.029 Y2.67 Z1.594
G1 X-149.96 Y2.462 Z1.586
G1 X-149.906 Y2.249 Z1.578
G1 X-149.867 Y2.033 Z1.571
G1 X-149.845 Y1.815 Z1.563
G1 X-149.838 Y1.596 Z1.555
G1 X-149.848 Y1.376 Z1.548
G1 X-149.873 Y1.158 Z1.54
G1 X-149.914 Y0.943 Z1.532
G1 X-149.971 Y0.731 Z1.525
G1 X-150.043 Y0.523 Z1.517
G1 X-150.129 Y0.322 Z1.509
G1 X-150.231 Y0.127 Z1.502
G1 X-150.346 Y-0.06 Z1.494
G1 X-150.474 Y-0.238 Z1.486
G1 X-150.615 Y-0.406 Z1.479
G1 X-150.768 Y-0.564 Z1.471
G1 X-150.932 Y-0.71 Z1.463
G1 X-151.106 Y-0.843 Z1.456
G1 X-151.289 Y-0.964 Z1.448
G1 X-151.481 Y-1.071 Z1.44
G1 X-151.68 Y-1.164 Z1.433
G1 X-151.885 Y-1.242 Z1.425
G1 X-152.095 Y-1.305 Z1.417
G1 X-152.31 Y-1.352 Z1.41
G1 X-152.527 Y-1.384 Z1.402
G1 X-152.746 Y-1.4 Z1.394
G1 X-152.965 Z1.387
G1 X-153.184 Y-1.384 Z1.379
G1 X-153.401 Y-1.352 Z1.371
G1 X-153.615 Y-1.304 Z1.364
G1 X-153.826 Y-1.241 Z1.356
G1 X-154.031 Y-1.163 Z1.348
G1 X-154.23 Y-1.07 Z1.341
G1 X-154.421 Y-0.963 Z1.333
G1 X-154.604 Y-0.842 Z1.325
G1 X-154.778 Y-0.708 Z1.318
G1 X-154.942 Y-0.562 Z1.31
G1 X-155.095 Y-0.405 Z1.302
G1 X-155.236 Y-0.237 Z1.295
G1 X-155.364 Y-0.058 Z1.287
G1 X-155.479 Y0.128 Z1.279
G1 X-155.58 Y0.323 Z1.272
G1 X-155.667 Y0.525 Z1.264
G1 X-155.739 Y0.732 Z1.256
G1 X-155.795 Y0.944 Z1.249
G1 X-155.836 Y1.16 Z1.241
G1 X-155.861 Y1.378 Z1.233
G1 X-155.871 Y1.597 Z1.226
G1 X-155.864 Y1.817 Z1.218
G1 X-155.841 Y2.035 Z1.21
G1 X-155.803 Y2.251 Z1.203
G1 X-155.749 Y2.464 Z1.195
G1 X-155.679 Y2.672 Z1.187
G1 X-155.595 Y2.875 Z1.18
G1 X-155.496 Y3.071 Z1.172
G1 X-155.383 Y3.259 Z1.164
G1 X-155.257 Y3.438 Z1.157
G1 X-155.118 Y3.608 Z1.149
G1 X-154.967 Y3.767 Z1.141
G1 X-154.805 Y3.915 Z1.134
G1 X-154.632 Y4.051 Z1.126
G1 X-154.451 Y4.174 Z1.118
G1 X-154.26 Y4.283 Z1.111
G1 X-154.062 Y4.378 Z1.103
G1 X-153.858 Y4.459 Z1.095
G1 X-153.649 Y4.524 Z1.088
G1 X-153.435 Y4.574 Z1.08
G1 X-153.218 Y4.609 Z1.072
G1 X-153 Y4.627 Z1.065
G1 X-152.78 Y4.63 Z1.057
G1 X-152.561 Y4.617 Z1.049
G1 X-152.344 Y4.587 Z1.042
G1 X-152.129 Y4.542 Z1.034
G1 X-151.918 Y4.482 Z1.026
G1 X-151.712 Y4.406 Z1.019
G1 X-151.512 Y4.315 Z1.011
G1 X-151.319 Y4.211 Z1.003
G1 X-151.134 Y4.092 Z0.996
G1 X-150.959 Y3.961 Z0.988
G1 X-150.793 Y3.816 Z0.98
G1 X-150.638 Y3.661 Z0.973
G1 X-150.495 Y3.494 Z0.965
G1 X-150.365 Y3.318 Z0.957
G1 X-150.248 Y3.132 Z0.95
G1 X-150.144 Y2.939 Z0.942
G1 X-150.055 Y2.738 Z0.934
G1 X-149.981 Y2.531 Z0.927
G1 X-149.922 Y2.32 Z0.919
G1 X-149.878 Y2.105 Z0.911
G1 X-149.851 Y1.887 Z0.904
G1 X-149.839 Y1.668 Z0.896
G1 X-149.843 Y1.449 Z0.888
G1 X-149.863 Y1.23 Z0.881
G1 X-149.899 Y1.014 Z0.873
G1 X-149.95 Y0.8 Z0.865
G1 X-150.017 Y0.591 Z0.858
G1 X-150.099 Y0.388 Z0.85
G1 X-150.196 Y0.19 Z0.842
G1 X-150.306 Y0.001 Z0.835
G1 X-150.43 Y-0.18 Z0.827
G1 X-150.567 Y-0.352 Z0.819
G1 X-150.716 Y-0.513 Z0.812
G1 X-150.877 Y-0.663 Z0.804
G1 X-151.047 Y-0.8 Z0.796
G1 X-151.228 Y-0.925 Z0.789
G1 X-151.417 Y-1.037 Z0.781
G1 X-151.613 Y-1.135 Z0.773
G1 X-151.817 Y-1.218 Z0.766
G1 X-152.025 Y-1.285 Z0.758
G1 X-152.238 Y-1.338 Z0.75
G1 X-152.455 Y-1.375 Z0.743
G1 X-152.673 Y-1.396 Z0.735
G1 X-152.893 Y-1.401 Z0.727
G1 X-153.112 Y-1.391 Z0.72
G1 X-153.33 Y-1.364 Z0.712
G1 X-153.545 Y-1.322 Z0.704
G1 X-153.757 Y-1.264 Z0.697
G1 X-153.964 Y-1.19 Z0.689
G1 X-154.165 Y-1.102 Z0.681
G1 X-154.359 Y-1 Z0.674
G1 X-154.545 Y-0.884 Z0.666
G1 X-154.722 Y-0.754 Z0.658
G1 X-154.889 Y-0.612 Z0.651
G1 X-155.046 Y-0.458 Z0.643
G1 X-155.191 Y-0.293 Z0.635
G1 X-155.323 Y-0.118 Z0.628
G1 X-155.443 Y0.066 Z0.62
G1 X-155.549 Y0.258 Z0.612
G1 X-155.64 Y0.458 Z0.605
G1 X-155.717 Y0.663 Z0.597
G1 X-155.778 Y0.874 Z0.589
G1 X-155.824 Y1.088 Z0.582
G1 X-155.855 Y1.306 Z0.574
G1 X-155.869 Y1.525 Z0.566
G1 X-155.868 Y1.744 Z0.559
G1 X-155.851 Y1.963 Z0.551
G1 X-155.817 Y2.18 Z0.543
G1 X-155.768 Y2.394 Z0.536
G1 X-155.704 Y2.604 Z0.528
G1 X-155.624 Y2.808 Z0.52
G1 X-155.53 Y3.007 Z0.513
G1 X-155.422 Y3.198 Z0.505
G1 X-155.3 Y3.38 Z0.497
G1 X-155.165 Y3.553 Z0.49
G1 X-155.018 Y3.716 Z0.482
G1 X-154.86 Y3.868 Z0.474
G1 X-154.69 Y4.008 Z0.467
G1 X-154.512 Y4.135 Z0.459
G1 X-154.324 Y4.249 Z0.451
G1 X-154.128 Y4.349 Z0.444
G1 X-153.926 Y4.434 Z0.436
G1 X-153.718 Y4.504 Z0.428
G1 X-153.506 Y4.56 Z0.421
G1 X-153.29 Y4.599 Z0.413
G1 X-153.072 Y4.623 Z0.405
G1 X-152.853 Y4.631 Z0.398
G1 X-152.633 Y4.623 Z0.39
G1 X-152.415 Y4.599 Z0.382
G1 X-152.199 Y4.559 Z0.375
G1 X-151.987 Y4.503 Z0.367
G1 X-151.779 Y4.433 Z0.359
G1 X-151.577 Y4.347 Z0.352
G1 X-151.382 Y4.247 Z0.344
G1 X-151.194 Y4.133 Z0.336
G1 X-151.016 Y4.005 Z0.329
G1 X-150.847 Y3.865 Z0.321
G1 X-150.688 Y3.713 Z0.313
G1 X-150.541 Y3.55 Z0.306
G1 X-150.407 Y3.377 Z0.298
G1 X-150.285 Y3.194 Z0.29
G1 X-150.177 Y3.003 Z0.283
G1 X-150.083 Y2.805 Z0.275
G1 X-150.004 Y2.6 Z0.267
G1 X-149.94 Y2.39 Z0.26
G1 X-149.891 Y2.176 Z0.252
G1 X-149.858 Y1.959 Z0.244
G1 X-149.841 Y1.741 Z0.237
G1 X-149.84 Y1.521 Z0.229
G1 X-149.854 Y1.302 Z0.221
G1 X-149.885 Y1.085 Z0.214
G1 X-149.932 Y0.87 Z0.206
G1 X-149.993 Y0.66 Z0.198
G1 X-150.07 Y0.454 Z0.191
G1 X-150.162 Y0.255 Z0.183
G1 X-150.268 Y0.063 Z0.175
G1 X-150.388 Y-0.121 Z0.168
G1 X-150.521 Y-0.296 Z0.16
G1 X-150.666 Y-0.461 Z0.152
G1 X-150.822 Y-0.614 Z0.145
G1 X-150.99 Y-0.756 Z0.137
G1 X-151.167 Y-0.886 Z0.129
G1 X-151.354 Y-1.002 Z0.122
G1 X-151.548 Y-1.104 Z0.114
G1 X-151.749 Y-1.192 Z0.106
G1 X-151.956 Y-1.265 Z0.099
G1 X-152.168 Y-1.322 Z0.091
G1 X-152.383 Y-1.365 Z0.083
G1 X-152.601 Y-1.391 Z0.076
G1 X-152.82 Y-1.401 Z0.068
G1 X-153.04 Y-1.396 Z0.06
G1 X-153.258 Y-1.375 Z0.053
G1 X-153.474 Y-1.337 Z0.045
G1 X-153.687 Y-1.284 Z0.037
G1 X-153.896 Y-1.216 Z0.03
G1 X-154.099 Y-1.133 Z0.022
G1 X-154.295 Y-1.035 Z0.014
G1 X-154.484 Y-0.923 Z0.007
G1 X-154.665 Y-0.798 Z-0.001
G1 X-154.835 Y-0.66 Z-0.009
G1 X-154.995 Y-0.51 Z-0.016
G1 X-155.144 Y-0.349 Z-0.024
G1 X-155.281 Y-0.177 Z-0.032
G1 X-155.405 Y0.004 Z-0.039
G1 X-155.515 Y0.194 Z-0.047
G1 X-155.611 Y0.391 Z-0.055
G1 X-155.693 Y0.595 Z-0.062
G1 X-155.76 Y0.804 Z-0.07
G1 X-155.811 Y1.017 Z-0.078
G1 X-155.847 Y1.234 Z-0.085
G1 X-155.866 Y1.452 Z-0.093
G1 X-155.87 Y1.672 Z-0.101
G1 X-155.858 Y1.891 Z-0.108
G1 X-155.83 Y2.109 Z-0.116
G1 X-155.786 Y2.324 Z-0.124
G1 X-155.727 Y2.535 Z-0.131
G1 X-155.652 Y2.741 Z-0.139
G1 X-155.563 Y2.942 Z-0.147
G1 X-155.459 Y3.135 Z-0.154
G1 X-155.342 Y3.321 Z-0.162
G1 X-155.211 Y3.497 Z-0.17
G1 X-155.068 Y3.664 Z-0.177
G1 X-154.913 Y3.819 Z-0.185
G1 X-154.747 Y3.963 Z-0.193
G1 X-154.572 Y4.094 Z-0.2
G1 X-154.387 Y4.213 Z-0.208
G1 X-154.194 Y4.317 Z-0.216
G1 X-153.994 Y4.407 Z-0.223
G1 X-153.788 Y4.483 Z-0.231
G1 X-153.577 Y4.543 Z-0.239
G1 X-153.362 Y4.588 Z-0.246
G1 X-153.144 Y4.617 Z-0.254
G1 X-152.925 Y4.63 Z-0.262
G1 X-152.706 Y4.627 Z-0.269
G1 X-152.487 Y4.608 Z-0.277
G1 X-152.27 Y4.574 Z-0.285
G1 X-152.057 Y4.523 Z-0.292
G1 X-151.847 Y4.458 Z-0.3
G1 X-151.643 Y4.377 Z-0.308
G1 X-151.445 Y4.281 Z-0.315
G1 X-151.255 Y4.172 Z-0.323
G1 X-151.073 Y4.049 Z-0.331
G1 X-150.901 Y3.913 Z-0.338
G1 X-150.739 Y3.765 Z-0.346
G1 X-150.588 Y3.605 Z-0.354
G1 X-150.45 Y3.435 Z-0.361
G1 X-150.324 Y3.256 Z-0.369
G1 X-150.211 Y3.067 Z-0.377
G1 X-150.112 Y2.871 Z-0.384
G1 X-150.028 Y2.668 Z-0.392
G1 X-149.959 Y2.46 Z-0.4
G1 X-149.905 Y2.247 Z-0.407
G1 X-149.867 Y2.031 Z-0.415
G1 X-149.845 Y1.813 Z-0.423
G1 X-149.838 Y1.593 Z-0.43
G1 X-149.848 Y1.374 Z-0.438
G1 X-149.873 Y1.156 Z-0.446
G1 X-149.914 Y0.941 Z-0.453
G1 X-149.971 Y0.729 Z-0.461
G1 X-150.043 Y0.521 Z-0.469
G1 X-150.13 Y0.32 Z-0.476
G1 X-150.232 Y0.125 Z-0.484
G1 X-150.347 Y-0.062 Z-0.492
G1 X-150.475 Y-0.24 Z-0.499
G1 X-150.617 Y-0.408 Z-0.507
G1 X-150.769 Y-0.565 Z-0.515
G1 X-150.933 Y-0.711 Z-0.522
G1 X-151.108 Y-0.844 Z-0.53
G1 X-151.291 Y-0.965 Z-0.538
G1 X-151.483 Y-1.072 Z-0.545
G1 X-151.682 Y-1.164 Z-0.553
G1 X-151.887 Y-1.242 Z-0.561
G1 X-152.097 Y-1.305 Z-0.568
G1 X-152.312 Y-1.352 Z-0.576
G1 X-152.529 Y-1.384 Z-0.584
G1 X-152.748 Y-1.4 Z-0.591
G1 X-152.967 Z-0.599
G1 X-153.186 Y-1.383 Z-0.607
G1 X-153.403 Y-1.351 Z-0.614
G1 X-153.617 Y-1.304 Z-0.622
G1 X-153.828 Y-1.24 Z-0.63
G1 X-154.033 Y-1.162 Z-0.637
G1 X-154.231 Y-1.069 Z-0.645
G1 X-154.423 Y-0.962 Z-0.653
G1 X-154.606 Y-0.841 Z-0.66
G1 X-154.78 Y-0.707 Z-0.668
G1 X-154.944 Y-0.561 Z-0.676
G1 X-155.096 Y-0.403 Z-0.683
G1 X-155.237 Y-0.235 Z-0.691
G1 X-155.365 Y-0.057 Z-0.699
G1 X-155.48 Y0.13 Z-0.706
G1 X-155.581 Y0.325 Z-0.714
G1 X-155.668 Y0.527 Z-0.722
G1 X-155.739 Y0.734 Z-0.729
G1 X-155.796 Y0.946 Z-0.737
G1 X-155.837 Y1.162 Z-0.745
G1 X-155.862 Y1.38 Z-0.752
G1 X-155.871 Y1.599 Z-0.76
G1 X-155.864 Y1.819 Z-0.768
G1 X-155.841 Y2.037 Z-0.775
G1 X-155.802 Y2.253 Z-0.783
G1 X-155.748 Y2.466 Z-0.791
G1 X-155.679 Y2.674 Z-0.798
G1 X-155.594 Y2.876 Z-0.806
G1 X-155.495 Y3.072 Z-0.814
G1 X-155.382 Y3.261 Z-0.821
G1 X-155.256 Y3.44 Z-0.829
G1 X-155.117 Y3.61 Z-0.837
G1 X-154.966 Y3.769 Z-0.844
G1 X-154.803 Y3.917 Z-0.852
G1 X-154.631 Y4.052 Z-0.86
G1 X-154.449 Y4.175 Z-0.867
G1 X-154.258 Y4.284 Z-0.875
G1 X-154.06 Y4.379 Z-0.883
G1 X-153.856 Y4.46 Z-0.89
G1 X-153.647 Y4.525 Z-0.898
G1 X-153.433 Y4.575 Z-0.906
G1 X-153.216 Y4.609 Z-0.913
G1 X-152.997 Y4.627 Z-0.921
G1 X-152.778 Y4.63 Z-0.929
G1 X-152.559 Y4.616 Z-0.936
G1 X-152.341 Y4.587 Z-0.944
G1 X-152.127 Y4.542 Z-0.952
G1 X-151.916 Y4.481 Z-0.959
G1 X-151.71 Y4.405 Z-0.967
G1 X-151.51 Y4.315 Z-0.975
G1 X-151.317 Y4.21 Z-0.982
G1 X-151.132 Y4.091 Z-0.99
G1 X-150.957 Y3.959 Z-0.998
G1 X-150.792 Y3.815 Z-1.005
G1 X-150.637 Y3.659 Z-1.013
G1 X-150.494 Y3.493 Z-1.021
G1 X-150.364 Y3.316 Z-1.028
G1 X-150.247 Y3.13 Z-1.036
G1 X-150.143 Y2.937 Z-1.044
G1 X-150.054 Y2.736 Z-1.051
G1 X-149.98 Y2.529 Z-1.059
G1 X-149.921 Y2.318 Z-1.067
G1 X-149.878 Y2.103 Z-1.074
G1 X-149.85 Y1.885 Z-1.082
G1 X-149.839 Y1.666 Z-1.09
G1 X-149.843 Y1.447 Z-1.097
G1 X-149.863 Y1.228 Z-1.105
G1 X-149.899 Y1.011 Z-1.113
G1 X-149.951 Y0.798 Z-1.12
G1 X-150.018 Y0.589 Z-1.128
G1 X-150.1 Y0.386 Z-1.136
G1 X-150.197 Y0.189 Z-1.143
G1 X-150.307 Y-0.001 Z-1.151
G1 X-150.432 Y-0.182 Z-1.159
G1 X-150.569 Y-0.353 Z-1.166
G1 X-150.718 Y-0.514 Z-1.174
G1 X-150.878 Y-0.664 Z-1.182
G1 X-151.049 Y-0.802 Z-1.189
G1 X-151.23 Y-0.927 Z-1.197
G1 X-151.419 Y-1.038 Z-1.205
G1 X-151.615 Y-1.135 Z-1.212
G1 X-151.819 Y-1.218 Z-1.22
G1 X-152.027 Y-1.286 Z-1.228
G1 X-152.24 Y-1.339 Z-1.235
G1 X-152.457 Y-1.375 Z-1.243
G1 X-152.675 Y-1.396 Z-1.251
G1 X-152.895 Y-1.401 Z-1.258
G1 X-153.114 Y-1.391 Z-1.266
G1 X-153.332 Y-1.364 Z-1.274
G1 X-153.547 Y-1.321 Z-1.281
G1 X-153.759 Y-1.263 Z-1.289
G1 X-153.966 Y-1.19 Z-1.297
G1 X-154.167 Y-1.101 Z-1.304
G1 X-154.361 Y-0.999 Z-1.312
G1 X-154.547 Y-0.882 Z-1.32
G1 X-154.724 Y-0.753 Z-1.327
G1 X-154.891 Y-0.611 Z-1.335
G1 X-155.047 Y-0.457 Z-1.343
G1 X-155.192 Y-0.292 Z-1.35
G1 X-155.324 Y-0.117 Z-1.358
G1 X-155.444 Y0.068 Z-1.366
G1 X-155.549 Y0.26 Z-1.373
G1 X-155.641 Y0.46 Z-1.381
G1 X-155.717 Y0.665 Z-1.389
G1 X-155.779 Y0.876 Z-1.396
G1 X-155.825 Y1.091 Z-1.404
G1 X-155.855 Y1.308 Z-1.412
G1 X-155.869 Y1.527 Z-1.419
G1 X-155.868 Y1.746 Z-1.427
G1 X-155.85 Y1.965 Z-1.435
G1 X-155.817 Y2.182 Z-1.442
G1 X-155.768 Y2.396 Z-1.45
G1 X-155.703 Y2.606 Z-1.458
G1 X-155.624 Y2.81 Z-1.465
G1 X-155.529 Y3.009 Z-1.473
G1 X-155.421 Y3.199 Z-1.481
G1 X-155.299 Y3.382 Z-1.488
G1 X-155.164 Y3.555 Z-1.496
G1 X-155.017 Y3.718 Z-1.504
G1 X-154.858 Y3.869 Z-1.511
G1 X-154.689 Y4.009 Z-1.519
G1 X-154.51 Y4.136 Z-1.527
G1 X-154.322 Y4.25 Z-1.534
G1 X-154.127 Y4.349 Z-1.542
G1 X-153.924 Y4.435 Z-1.55
G1 X-153.716 Y4.505 Z-1.557
G1 X-153.504 Y4.56 Z-1.565
G1 X-153.288 Y4.599 Z-1.573
G1 X-153.07 Y4.623 Z-1.58
G1 X-152.85 Y4.631 Z-1.588
G1 X-152.631 Y4.623 Z-1.596
G1 X-152.413 Y4.598 Z-1.603
G1 X-152.197 Y4.558 Z-1.611
G1 X-151.985 Y4.503 Z-1.619
G1 X-151.777 Y4.432 Z-1.626
G1 X-151.575 Y4.346 Z-1.634
G1 X-151.38 Y4.246 Z-1.642
G1 X-151.192 Y4.132 Z-1.649
G1 X-151.014 Y4.004 Z-1.657
G1 X-150.845 Y3.864 Z-1.665
G1 X-150.687 Y3.712 Z-1.672
G1 X-150.54 Y3.549 Z-1.68
G1 X-150.405 Y3.375 Z-1.688
G1 X-150.284 Y3.192 Z-1.695
G1 X-150.176 Y3.001 Z-1.703
G1 X-150.082 Y2.803 Z-1.711
G1 X-150.003 Y2.598 Z-1.718
G1 X-149.939 Y2.388 Z-1.726
G1 X-149.891 Y2.174 Z-1.734
G1 X-149.858 Y1.957 Z-1.741
G1 X-149.841 Y1.738 Z-1.749
G1 X-149.84 Y1.519 Z-1.757
G1 X-149.855 Y1.3 Z-1.764
G1 X-149.885 Y1.083 Z-1.772
G1 X-149.932 Y0.868 Z-1.78
G1 X-149.994 Y0.658 Z-1.787
G1 X-150.071 Y0.452 Z-1.795
G1 X-150.163 Y0.253 Z-1.803
G1 X-150.269 Y0.061 Z-1.81
G1 X-150.389 Y-0.123 Z-1.818
G1 X-150.522 Y-0.298 Z-1.826
G1 X-150.667 Y-0.462 Z-1.833
G1 X-150.824 Y-0.616 Z-1.841
G1 X-150.992 Y-0.758 Z-1.849
G1 X-151.169 Y-0.887 Z-1.856
G1 X-151.355 Y-1.003 Z-1.864
G1 X-151.55 Y-1.105 Z-1.872
G1 X-151.751 Y-1.193 Z-1.879
G1 X-151.958 Y-1.265 Z-1.887
G1 X-152.17 Y-1.323 Z-1.895
G1 X-152.385 Y-1.365 Z-1.902
G1 X-152.603 Y-1.391 Z-1.91
G1 X-152.822 Y-1.402 Z-1.918
G1 X-153.042 Y-1.396 Z-1.925
G1 X-153.26 Y-1.374 Z-1.933
G1 X-153.476 Y-1.337 Z-1.941
G1 X-153.689 Y-1.284 Z-1.948
G1 X-153.898 Y-1.215 Z-1.956
G1 X-154.101 Y-1.132 Z-1.964
G1 X-154.297 Y-1.034 Z-1.971
G1 X-154.486 Y-0.922 Z-1.979
G1 X-154.666 Y-0.797 Z-1.987
G1 X-154.837 Y-0.659 Z-1.994
G1 X-154.997 Y-0.509 Z-2.002
G1 X-155.146 Y-0.347 Z-2.01
G1 X-155.282 Y-0.175 Z-2.017
G1 X-155.406 Y0.006 Z-2.025
G1 X-155.516 Y0.196 Z-2.033
G1 X-155.612 Y0.393 Z-2.04
G1 X-155.694 Y0.597 Z-2.048
G1 X-155.76 Y0.806 Z-2.056
G1 X-155.811 Y1.019 Z-2.063
G1 X-155.847 Y1.236 Z-2.071
G1 X-155.866 Y1.455 Z-2.079
G1 X-155.87 Y1.674 Z-2.086
G1 X-155.858 Y1.893 Z-2.094
G1 X-155.83 Y2.111 Z-2.102
G1 X-155.786 Y2.326 Z-2.109
G1 X-155.726 Y2.537 Z-2.117
G1 X-155.652 Y2.743 Z-2.125
G1 X-155.562 Y2.944 Z-2.132
G1 X-155.458 Y3.137 Z-2.14
G1 X-155.341 Y3.323 Z-2.148
G1 X-155.21 Y3.499 Z-2.155
G1 X-155.067 Y3.665 Z-2.163
G1 X-154.912 Y3.82 Z-2.17
G1 X-154.746 Y3.964 Z-2.178
G1 X-154.57 Y4.096 Z-2.186
G1 X-154.385 Y4.214 Z-2.193
G1 X-154.192 Y4.318 Z-2.201
G1 X-153.992 Y4.408 Z-2.209
G1 X-153.786 Y4.484 Z-2.216
G1 X-153.575 Y4.544 Z-2.224
G1 X-153.36 Y4.588 Z-2.232
G1 X-153.142 Y4.617 Z-2.239
G1 X-152.923 Y4.63 Z-2.247
G1 X-152.703 Y4.627 Z-2.255
G1 X-152.485 Y4.608 Z-2.262
G1 X-152.268 Y4.573 Z-2.27
G1 X-152.055 Y4.523 Z-2.278
G1 X-151.845 Y4.457 Z-2.285
G1 X-151.641 Y4.376 Z-2.293
G1 X-151.444 Y4.28 Z-2.301
G1 X-151.253 Y4.171 Z-2.308
G1 X-151.072 Y4.048 Z-2.316
G1 X-150.9 Y3.912 Z-2.324
G1 X-150.738 Y3.763 Z-2.331
G1 X-150.587 Y3.604 Z-2.339
G1 X-150.448 Y3.434 Z-2.347
G1 X-150.323 Y3.254 Z-2.354
G1 X-150.21 Y3.065 Z-2.362
G1 X-150.112 Y2.869 Z-2.37
G1 X-150.028 Y2.666 Z-2.377
G1 X-149.959 Y2.458 Z-2.385
G1 X-149.905 Y2.245 Z-2.393
G1 X-149.867 Y2.029 Z-2.4
G1 X-149.845 Y1.811 Z-2.408
G1 X-149.838 Y1.591 Z-2.416
G1 X-149.848 Y1.372 Z-2.423
G1 X-149.874 Y1.154 Z-2.431
G1 X-149.915 Y0.939 Z-2.439
G1 X-149.972 Y0.727 Z-2.446
G1 X-150.044 Y0.519 Z-2.454
G1 X-150.131 Y0.318 Z-2.462
G1 X-150.233 Y0.123 Z-2.469
G1 X-150.348 Y-0.063 Z-2.477
G1 X-150.477 Y-0.241 Z-2.485
G1 X-150.618 Y-0.409 Z-2.492
G1 X-150.771 Y-0.566 Z-2.5
G1 X-150.935 Y-0.712 Z-2.508
G1 X-151.109 Y-0.846 Z-2.515
G1 X-151.293 Y-0.966 Z-2.523
G1 X-151.485 Y-1.073 Z-2.531
G1 X-151.684 Y-1.165 Z-2.538
G1 X-151.889 Y-1.243 Z-2.546
G1 X-152.099 Y-1.306 Z-2.554
G1 X-152.314 Y-1.353 Z-2.561
G1 X-152.531 Y-1.384 Z-2.569
G1 X-152.75 Y-1.4 Z-2.577
G1 X-152.969 Z-2.584
G1 X-153.188 Y-1.383 Z-2.592
G1 X-153.405 Y-1.351 Z-2.6
G1 X-153.619 Y-1.303 Z-2.607
G1 X-153.83 Y-1.24 Z-2.615
G1 X-154.035 Y-1.161 Z-2.623
G1 X-154.233 Y-1.068 Z-2.63
G1 X-154.425 Y-0.961 Z-2.638
G1 X-154.608 Y-0.84 Z-2.646
G1 X-154.782 Y-0.706 Z-2.653
G1 X-154.945 Y-0.559 Z-2.661
G1 X-155.098 Y-0.402 Z-2.669
G1 X-155.238 Y-0.233 Z-2.676
G1 X-155.367 Y-0.055 Z-2.684
G1 X-155.481 Y0.132 Z-2.692
G1 X-155.582 Y0.327 Z-2.699
G1 X-155.669 Y0.529 Z-2.707
G1 X-155.74 Y0.736 Z-2.715
G1 X-155.796 Y0.948 Z-2.722
G1 X-155.837 Y1.164 Z-2.73
G1 X-155.862 Y1.382 Z-2.738
G1 X-155.871 Y1.602 Z-2.745
G1 X-155.864 Y1.821 Z-2.753
G1 X-155.841 Y2.039 Z-2.761
G1 X-155.802 Y2.255 Z-2.768
G1 X-155.748 Y2.468 Z-2.776
G1 X-155.678 Y2.676 Z-2.784
G1 X-155.593 Y2.878 Z-2.791
G1 X-155.494 Y3.074 Z-2.799
G1 X-155.381 Y3.262 Z-2.807
G1 X-155.254 Y3.442 Z-2.814
G1 X-155.115 Y3.611 Z-2.822
G1 X-154.964 Y3.77 Z-2.83
G1 X-154.802 Y3.918 Z-2.837
G1 X-154.629 Y4.054 Z-2.845
G1 X-154.447 Y4.176 Z-2.853
G1 X-154.256 Y4.285 Z-2.86
G1 X-154.059 Y4.38 Z-2.868
G1 X-153.854 Y4.46 Z-2.876
G1 X-153.645 Y4.525 Z-2.883
G1 X-153.431 Y4.575 Z-2.891
G1 X-153.214 Y4.609 Z-2.899
G1 X-152.995 Y4.628 Z-2.906
G1 X-152.776 Y4.63 Z-2.914
G1 X-152.557 Y4.616 Z-2.922
G1 X-152.339 Y4.587 Z-2.929
G1 X-152.125 Y4.541 Z-2.937
G1 X-151.914 Y4.48 Z-2.945
G1 X-151.708 Y4.404 Z-2.952
G1 X-151.508 Y4.314 Z-2.96
G1 X-151.315 Y4.209 Z-2.968
G1 X-151.131 Y4.09 Z-2.975
G1 X-150.955 Y3.958 Z-2.983
G1 X-150.79 Y3.814 Z-2.991
G1 X-150.636 Y3.658 Z-2.998
G1 X-150.493 Y3.491 Z-3.006
G1 X-150.363 Y3.314 Z-3.014
G1 X-150.246 Y3.128 Z-3.021
G1 X-150.142 Y2.935 Z-3.029
G1 X-150.054 Y2.734 Z-3.037
G1 X-149.98 Y2.527 Z-3.044
G1 X-149.921 Y2.316 Z-3.052
G1 X-149.878 Y2.101 Z-3.06
G1 X-149.85 Y1.883 Z-3.067
G1 X-149.839 Y1.664 Z-3.075
G1 X-149.843 Y1.444 Z-3.083
G1 X-149.863 Y1.226 Z-3.09
G1 X-149.9 Y1.009 Z-3.098
G1 X-149.951 Y0.796 Z-3.106
G1 X-150.019 Y0.587 Z-3.113
G1 X-150.101 Y0.384 Z-3.121
G1 X-150.198 Y0.187 Z-3.129
G1 X-150.308 Y-0.003 Z-3.136
G1 X-150.433 Y-0.184 Z-3.144
G1 X-150.57 Y-0.355 Z-3.152
G1 X-150.719 Y-0.516 Z-3.159
G1 X-150.88 Y-0.665 Z-3.167
G1 X-151.051 Y-0.803 Z-3.175
G1 X-151.231 Y-0.928 Z-3.182
G1 X-151.421 Y-1.039 Z-3.19
G1 X-151.617 Y-1.136 Z-3.198
G1 X-151.821 Y-1.219 Z-3.205
G1 X-152.029 Y-1.287 Z-3.213
G1 X-152.243 Y-1.339 Z-3.221
G1 X-152.459 Y-1.376 Z-3.228
G1 X-152.677 Y-1.396 Z-3.236
G1 X-152.897 Y-1.401 Z-3.244
G1 X-153.116 Y-1.39 Z-3.251
G1 X-153.334 Y-1.363 Z-3.259
G1 X-153.549 Y-1.321 Z-3.267
G1 X-153.761 Y-1.262 Z-3.274
G1 X-153.968 Y-1.189 Z-3.282
G1 X-154.168 Y-1.1 Z-3.29
G1 X-154.362 Y-0.998 Z-3.297
G1 X-154.548 Y-0.881 Z-3.305
G1 X-154.725 Y-0.751 Z-3.313
G1 X-154.892 Y-0.609 Z-3.32
G1 X-155.049 Y-0.455 Z-3.328
G1 X-155.193 Y-0.29 Z-3.336
G1 X-155.326 Y-0.115 Z-3.343
G1 X-155.445 Y0.069 Z-3.351
G1 X-155.55 Y0.262 Z-3.359
G1 X-155.642 Y0.462 Z-3.366
G1 X-155.718 Y0.667 Z-3.374
G1 X-155.779 Y0.878 Z-3.382
G1 X-155.825 Y1.093 Z-3.389
G1 X-155.855 Y1.31 Z-3.397
G1 X-155.87 Y1.529 Z-3.405
G1 X-155.868 Y1.749 Z-3.412
G1 X-155.85 Y1.967 Z-3.42
G1 X-155.816 Y2.184 Z-3.428
G1 X-155.767 Y2.398 Z-3.435
G1 X-155.703 Y2.608 Z-3.443
G1 X-155.623 Y2.812 Z-3.451
G1 X-155.528 Y3.01 Z-3.458
G1 X-155.42 Y3.201 Z-3.466
G1 X-155.298 Y3.383 Z-3.474
G1 X-155.163 Y3.556 Z-3.481
G1 X-155.015 Y3.719 Z-3.489
G1 X-154.856 Y3.871 Z-3.497
G1 X-154.687 Y4.01 Z-3.504
G1 X-154.508 Y4.137 Z-3.512
G1 X-154.32 Y4.251 Z-3.52
G1 X-154.125 Y4.35 Z-3.527
G1 X-153.922 Y4.435 Z-3.535
G1 X-153.714 Y4.506 Z-3.543
G1 X-153.502 Y4.561 Z-3.55
G1 X-153.286 Y4.6 Z-3.558
G1 X-153.068 Y4.623 Z-3.566
G1 X-152.848 Y4.631 Z-3.573
G1 X-152.629 Y4.622 Z-3.581
G1 X-152.411 Y4.598 Z-3.589
G1 X-152.195 Y4.558 Z-3.596
G1 X-151.983 Y4.502 Z-3.604
G1 X-151.775 Y4.431 Z-3.612
G1 X-151.573 Y4.345 Z-3.619
G1 X-151.378 Y4.245 Z-3.627
G1 X-151.191 Y4.13 Z-3.635
G1 X-151.012 Y4.003 Z-3.642
G1 X-150.843 Y3.863 Z-3.65
G1 X-150.685 Y3.71 Z-3.658
G1 X-150.539 Y3.547 Z-3.665
G1 X-150.404 Y3.374 Z-3.673
G1 X-150.283 Y3.191 Z-3.681
G1 X-150.175 Y3 Z-3.688
G1 X-150.081 Y2.801 Z-3.696
G1 X-150.002 Y2.596 Z-3.704
G1 X-149.939 Y2.386 Z-3.711
G1 X-149.89 Y2.172 Z-3.719
G1 X-149.858 Y1.955 Z-3.727
G1 X-149.841 Y1.736 Z-3.734
G1 X-149.84 Y1.517 Z-3.742
G1 X-149.855 Y1.298 Z-3.75
G1 X-149.886 Y1.081 Z-3.757
G1 X-149.933 Y0.866 Z-3.765
G1 X-149.995 Y0.656 Z-3.773
G1 X-150.072 Y0.45 Z-3.78
G1 X-150.164 Y0.251 Z-3.788
G1 X-150.27 Y0.059 Z-3.796
G1 X-150.39 Y-0.125 Z-3.803
G1 X-150.523 Y-0.299 Z-3.811
G1 X-150.669 Y-0.464 Z-3.819
G1 X-150.826 Y-0.617 Z-3.826
G1 X-150.993 Y-0.759 Z-3.834
G1 X-151.171 Y-0.888 Z-3.842
G1 X-151.357 Y-1.004 Z-3.849
G1 X-151.552 Y-1.106 Z-3.857
G1 X-151.753 Y-1.193 Z-3.865
G1 X-151.96 Y-1.266 Z-3.872
G1 X-152.172 Y-1.323 Z-3.88
G1 X-152.387 Y-1.365 Z-3.888
G1 X-152.605 Y-1.391 Z-3.895
G1 X-152.824 Y-1.402 Z-3.903
G1 X-153.044 Y-1.396 Z-3.911
G1 X-153.262 Y-1.374 Z-3.918
G1 X-153.478 Y-1.336 Z-3.926
G1 X-153.691 Y-1.283 Z-3.934
G1 X-153.9 Y-1.215 Z-3.941
G1 X-154.103 Y-1.131 Z-3.949
G1 X-154.299 Y-1.033 Z-3.957
G1 X-154.488 Y-0.921 Z-3.964
G1 X-154.668 Y-0.796 Z-3.972
G1 X-154.838 Y-0.657 Z-3.98
G1 X-154.998 Y-0.507 Z-3.987
G1 X-155.147 Y-0.346 Z-3.995
G1 X-155.283 Y-0.174 Z-4.003
G1 X-155.407 Y0.008 Z-4.01
G1 X-155.517 Y0.198 Z-4.018
G1 X-155.613 Y0.395 Z-4.026
G1 X-155.695 Y0.599 Z-4.033
G1 X-155.761 Y0.808 Z-4.041
G1 X-155.812 Y1.021 Z-4.049
G1 X-155.847 Y1.238 Z-4.056
G1 X-155.867 Y1.457 Z-4.064
G1 X-155.938 Y2.828
G2 X-155.631 Y3.17 I0.325 J0.017
G1 X-130.415 Y4.53
G2 X-130.181 Y4.447 I0.017 J-0.324
G2 X-130.074 Y4.223 I-0.217 J-0.241
G1 X-129.926 Y1.475
G2 X-130.232 Y1.134 I-0.324 J-0.017
G1 X-155.454 Y-0.226
G2 X-155.688 Y-0.144 I-0.017 J0.323
G2 X-155.794 Y0.08 I0.217 J0.241
G1 X-155.867 Y1.457
G3 X-157.406 Y3.819 I-2.808 J-0.147
G2 X-158.05 Y5.779 I0.658 J1.302
G2 X-156.826 Y6.578 I1.302 J-0.658
G1 X-129.207 Y8.067
G3 X-126.46 Y9.534 I-0.198 J3.678
G2 X-126.016 Y9.597 I0.254 J-0.19
G2 X-125.892 Y9.385 I-0.19 J-0.254
G2 X-125.956 Y9.148 I-0.314 J-0.042
G3 X-126.734 Y6.68 I2.9 J-2.27
G1 X-126.341 Y-0.608
G3 X-125.302 Y-2.979 I3.678 J0.198
G2 X-125.308 Y-3.427 I-0.227 J-0.221
G2 X-125.537 Y-3.516 I-0.221 J0.227
G2 X-125.761 Y-3.416 I0.007 J0.317
G3 X-128.649 Y-2.253 I-2.69 J-2.515
G1 X-158.741 Y-3.876
G2 X-158.97 Y-3.796 I-0.017 J0.317
G2 X-159.075 Y-3.576 I0.212 J0.236
G1 X-159.583 Y6.112
G2 X-159.283 Y6.445 I0.317 J0.016
G1 X-156.826 Y6.578
G0 Z6.096
G0 X-151.395 Y-1.025
G1 Z-1.524 F508.
G1 X-151.591 Y-1.124 Z-1.532
G1 X-151.794 Y-1.209 Z-1.539
G1 X-152.002 Y-1.279 Z-1.547
G1 X-152.215 Y-1.333 Z-1.555
G1 X-152.431 Y-1.372 Z-1.562
G1 X-152.649 Y-1.395 Z-1.57
G1 X-152.869 Y-1.402 Z-1.578
G1 X-153.088 Y-1.393 Z-1.585
G1 X-153.306 Y-1.368 Z-1.593
G1 X-153.522 Y-1.327 Z-1.601
G1 X-153.734 Y-1.271 Z-1.608
G1 X-153.942 Y-1.199 Z-1.616
G1 X-154.143 Y-1.112 Z-1.624
G1 X-154.338 Y-1.011 Z-1.631
G1 X-154.525 Y-0.897 Z-1.639
G1 X-154.704 Y-0.768 Z-1.647
G1 X-154.872 Y-0.627 Z-1.654
G1 X-155.03 Y-0.475 Z-1.662
G1 X-155.176 Y-0.311 Z-1.67
G1 X-155.31 Y-0.137 Z-1.677
G1 X-155.431 Y0.046 Z-1.685
G1 X-155.538 Y0.238 Z-1.693
G1 X-155.631 Y0.437 Z-1.7
G1 X-155.71 Y0.642 Z-1.708
G1 X-155.773 Y0.852 Z-1.716
G1 X-155.821 Y1.067 Z-1.723
G1 X-155.853 Y1.284 Z-1.731
G1 X-155.869 Y1.503 Z-1.739
G1 Y1.722 Z-1.746
G1 X-155.853 Y1.941 Z-1.754
G1 X-155.821 Y2.159 Z-1.762
G1 X-155.774 Y2.373 Z-1.769
G1 X-155.711 Y2.583 Z-1.777
G1 X-155.633 Y2.789 Z-1.785
G1 X-155.54 Y2.988 Z-1.792
G1 X-155.433 Y3.179 Z-1.8
G1 X-155.312 Y3.363 Z-1.808
G1 X-155.179 Y3.537 Z-1.815
G1 X-155.033 Y3.701 Z-1.823
G1 X-154.875 Y3.854 Z-1.831
G1 X-154.707 Y3.995 Z-1.838
G1 X-154.529 Y4.123 Z-1.846
G1 X-154.342 Y4.239 Z-1.854
G1 X-154.147 Y4.34 Z-1.861
G1 X-153.945 Y4.427 Z-1.869
G1 X-153.738 Y4.499 Z-1.877
G1 X-153.526 Y4.555 Z-1.884
G1 X-153.31 Y4.596 Z-1.892
G1 X-153.092 Y4.621 Z-1.9
G1 X-152.872 Y4.631 Z-1.907
G1 X-152.653 Y4.624 Z-1.915
G1 X-152.435 Y4.601 Z-1.923
G1 X-152.218 Y4.563 Z-1.93
G1 X-152.006 Y4.509 Z-1.938
G1 X-151.797 Y4.439 Z-1.946
G1 X-151.595 Y4.355 Z-1.953
G1 X-151.399 Y4.256 Z-1.961
G1 X-151.21 Y4.143 Z-1.969
G1 X-151.031 Y4.017 Z-1.976
G1 X-150.861 Y3.878 Z-1.984
G1 X-150.701 Y3.727 Z-1.992
G1 X-150.553 Y3.565 Z-2
G1 X-150.418 Y3.392 Z-2.007
G1 X-150.295 Y3.21 Z-2.015
G1 X-150.185 Y3.02 Z-2.023
G1 X-150.09 Y2.822 Z-2.03
G1 X-150.01 Y2.617 Z-2.038
G1 X-149.944 Y2.408 Z-2.046
G1 X-149.894 Y2.194 Z-2.053
G1 X-149.86 Y1.977 Z-2.061
G1 X-149.842 Y1.758 Z-2.069
G1 X-149.839 Y1.539 Z-2.076
G1 X-149.853 Y1.32 Z-2.084
G1 X-149.882 Y1.102 Z-2.092
G1 X-149.927 Y0.887 Z-2.099
G1 X-149.988 Y0.676 Z-2.107
G1 X-150.064 Y0.47 Z-2.115
G1 X-150.154 Y0.27 Z-2.122
G1 X-150.259 Y0.077 Z-2.13
G1 X-150.378 Y-0.107 Z-2.138
G1 X-150.51 Y-0.283 Z-2.145
G1 X-150.654 Y-0.449 Z-2.153
G1 X-150.81 Y-0.603 Z-2.161
G1 X-150.977 Y-0.746 Z-2.168
G1 X-151.154 Y-0.876 Z-2.176
G1 X-151.339 Y-0.994 Z-2.184
G1 X-151.533 Y-1.097 Z-2.191
G1 X-151.734 Y-1.186 Z-2.199
G1 X-151.941 Y-1.26 Z-2.207
G1 X-152.152 Y-1.319 Z-2.214
G1 X-152.367 Y-1.362 Z-2.222
G1 X-152.585 Y-1.39 Z-2.23
G1 X-152.804 Y-1.401 Z-2.237
G1 X-153.024 Y-1.397 Z-2.245
G1 X-153.243 Y-1.377 Z-2.253
G1 X-153.459 Y-1.34 Z-2.26
G1 X-153.673 Y-1.289 Z-2.268
G1 X-153.882 Y-1.221 Z-2.276
G1 X-154.085 Y-1.139 Z-2.283
G1 X-154.282 Y-1.042 Z-2.291
G1 X-154.472 Y-0.931 Z-2.299
G1 X-154.653 Y-0.807 Z-2.306
G1 X-154.824 Y-0.67 Z-2.314
G1 X-154.985 Y-0.52 Z-2.322
G1 X-155.135 Y-0.36 Z-2.329
G1 X-155.272 Y-0.189 Z-2.337
G1 X-155.397 Y-0.008 Z-2.345
G1 X-155.508 Y0.181 Z-2.352
G1 X-155.606 Y0.378 Z-2.36
G1 X-155.688 Y0.582 Z-2.368
G1 X-155.756 Y0.79 Z-2.375
G1 X-155.808 Y1.004 Z-2.383
G1 X-155.845 Y1.22 Z-2.391
G1 X-155.866 Y1.439 Z-2.398
G1 X-155.87 Y1.658 Z-2.406
G1 X-155.859 Y1.878 Z-2.414
G1 X-155.832 Y2.095 Z-2.421
G1 X-155.789 Y2.311 Z-2.429
G1 X-155.731 Y2.522 Z-2.437
G1 X-155.657 Y2.729 Z-2.444
G1 X-155.569 Y2.93 Z-2.452
G1 X-155.466 Y3.124 Z-2.46
G1 X-155.349 Y3.31 Z-2.467
G1 X-155.219 Y3.487 Z-2.475
G1 X-155.077 Y3.654 Z-2.483
G1 X-154.922 Y3.81 Z-2.49
G1 X-154.757 Y3.955 Z-2.498
G1 X-154.582 Y4.087 Z-2.506
G1 X-154.397 Y4.206 Z-2.513
G1 X-154.205 Y4.312 Z-2.521
G1 X-154.005 Y4.403 Z-2.529
G1 X-153.799 Y4.479 Z-2.536
G1 X-153.588 Y4.54 Z-2.544
G1 X-153.373 Y4.586 Z-2.552
G1 X-153.156 Y4.616 Z-2.559
G1 X-152.937 Y4.63 Z-2.567
G1 X-152.717 Y4.628 Z-2.575
G1 X-152.498 Y4.61 Z-2.582
G1 X-152.281 Y4.576 Z-2.59
G1 X-152.067 Y4.526 Z-2.598
G1 X-151.858 Y4.461 Z-2.605
G1 X-151.653 Y4.381 Z-2.613
G1 X-151.455 Y4.287 Z-2.621
G1 X-151.264 Y4.178 Z-2.628
G1 X-151.082 Y4.055 Z-2.636
G1 X-150.909 Y3.92 Z-2.644
G1 X-150.747 Y3.772 Z-2.651
G1 X-150.595 Y3.613 Z-2.659
G1 X-150.456 Y3.443 Z-2.667
G1 X-150.329 Y3.264 Z-2.674
G1 X-150.216 Y3.076 Z-2.682
G1 X-150.117 Y2.88 Z-2.69
G1 X-150.032 Y2.678 Z-2.697
G1 X-149.962 Y2.469 Z-2.705
G1 X-149.907 Y2.257 Z-2.713
G1 X-149.868 Y2.041 Z-2.72
G1 X-149.845 Y1.822 Z-2.728
G1 X-149.838 Y1.603 Z-2.736
G1 X-149.847 Y1.383 Z-2.743
G1 X-149.872 Y1.165 Z-2.751
G1 X-149.912 Y0.95 Z-2.759
G1 X-149.969 Y0.737 Z-2.766
G1 X-150.04 Y0.53 Z-2.774
G1 X-150.126 Y0.328 Z-2.782
G1 X-150.227 Y0.133 Z-2.789
G1 X-150.342 Y-0.054 Z-2.797
G1 X-150.47 Y-0.233 Z-2.805
G1 X-150.611 Y-0.401 Z-2.812
G1 X-150.763 Y-0.559 Z-2.82
G1 X-150.927 Y-0.706 Z-2.828
G1 X-151.101 Y-0.84 Z-2.835
G1 X-151.284 Y-0.961 Z-2.843
G1 X-151.476 Y-1.068 Z-2.851
G1 X-151.675 Y-1.161 Z-2.858
G1 X-151.88 Y-1.24 Z-2.866
G1 X-152.09 Y-1.303 Z-2.874
G1 X-152.304 Y-1.351 Z-2.881
G1 X-152.521 Y-1.383 Z-2.889
G1 X-152.74 Y-1.4 Z-2.897
G1 X-152.96 Z-2.904
G1 X-153.179 Y-1.384 Z-2.912
G1 X-153.396 Y-1.353 Z-2.92
G1 X-153.611 Y-1.305 Z-2.927
G1 X-153.821 Y-1.243 Z-2.935
G1 X-154.026 Y-1.165 Z-2.943
G1 X-154.225 Y-1.072 Z-2.951
G1 X-154.417 Y-0.965 Z-2.958
G1 X-154.601 Y-0.845 Z-2.966
G1 X-154.775 Y-0.711 Z-2.974
G1 X-154.939 Y-0.565 Z-2.981
G1 X-155.092 Y-0.408 Z-2.989
G1 X-155.233 Y-0.24 Z-2.997
G1 X-155.362 Y-0.062 Z-3.004
G1 X-155.477 Y0.125 Z-3.012
G1 X-155.579 Y0.32 Z-3.02
G1 X-155.666 Y0.522 Z-3.027
G1 X-155.738 Y0.729 Z-3.035
G1 X-155.795 Y0.941 Z-3.043
G1 X-155.836 Y1.157 Z-3.05
G1 X-155.861 Y1.375 Z-3.058
G1 X-155.871 Y1.594 Z-3.066
G1 X-155.864 Y1.814 Z-3.073
G1 X-155.842 Y2.032 Z-3.081
G1 X-155.803 Y2.248 Z-3.089
G1 X-155.749 Y2.461 Z-3.096
G1 X-155.68 Y2.67 Z-3.104
G1 X-155.596 Y2.872 Z-3.112
G1 X-155.497 Y3.068 Z-3.119
G1 X-155.384 Y3.257 Z-3.127
G1 X-155.258 Y3.437 Z-3.135
G1 X-155.119 Y3.607 Z-3.142
G1 X-154.968 Y3.766 Z-3.15
G1 X-154.806 Y3.914 Z-3.158
G1 X-154.634 Y4.05 Z-3.165
G1 X-154.452 Y4.173 Z-3.173
G1 X-154.262 Y4.282 Z-3.181
G1 X-154.064 Y4.378 Z-3.188
G1 X-153.86 Y4.458 Z-3.196
G1 X-153.65 Y4.524 Z-3.204
G1 X-153.436 Y4.574 Z-3.211
G1 X-153.219 Y4.609 Z-3.219
G1 X-153.001 Y4.627 Z-3.227
G1 X-152.781 Y4.63 Z-3.234
G1 X-152.562 Y4.617 Z-3.242
G1 X-152.344 Y4.587 Z-3.25
G1 X-152.129 Y4.542 Z-3.257
G1 X-151.918 Y4.482 Z-3.265
G1 X-151.712 Y4.406 Z-3.273
G1 X-151.512 Y4.316 Z-3.28
G1 X-151.319 Y4.211 Z-3.288
G1 X-151.134 Y4.092 Z-3.296
G1 X-150.959 Y3.961 Z-3.303
G1 X-150.793 Y3.816 Z-3.311
G1 X-150.638 Y3.661 Z-3.319
G1 X-150.495 Y3.494 Z-3.326
G1 X-150.365 Y3.317 Z-3.334
G1 X-150.248 Y3.132 Z-3.342
G1 X-150.144 Y2.938 Z-3.349
G1 X-150.055 Y2.737 Z-3.357
G1 X-149.981 Y2.531 Z-3.365
G1 X-149.922 Y2.319 Z-3.372
G1 X-149.878 Y2.104 Z-3.38
G1 X-149.85 Y1.886 Z-3.388
G1 X-149.839 Y1.667 Z-3.395
G1 X-149.843 Y1.447 Z-3.403
G1 X-149.863 Y1.229 Z-3.411
G1 X-149.899 Y1.012 Z-3.418
G1 X-149.951 Y0.799 Z-3.426
G1 X-150.018 Y0.59 Z-3.434
G1 X-150.1 Y0.386 Z-3.441
G1 X-150.196 Y0.189 Z-3.449
G1 X-150.307 Y-0.001 Z-3.457
G1 X-150.431 Y-0.182 Z-3.464
G1 X-150.569 Y-0.353 Z-3.472
G1 X-150.718 Y-0.514 Z-3.48
G1 X-150.878 Y-0.664 Z-3.487
G1 X-151.049 Y-0.802 Z-3.495
G1 X-151.23 Y-0.927 Z-3.503
G1 X-151.419 Y-1.038 Z-3.51
G1 X-151.616 Y-1.136 Z-3.518
G1 X-151.819 Y-1.218 Z-3.526
G1 X-152.028 Y-1.286 Z-3.533
G1 X-152.241 Y-1.339 Z-3.541
G1 X-152.458 Y-1.375 Z-3.549
G1 X-152.676 Y-1.396 Z-3.556
G1 X-152.896 Y-1.401 Z-3.564
G1 X-153.115 Y-1.39 Z-3.572
G1 X-153.333 Y-1.363 Z-3.579
G1 X-153.548 Y-1.321 Z-3.587
G1 X-153.76 Y-1.263 Z-3.595
G1 X-153.967 Y-1.189 Z-3.602
G1 X-154.168 Y-1.101 Z-3.61
G1 X-154.362 Y-0.998 Z-3.618
G1 X-154.548 Y-0.881 Z-3.625
G1 X-154.725 Y-0.751 Z-3.633
G1 X-154.892 Y-0.609 Z-3.641
G1 X-155.049 Y-0.455 Z-3.648
G1 X-155.194 Y-0.29 Z-3.656
G1 X-155.326 Y-0.115 Z-3.664
G1 X-155.445 Y0.07 Z-3.671
G1 X-155.551 Y0.262 Z-3.679
G1 X-155.642 Y0.462 Z-3.687
G1 X-155.718 Y0.668 Z-3.694
G1 X-155.78 Y0.879 Z-3.702
G1 X-155.825 Y1.093 Z-3.71
G1 X-155.855 Y1.311 Z-3.717
G1 X-155.87 Y1.53 Z-3.725
G1 X-155.868 Y1.75 Z-3.733
G1 X-155.85 Y1.969 Z-3.74
G1 X-155.816 Y2.186 Z-3.748
G1 X-155.767 Y2.399 Z-3.756
G1 X-155.702 Y2.609 Z-3.763
G1 X-155.622 Y2.814 Z-3.771
G1 X-155.528 Y3.012 Z-3.779
G1 X-155.419 Y3.203 Z-3.786
G1 X-155.296 Y3.385 Z-3.794
G1 X-155.161 Y3.558 Z-3.802
G1 X-155.014 Y3.721 Z-3.809
G1 X-154.855 Y3.872 Z-3.817
G1 X-154.685 Y4.012 Z-3.825
G1 X-154.506 Y4.139 Z-3.832
G1 X-154.318 Y4.252 Z-3.84
G1 X-154.122 Y4.351 Z-3.848
G1 X-153.92 Y4.436 Z-3.855
G1 X-153.712 Y4.506 Z-3.863
G1 X-153.499 Y4.561 Z-3.871
G1 X-153.283 Y4.6 Z-3.879
G1 X-153.065 Y4.623 Z-3.886
G1 X-152.845 Y4.631 Z-3.894
G1 X-152.626 Y4.622 Z-3.902
G1 X-152.408 Y4.598 Z-3.909
G1 X-152.192 Y4.557 Z-3.917
G1 X-151.979 Y4.501 Z-3.925
G1 X-151.772 Y4.43 Z-3.932
G1 X-151.57 Y4.344 Z-3.94
G1 X-151.375 Y4.243 Z-3.948
G1 X-151.187 Y4.128 Z-3.955
G1 X-151.009 Y4 Z-3.963
G1 X-150.84 Y3.86 Z-3.971
G1 X-150.682 Y3.707 Z-3.978
G1 X-150.536 Y3.544 Z-3.986
G1 X-150.402 Y3.37 Z-3.994
G1 X-150.28 Y3.187 Z-4.001
G1 X-150.173 Y2.995 Z-4.009
G1 X-150.079 Y2.797 Z-4.017
G1 X-150.001 Y2.592 Z-4.024
G1 X-149.937 Y2.381 Z-4.032
G1 X-149.889 Y2.167 Z-4.04
G1 X-149.857 Y1.95 Z-4.047
G1 X-149.84 Y1.731 Z-4.055
G1 Y1.511 Z-4.063
G1 X-149.855 Y1.292 Z-4.07
G1 X-149.887 Y1.075 Z-4.078
G1 X-149.934 Y0.861 Z-4.086
G1 X-149.997 Y0.65 Z-4.093
G1 X-150.074 Y0.445 Z-4.101
G1 X-150.167 Y0.246 Z-4.109
G1 X-150.273 Y0.054 Z-4.116
G1 X-150.394 Y-0.13 Z-4.124
G1 X-150.527 Y-0.304 Z-4.132
G1 X-150.673 Y-0.468 Z-4.139
G1 X-150.83 Y-0.622 Z-4.147
G1 X-150.998 Y-0.763 Z-4.155
G1 X-151.176 Y-0.892 Z-4.162
G1 X-151.363 Y-1.007 Z-4.17
G1 X-151.558 Y-1.109 Z-4.178
G1 X-151.759 Y-1.196 Z-4.185
G1 X-151.967 Y-1.268 Z-4.193
G1 X-152.179 Y-1.325 Z-4.201
G1 X-152.394 Y-1.366 Z-4.208
G1 X-152.612 Y-1.392 Z-4.216
G1 X-152.832 Y-1.402 Z-4.224
G1 X-153.051 Y-1.395 Z-4.231
G1 X-153.27 Y-1.373 Z-4.239
G1 X-153.486 Y-1.335 Z-4.247
G1 X-153.699 Y-1.281 Z-4.254
G1 X-153.907 Y-1.212 Z-4.262
G1 X-154.11 Y-1.128 Z-4.27
G1 X-154.306 Y-1.029 Z-4.277
G1 X-154.495 Y-0.917 Z-4.285
G1 X-154.675 Y-0.791 Z-4.293
G1 X-154.845 Y-0.652 Z-4.3
G1 X-155.004 Y-0.501 Z-4.308
G1 X-155.153 Y-0.339 Z-4.316
G1 X-155.289 Y-0.167 Z-4.323
G1 X-155.412 Y0.015 Z-4.331
G1 X-155.521 Y0.205 Z-4.339
G1 X-155.617 Y0.403 Z-4.346
G1 X-155.698 Y0.607 Z-4.354
G1 X-155.763 Y0.817 Z-4.362
G1 X-155.814 Y1.03 Z-4.369
G1 X-155.848 Y1.247 Z-4.377
G1 X-155.867 Y1.466 Z-4.385
G1 X-155.87 Y1.686 Z-4.392
G1 X-155.857 Y1.905 Z-4.4
G1 X-155.828 Y2.122 Z-4.408
G1 X-155.783 Y2.337 Z-4.415
G1 X-155.722 Y2.549 Z-4.423
G1 X-155.647 Y2.755 Z-4.431
G1 X-155.557 Y2.955 Z-4.438
G1 X-155.452 Y3.148 Z-4.446
G1 X-155.334 Y3.333 Z-4.454
G1 X-155.202 Y3.509 Z-4.461
G1 X-155.058 Y3.674 Z-4.469
G1 X-154.902 Y3.829 Z-4.477
G1 X-154.736 Y3.972 Z-4.484
G1 X-154.559 Y4.103 Z-4.492
G1 X-154.374 Y4.22 Z-4.5
G1 X-154.18 Y4.324 Z-4.507
G1 X-153.979 Y4.413 Z-4.515
G1 X-153.773 Y4.488 Z-4.523
G1 X-153.561 Y4.547 Z-4.53
G1 X-153.346 Y4.59 Z-4.538
G1 X-153.128 Y4.618 Z-4.546
G1 X-152.909 Y4.63 Z-4.553
G1 X-152.69 Y4.626 Z-4.561
G1 X-152.471 Y4.606 Z-4.569
G1 X-152.254 Y4.571 Z-4.576
G1 X-152.041 Y4.519 Z-4.584
G1 X-151.832 Y4.452 Z-4.592
G1 X-151.628 Y4.37 Z-4.599
G1 X-151.431 Y4.274 Z-4.607
G1 X-151.241 Y4.163 Z-4.615
G1 X-151.06 Y4.039 Z-4.622
G1 X-150.888 Y3.902 Z-4.63
G1 X-150.727 Y3.753 Z-4.638
G1 X-150.577 Y3.593 Z-4.645
G1 X-150.439 Y3.422 Z-4.653
G1 X-150.314 Y3.241 Z-4.661
G1 X-150.203 Y3.052 Z-4.668
G1 X-150.105 Y2.855 Z-4.676
G1 X-150.022 Y2.652 Z-4.684
G1 X-149.954 Y2.443 Z-4.691
G1 X-149.902 Y2.23 Z-4.699
G1 X-149.865 Y2.014 Z-4.707
G1 X-149.844 Y1.795 Z-4.714
G1 X-149.838 Y1.576 Z-4.722
G1 X-149.849 Y1.356 Z-4.73
G1 X-149.876 Y1.138 Z-4.737
G1 X-149.919 Y0.923 Z-4.745
G1 X-149.977 Y0.711 Z-4.753
G1 X-150.05 Y0.504 Z-4.76
G1 X-150.138 Y0.303 Z-4.768
G1 X-150.241 Y0.109 Z-4.776
G1 X-150.357 Y-0.077 Z-4.783
G1 X-150.487 Y-0.254 Z-4.791
G1 X-150.629 Y-0.422 Z-4.799
G1 X-150.783 Y-0.578 Z-4.807
G1 X-150.948 Y-0.723 Z-4.814
G1 X-151.123 Y-0.855 Z-4.822
G1 X-151.308 Y-0.975 Z-4.83
G1 X-151.5 Y-1.081 Z-4.837
G1 X-151.7 Y-1.172 Z-4.845
G1 X-151.906 Y-1.249 Z-4.853
G1 X-152.116 Y-1.31 Z-4.86
G1 X-152.331 Y-1.356 Z-4.868
G1 X-152.549 Y-1.386 Z-4.876
G1 X-152.768 Y-1.4 Z-4.883
G1 X-152.987 Y-1.399 Z-4.891
G1 X-153.206 Y-1.381 Z-4.899
G1 X-153.423 Y-1.348 Z-4.906
G1 X-153.637 Y-1.298 Z-4.914
G1 X-153.847 Y-1.234 Z-4.922
G1 X-154.052 Y-1.154 Z-4.929
G1 X-154.25 Y-1.06 Z-4.937
G1 X-154.441 Y-0.951 Z-4.945
G1 X-154.623 Y-0.829 Z-4.952
G1 X-154.796 Y-0.694 Z-4.96
G1 X-154.959 Y-0.546 Z-4.968
G1 X-155.11 Y-0.387 Z-4.975
G1 X-155.25 Y-0.218 Z-4.983
G1 X-155.377 Y-0.039 Z-4.991
G1 X-155.491 Y0.149 Z-4.998
G1 X-155.59 Y0.345 Z-5.006
G1 X-155.676 Y0.547 Z-5.014
G1 X-155.746 Y0.755 Z-5.021
G1 X-155.801 Y0.968 Z-5.029
G1 X-155.84 Y1.184 Z-5.037
G1 X-155.863 Y1.402 Z-5.044
G1 X-155.871 Y1.622 Z-5.052
G1 X-155.862 Y1.841 Z-5.06
G1 X-155.838 Y2.059 Z-5.067
G1 X-155.798 Y2.275 Z-5.075
G1 X-155.742 Y2.487 Z-5.083
G1 X-155.671 Y2.695 Z-5.09
G1 X-155.584 Y2.897 Z-5.098
G1 X-155.484 Y3.092 Z-5.106
G1 X-155.369 Y3.28 Z-5.113
G1 X-155.242 Y3.458 Z-5.121
G1 X-155.101 Y3.627 Z-5.129
G1 X-154.949 Y3.785 Z-5.136
G1 X-154.785 Y3.932 Z-5.144
G1 X-154.612 Y4.066 Z-5.152
G1 X-154.429 Y4.187 Z-5.159
G1 X-154.237 Y4.295 Z-5.167
G1 X-154.039 Y4.389 Z-5.175
G1 X-153.834 Y4.467 Z-5.182
G1 X-153.624 Y4.531 Z-5.19
G1 X-153.409 Y4.579 Z-5.198
G1 X-153.192 Y4.612 Z-5.205
G1 X-152.973 Y4.628 Z-5.213
G1 X-152.754 Y4.629 Z-5.221
G1 X-152.535 Y4.614 Z-5.228
G1 X-152.317 Y4.583 Z-5.236
G1 X-152.103 Y4.536 Z-5.244
G1 X-151.892 Y4.473 Z-5.251
G1 X-151.687 Y4.396 Z-5.259
G1 X-151.488 Y4.303 Z-5.267
G1 X-151.296 Y4.197 Z-5.274
G1 X-151.112 Y4.077 Z-5.282
G1 X-150.937 Y3.943 Z-5.29
G1 X-150.773 Y3.798 Z-5.297
G1 X-150.62 Y3.64 Z-5.305
G1 X-150.478 Y3.473 Z-5.313
G1 X-150.35 Y3.295 Z-5.32
G1 X-150.234 Y3.108 Z-5.328
G1 X-150.132 Y2.913 Z-5.336
G1 X-150.045 Y2.712 Z-5.343
G1 X-149.973 Y2.505 Z-5.351
G1 X-149.915 Y2.293 Z-5.359
G1 X-149.874 Y2.077 Z-5.366
G1 X-149.848 Y1.859 Z-5.374
G1 X-149.838 Y1.64 Z-5.382
G1 X-149.844 Y1.42 Z-5.389
G1 X-149.867 Y1.202 Z-5.397
G1 X-149.905 Y0.985 Z-5.405
G1 X-149.958 Y0.772 Z-5.412
G1 X-150.027 Y0.564 Z-5.42
G1 X-150.111 Y0.361 Z-5.428
G1 X-150.209 Y0.165 Z-5.435
G1 X-150.322 Y-0.024 Z-5.443
G1 X-150.448 Y-0.204 Z-5.451
G1 X-150.586 Y-0.374 Z-5.458
G1 X-150.737 Y-0.534 Z-5.466
G1 X-150.899 Y-0.682 Z-5.474
G1 X-151.071 Y-0.818 Z-5.481
G1 X-151.253 Y-0.941 Z-5.489
G1 X-151.443 Y-1.051 Z-5.497
G1 X-151.641 Y-1.147 Z-5.504
G1 X-151.845 Y-1.228 Z-5.512
G1 X-152.054 Y-1.294 Z-5.52
G1 X-152.268 Y-1.344 Z-5.527
G1 X-152.485 Y-1.379 Z-5.535
G1 X-152.704 Y-1.398 Z-5.543
G1 X-152.923 Y-1.401 Z-5.55
G1 X-153.142 Y-1.388 Z-5.558
G1 X-153.36 Y-1.359 Z-5.566
G1 X-153.575 Y-1.314 Z-5.573
G1 X-153.786 Y-1.254 Z-5.581
G1 X-153.992 Y-1.179 Z-5.589
G1 X-154.193 Y-1.089 Z-5.596
G1 X-154.386 Y-0.984 Z-5.604
G1 X-154.571 Y-0.866 Z-5.612
G1 X-154.747 Y-0.734 Z-5.619
G1 X-154.912 Y-0.591 Z-5.627
G1 X-155.067 Y-0.435 Z-5.635
G1 X-155.211 Y-0.269 Z-5.642
G1 X-155.341 Y-0.092 Z-5.65
G1 X-155.459 Y0.093 Z-5.658
G1 X-155.563 Y0.287 Z-5.665
G1 X-155.652 Y0.487 Z-5.673
G1 X-155.727 Y0.694 Z-5.681
G1 X-155.786 Y0.905 Z-5.688
G1 X-155.83 Y1.12 Z-5.696
G1 X-155.858 Y1.338 Z-5.704
G1 X-155.87 Y1.557 Z-5.711
G1 X-155.866 Y1.777 Z-5.719
G1 X-155.847 Y1.996 Z-5.727
G1 X-155.811 Y2.212 Z-5.734
G1 X-155.76 Y2.426 Z-5.742
G1 X-155.693 Y2.635 Z-5.75
G1 X-155.611 Y2.839 Z-5.758
G1 X-155.515 Y3.036 Z-5.765
G1 X-155.404 Y3.226 Z-5.773
G1 X-155.28 Y3.407 Z-5.781
G1 X-155.143 Y3.579 Z-5.788
G1 X-154.995 Y3.74 Z-5.796
G1 X-154.834 Y3.89 Z-5.804
G1 X-154.663 Y4.028 Z-5.811
G1 X-154.483 Y4.153 Z-5.819
G1 X-154.294 Y4.265 Z-5.827
G1 X-154.097 Y4.363 Z-5.834
G1 X-153.894 Y4.446 Z-5.842
G1 X-153.685 Y4.514 Z-5.85
G1 X-153.472 Y4.567 Z-5.857
G1 X-153.256 Y4.604 Z-5.865
G1 X-153.037 Y4.625 Z-5.873
G1 X-152.818 Y4.631 Z-5.88
G1 X-152.599 Y4.62 Z-5.888
G1 X-152.381 Y4.593 Z-5.896
G1 X-152.165 Y4.551 Z-5.903
G1 X-151.953 Y4.493 Z-5.911
G1 X-151.746 Y4.42 Z-5.919
G1 X-151.545 Y4.332 Z-5.926
G1 X-151.351 Y4.229 Z-5.934
G1 X-151.165 Y4.113 Z-5.942
G1 X-150.987 Y3.983 Z-5.949
G1 X-150.82 Y3.841 Z-5.957
G1 X-150.663 Y3.687 Z-5.965
G1 X-150.518 Y3.523 Z-5.972
G1 X-150.386 Y3.348 Z-5.98
G1 X-150.266 Y3.163 Z-5.988
G1 X-150.16 Y2.971 Z-5.995
G1 X-150.069 Y2.771 Z-6.003
G1 X-149.992 Y2.566 Z-6.011
G1 X-149.931 Y2.355 Z-6.018
G1 X-149.884 Y2.14 Z-6.026
G1 X-149.854 Y1.923 Z-6.034
G1 X-149.84 Y1.704 Z-6.041
G1 X-149.841 Y1.484 Z-6.049
G1 X-149.859 Y1.265 Z-6.057
G1 X-149.892 Y1.048 Z-6.064
G1 X-149.941 Y0.834 Z-6.072
G1 X-150.005 Y0.624 Z-6.08
G1 X-150.085 Y0.42 Z-6.087
G1 X-150.179 Y0.221 Z-6.095
G1 X-150.288 Y0.03 Z-6.103
G1 X-150.41 Y-0.152 Z-6.11
G1 X-150.545 Y-0.325 Z-6.118
G1 X-150.692 Y-0.488 Z-6.126
G1 X-150.851 Y-0.64 Z-6.133
G1 X-151.02 Y-0.78 Z-6.141
G1 X-151.199 Y-0.907 Z-6.149
G1 X-151.387 Y-1.021 Z-6.156
G1 X-151.582 Y-1.12 Z-6.164
G1 X-151.785 Y-1.206 Z-6.172
G1 X-151.993 Y-1.276 Z-6.179
G1 X-152.205 Y-1.331 Z-6.187
G1 X-152.421 Y-1.37 Z-6.195
G1 X-152.64 Y-1.394 Z-6.202
G1 X-152.859 Y-1.402 Z-6.21
G1 X-153.078 Y-1.393 Z-6.218
G1 X-153.297 Y-1.369 Z-6.225
G1 X-153.513 Y-1.329 Z-6.233
G1 X-153.725 Y-1.273 Z-6.241
G1 X-153.933 Y-1.202 Z-6.248
G1 X-154.135 Y-1.116 Z-6.256
G1 X-154.33 Y-1.016 Z-6.264
G1 X-154.518 Y-0.902 Z-6.271
G1 X-154.696 Y-0.774 Z-6.279
G1 X-154.865 Y-0.634 Z-6.287
G1 X-155.023 Y-0.482 Z-6.294
G1 X-155.17 Y-0.318 Z-6.302
G1 X-155.305 Y-0.145 Z-6.31
G1 X-155.426 Y0.038 Z-6.317
G1 X-155.534 Y0.23 Z-6.325
G1 X-155.628 Y0.428 Z-6.333
G1 X-155.707 Y0.633 Z-6.34
G1 X-155.77 Y0.843 Z-6.348
G1 X-155.819 Y1.057 Z-6.356
G1 X-155.851 Y1.274 Z-6.363
G1 X-155.868 Y1.493 Z-6.371
G1 X-155.869 Y1.713 Z-6.379
G1 X-155.854 Y1.932 Z-6.386
G1 X-155.823 Y2.149 Z-6.394
G1 X-155.776 Y2.364 Z-6.402
G1 X-155.714 Y2.574 Z-6.409
G1 X-155.637 Y2.78 Z-6.417
G1 X-155.544 Y2.979 Z-6.425
G1 X-155.438 Y3.171 Z-6.432
G1 X-155.318 Y3.355 Z-6.44
G1 X-155.185 Y3.53 Z-6.448
G1 X-155.039 Y3.694 Z-6.455
G1 X-154.882 Y3.848 Z-6.463
G1 X-154.714 Y3.989 Z-6.471
G1 X-154.537 Y4.118 Z-6.478
G1 X-154.35 Y4.234 Z-6.486
G1 X-154.156 Y4.336 Z-6.494
G1 X-153.954 Y4.423 Z-6.501
G1 X-153.747 Y4.496 Z-6.509
G1 X-153.535 Y4.553 Z-6.517
G1 X-153.319 Y4.595 Z-6.524
G1 X-153.101 Y4.621 Z-6.532
G1 X-152.882 Y4.631 Z-6.54
G1 X-152.662 Y4.625 Z-6.547
G1 X-152.444 Y4.603 Z-6.555
G1 X-152.228 Y4.565 Z-6.563
G1 X-152.015 Y4.512 Z-6.57
G1 X-151.806 Y4.443 Z-6.578
G1 X-151.603 Y4.359 Z-6.586
G1 X-151.407 Y4.261 Z-6.593
G1 X-151.218 Y4.148 Z-6.601
G1 X-151.038 Y4.023 Z-6.609
G1 X-150.868 Y3.884 Z-6.616
G1 X-150.708 Y3.734 Z-6.624
G1 X-150.559 Y3.572 Z-6.632
G1 X-150.423 Y3.4 Z-6.639
G1 X-150.3 Y3.218 Z-6.647
G1 X-150.19 Y3.028 Z-6.655
G1 X-150.094 Y2.83 Z-6.662
G1 X-150.013 Y2.626 Z-6.67
G1 X-149.947 Y2.417 Z-6.678
G1 X-149.896 Y2.203 Z-6.686
G1 X-149.861 Y1.987 Z-6.693
G1 X-149.842 Y1.768 Z-6.701
G1 X-149.839 Y1.548 Z-6.709
G1 X-149.852 Y1.329 Z-6.716
G1 X-149.88 Y1.111 Z-6.724
G1 X-149.925 Y0.896 Z-6.732
G1 X-149.985 Y0.685 Z-6.739
G1 X-150.06 Y0.479 Z-6.747
G1 X-150.15 Y0.279 Z-6.755
G1 X-150.255 Y0.085 Z-6.762
G1 X-150.373 Y-0.1 Z-6.77
G1 X-150.504 Y-0.276 Z-6.778
G1 X-150.648 Y-0.442 Z-6.785
G1 X-150.803 Y-0.597 Z-6.793
G1 X-150.97 Y-0.74 Z-6.801
G1 X-151.146 Y-0.871 Z-6.808
G1 X-151.331 Y-0.989 Z-6.816
G1 X-151.525 Y-1.093 Z-6.824
G1 X-151.725 Y-1.182 Z-6.831
G1 X-151.932 Y-1.257 Z-6.839
G1 X-152.143 Y-1.317 Z-6.847
G1 X-152.358 Y-1.361 Z-6.854
G1 X-152.576 Y-1.389 Z-6.862
G1 X-152.795 Y-1.401 Z-6.87
G1 X-153.015 Y-1.397 Z-6.877
G1 X-153.233 Y-1.378 Z-6.885
G1 X-153.45 Y-1.342 Z-6.893
G1 X-153.663 Y-1.291 Z-6.9
G1 X-153.873 Y-1.225 Z-6.908
G1 X-154.077 Y-1.143 Z-6.916
G1 X-154.274 Y-1.047 Z-6.923
G1 X-154.464 Y-0.937 Z-6.931
G1 X-154.645 Y-0.813 Z-6.939
G1 X-154.817 Y-0.676 Z-6.946
G1 X-154.978 Y-0.527 Z-6.954
G1 X-155.129 Y-0.367 Z-6.962
G1 X-155.267 Y-0.196 Z-6.969
G1 X-155.392 Y-0.016 Z-6.977
G1 X-155.504 Y0.173 Z-6.985
G1 X-155.602 Y0.369 Z-6.992
G1 X-155.685 Y0.573 Z-7
G1 X-155.753 Y0.781 Z-7.008
G1 X-155.806 Y0.994 Z-7.015
G1 X-155.844 Y1.211 Z-7.023
G1 X-155.865 Y1.429 Z-7.031
G1 X-155.871 Y1.649 Z-7.038
G1 X-155.86 Y1.868 Z-7.046
G1 X-155.834 Y2.086 Z-7.054
G1 X-155.791 Y2.302 Z-7.061
G1 X-155.734 Y2.513 Z-7.069
G1 X-155.661 Y2.721 Z-7.077
G1 X-155.573 Y2.922 Z-7.084
G1 X-155.47 Y3.116 Z-7.092
G1 X-155.354 Y3.302 Z-7.1
G1 X-155.225 Y3.48 Z-7.107
G1 X-155.083 Y3.647 Z-7.115
G1 X-154.929 Y3.804 Z-7.123
G1 X-154.764 Y3.949 Z-7.13
G1 X-154.589 Y4.082 Z-7.138
G1 X-154.405 Y4.202 Z-7.146
G1 X-154.213 Y4.308 Z-7.153
G1 X-154.014 Y4.399 Z-7.161
G1 X-153.808 Y4.476 Z-7.169
G1 X-153.597 Y4.538 Z-7.176
G1 X-153.383 Y4.584 Z-7.184
G1 X-153.165 Y4.615 Z-7.192
G1 X-152.946 Y4.629 Z-7.199
G1 X-152.726 Y4.628 Z-7.207
G1 X-152.508 Y4.611 Z-7.215
G1 X-152.29 Y4.578 Z-7.222
G1 X-152.076 Y4.529 Z-7.23
G1 X-151.866 Y4.464 Z-7.238
G1 X-151.662 Y4.385 Z-7.245
G1 X-151.463 Y4.291 Z-7.253
G1 X-151.272 Y4.183 Z-7.261
G1 X-151.09 Y4.061 Z-7.268
G1 X-150.916 Y3.926 Z-7.276
G1 X-150.753 Y3.779 Z-7.284
G1 X-150.602 Y3.62 Z-7.291
G1 X-150.462 Y3.451 Z-7.299
G1 X-150.334 Y3.272 Z-7.307
G1 X-150.221 Y3.084 Z-7.314
G1 X-150.121 Y2.889 Z-7.322
G1 X-150.035 Y2.686 Z-7.33
G1 X-149.965 Y2.479 Z-7.337
G1 X-149.909 Y2.266 Z-7.345
G1 X-149.87 Y2.05 Z-7.353
G1 X-149.846 Y1.832 Z-7.36
G1 X-149.838 Y1.612 Z-7.368
G1 X-149.846 Y1.393 Z-7.376
G1 X-149.87 Y1.175 Z-7.383
G1 X-149.91 Y0.959 Z-7.391
G1 X-149.966 Y0.746 Z-7.399
G1 X-150.037 Y0.538 Z-7.406
G1 X-150.122 Y0.336 Z-7.414
G1 X-150.223 Y0.141 Z-7.422
G1 X-150.337 Y-0.047 Z-7.429
G1 X-150.464 Y-0.225 Z-7.437
G1 X-150.605 Y-0.394 Z-7.445
G1 X-150.757 Y-0.553 Z-7.452
G1 X-150.92 Y-0.7 Z-7.46
G1 X-151.093 Y-0.834 Z-7.468
G1 X-151.276 Y-0.956 Z-7.475
G1 X-151.467 Y-1.064 Z-7.483
G1 X-151.666 Y-1.158 Z-7.491
G1 X-151.871 Y-1.237 Z-7.498
G1 X-152.081 Y-1.301 Z-7.506
G1 X-152.295 Y-1.349 Z-7.514
G1 X-152.512 Y-1.382 Z-7.521
G1 X-152.731 Y-1.399 Z-7.529
G1 X-152.95 Y-1.4 Z-7.537
G1 X-153.17 Y-1.385 Z-7.544
G1 X-153.387 Y-1.354 Z-7.552
G1 X-153.602 Y-1.308 Z-7.56
G1 X-153.812 Y-1.246 Z-7.567
G1 X-154.018 Y-1.168 Z-7.575
G1 X-154.217 Y-1.076 Z-7.583
G1 X-154.409 Y-0.97 Z-7.59
G1 X-154.593 Y-0.85 Z-7.598
G1 X-154.768 Y-0.717 Z-7.606
G1 X-154.932 Y-0.572 Z-7.614
G1 X-155.086 Y-0.415 Z-7.621
G1 X-155.228 Y-0.247 Z-7.629
G1 X-155.357 Y-0.07 Z-7.637
G1 X-155.473 Y0.117 Z-7.644
G1 X-155.575 Y0.311 Z-7.652
G1 X-155.662 Y0.513 Z-7.66
G1 X-155.735 Y0.72 Z-7.667
G1 X-155.792 Y0.932 Z-7.675
G1 X-155.834 Y1.147 Z-7.683
G1 X-155.86 Y1.365 Z-7.69
G1 X-155.871 Y1.585 Z-7.698
G1 X-155.865 Y1.804 Z-7.706
G1 X-155.843 Y2.023 Z-7.713
G1 X-155.805 Y2.239 Z-7.721
G1 X-155.752 Y2.452 Z-7.729
G1 X-155.684 Y2.661 Z-7.736
G1 X-155.6 Y2.864 Z-7.744
G1 X-155.502 Y3.06 Z-7.752
G1 X-155.39 Y3.249 Z-7.759
G1 X-155.264 Y3.429 Z-7.767
G1 X-155.126 Y3.599 Z-7.775
G1 X-154.975 Y3.759 Z-7.782
G1 X-154.814 Y3.908 Z-7.79
G1 X-154.641 Y4.044 Z-7.798
G1 X-154.46 Y4.168 Z-7.805
G1 X-154.27 Y4.278 Z-7.813
G1 X-154.072 Y4.374 Z-7.821
G1 X-153.868 Y4.455 Z-7.828
G1 X-153.659 Y4.522 Z-7.836
G1 X-153.446 Y4.572 Z-7.844
G1 X-153.229 Y4.608 Z-7.851
G1 X-153.01 Y4.627 Z-7.859
G1 X-152.791 Y4.63 Z-7.867
G1 X-152.571 Y4.617 Z-7.874
G1 X-152.354 Y4.589 Z-7.882
G1 X-152.139 Y4.545 Z-7.89
G1 X-151.927 Y4.485 Z-7.897
G1 X-151.721 Y4.41 Z-7.905
G1 X-151.521 Y4.32 Z-7.913
G1 X-151.327 Y4.216 Z-7.92
G1 X-151.142 Y4.098 Z-7.928
G1 X-150.966 Y3.966 Z-7.936
G1 X-150.8 Y3.823 Z-7.943
G1 X-150.645 Y3.668 Z-7.951
G1 X-150.501 Y3.501 Z-7.959
G1 X-150.37 Y3.325 Z-7.966
G1 X-150.252 Y3.14 Z-7.974
G1 X-150.148 Y2.947 Z-7.982
G1 X-150.059 Y2.746 Z-7.989
G1 X-149.984 Y2.54 Z-7.997
G1 X-149.924 Y2.328 Z-8.005
G1 X-149.88 Y2.113 Z-8.012
G1 X-149.851 Y1.896 Z-8.02
G1 X-149.839 Y1.676 Z-8.028
G1 X-149.842 Y1.457 Z-8.035
G1 X-149.862 Y1.238 Z-8.043
G1 X-149.897 Y1.021 Z-8.051
G1 X-149.948 Y0.808 Z-8.058
G1 X-150.014 Y0.599 Z-8.066
G1 X-150.096 Y0.395 Z-8.074
G1 X-150.192 Y0.197 Z-8.081
G1 X-150.302 Y0.007 Z-8.089
G1 X-150.426 Y-0.174 Z-8.097
G1 X-150.562 Y-0.346 Z-8.104
G1 X-150.711 Y-0.508 Z-8.112
G1 X-150.871 Y-0.658 Z-8.12
G1 X-151.042 Y-0.796 Z-8.127
G1 X-151.222 Y-0.922 Z-8.135
G1 X-151.411 Y-1.034 Z-8.143
G1 X-151.607 Y-1.132 Z-8.15
G1 X-151.81 Y-1.215 Z-8.158
G1 X-152.019 Y-1.284 Z-8.166
G1 X-152.232 Y-1.337 Z-8.173
G1 X-152.448 Y-1.374 Z-8.181
G1 X-152.667 Y-1.396 Z-8.189
G1 X-152.886 Y-1.402 Z-8.196
G1 X-153.106 Y-1.391 Z-8.204
G1 X-153.324 Y-1.365 Z-8.212
G1 X-153.539 Y-1.323 Z-8.219
G1 X-153.751 Y-1.265 Z-8.227
G1 X-153.958 Y-1.192 Z-8.235
G1 X-154.16 Y-1.105 Z-8.242
G1 X-154.354 Y-1.003 Z-8.25
G1 X-154.54 Y-0.887 Z-8.258
G1 X-154.718 Y-0.757 Z-8.265
G1 X-154.885 Y-0.615 Z-8.273
G1 X-155.042 Y-0.462 Z-8.281
G1 X-155.188 Y-0.297 Z-8.288
G1 X-155.32 Y-0.122 Z-8.296
G1 X-155.44 Y0.062 Z-8.304
G1 X-155.546 Y0.254 Z-8.311
G1 X-155.638 Y0.453 Z-8.319
G1 X-155.715 Y0.659 Z-8.327
G1 X-155.777 Y0.87 Z-8.334
G1 X-155.824 Y1.084 Z-8.342
G1 X-155.854 Y1.302 Z-8.35
G1 X-155.869 Y1.521 Z-8.357
G1 X-155.868 Y1.74 Z-8.365
G1 X-155.851 Y1.959 Z-8.373
G1 X-155.818 Y2.176 Z-8.38
G1 X-155.769 Y2.39 Z-8.388
G1 X-155.705 Y2.6 Z-8.396
G1 X-155.626 Y2.805 Z-8.403
G1 X-155.532 Y3.004 Z-8.411
G1 X-155.424 Y3.195 Z-8.419
G1 X-155.302 Y3.377 Z-8.426
G1 X-155.167 Y3.551 Z-8.434
G1 X-155.02 Y3.714 Z-8.442
G1 X-154.862 Y3.866 Z-8.449
G1 X-154.693 Y4.006 Z-8.457
G1 X-154.514 Y4.133 Z-8.465
G1 X-154.326 Y4.247 Z-8.472
G1 X-154.131 Y4.347 Z-8.48
G1 X-153.929 Y4.433 Z-8.488
G1 X-153.721 Y4.504 Z-8.495
G1 X-153.508 Y4.559 Z-8.503
G1 X-153.292 Y4.599 Z-8.511
G1 X-153.074 Y4.623 Z-8.518
G1 X-152.855 Y4.631 Z-8.526
G1 X-152.635 Y4.623 Z-8.534
G1 X-152.417 Y4.599 Z-8.541
G1 X-152.201 Y4.559 Z-8.549
G1 X-151.988 Y4.504 Z-8.557
G1 X-151.781 Y4.433 Z-8.565
G1 X-151.578 Y4.348 Z-8.572
G1 X-151.383 Y4.247 Z-8.58
G1 X-151.195 Y4.133 Z-8.588
G1 X-151.016 Y4.006 Z-8.595
G1 X-150.847 Y3.866 Z-8.603
G1 X-150.689 Y3.714 Z-8.611
G1 X-150.542 Y3.551 Z-8.618
G1 X-150.407 Y3.378 Z-8.626
G1 X-150.285 Y3.195 Z-8.634
G1 X-150.177 Y3.004 Z-8.641
G1 X-150.083 Y2.805 Z-8.649
G1 X-150.004 Y2.601 Z-8.657
G1 X-149.94 Y2.391 Z-8.664
G1 X-149.891 Y2.176 Z-8.672
G1 X-149.858 Y1.959 Z-8.68
G1 X-149.841 Y1.74 Z-8.687
G1 X-149.84 Y1.521 Z-8.695
G1 X-149.854 Y1.302 Z-8.703
G1 X-149.885 Y1.084 Z-8.71
G1 X-149.932 Y0.87 Z-8.718
G1 X-149.994 Y0.659 Z-8.726
G1 X-150.071 Y0.454 Z-8.733
G1 X-150.162 Y0.254 Z-8.741
G1 X-150.269 Y0.062 Z-8.749
G1 X-150.388 Y-0.122 Z-8.756
G1 X-150.521 Y-0.297 Z-8.764
G1 X-150.666 Y-0.462 Z-8.772
G1 X-150.823 Y-0.615 Z-8.779
G1 X-150.991 Y-0.757 Z-8.787
G1 X-151.168 Y-0.886 Z-8.795
G1 X-151.355 Y-1.002 Z-8.802
G1 X-151.549 Y-1.105 Z-8.81
G1 X-151.75 Y-1.192 Z-8.818
G1 X-151.958 Y-1.265 Z-8.825
G1 X-152.169 Y-1.323 Z-8.833
G1 X-152.385 Y-1.365 Z-8.841
G1 X-152.603 Y-1.391 Z-8.848
G1 X-152.822 Y-1.402 Z-8.856
G1 X-153.042 Y-1.396 Z-8.864
G1 X-153.26 Y-1.374 Z-8.871
G1 X-153.477 Y-1.337 Z-8.879
G1 X-153.69 Y-1.284 Z-8.887
G1 X-153.898 Y-1.215 Z-8.894
G1 X-154.101 Y-1.132 Z-8.902
G1 X-154.298 Y-1.034 Z-8.91
G1 X-154.487 Y-0.922 Z-8.917
G1 X-154.667 Y-0.796 Z-8.925
G1 X-154.838 Y-0.658 Z-8.933
G1 X-154.998 Y-0.508 Z-8.94
G1 X-155.146 Y-0.346 Z-8.948
G1 X-155.283 Y-0.174 Z-8.956
G1 X-155.407 Y0.007 Z-8.963
G1 X-155.517 Y0.197 Z-8.971
G1 X-155.613 Y0.394 Z-8.979
G1 X-155.694 Y0.598 Z-8.986
G1 X-155.761 Y0.808 Z-8.994
G1 X-155.812 Y1.021 Z-9.002
G1 X-155.847 Y1.238 Z-9.009
G1 X-155.867 Y1.457 Z-9.017
G1 X-155.938 Y2.828
G2 X-155.631 Y3.17 I0.325 J0.017
G1 X-130.415 Y4.53
G2 X-130.181 Y4.447 I0.017 J-0.324
G2 X-130.074 Y4.223 I-0.217 J-0.241
G1 X-129.926 Y1.475
G2 X-130.232 Y1.134 I-0.324 J-0.017
G1 X-155.454 Y-0.226
G2 X-155.688 Y-0.144 I-0.017 J0.323
G2 X-155.794 Y0.08 I0.217 J0.241
G1 X-155.867 Y1.457
G3 X-157.406 Y3.819 I-2.808 J-0.147
G2 X-158.05 Y5.779 I0.658 J1.302
G2 X-156.826 Y6.578 I1.302 J-0.658
G1 X-129.207 Y8.067
G3 X-126.46 Y9.534 I-0.198 J3.678
G2 X-126.016 Y9.597 I0.254 J-0.19
G2 X-125.892 Y9.385 I-0.19 J-0.254
G2 X-125.956 Y9.148 I-0.314 J-0.042
G3 X-126.734 Y6.68 I2.9 J-2.27
G1 X-126.341 Y-0.608
G3 X-125.302 Y-2.979 I3.678 J0.198
G2 X-125.308 Y-3.427 I-0.227 J-0.221
G2 X-125.537 Y-3.516 I-0.221 J0.227
G2 X-125.761 Y-3.416 I0.007 J0.317
G3 X-128.649 Y-2.253 I-2.69 J-2.515
G1 X-158.741 Y-3.876
G2 X-158.97 Y-3.796 I-0.017 J0.317
G2 X-159.075 Y-3.576 I0.212 J0.236
G1 X-159.583 Y6.112
G2 X-159.283 Y6.445 I0.317 J0.016
G1 X-156.826 Y6.578
G0 Z11.176

(DRILL2)
G0 X-142.219 Y-70.228
G0 Z6.096
G1 Z-13.984 F508.
G0 Z6.096
G0 X-72.017 Y-76.609
G1 Z-13.984 F508.
G0 Z6.096
G0 X7.398 Y-83.787
G1 Z-13.984 F508.
G0 Z6.096
G0 X80.902 Y-90.526
G1 Z-13.984 F508.
G0 Z6.096

(DRILL1)
G0 X159.988 Y-97.675
G0 Z6.096
G1 Z-19.05 F508.
G0 Z6.096
G0 X247.558 Y-105.639
G1 Z-19.05 F508.
G0 Z6.096

G0 Z11.176
M5
M30
