(1001)
(T1  D=6.35 CR=0 - ZMIN=-12.7 - FLAT END MILL)
G0 G40 G90 G17
G21

(2D CONTOUR2)
T1 M6
M3 S5000
G0 X-0.675 Y3.103
G0 Z6.096
G1 Z4.191 F508.
G1 Z-7.484
G1 X-13.57 Y0.299
G3 X-13.829 Y0.231 I0.675 J-3.103
G1 X-15.436 Y-0.263
G1 X-28.138 Y-4.169
G3 X-28.378 Y-4.254 I0.933 J-3.035
G1 X-29.953 Y-4.88
G1 X-42.407 Y-9.833
G1 X-42.519 Y-9.88
G1 X-42.629 Y-9.931
G1 X-44.166 Y-10.683
G1 X-56.318 Y-16.627
G1 X-56.421 Y-16.679
G1 X-56.523 Y-16.736
G1 X-58.015 Y-17.606
G1 X-69.811 Y-24.485
G1 X-70 Y-24.604
G1 X-71.44 Y-25.586
G1 X-82.827 Y-33.345
G1 X-82.998 Y-33.47
G1 X-84.38 Y-34.554
G1 X-95.309 Y-43.125
G1 X-95.456 Y-43.248
G1 X-96.778 Y-44.419
G1 X-107.228 Y-53.685
G1 X-107.319 Y-53.768
G1 X-107.406 Y-53.855
G1 X-109.86 Y-56.396
G1 X-129.262 Y-76.49
G3 X-129.443 Y-76.694 I2.284 J-2.205
G1 X-131.631 Y-79.389
G1 X-148.933 Y-100.701
G1 X-149.067 Y-100.878
G1 X-150.975 Y-103.596
G1 X-166.056 Y-125.087
G1 X-166.164 Y-125.253
G1 X-167.786 Y-127.901
G1 X-180.606 Y-148.843
G1 X-180.717 Y-149.039
G1 X-182.089 Y-151.685
G1 X-192.931 Y-172.604
G1 X-192.985 Y-172.713
G1 X-193.035 Y-172.824
G1 X-194.201 Y-175.573
G1 X-203.432 Y-197.304
G1 X-203.476 Y-197.411
G1 X-203.515 Y-197.52
G1 X-204.524 Y-200.476
G1 X-212.508 Y-223.858
G1 X-212.565 Y-224.046
G1 X-213.451 Y-227.283
G1 X-220.456 Y-252.884
G1 X-220.497 Y-253.052
G1 X-221.243 Y-256.507
G1 X-227.147 Y-283.826
G1 X-227.178 Y-283.989
G1 X-227.758 Y-287.565
G1 X-232.341 Y-315.838
G1 X-232.364 Y-316.008
G1 X-232.749 Y-319.607
G1 X-235.792 Y-348.066
G1 X-235.807 Y-348.255
G1 X-235.973 Y-351.797
G1 X-237.288 Y-379.806
G1 X-237.291 Y-380.01
G1 X-237.231 Y-383.481
G1 X-236.757 Y-410.931
G1 X-236.746 Y-411.145
G1 X-236.457 Y-414.549
G1 X-234.167 Y-441.463
G1 X-234.14 Y-441.685
G1 X-233.617 Y-445.024
G1 X-229.482 Y-471.425
G1 X-229.462 Y-471.537
G1 X-229.438 Y-471.649
G1 X-228.681 Y-474.925
G1 X-222.694 Y-500.83
G1 X-222.638 Y-501.041
G1 X-221.658 Y-504.254
G1 X-213.903 Y-529.656
G1 X-213.835 Y-529.854
G1 X-212.643 Y-533
G1 X-203.224 Y-557.883
G1 X-203.148 Y-558.066
G1 X-192.844 Y-580.868
G1 X-192.84 Y-580.878
G1 X-190.74 Y-585.486
G1 X-190.669 Y-585.632
G1 X-188.324 Y-590.147
G1 X-188.319 Y-590.156
G1 X-176.669 Y-612.42
G1 X-176.569 Y-612.598
G1 X-174.808 Y-615.493
G1 X-160.888 Y-638.38
G1 X-160.765 Y-638.567
G1 X-158.818 Y-641.312
G1 X-143.422 Y-663.01
G3 X-143.269 Y-663.209 I2.589 J1.837
G1 X-141.134 Y-665.763
G1 X-124.255 Y-685.953
G3 X-124.068 Y-686.157 I2.436 J2.036
G1 X-121.745 Y-688.489
G1 X-103.377 Y-706.927
G3 X-103.178 Y-707.111 I2.249 J2.241
G1 X-100.668 Y-709.232
G1 X-80.826 Y-726.002
G3 X-80.626 Y-726.158 I2.049 J2.425
G1 X-77.933 Y-728.088
G1 X-56.637 Y-743.354
G1 X-56.542 Y-743.419
G1 X-56.445 Y-743.48
G1 X-53.57 Y-745.241
G1 X-30.839 Y-759.165
G1 X-30.658 Y-759.268
G1 X-27.611 Y-760.87
G1 X-3.52 Y-773.533
G1 X-3.33 Y-773.625
G1 X-0.151 Y-775.035
G1 X24.988 Y-786.187
G1 X25.092 Y-786.231
G1 X25.198 Y-786.272
G1 X28.464 Y-787.45
G1 X54.286 Y-796.756
G3 X54.527 Y-796.832 I1.076 J2.987
G1 X57.832 Y-797.734
G1 X83.969 Y-804.862
G3 X84.238 Y-804.923 I0.835 J3.063
G1 X87.545 Y-805.522
G1 X113.69 Y-810.255
G3 X113.943 Y-810.291 I0.566 J3.124
G1 X117.243 Y-810.617
G1 X143.335 Y-813.205
G1 X143.55 Y-813.219
G1 X146.844 Y-813.32
G1 X172.883 Y-814.128
G1 X173.054
G1 X176.341 Y-814.052
G1 X202.327 Y-813.445
G1 X202.48 Y-813.438
G1 X205.758 Y-813.203
G1 X231.664 Y-811.343
G1 X231.782 Y-811.332
G1 X231.899 Y-811.317
G1 X235.164 Y-810.837
G1 X260.85 Y-807.064
G1 X260.97 Y-807.044
G1 X261.089 Y-807.02
G1 X262.734 Y-806.648
G1 X275.423 Y-803.78
G1 X275.612 Y-803.731
G1 X277.275 Y-803.246
G1 X289.823 Y-799.586
G1 X290.031 Y-799.517
G1 X291.722 Y-798.895
G1 X300.791 Y-795.56
G3 X302.675 Y-791.484 I-1.096 J2.98
G3 X302.199 Y-790.628 I-2.98 J-1.096
G1 X301.704 Y-789.993
G3 X299.2 Y-788.77 I-2.504 J-1.952
G1 X180.599
G3 X177.485 Y-791.325 I0 J-3.175
G1 X177.424 Y-791.632
G1 Y-779.812
G1 X177.485 Y-780.119
G3 X180.599 Y-782.674 I3.114 J0.62
G1 X326.923
G3 X328.46 Y-782.277 I0 J3.175
G1 X329.607 Y-781.643
G1 X332.082 Y-780.275
G3 X332.303 Y-780.141 I-1.535 J2.779
G1 X334.13 Y-778.928
G1 X345.472 Y-771.414
G3 X345.691 Y-771.255 I-1.754 J2.647
G1 X347.517 Y-769.807
G1 X358.084 Y-761.444
G3 X358.307 Y-761.25 I-1.97 J2.49
G1 X360.079 Y-759.558
G1 X369.638 Y-750.444
G3 X369.866 Y-750.203 I-2.191 J2.298
G1 X371.512 Y-748.267
G1 X379.843 Y-738.493
G3 X380.071 Y-738.191 I-2.416 J2.06
G1 X381.512 Y-736.024
G1 X388.412 Y-725.665
G3 X388.627 Y-725.287 I-2.643 J1.76
G1 X389.775 Y-722.914
G1 X395.044 Y-712.032
G3 X395.225 Y-711.568 I-2.858 J1.384
G1 X395.994 Y-709.027
G1 X399.431 Y-697.67
G3 X399.543 Y-697.143 I-3.039 J0.92
G1 X399.874 Y-694.492
G1 X401.344 Y-682.722
G3 X401.367 Y-682.241 I-3.151 J0.393
G1 X401.293 Y-679.57
G1 Y-679.568
G1 X400.95 Y-667.539
G3 X400.912 Y-667.134 I-3.174 J-0.091
G1 X400.5 Y-664.531
G1 X400.499 Y-664.523
G1 X398.555 Y-652.427
G3 X398.481 Y-652.088 I-3.135 J-0.504
G1 X397.804 Y-649.631
G1 X397.801 Y-649.62
G1 X394.461 Y-637.658
G3 X394.366 Y-637.371 I-3.058 J-0.854
G1 X394.187 Y-636.906
G3 X393.726 Y-636.093 I-2.963 J-1.141
G1 X393.23 Y-635.458
G3 X390.728 Y-634.237 I-2.502 J-1.954
G1 X119.559
G3 X116.445 Y-636.792 I0 J-3.175
G1 X116.384 Y-637.099
G1 Y-625.279
G1 X116.445 Y-625.586
G3 X119.559 Y-628.141 I3.114 J0.62
G1 X385.348
G3 X387.852 Y-626.918 I0 J3.175
G1 X388.347 Y-626.283
G3 X388.692 Y-622.93 I-2.504 J1.952
G1 X387.867 Y-621.252
G1 X387.856 Y-621.23
G1 X382.337 Y-610.22
G3 X382.216 Y-610.001 I-2.838 J-1.423
G1 X381.173 Y-608.275
G1 X381.156 Y-608.246
G1 X374.87 Y-598.087
G3 X374.73 Y-597.88 I-2.7 J-1.671
G1 X373.677 Y-596.445
G1 X373.651 Y-596.41
G1 X366.83 Y-587.373
G3 X366.664 Y-587.171 I-2.534 J-1.913
G1 X365.633 Y-586.017
G1 X365.594 Y-585.974
G1 X358.443 Y-578.259
G3 X358.262 Y-578.079 I-2.329 J-2.158
G1 X357.25 Y-577.149
G1 X357.2 Y-577.104
G1 X349.783 Y-570.576
G1 X349.613 Y-570.436
G1 X348.612 Y-569.671
G1 X348.551 Y-569.626
G1 X340.889 Y-564.056
G1 X340.755 Y-563.964
G1 X339.759 Y-563.315
G1 X339.69 Y-563.271
G1 X331.807 Y-558.42
G1 X331.685 Y-558.349
G1 X329.669 Y-557.229
G1 X329.597 Y-557.19
G1 X313.289 Y-548.671
G1 X311.256 Y-547.567
G1 X311.184 Y-547.529
G1 X294.339 Y-538.935
G1 X292.364 Y-537.675
G1 X292.295 Y-537.632
G1 X275.005 Y-527.209
G1 X273.03 Y-525.689
G1 X272.968 Y-525.643
G1 X255.563 Y-512.916
G1 X254.623 Y-512.087
G1 X254.57 Y-512.041
G1 X245.999 Y-504.803
G1 X245.043 Y-503.876
G1 X244.998 Y-503.833
G1 X236.566 Y-495.976
G1 X235.624 Y-494.972
G1 X235.587 Y-494.933
G1 X227.348 Y-486.441
G1 X226.427 Y-485.357
G1 X226.399 Y-485.325
G1 X222.99 Y-481.424
G1 X222.435 Y-480.789
G3 X220.044 Y-479.703 I-2.391 J-2.089
G1 X1.389
G3 X-1.725 Y-482.259 I0 J-3.175
G1 X-1.786 Y-482.565
G1 Y-470.745
G1 X-1.725 Y-471.051
G3 X1.389 Y-473.607 I3.114 J0.619
G1 X208.894
G3 X211.398 Y-472.384 I0 J3.175
G1 X211.893 Y-471.749
G3 X211.888 Y-467.838 I-2.504 J1.952
G1 X209.81 Y-465.188
G1 X208.954 Y-463.948
G1 X208.942 Y-463.931
G1 X201.657 Y-453.52
G1 X200.853 Y-452.211
G1 X200.847 Y-452.202
G1 X194.057 Y-441.241
G1 X193.318 Y-439.873
G1 X193.317 Y-439.872
G1 X187.118 Y-428.42
G1 X186.458 Y-427.005
G1 X180.947 Y-415.126
G1 X180.378 Y-413.671
G1 X175.652 Y-401.425
G1 X175.185 Y-399.939
G1 X171.336 Y-387.387
G1 X170.985 Y-385.879
G1 X168.106 Y-373.075
G1 X167.874 Y-371.547
G1 X166.021 Y-358.535
G1 X165.896 Y-356.981
G1 X164.984 Y-343.837
G1 X164.952 Y-342.262
G1 X164.857 Y-329.081
G3 X164.188 Y-327.028 I-3.173 J0.101
G1 X163.693 Y-326.393
G3 X161.189 Y-325.17 I-2.504 J-1.952
G1 X-27.638 Y-325.169
G3 X-30.752 Y-327.725 I0 J-3.175
G1 X-30.813 Y-328.032
G1 Y-316.211
G1 X-30.752 Y-316.518
G3 X-27.638 Y-319.074 I3.114 J0.619
G1 X161.794
G3 X164.298 Y-317.851 I0 J3.175
G1 X164.793 Y-317.216
G3 X165.461 Y-315.411 I-2.504 J1.952
G1 X165.51 Y-314.349
G1 X165.624 Y-312.769
G1 X166.802 Y-299.754
G1 X166.967 Y-298.19
G1 X168.597 Y-285.392
G1 X168.799 Y-283.856
G1 X170.755 Y-271.371
G1 X170.758 Y-271.347
G1 X170.98 Y-269.861
G1 X173.137 Y-257.786
G1 X173.148 Y-257.72
G1 X173.485 Y-255.58
G1 X176.836 Y-238.27
G1 X176.861 Y-238.125
G1 X177.16 Y-236.074
G1 X180.279 Y-219.413
G1 X180.299 Y-219.293
G1 X180.314 Y-219.172
G1 X180.534 Y-217.146
G1 X183.018 Y-200.675
G3 X183.049 Y-200.351 I-3.14 J0.473
G1 X183.147 Y-198.287
G1 X184.588 Y-181.543
G3 X184.6 Y-181.239 I-3.163 J0.272
G1 X184.589 Y-180.198
G1 X184.723 Y-174.521
G3 X184.051 Y-172.492 I-3.174 J0.075
G1 X183.555 Y-171.857
G3 X181.053 Y-170.636 I-2.502 J-1.954
G1 X2.269
G3 X-0.845 Y-173.192 I0 J-3.175
G1 X-0.906 Y-173.498
G1 Y-161.678
G1 X-0.845 Y-161.984
G3 X2.269 Y-164.54 I3.114 J0.619
G1 X180.772
G3 X183.276 Y-163.317 I0 J3.175
G1 X183.771 Y-162.682
G3 X184.427 Y-160.42 I-2.504 J1.952
G1 X184.395 Y-160.091
G1 X183.72 Y-150.952
G1 X183.697 Y-150.735
G1 X183.529 Y-149.566
G1 X182.354 Y-140.124
G1 X182.322 Y-139.923
G1 X182.094 Y-138.721
G1 X180.406 Y-129.064
G1 X180.367 Y-128.876
G1 X180.076 Y-127.654
G1 X177.863 Y-117.875
G1 X177.816 Y-117.694
G1 X177.461 Y-116.465
G1 X174.712 Y-106.659
G1 X174.657 Y-106.481
G1 X174.235 Y-105.257
G1 X170.941 Y-95.519
G1 X170.874 Y-95.34
G1 X170.383 Y-94.134
G1 X166.533 Y-84.557
G1 X166.452 Y-84.374
G1 X165.891 Y-83.198
G1 X161.474 Y-73.877
G1 X161.377 Y-73.688
G1 X160.744 Y-72.555
G1 X155.748 Y-63.582
G1 X155.691 Y-63.484
G1 X155.63 Y-63.387
G1 X154.923 Y-62.308
G1 X149.338 Y-53.778
G1 X149.268 Y-53.675
G1 X149.193 Y-53.575
G1 X148.411 Y-52.564
G1 X142.23 Y-44.57
G3 X142.052 Y-44.361 I-2.512 J-1.942
G1 X141.194 Y-43.429
G1 X134.406 Y-36.062
G3 X134.209 Y-35.866 I-2.335 J-2.151
G1 X133.278 Y-35.018
G1 X125.918 Y-28.314
G3 X125.711 Y-28.141 I-2.138 J-2.347
G1 X124.715 Y-27.378
G1 X116.841 Y-21.344
G3 X116.627 Y-21.194 I-1.931 J-2.52
G1 X115.574 Y-20.516
G1 X110.486 Y-17.242
G1 X109.499 Y-16.607
G3 X107.781 Y-16.102 I-1.718 J-2.67
G1 X33.225
G3 X30.111 Y-18.658 I0 J-3.175
G1 X30.05 Y-18.965
G1 Y-7.144
G1 X30.111 Y-7.451
G3 X33.225 Y-10.006 I3.114 J0.619
G1 X79.183
G3 X81.686 Y-8.784 I0 J3.175
G1 X82.181 Y-8.149
G3 X81.631 Y-3.693 I-2.503 J1.953
G3 X80.849 Y-3.245 I-1.953 J-2.503
G1 X76.143 Y-1.377
G3 X75.698 Y-1.238 I-1.171 J-2.951
G1 X73.26 Y-0.665
G1 X53.986 Y3.861
G3 X53.535 Y3.933 I-0.726 J-3.091
G1 X51.046 Y4.149
G1 X31.371 Y5.859
G3 X30.991 Y5.87 I-0.275 J-3.163
G1 X29.332 Y5.815
G1 X16.21 Y5.382
G3 X15.917 Y5.359 I0.105 J-3.173
G1 X14.269 Y5.151
G1 X1.233 Y3.505
G3 X0.956 Y3.457 I0.398 J-3.15
G1 X-0.675 Y3.103
G1 Z-12.7
G1 X-8.228 Y1.46
G1 Z-10.16
G1 X-13.57 Y0.299
G3 X-13.829 Y0.231 I0.675 J-3.103
G1 X-15.436 Y-0.263
G1 X-19.292 Y-1.449
G1 Z-12.7
G1 X-28.138 Y-4.169
G3 X-28.378 Y-4.254 I0.933 J-3.035
G1 X-29.953 Y-4.88
G1 X-42.407 Y-9.833
G1 X-42.519 Y-9.88
G1 X-42.629 Y-9.931
G1 X-44.166 Y-10.683
G1 X-56.318 Y-16.627
G1 X-56.421 Y-16.679
G1 X-56.523 Y-16.736
G1 X-58.015 Y-17.606
G1 X-69.811 Y-24.485
G1 X-70 Y-24.604
G1 X-71.44 Y-25.586
G1 X-82.827 Y-33.345
G1 X-82.998 Y-33.47
G1 X-84.38 Y-34.554
G1 X-95.309 Y-43.125
G1 X-95.456 Y-43.248
G1 X-96.778 Y-44.419
G1 X-107.228 Y-53.685
G1 X-107.319 Y-53.768
G1 X-107.406 Y-53.855
G1 X-109.86 Y-56.396
G1 X-125.468 Y-72.56
G1 Z-10.16
G1 X-129.262 Y-76.49
G3 X-129.443 Y-76.694 I2.284 J-2.205
G1 X-131.631 Y-79.389
G1 X-133.045 Y-81.131
G1 Z-12.7
G1 X-148.933 Y-100.701
G1 X-149.067 Y-100.878
G1 X-150.975 Y-103.596
G1 X-166.056 Y-125.087
G1 X-166.164 Y-125.253
G1 X-167.786 Y-127.901
G1 X-180.606 Y-148.843
G1 X-180.717 Y-149.039
G1 X-182.089 Y-151.685
G1 X-192.931 Y-172.604
G1 X-192.985 Y-172.713
G1 X-193.035 Y-172.824
G1 X-194.201 Y-175.573
G1 X-201.282 Y-192.242
G1 Z-10.16
G1 X-203.432 Y-197.304
G1 X-203.476 Y-197.411
G1 X-203.515 Y-197.52
G1 X-204.524 Y-200.476
G1 X-205.361 Y-202.928
G1 Z-12.7
G1 X-212.508 Y-223.858
G1 X-212.565 Y-224.046
G1 X-213.451 Y-227.283
G1 X-220.456 Y-252.884
G1 X-220.497 Y-253.052
G1 X-221.243 Y-256.507
G1 X-227.147 Y-283.826
G1 X-227.178 Y-283.989
G1 X-227.758 Y-287.565
G1 X-232.341 Y-315.838
G1 X-232.364 Y-316.008
G1 X-232.749 Y-319.607
G1 X-235.792 Y-348.066
G1 X-235.807 Y-348.255
G1 X-235.973 Y-351.797
G1 X-237.288 Y-379.806
G1 X-237.291 Y-380.01
G1 X-237.231 Y-383.481
G1 X-236.852 Y-405.419
G1 Z-10.16
G1 X-236.757 Y-410.931
G1 X-236.746 Y-411.145
G1 X-236.457 Y-414.549
G1 X-236.262 Y-416.84
G1 Z-12.7
G1 X-234.167 Y-441.463
G1 X-234.14 Y-441.685
G1 X-233.617 Y-445.024
G1 X-229.482 Y-471.425
G1 X-229.462 Y-471.537
G1 X-229.438 Y-471.649
G1 X-228.681 Y-474.925
G1 X-222.694 Y-500.83
G1 X-222.638 Y-501.041
G1 X-221.658 Y-504.254
G1 X-213.903 Y-529.656
G1 X-213.835 Y-529.854
G1 X-212.643 Y-533
G1 X-203.224 Y-557.883
G1 X-203.148 Y-558.066
G1 X-192.844 Y-580.868
G1 X-192.84 Y-580.878
G1 X-190.74 Y-585.486
G1 X-190.669 Y-585.632
G1 X-188.324 Y-590.147
G1 X-188.319 Y-590.156
G1 X-177.655 Y-610.536
G1 Z-10.16
G1 X-176.669 Y-612.42
G1 X-176.569 Y-612.598
G1 X-174.808 Y-615.493
G1 X-171.838 Y-620.376
G1 Z-12.7
G1 X-160.888 Y-638.38
G1 X-160.765 Y-638.567
G1 X-158.818 Y-641.312
G1 X-143.422 Y-663.01
G3 X-143.269 Y-663.209 I2.589 J1.837
G1 X-141.134 Y-665.763
G1 X-124.255 Y-685.953
G3 X-124.068 Y-686.157 I2.436 J2.036
G1 X-121.745 Y-688.489
G1 X-103.377 Y-706.927
G3 X-103.178 Y-707.111 I2.249 J2.241
G1 X-100.668 Y-709.232
G1 X-85.011 Y-722.465
G1 Z-10.16
G1 X-80.826 Y-726.002
G3 X-80.626 Y-726.158 I2.049 J2.425
G1 X-77.933 Y-728.088
G1 X-75.981 Y-729.487
G1 Z-12.7
G1 X-56.637 Y-743.354
G1 X-56.542 Y-743.419
G1 X-56.445 Y-743.48
G1 X-53.57 Y-745.241
G1 X-30.839 Y-759.165
G1 X-30.658 Y-759.268
G1 X-27.611 Y-760.87
G1 X-3.52 Y-773.533
G1 X-3.33 Y-773.625
G1 X-0.151 Y-775.035
G1 X24.988 Y-786.187
G1 X25.092 Y-786.231
G1 X25.198 Y-786.272
G1 X28.464 Y-787.45
G1 X54.286 Y-796.756
G3 X54.527 Y-796.832 I1.076 J2.987
G1 X57.832 Y-797.734
G1 X81.956 Y-804.313
G1 Z-10.16
G1 X83.969 Y-804.862
G3 X84.238 Y-804.923 I0.835 J3.063
G1 X87.545 Y-805.522
G1 X93.169 Y-806.54
G1 Z-12.7
G1 X113.69 Y-810.255
G3 X113.943 Y-810.291 I0.566 J3.124
G1 X117.243 Y-810.617
G1 X143.335 Y-813.205
G1 X143.55 Y-813.219
G1 X146.844 Y-813.32
G1 X172.883 Y-814.128
G1 X173.054
G1 X176.341 Y-814.052
G1 X202.327 Y-813.445
G1 X202.48 Y-813.438
G1 X205.758 Y-813.203
G1 X231.664 Y-811.343
G1 X231.782 Y-811.332
G1 X231.899 Y-811.317
G1 X235.164 Y-810.837
G1 X260.85 Y-807.064
G1 X260.97 Y-807.044
G1 X261.089 Y-807.02
G1 X262.734 Y-806.648
G1 X275.423 Y-803.78
G1 X275.612 Y-803.731
G1 X277.275 Y-803.246
G1 X289.823 Y-799.586
G1 X290.031 Y-799.517
G1 X291.722 Y-798.895
G1 X300.791 Y-795.56
G3 X302.675 Y-791.484 I-1.096 J2.98
G3 X302.199 Y-790.628 I-2.98 J-1.096
G1 X301.704 Y-789.993
G3 X299.2 Y-788.77 I-2.504 J-1.952
G1 X180.599
G3 X177.485 Y-791.325 I0 J-3.175
G1 X177.424 Y-791.632
G1 Y-779.812
G1 X177.485 Y-780.119
G3 X180.599 Y-782.674 I3.114 J0.62
G1 X326.923
G3 X328.46 Y-782.277 I0 J3.175
G1 X329.607 Y-781.643
G1 X332.082 Y-780.275
G3 X332.303 Y-780.141 I-1.535 J2.779
G1 X334.13 Y-778.928
G1 X345.472 Y-771.414
G3 X345.691 Y-771.255 I-1.754 J2.647
G1 X347.517 Y-769.807
G1 X358.084 Y-761.444
G3 X358.307 Y-761.25 I-1.97 J2.49
G1 X360.079 Y-759.558
G1 X369.638 Y-750.444
G3 X369.866 Y-750.203 I-2.191 J2.298
G1 X371.512 Y-748.267
G1 X376.356 Y-742.584
G1 Z-10.16
G1 X379.843 Y-738.493
G3 X380.071 Y-738.191 I-2.416 J2.06
G1 X381.512 Y-736.024
G1 X383.238 Y-733.433
G1 Z-12.7
G1 X388.412 Y-725.665
G3 X388.627 Y-725.287 I-2.643 J1.76
G1 X389.775 Y-722.914
G1 X395.044 Y-712.032
G3 X395.225 Y-711.568 I-2.858 J1.384
G1 X395.994 Y-709.027
G1 X399.431 Y-697.67
G3 X399.543 Y-697.143 I-3.039 J0.92
G1 X399.874 Y-694.492
G1 X401.344 Y-682.722
G3 X401.367 Y-682.241 I-3.151 J0.393
G1 X401.293 Y-679.57
G1 Y-679.568
G1 X400.95 Y-667.539
G3 X400.912 Y-667.134 I-3.174 J-0.091
G1 X400.5 Y-664.531
G1 X400.499 Y-664.523
G1 X398.555 Y-652.427
G3 X398.481 Y-652.088 I-3.135 J-0.504
G1 X397.804 Y-649.631
G1 X397.801 Y-649.62
G1 X394.461 Y-637.658
G3 X394.366 Y-637.371 I-3.058 J-0.854
G1 X394.187 Y-636.906
G3 X393.726 Y-636.093 I-2.963 J-1.141
G1 X393.23 Y-635.458
G3 X390.728 Y-634.237 I-2.502 J-1.954
G1 X119.559
G3 X116.445 Y-636.792 I0 J-3.175
G1 X116.384 Y-637.099
G1 Y-625.279
G1 X116.445 Y-625.586
G3 X119.559 Y-628.141 I3.114 J0.62
G1 X385.348
G3 X387.852 Y-626.918 I0 J3.175
G1 X388.347 Y-626.283
G3 X388.692 Y-622.93 I-2.504 J1.952
G1 X387.867 Y-621.252
G1 X387.856 Y-621.23
G1 X382.337 Y-610.22
G3 X382.216 Y-610.001 I-2.838 J-1.423
G1 X381.173 Y-608.275
G1 X381.156 Y-608.246
G1 X374.87 Y-598.087
G3 X374.73 Y-597.88 I-2.7 J-1.671
G1 X373.677 Y-596.445
G1 X373.651 Y-596.41
G1 X366.83 Y-587.373
G3 X366.664 Y-587.171 I-2.534 J-1.913
G1 X365.633 Y-586.017
G1 X365.594 Y-585.974
G1 X362.167 Y-582.276
G1 Z-10.16
G1 X358.443 Y-578.259
G3 X358.262 Y-578.079 I-2.329 J-2.158
G1 X357.25 Y-577.149
G1 X357.2 Y-577.104
G1 X353.992 Y-574.28
G1 Z-12.7
G1 X349.783 Y-570.576
G1 X349.613 Y-570.436
G1 X348.612 Y-569.671
G1 X348.551 Y-569.626
G1 X340.889 Y-564.056
G1 X340.755 Y-563.964
G1 X339.759 Y-563.315
G1 X339.69 Y-563.271
G1 X331.807 Y-558.42
G1 X331.685 Y-558.349
G1 X329.669 Y-557.229
G1 X329.597 Y-557.19
G1 X313.289 Y-548.671
G1 X311.256 Y-547.567
G1 X311.184 Y-547.529
G1 X294.339 Y-538.935
G1 X292.364 Y-537.675
G1 X292.295 Y-537.632
G1 X275.005 Y-527.209
G1 X273.03 Y-525.689
G1 X272.968 Y-525.643
G1 X255.563 Y-512.916
G1 X254.623 Y-512.087
G1 X254.57 Y-512.041
G1 X245.999 Y-504.803
G1 X245.043 Y-503.876
G1 X244.998 Y-503.833
G1 X236.566 Y-495.976
G1 X235.624 Y-494.972
G1 X235.587 Y-494.933
G1 X227.348 Y-486.441
G1 X226.427 Y-485.357
G1 X226.399 Y-485.325
G1 X222.99 Y-481.424
G1 X222.435 Y-480.789
G3 X220.044 Y-479.703 I-2.391 J-2.089
G1 X1.389
G3 X-1.725 Y-482.259 I0 J-3.175
G1 X-1.786 Y-482.565
G1 Y-470.745
G1 X-1.725 Y-471.051
G3 X1.389 Y-473.607 I3.114 J0.619
G1 X208.894
G3 X211.398 Y-472.384 I0 J3.175
G1 X211.893 Y-471.749
G3 X211.888 Y-467.838 I-2.504 J1.952
G1 X209.81 Y-465.188
G1 X208.954 Y-463.948
G1 X208.942 Y-463.931
G1 X201.657 Y-453.52
G1 X200.853 Y-452.211
G1 X200.847 Y-452.202
G1 X194.057 Y-441.241
G1 X193.318 Y-439.873
G1 X193.317 Y-439.872
G1 X189.889 Y-433.538
G1 Z-10.16
G1 X187.118 Y-428.42
G1 X186.458 Y-427.005
G1 X184.75 Y-423.323
G1 Z-12.7
G1 X180.947 Y-415.126
G1 X180.378 Y-413.671
G1 X175.652 Y-401.425
G1 X175.185 Y-399.939
G1 X171.336 Y-387.387
G1 X170.985 Y-385.879
G1 X168.106 Y-373.075
G1 X167.874 Y-371.547
G1 X166.021 Y-358.535
G1 X165.896 Y-356.981
G1 X164.984 Y-343.837
G1 X164.952 Y-342.262
G1 X164.857 Y-329.081
G3 X164.188 Y-327.028 I-3.173 J0.101
G1 X163.693 Y-326.393
G3 X161.189 Y-325.17 I-2.504 J-1.952
G1 X-27.638 Y-325.169
G3 X-30.752 Y-327.725 I0 J-3.175
G1 X-30.813 Y-328.032
G1 Y-316.211
G1 X-30.752 Y-316.518
G3 X-27.638 Y-319.074 I3.114 J0.619
G1 X161.794
G3 X164.298 Y-317.851 I0 J3.175
G1 X164.793 Y-317.216
G3 X165.461 Y-315.411 I-2.504 J1.952
G1 X165.51 Y-314.349
G1 X165.624 Y-312.769
G1 X166.802 Y-299.754
G1 X166.967 Y-298.19
G1 X168.597 Y-285.392
G1 X168.799 Y-283.856
G1 X170.755 Y-271.371
G1 X170.758 Y-271.347
G1 X170.98 Y-269.861
G1 X172.515 Y-261.271
G1 Z-10.16
G1 X173.137 Y-257.786
G1 X173.148 Y-257.72
G1 X173.485 Y-255.58
G1 X174.56 Y-250.025
G1 Z-12.7
G1 X176.836 Y-238.27
G1 X176.861 Y-238.125
G1 X177.16 Y-236.074
G1 X180.279 Y-219.413
G1 X180.299 Y-219.293
G1 X180.314 Y-219.172
G1 X180.534 Y-217.146
G1 X183.018 Y-200.675
G3 X183.049 Y-200.351 I-3.14 J0.473
G1 X183.147 Y-198.287
G1 X184.588 Y-181.543
G3 X184.6 Y-181.239 I-3.163 J0.272
G1 X184.589 Y-180.198
G1 X184.723 Y-174.521
G3 X184.051 Y-172.492 I-3.174 J0.075
G1 X183.555 Y-171.857
G3 X181.053 Y-170.636 I-2.502 J-1.954
G1 X2.269
G3 X-0.845 Y-173.192 I0 J-3.175
G1 X-0.906 Y-173.498
G1 Y-161.678
G1 X-0.845 Y-161.984
G3 X2.269 Y-164.54 I3.114 J0.619
G1 X180.772
G3 X183.276 Y-163.317 I0 J3.175
G1 X183.771 Y-162.682
G3 X184.427 Y-160.42 I-2.504 J1.952
G1 X184.395 Y-160.091
G1 X183.72 Y-150.952
G1 X183.697 Y-150.735
G1 X183.529 Y-149.566
G1 X182.354 Y-140.124
G1 X182.322 Y-139.923
G1 X182.094 Y-138.721
G1 X180.406 Y-129.064
G1 X180.367 Y-128.876
G1 X180.076 Y-127.654
G1 X177.863 Y-117.875
G1 X177.816 Y-117.694
G1 X177.461 Y-116.465
G1 X174.712 Y-106.659
G1 X174.657 Y-106.481
G1 X174.235 Y-105.257
G1 X170.941 Y-95.519
G1 X170.874 Y-95.34
G1 X170.383 Y-94.134
G1 X168.109 Y-88.477
G1 Z-10.16
G1 X166.533 Y-84.557
G1 X166.452 Y-84.374
G1 X165.891 Y-83.198
G1 X163.446 Y-78.038
G1 Z-12.7
G1 X161.474 Y-73.877
G1 X161.377 Y-73.688
G1 X160.744 Y-72.555
G1 X155.748 Y-63.582
G1 X155.691 Y-63.484
G1 X155.63 Y-63.387
G1 X154.923 Y-62.308
G1 X149.338 Y-53.778
G1 X149.268 Y-53.675
G1 X149.193 Y-53.575
G1 X148.411 Y-52.564
G1 X142.23 Y-44.57
G3 X142.052 Y-44.361 I-2.512 J-1.942
G1 X141.194 Y-43.429
G1 X134.406 Y-36.062
G3 X134.209 Y-35.866 I-2.335 J-2.151
G1 X133.278 Y-35.018
G1 X125.918 Y-28.314
G3 X125.711 Y-28.141 I-2.138 J-2.347
G1 X124.715 Y-27.378
G1 X116.841 Y-21.344
G3 X116.627 Y-21.194 I-1.931 J-2.52
G1 X115.574 Y-20.516
G1 X110.486 Y-17.242
G1 X109.499 Y-16.607
G3 X107.781 Y-16.102 I-1.718 J-2.67
G1 X33.225
G3 X30.111 Y-18.658 I0 J-3.175
G1 X30.05 Y-18.965
G1 Y-7.144
G1 X30.111 Y-7.451
G3 X33.225 Y-10.006 I3.114 J0.619
G1 X79.183
G3 X81.686 Y-8.784 I0 J3.175
G1 X82.181 Y-8.149
G3 X81.631 Y-3.693 I-2.503 J1.953
G3 X80.849 Y-3.245 I-1.953 J-2.503
G1 X76.143 Y-1.377
G3 X75.698 Y-1.238 I-1.171 J-2.951
G1 X73.26 Y-0.665
G1 X53.986 Y3.861
G3 X53.535 Y3.933 I-0.726 J-3.091
G1 X51.046 Y4.149
G1 X31.371 Y5.859
G3 X30.991 Y5.87 I-0.275 J-3.163
G1 X29.332 Y5.815
G1 X16.21 Y5.382
G3 X15.917 Y5.359 I0.105 J-3.173
G1 X14.269 Y5.151
G1 X1.233 Y3.505
G3 X0.956 Y3.457 I0.398 J-3.15
G1 X-0.675 Y3.103
G0 Z6.096

G0 Z6.096
M5
M30
