(1001)
(T1  D=6.35 CR=0 - ZMIN=-12.7 - FLAT END MILL)
G0 G40 G90 G17
G21

(2D CONTOUR2)
T1 M6
M3 S5000
G0 X0.272 Y3.163
G0 Z6.096
G1 Z4.191 F508.
G1 Z-7.484
G3 X-0.104 Y3.173 I-0.272 J-3.163
G1 X-7.799 Y2.922
G1 X-9.838 Y2.855
G3 X-10.129 Y2.833 I0.104 J-3.173
G1 X-17.755 Y1.877
G1 X-17.756
G1 X-19.778 Y1.623
G3 X-20.053 Y1.576 I0.396 J-3.15
G1 X-27.581 Y-0.051
G1 X-27.582 Y-0.052
G1 X-29.58 Y-0.484
G3 X-29.838 Y-0.552 I0.672 J-3.103
G1 X-37.239 Y-2.819
G1 X-37.24
G1 X-39.205 Y-3.422
G3 X-39.445 Y-3.506 I0.931 J-3.035
G1 X-46.691 Y-6.381
G1 X-48.617 Y-7.145
G1 X-48.729 Y-7.192
G1 X-48.839 Y-7.243
G1 X-55.901 Y-10.693
G1 X-57.779 Y-11.611
G1 X-57.882 Y-11.664
G1 X-57.984 Y-11.72
G1 X-64.833 Y-15.713
G1 X-66.655 Y-16.775
G1 X-66.844 Y-16.894
G1 X-73.453 Y-21.397
G1 X-75.21 Y-22.595
G1 X-75.382 Y-22.72
G1 X-81.725 Y-27.695
G1 X-83.412 Y-29.017
G1 X-83.559 Y-29.14
G1 X-89.624 Y-34.518
G1 X-91.237 Y-35.947
G1 X-91.327 Y-36.031
G1 X-91.415 Y-36.118
G1 X-102.675 Y-47.78
G1 X-105.67 Y-50.881
G3 X-105.851 Y-51.085 I2.284 J-2.206
G1 X-115.893 Y-63.455
G1 X-118.563 Y-66.744
G1 X-118.697 Y-66.921
G1 X-127.45 Y-79.394
G1 X-129.778 Y-82.71
G1 X-129.887 Y-82.877
G1 X-137.328 Y-95.031
G1 X-139.306 Y-98.264
G1 X-139.417 Y-98.46
G1 X-145.71 Y-110.601
G1 X-147.383 Y-113.83
G1 X-147.437 Y-113.939
G1 X-147.486 Y-114.05
G1 X-152.843 Y-126.662
G1 X-154.268 Y-130.015
G1 X-154.311 Y-130.122
G1 X-154.351 Y-130.231
G1 X-158.985 Y-143.801
G1 X-160.217 Y-147.41
G1 X-160.274 Y-147.598
G1 X-164.339 Y-162.456
G1 X-165.42 Y-166.407
G1 X-165.461 Y-166.574
G1 X-168.888 Y-182.431
G1 X-169.799 Y-186.647
G1 X-169.83 Y-186.81
G1 X-172.49 Y-203.22
G1 X-173.197 Y-207.583
G1 X-173.22 Y-207.753
G1 X-174.987 Y-224.27
G1 X-175.456 Y-228.663
G1 X-175.471 Y-228.851
G1 X-176.234 Y-245.107
G1 X-176.437 Y-249.43
G1 X-176.44 Y-249.634
G1 X-176.165 Y-265.566
G1 X-176.092 Y-269.802
G1 X-176.081 Y-270.016
G1 X-174.752 Y-285.637
G1 X-174.399 Y-289.791
G1 X-174.372 Y-290.013
G1 X-171.972 Y-305.336
G1 X-171.334 Y-309.41
G1 X-171.314 Y-309.522
G1 X-171.29 Y-309.634
G1 X-167.815 Y-324.669
G1 X-166.891 Y-328.667
G1 X-166.835 Y-328.879
G1 X-162.334 Y-343.622
G1 X-161.138 Y-347.542
G1 X-161.07 Y-347.739
G1 X-155.603 Y-362.181
G1 X-154.149 Y-366.021
G1 X-154.084 Y-366.181
G1 X-151.328 Y-372.412
G1 X-151.279 Y-372.517
G1 X-145.689 Y-384.005
G1 X-145.688 Y-384.008
G1 X-140.031 Y-395.608
G1 X-139.978 Y-395.711
G1 X-136.762 Y-401.737
G1 X-136.674 Y-401.892
G1 X-128.595 Y-415.175
G1 X-126.447 Y-418.707
G1 X-126.323 Y-418.895
G1 X-117.388 Y-431.489
G1 X-115.012 Y-434.838
G3 X-114.859 Y-435.038 I2.59 J1.837
G1 X-105.062 Y-446.755
G1 X-102.457 Y-449.87
G3 X-102.27 Y-450.075 I2.436 J2.036
G1 X-91.61 Y-460.776
G1 X-88.775 Y-463.622
G3 X-88.575 Y-463.806 I2.249 J2.241
G1 X-77.059 Y-473.539
G1 X-73.997 Y-476.127
G3 X-73.797 Y-476.283 I2.049 J2.425
G1 X-61.437 Y-485.143
G1 X-58.15 Y-487.499
G1 X-58.055 Y-487.564
G1 X-57.959 Y-487.625
G1 X-44.765 Y-495.707
G1 X-41.257 Y-497.856
G1 X-41.076 Y-497.959
G1 X-27.094 Y-505.308
G1 X-23.376 Y-507.263
G1 X-23.186 Y-507.355
G1 X-8.596 Y-513.827
G1 X-4.716 Y-515.549
G1 X-4.611 Y-515.593
G1 X-4.505 Y-515.634
G1 X10.481 Y-521.035
G1 X14.466 Y-522.472
G3 X14.708 Y-522.548 I1.077 J2.987
G1 X29.877 Y-526.685
G1 X33.911 Y-527.785
G3 X34.181 Y-527.846 I0.835 J3.063
G1 X49.355 Y-530.593
G1 X53.39 Y-531.324
G3 X53.643 Y-531.359 I0.566 J3.124
G1 X68.786 Y-532.861
G1 X72.814 Y-533.26
G1 X73.028 Y-533.273
G1 X88.141 Y-533.742
G1 X92.161 Y-533.867
G1 X92.333
G1 X107.414 Y-533.515
G1 X111.425 Y-533.421
G1 X111.577 Y-533.414
G1 X126.609 Y-532.34
G1 X130.607 Y-532.054
G1 X130.721 Y-532.044
G1 X130.835 Y-532.029
G1 X145.727 Y-529.874
G1 X145.729
G1 X149.682 Y-529.299
G1 X149.797 Y-529.28
G1 X149.912 Y-529.257
G1 X157.27 Y-527.627
G1 X157.276 Y-527.625
G1 X159.225 Y-527.189
G1 X159.403 Y-527.144
G1 X166.687 Y-525.065
G1 X166.693 Y-525.063
G1 X168.616 Y-524.51
G1 X168.814 Y-524.447
G1 X176.011 Y-521.858
G1 X176.019 Y-521.854
G1 X177.909 Y-521.169
G1 X178.117 Y-521.085
G1 X185.215 Y-517.926
G1 X185.226 Y-517.921
G1 X187.077 Y-517.089
G1 X187.183 Y-517.039
G1 X187.288 Y-516.984
G1 X194.254 Y-513.209
G1 X194.263 Y-513.204
G1 X196.064 Y-512.22
G1 X196.169 Y-512.16
G1 X196.272 Y-512.096
G1 X202.994 Y-507.727
G1 X203.004 Y-507.72
G1 X204.722 Y-506.594
G3 X204.928 Y-506.447 I-1.74 J2.655
G1 X211.27 Y-501.526
G1 X211.281 Y-501.518
G1 X212.882 Y-500.265
G3 X213.09 Y-500.087 I-1.957 J2.5
G1 X218.916 Y-494.655
G1 X218.927 Y-494.645
G1 X220.377 Y-493.28
G3 X220.589 Y-493.061 I-2.176 J2.312
G1 X223.572 Y-489.658
G3 X223.688 Y-485.613 I-2.388 J2.093
G1 X223.193 Y-484.978
G3 X220.689 Y-483.755 I-2.504 J-1.952
G1 X86.407
G3 X83.293 Y-486.311 I0 J-3.175
G1 X83.232 Y-486.617
G1 Y-474.797
G1 X83.293 Y-475.103
G3 X86.407 Y-477.659 I3.114 J0.619
G1 X230.547
G3 X233.051 Y-476.436 I0 J3.175
G1 X233.546 Y-475.801
G3 X233.866 Y-475.3 I-2.504 J1.952
G1 X236.348 Y-470.469
G1 X236.361 Y-470.443
G1 X237.183 Y-468.807
G3 X237.355 Y-468.396 I-2.837 J1.425
G1 X239.725 Y-461.361
G1 X239.736 Y-461.327
G1 X240.291 Y-459.616
G3 X240.403 Y-459.154 I-3.02 J0.98
G1 X241.611 Y-451.85
G1 X241.619 Y-451.805
G1 X241.887 Y-450.026
G3 X241.921 Y-449.62 I-3.14 J0.473
G1 X242.079 Y-442.161
G1 X242.08 Y-442.11
G1 X242.089 Y-440.286
G3 X242.074 Y-439.962 I-3.175 J0.016
G1 X241.344 Y-432.474
G1 X241.338 Y-432.418
G1 X241.125 Y-430.573
G3 X241.086 Y-430.324 I-3.154 J-0.364
G1 X239.631 Y-422.932
G1 X239.618 Y-422.87
G1 X239.218 Y-421.031
G1 X239.173 Y-420.847
G1 X237.157 Y-413.674
G1 X237.137 Y-413.607
G1 X236.587 Y-411.804
G1 X236.543 Y-411.672
G1 X234.127 Y-404.839
G1 X234.1 Y-404.765
G1 X233.438 Y-403.031
G1 X233.403 Y-402.943
G1 X230.749 Y-396.568
G1 X230.712 Y-396.483
G1 X229.977 Y-394.853
G1 X229.955 Y-394.804
G1 X227.22 Y-389.005
G1 X227.172 Y-388.908
G1 X226.406 Y-387.417
G1 X226.397 Y-387.4
G1 X223.713 Y-382.255
G1 X223.65 Y-382.139
G1 X222.89 Y-380.819
G1 X220.28 Y-376.254
G1 X220.198 Y-376.119
G1 X219.461 Y-374.966
G1 X216.928 Y-370.878
G1 X216.825 Y-370.723
G1 X216.113 Y-369.711
G1 X213.654 Y-365.989
G1 X213.534 Y-365.82
G1 X212.849 Y-364.918
G1 X208.075 Y-358.041
G1 X208.007 Y-357.948
G1 X207.936 Y-357.856
G1 X206.607 Y-356.212
G1 X202.048 Y-349.43
G1 X201.979 Y-349.331
G1 X201.907 Y-349.236
G1 X200.659 Y-347.653
G1 X196.233 Y-340.22
G1 X196.115 Y-340.036
G1 X194.861 Y-338.226
G1 X191.199 Y-331.511
G3 X190.916 Y-331.079 I-2.787 J-1.52
G1 X190.421 Y-330.444
G3 X187.917 Y-329.221 I-2.504 J-1.952
G1 X16.636
G3 X13.522 Y-331.777 I0 J-3.175
G1 X13.461 Y-332.083
G1 Y-320.263
G1 X13.522 Y-320.569
G3 X16.636 Y-323.125 I3.114 J0.619
G1 X180.359
G3 X182.863 Y-321.902 I0 J3.175
G1 X183.358 Y-321.267
G3 X183.661 Y-317.832 I-2.504 J1.952
G1 X183.336 Y-317.217
G1 X183.272 Y-317.1
G1 X182.572 Y-315.9
G1 X179.952 Y-310.966
G1 X179.894 Y-310.862
G1 X179.155 Y-309.587
G1 X176.369 Y-304.425
G1 X176.321 Y-304.339
G1 X175.537 Y-302.99
G1 X172.574 Y-297.602
G1 X172.536 Y-297.534
G1 X171.714 Y-296.123
G1 X168.63 Y-290.523
G1 X168.602 Y-290.473
G1 X167.757 Y-289.003
G1 X164.623 Y-283.195
G1 X164.603 Y-283.158
G1 X163.753 Y-281.633
G1 X160.637 Y-275.619
G1 X160.624 Y-275.595
G1 X159.788 Y-274.014
G1 X156.756 Y-267.796
G1 X156.751 Y-267.785
G1 X155.947 Y-266.152
G1 X153.067 Y-259.731
G1 X152.313 Y-258.047
G1 X149.654 Y-251.433
G1 X148.972 Y-249.706
G1 X146.599 Y-242.899
G1 X146.005 Y-241.128
G1 X143.962 Y-234.132
G1 X143.46 Y-232.299
G1 X141.7 Y-225.138
G1 X141.28 Y-223.252
G1 X139.736 Y-215.971
G1 X139.381 Y-214.052
G1 X139.379 Y-214.038
G1 X137.99 Y-206.697
G1 X137.686 Y-204.775
G1 X137.677 Y-204.718
G1 X136.381 Y-197.382
G1 X136.109 Y-195.469
G1 X136.094 Y-195.371
G1 X134.827 Y-188.089
G1 X134.568 Y-186.198
G1 X134.546 Y-186.061
G1 X133.242 Y-178.886
G1 X133.124 Y-178.052
G3 X132.484 Y-176.546 I-3.144 J-0.446
G1 X131.989 Y-175.911
G3 X129.485 Y-174.688 I-2.504 J-1.952
G1 X-10.904
G3 X-14.018 Y-177.244 I0 J-3.175
G1 X-14.079 Y-177.55
G1 Y-165.73
G1 X-14.018 Y-166.036
G3 X-10.904 Y-168.592 I3.114 J0.619
G1 X126.743
G3 X129.245 Y-167.371 I0 J3.175
G1 X129.741 Y-166.736
G3 X130.329 Y-164.054 I-2.502 J1.954
G1 X128.803 Y-157.573
G1 X128.295 Y-154.93
G3 X128.237 Y-154.681 I-3.118 J-0.599
G1 X125.479 Y-144.729
G1 X124.88 Y-142.162
G1 X124.851 Y-142.05
G1 X124.819 Y-141.939
G1 X121.739 Y-132.065
G1 X121.053 Y-129.517
G1 X120.995 Y-129.326
G1 X117.62 Y-119.341
G1 X116.846 Y-116.752
G1 X116.8 Y-116.609
G1 X115.019 Y-111.539
G1 X114.608 Y-110.237
G1 X114.57 Y-110.124
G1 X112.726 Y-104.955
G1 X112.295 Y-103.619
G1 X112.26 Y-103.518
G1 X110.354 Y-98.226
G1 X109.903 Y-96.851
G1 X109.869 Y-96.753
G1 X107.894 Y-91.338
G1 X107.419 Y-89.923
G1 X107.38 Y-89.814
G1 X105.312 Y-84.321
G1 X104.807 Y-82.878
G1 X104.762 Y-82.757
G1 X102.573 Y-77.233
G1 X102.034 Y-75.777
G1 X101.979 Y-75.641
G1 X99.643 Y-70.132
G1 X99.062 Y-68.676
G1 X98.997 Y-68.524
G1 X96.486 Y-63.077
G1 X95.856 Y-61.633
G1 X95.777 Y-61.467
G1 X93.067 Y-56.127
G1 X92.381 Y-54.71
G1 X92.285 Y-54.527
G1 X89.347 Y-49.341
G1 X88.599 Y-47.963
G1 X88.543 Y-47.863
G1 X88.482 Y-47.766
G1 X85.29 Y-42.779
G1 X84.473 Y-41.453
G3 X84.331 Y-41.241 I-2.703 J-1.665
G1 X80.857 Y-36.501
G1 X79.964 Y-35.239
G3 X79.791 Y-35.017 I-2.592 J-1.834
G1 X76.009 Y-30.568
G1 X75.033 Y-29.383
G3 X74.827 Y-29.157 I-2.45 J-2.019
G1 X70.712 Y-25.043
G1 X69.646 Y-23.947
G3 X69.422 Y-23.738 I-2.276 J-2.214
G1 X66.078 Y-20.906
G3 X64.026 Y-20.154 I-2.052 J-2.423
G1 X3.165
G3 X0.051 Y-22.71 I0 J-3.175
G1 X-0.01 Y-23.016
G1 Y-11.196
G1 X0.051 Y-11.503
G3 X3.165 Y-14.058 I3.114 J0.619
G1 X43.179
G3 X45.683 Y-12.836 I0 J3.175
G1 X46.178 Y-12.201
G3 X45.627 Y-7.745 I-2.503 J1.953
G3 X45.137 Y-7.43 I-1.953 J-2.503
G1 X44.341 Y-7.017
G3 X44.009 Y-6.868 I-1.463 J-2.818
G1 X33.078 Y-2.7
G1 X30.2 Y-1.587
G3 X29.762 Y-1.453 I-1.145 J-2.961
G1 X18.368 Y1.148
G1 X15.359 Y1.842
G3 X14.916 Y1.911 I-0.713 J-3.094
G1 X3.336 Y2.9
G1 X0.272 Y3.163
G0 Z6.096
G0 X-0.104 Y3.173
G1 Z-4.309 F508.
G1 Z-10.16
G1 X-5.815 Y2.987
G1 Z-12.7
G1 X-7.799 Y2.922
G1 X-9.838 Y2.855
G3 X-10.129 Y2.833 I0.104 J-3.173
G1 X-17.755 Y1.877
G1 X-17.756
G1 X-19.778 Y1.623
G3 X-20.053 Y1.576 I0.396 J-3.15
G1 X-27.581 Y-0.051
G1 X-27.582 Y-0.052
G1 X-29.58 Y-0.484
G3 X-29.838 Y-0.552 I0.672 J-3.103
G1 X-37.239 Y-2.819
G1 X-37.24
G1 X-39.205 Y-3.422
G3 X-39.445 Y-3.506 I0.931 J-3.035
G1 X-46.691 Y-6.381
G1 X-48.617 Y-7.145
G1 X-48.729 Y-7.192
G1 X-48.839 Y-7.243
G1 X-55.901 Y-10.693
G1 X-57.779 Y-11.611
G1 X-57.882 Y-11.664
G1 X-57.984 Y-11.72
G1 X-59.896 Y-12.835
G1 Z-10.16
G1 X-64.833 Y-15.713
G1 X-66.655 Y-16.775
G1 X-66.844 Y-16.894
G1 X-69.647 Y-18.804
G1 Z-12.7
G1 X-73.453 Y-21.397
G1 X-75.21 Y-22.595
G1 X-75.382 Y-22.72
G1 X-81.725 Y-27.695
G1 X-83.412 Y-29.017
G1 X-83.559 Y-29.14
G1 X-89.624 Y-34.518
G1 X-91.237 Y-35.947
G1 X-91.327 Y-36.031
G1 X-91.415 Y-36.118
G1 X-102.675 Y-47.78
G1 X-105.67 Y-50.881
G3 X-105.851 Y-51.085 I2.284 J-2.206
G1 X-115.893 Y-63.455
G1 X-118.563 Y-66.744
G1 X-118.697 Y-66.921
G1 X-127.45 Y-79.394
G1 X-129.778 Y-82.71
G1 X-129.887 Y-82.877
G1 X-136.433 Y-93.57
G1 Z-10.16
G1 X-137.328 Y-95.031
G1 X-139.306 Y-98.264
G1 X-139.417 Y-98.46
G1 X-142.047 Y-103.534
G1 Z-12.7
G1 X-145.71 Y-110.601
G1 X-147.383 Y-113.83
G1 X-147.437 Y-113.939
G1 X-147.486 Y-114.05
G1 X-152.843 Y-126.662
G1 X-154.268 Y-130.015
G1 X-154.311 Y-130.122
G1 X-154.351 Y-130.231
G1 X-158.985 Y-143.801
G1 X-160.217 Y-147.41
G1 X-160.274 Y-147.598
G1 X-164.339 Y-162.456
G1 X-165.42 Y-166.407
G1 X-165.461 Y-166.574
G1 X-168.888 Y-182.431
G1 X-169.799 Y-186.647
G1 X-169.83 Y-186.81
G1 X-172.49 Y-203.22
G1 X-173.197 Y-207.583
G1 X-173.22 Y-207.753
G1 X-174.379 Y-218.588
G1 Z-10.16
G1 X-174.987 Y-224.27
G1 X-175.456 Y-228.663
G1 X-175.471 Y-228.851
G1 X-175.523 Y-229.961
G1 Z-12.7
G1 X-176.234 Y-245.107
G1 X-176.437 Y-249.43
G1 X-176.44 Y-249.634
G1 X-176.165 Y-265.566
G1 X-176.092 Y-269.802
G1 X-176.081 Y-270.016
G1 X-174.752 Y-285.637
G1 X-174.399 Y-289.791
G1 X-174.372 Y-290.013
G1 X-171.972 Y-305.336
G1 X-171.334 Y-309.41
G1 X-171.314 Y-309.522
G1 X-171.29 Y-309.634
G1 X-167.815 Y-324.669
G1 X-166.891 Y-328.667
G1 X-166.835 Y-328.879
G1 X-162.334 Y-343.622
G1 X-161.138 Y-347.542
G1 X-161.07 Y-347.739
G1 X-155.603 Y-362.181
G1 X-154.149 Y-366.021
G1 X-154.084 Y-366.181
G1 X-153.594 Y-367.288
G1 Z-10.16
G1 X-151.328 Y-372.412
G1 X-151.279 Y-372.517
G1 X-148.778 Y-377.656
G1 Z-12.7
G1 X-145.689 Y-384.005
G1 X-145.688 Y-384.008
G1 X-140.031 Y-395.608
G1 X-139.978 Y-395.711
G1 X-136.762 Y-401.737
G1 X-136.674 Y-401.892
G1 X-128.595 Y-415.175
G1 X-126.447 Y-418.707
G1 X-126.323 Y-418.895
G1 X-117.388 Y-431.489
G1 X-115.012 Y-434.838
G3 X-114.859 Y-435.038 I2.59 J1.837
G1 X-105.062 Y-446.755
G1 X-102.457 Y-449.87
G3 X-102.27 Y-450.075 I2.436 J2.036
G1 X-91.61 Y-460.776
G1 X-88.775 Y-463.622
G3 X-88.575 Y-463.806 I2.249 J2.241
G1 X-77.059 Y-473.539
G1 X-73.997 Y-476.127
G3 X-73.797 Y-476.283 I2.049 J2.425
G1 X-61.437 Y-485.143
G1 X-58.15 Y-487.499
G1 X-58.055 Y-487.564
G1 X-57.959 Y-487.625
G1 X-44.765 Y-495.707
G1 X-41.257 Y-497.856
G1 X-41.076 Y-497.959
G1 X-32.153 Y-502.649
G1 Z-10.16
G1 X-27.094 Y-505.308
G1 X-23.376 Y-507.263
G1 X-23.186 Y-507.355
G1 X-21.992 Y-507.885
G1 Z-12.7
G1 X-8.596 Y-513.827
G1 X-4.716 Y-515.549
G1 X-4.611 Y-515.593
G1 X-4.505 Y-515.634
G1 X10.481 Y-521.035
G1 X14.466 Y-522.472
G3 X14.708 Y-522.548 I1.077 J2.987
G1 X29.877 Y-526.685
G1 X33.911 Y-527.785
G3 X34.181 Y-527.846 I0.835 J3.063
G1 X49.355 Y-530.593
G1 X53.39 Y-531.324
G3 X53.643 Y-531.359 I0.566 J3.124
G1 X68.786 Y-532.861
G1 X72.814 Y-533.26
G1 X73.028 Y-533.273
G1 X88.141 Y-533.742
G1 X92.161 Y-533.867
G1 X92.333
G1 X107.414 Y-533.515
G1 X111.425 Y-533.421
G1 X111.577 Y-533.414
G1 X126.609 Y-532.34
G1 X130.607 Y-532.054
G1 X130.721 Y-532.044
G1 X130.835 Y-532.029
G1 X145.727 Y-529.874
G1 X145.729
G1 X149.682 Y-529.299
G1 X149.797 Y-529.28
G1 X149.912 Y-529.257
G1 X157.27 Y-527.627
G1 X157.276 Y-527.625
G1 X159.225 Y-527.189
G1 X159.403 Y-527.144
G1 X166.687 Y-525.065
G1 X166.693 Y-525.063
G1 X168.616 Y-524.51
G1 X168.814 Y-524.447
G1 X170.641 Y-523.789
G1 Z-10.16
G1 X176.011 Y-521.858
G1 X176.019 Y-521.854
G1 X177.909 Y-521.169
G1 X178.117 Y-521.085
G1 X181.304 Y-519.666
G1 Z-12.7
G1 X185.215 Y-517.926
G1 X185.226 Y-517.921
G1 X187.077 Y-517.089
G1 X187.183 Y-517.039
G1 X187.288 Y-516.984
G1 X194.254 Y-513.209
G1 X194.263 Y-513.204
G1 X196.064 Y-512.22
G1 X196.169 Y-512.16
G1 X196.272 Y-512.096
G1 X202.994 Y-507.727
G1 X203.004 Y-507.72
G1 X204.722 Y-506.594
G3 X204.928 Y-506.447 I-1.74 J2.655
G1 X211.27 Y-501.526
G1 X211.281 Y-501.518
G1 X212.882 Y-500.265
G3 X213.09 Y-500.087 I-1.957 J2.5
G1 X218.916 Y-494.655
G1 X218.927 Y-494.645
G1 X220.377 Y-493.28
G3 X220.589 Y-493.061 I-2.176 J2.312
G1 X223.572 Y-489.658
G3 X223.688 Y-485.613 I-2.388 J2.093
G1 X223.193 Y-484.978
G3 X220.689 Y-483.755 I-2.504 J-1.952
G1 X86.407
G3 X83.293 Y-486.311 I0 J-3.175
G1 X83.232 Y-486.617
G1 Y-474.797
G1 X83.293 Y-475.103
G3 X86.407 Y-477.659 I3.114 J0.619
G1 X230.547
G3 X233.051 Y-476.436 I0 J3.175
G1 X233.546 Y-475.801
G3 X233.866 Y-475.3 I-2.504 J1.952
G1 X236.348 Y-470.469
G1 X236.361 Y-470.443
G1 X237.183 Y-468.807
G3 X237.355 Y-468.396 I-2.837 J1.425
G1 X239.725 Y-461.361
G1 X239.736 Y-461.327
G1 X240.291 Y-459.616
G3 X240.403 Y-459.154 I-3.02 J0.98
G1 X241.611 Y-451.85
G1 X241.619 Y-451.805
G1 X241.887 Y-450.026
G3 X241.921 Y-449.62 I-3.14 J0.473
G1 X242.079 Y-442.161
G1 X242.08 Y-442.11
G1 X242.089 Y-440.286
G3 X242.074 Y-439.962 I-3.175 J0.016
G1 X241.344 Y-432.474
G1 X241.338 Y-432.418
G1 X241.125 Y-430.573
G3 X241.086 Y-430.324 I-3.154 J-0.364
G1 X240.326 Y-426.459
G1 Z-10.16
G1 X239.631 Y-422.932
G1 X239.618 Y-422.87
G1 X239.218 Y-421.031
G1 X239.173 Y-420.847
G1 X237.626 Y-415.345
G1 Z-12.7
G1 X237.157 Y-413.674
G1 X237.137 Y-413.607
G1 X236.587 Y-411.804
G1 X236.543 Y-411.672
G1 X234.127 Y-404.839
G1 X234.1 Y-404.765
G1 X233.438 Y-403.031
G1 X233.403 Y-402.943
G1 X230.749 Y-396.568
G1 X230.712 Y-396.483
G1 X229.977 Y-394.853
G1 X229.955 Y-394.804
G1 X227.22 Y-389.005
G1 X227.172 Y-388.908
G1 X226.406 Y-387.417
G1 X226.397 Y-387.4
G1 X223.713 Y-382.255
G1 X223.65 Y-382.139
G1 X222.89 Y-380.819
G1 X220.28 Y-376.254
G1 X220.198 Y-376.119
G1 X219.461 Y-374.966
G1 X216.928 Y-370.878
G1 X216.825 Y-370.723
G1 X216.113 Y-369.711
G1 X213.654 Y-365.989
G1 X213.534 Y-365.82
G1 X212.849 Y-364.918
G1 X208.075 Y-358.041
G1 X208.007 Y-357.948
G1 X207.936 Y-357.856
G1 X206.607 Y-356.212
G1 X202.048 Y-349.43
G1 X201.979 Y-349.331
G1 X201.907 Y-349.236
G1 X200.659 Y-347.653
G1 X196.233 Y-340.22
G1 X196.115 Y-340.036
G1 X194.861 Y-338.226
G1 X191.199 Y-331.511
G3 X190.916 Y-331.079 I-2.787 J-1.52
G1 X190.421 Y-330.444
G3 X187.917 Y-329.221 I-2.504 J-1.952
G1 X16.636
G3 X13.522 Y-331.777 I0 J-3.175
G1 X13.461 Y-332.083
G1 Y-320.263
G1 X13.522 Y-320.569
G3 X16.636 Y-323.125 I3.114 J0.619
G1 X180.359
G3 X182.863 Y-321.902 I0 J3.175
G1 X183.358 Y-321.267
G3 X183.661 Y-317.832 I-2.504 J1.952
G1 X183.336 Y-317.217
G1 X183.272 Y-317.1
G1 X182.572 Y-315.9
G1 X179.952 Y-310.966
G1 X179.894 Y-310.862
G1 X179.155 Y-309.587
G1 X176.369 Y-304.425
G1 X176.321 Y-304.339
G1 X175.537 Y-302.99
G1 X172.574 Y-297.602
G1 X172.536 Y-297.534
G1 X171.714 Y-296.123
G1 X168.63 Y-290.523
G1 X168.602 Y-290.473
G1 X167.757 Y-289.003
G1 X164.623 Y-283.195
G1 X164.603 Y-283.158
G1 X163.753 Y-281.633
G1 X160.637 Y-275.619
G1 X160.624 Y-275.595
G1 X159.788 Y-274.014
G1 X156.756 Y-267.796
G1 X156.751 Y-267.785
G1 X155.947 Y-266.152
G1 X154.677 Y-263.322
G1 Z-10.16
G1 X153.067 Y-259.731
G1 X152.313 Y-258.047
G1 X150.204 Y-252.801
G1 Z-12.7
G1 X149.654 Y-251.433
G1 X148.972 Y-249.706
G1 X146.599 Y-242.899
G1 X146.005 Y-241.128
G1 X143.962 Y-234.132
G1 X143.46 Y-232.299
G1 X141.7 Y-225.138
G1 X141.28 Y-223.252
G1 X139.736 Y-215.971
G1 X139.381 Y-214.052
G1 X139.379 Y-214.038
G1 X137.99 Y-206.697
G1 X137.686 Y-204.775
G1 X137.677 Y-204.718
G1 X136.381 Y-197.382
G1 X136.109 Y-195.469
G1 X136.094 Y-195.371
G1 X134.827 Y-188.089
G1 X134.568 Y-186.198
G1 X134.546 Y-186.061
G1 X133.242 Y-178.886
G1 X133.124 Y-178.052
G3 X132.484 Y-176.546 I-3.144 J-0.446
G1 X131.989 Y-175.911
G3 X129.485 Y-174.688 I-2.504 J-1.952
G1 X-10.904
G3 X-14.018 Y-177.244 I0 J-3.175
G1 X-14.079 Y-177.55
G1 Y-165.73
G1 X-14.018 Y-166.036
G3 X-10.904 Y-168.592 I3.114 J0.619
G1 X126.743
G3 X129.245 Y-167.371 I0 J3.175
G1 X129.741 Y-166.736
G3 X130.329 Y-164.054 I-2.502 J1.954
G1 X128.803 Y-157.573
G1 X128.295 Y-154.93
G3 X128.237 Y-154.681 I-3.118 J-0.599
G1 X125.479 Y-144.729
G1 X124.88 Y-142.162
G1 X124.851 Y-142.05
G1 X124.819 Y-141.939
G1 X121.739 Y-132.065
G1 X121.053 Y-129.517
G1 X120.995 Y-129.326
G1 X117.62 Y-119.341
G1 X116.846 Y-116.752
G1 X116.8 Y-116.609
G1 X115.019 Y-111.539
G1 X114.608 Y-110.237
G1 X114.57 Y-110.124
G1 X114.139 Y-108.916
G1 Z-10.16
G1 X112.726 Y-104.955
G1 X112.295 Y-103.619
G1 X112.26 Y-103.518
G1 X110.354 Y-98.226
G1 X110.326 Y-98.141
G1 Z-12.7
G1 X109.903 Y-96.851
G1 X109.869 Y-96.753
G1 X107.894 Y-91.338
G1 X107.419 Y-89.923
G1 X107.38 Y-89.814
G1 X105.312 Y-84.321
G1 X104.807 Y-82.878
G1 X104.762 Y-82.757
G1 X102.573 Y-77.233
G1 X102.034 Y-75.777
G1 X101.979 Y-75.641
G1 X99.643 Y-70.132
G1 X99.062 Y-68.676
G1 X98.997 Y-68.524
G1 X96.486 Y-63.077
G1 X95.856 Y-61.633
G1 X95.777 Y-61.467
G1 X93.067 Y-56.127
G1 X92.381 Y-54.71
G1 X92.285 Y-54.527
G1 X89.347 Y-49.341
G1 X88.599 Y-47.963
G1 X88.543 Y-47.863
G1 X88.482 Y-47.766
G1 X85.29 Y-42.779
G1 X84.473 Y-41.453
G3 X84.331 Y-41.241 I-2.703 J-1.665
G1 X80.857 Y-36.501
G1 X79.964 Y-35.239
G3 X79.791 Y-35.017 I-2.592 J-1.834
G1 X76.009 Y-30.568
G1 X75.033 Y-29.383
G3 X74.827 Y-29.157 I-2.45 J-2.019
G1 X70.712 Y-25.043
G1 X69.646 Y-23.947
G3 X69.422 Y-23.738 I-2.276 J-2.214
G1 X66.078 Y-20.906
G3 X64.026 Y-20.154 I-2.052 J-2.423
G1 X3.165
G3 X0.051 Y-22.71 I0 J-3.175
G1 X-0.01 Y-23.016
G1 Y-11.196
G1 X0.051 Y-11.503
G3 X3.165 Y-14.058 I3.114 J0.619
G1 X43.179
G3 X45.683 Y-12.836 I0 J3.175
G1 X46.178 Y-12.201
G3 X45.627 Y-7.745 I-2.503 J1.953
G3 X45.137 Y-7.43 I-1.953 J-2.503
G1 X44.341 Y-7.017
G3 X44.009 Y-6.868 I-1.463 J-2.818
G1 X33.078 Y-2.7
G1 X30.2 Y-1.587
G3 X29.762 Y-1.453 I-1.145 J-2.961
G1 X18.368 Y1.148
G1 X15.359 Y1.842
G3 X14.916 Y1.911 I-0.713 J-3.094
G1 X5.63 Y2.704
G1 Z-10.16
G1 X3.336 Y2.9
G1 X0.272 Y3.163
G3 X-0.104 Y3.173 I-0.272 J-3.163
G0 Z6.096

G0 Z6.096
M5
M30
