(1001)
(T1  D=6.35 CR=0 - ZMIN=-12.7 - FLAT END MILL)
G0 G40 G90 G17
G21

(2D CONTOUR2)
T1 M6
M3 S5000
G0 X-14.903 Y4.783
G0 Z6.096
G1 Z4.191 F508.
G1 Z-7.484
G1 X-20.468 Y4.554
G1 X-29.202 Y4.196
G3 X-29.56 Y4.161 I0.13 J-3.172
G1 X-34.225 Y3.434
G1 X-43.973 Y1.917
G3 X-44.297 Y1.849 I0.488 J-3.137
G1 X-47.067 Y1.115
G1 X-58.892 Y-2.018
G3 X-59.179 Y-2.108 I0.813 J-3.069
G1 X-59.253 Y-2.136
G1 X-59.489 Y-2.223
G1 X-59.57 Y-2.254
G1 X-70.031 Y-6.446
G1 X-74.095 Y-8.074
G3 X-74.355 Y-8.192 I1.181 J-2.947
G1 X-76.781 Y-9.428
G3 X-78.168 Y-13.699 I1.441 J-2.829
G3 X-77.843 Y-14.21 I2.829 J1.441
G1 X-77.347 Y-14.845
G3 X-74.844 Y-16.067 I2.503 J1.953
G1 X-26.613
G3 X-23.499 Y-13.512 I0 J3.175
G1 X-23.438 Y-13.205
G1 Y-25.026
G1 X-23.499 Y-24.719
G3 X-26.613 Y-22.163 I-3.114 J-0.619
G1 X-98.052
G3 X-99.847 Y-22.72 I0 J-3.175
G1 X-101.246 Y-23.679
G1 X-105.346 Y-26.491
G1 X-105.441 Y-26.559
G1 X-105.533 Y-26.63
G1 X-111.473 Y-31.381
G1 X-121.451 Y-39.361
G1 X-121.607 Y-39.494
G1 X-121.656 Y-39.538
G1 X-121.729 Y-39.605
G1 X-121.817 Y-39.687
G1 X-121.901 Y-39.773
G1 X-130.402 Y-48.754
G1 X-138.149 Y-56.939
G1 X-138.266 Y-57.071
G1 X-139.225 Y-58.202
G1 Y-58.203
G1 X-140.199 Y-59.355
G3 X-140.36 Y-59.562 I2.424 J-2.05
G1 X-146.735 Y-68.502
G1 X-153.174 Y-77.533
G3 X-153.329 Y-77.772 I2.585 J-1.843
G1 X-154.092 Y-79.075
G1 X-155.459 Y-81.411
G1 X-155.521 Y-81.521
G1 X-160.056 Y-90.029
G1 X-162.429 Y-94.48
G3 X-162.549 Y-94.731 I2.802 J-1.494
G1 X-165.365 Y-101.352
G1 X-169.067 Y-110.059
G3 X-169.16 Y-110.305 I2.922 J-1.242
G1 X-169.979 Y-112.783
G1 X-173.076 Y-122.152
G1 X-173.106 Y-122.249
G1 X-173.715 Y-124.31
G1 X-173.789 Y-124.562
G1 X-173.841 Y-124.759
G1 X-176.528 Y-136.565
G1 X-176.823 Y-137.863
G1 X-176.85 Y-137.995
G1 X-178.715 Y-148.172
G1 X-179.076 Y-150.14
G1 X-179.087 Y-150.206
G1 X-180.178 Y-156.957
G3 X-179.548 Y-159.416 I3.134 J-0.507
G1 X-179.053 Y-160.051
G3 X-176.549 Y-161.274 I2.504 J1.952
G1 X-37.657
G3 X-34.543 Y-158.718 I0 J3.175
G1 X-34.482 Y-158.412
G1 Y-170.232
G1 X-34.543 Y-169.926
G3 X-37.657 Y-167.37 I-3.114 J-0.619
G1 X-178.631
G3 X-181.133 Y-168.591 I0 J-3.175
G1 X-181.629 Y-169.226
G3 X-182.27 Y-170.734 I2.502 J-1.954
G1 X-182.554 Y-172.733
G1 X-183.035 Y-176.108
G1 X-183.044 Y-176.174
G1 X-183.998 Y-184.045
G1 X-184.433 Y-187.639
G1 X-184.441 Y-187.71
G1 X-185.13 Y-194.716
G1 X-185.493 Y-198.41
G1 X-185.502 Y-198.521
G1 X-186.277 Y-210.796
G1 X-186.746 Y-218.236
G1 X-186.751 Y-218.376
G1 X-186.961 Y-229.543
G1 X-187.099 Y-236.865
G1 Y-236.985
G1 X-186.888 Y-248.194
G1 X-186.751 Y-255.474
G1 X-186.746 Y-255.614
G1 X-185.959 Y-268.084
G1 X-185.502 Y-275.328
G1 X-185.493 Y-275.438
G1 X-184.794 Y-282.555
G1 X-184.441 Y-286.139
G1 X-184.433 Y-286.21
G1 X-183.457 Y-294.27
G1 X-183.044 Y-297.676
G1 X-183.035 Y-297.741
G1 X-182.27 Y-303.117
G3 X-181.629 Y-304.624 I3.143 J0.447
G1 X-181.133 Y-305.259
G3 X-178.631 Y-306.48 I2.502 J1.954
G1 X-37.657
G3 X-34.543 Y-303.924 I0 J3.175
G1 X-34.482 Y-303.618
G1 Y-315.438
G1 X-34.543 Y-315.132
G3 X-37.657 Y-312.576 I-3.114 J-0.619
G1 X-176.549
G3 X-179.053 Y-313.799 I0 J-3.175
G1 X-179.548 Y-314.434
G3 X-180.178 Y-316.893 I2.504 J-1.952
G1 X-179.485 Y-321.18
G1 X-179.087 Y-323.642
G1 X-179.067 Y-323.754
G1 X-175.094 Y-343.785
G1 Y-343.787
G1 X-174.859 Y-344.968
G1 X-174.812 Y-345.167
G1 X-173.128 Y-351.471
G1 X-173.103 Y-351.563
G1 X-171.491 Y-356.948
G1 X-171.424 Y-357.147
G1 X-170.838 Y-358.718
G1 X-166.761 Y-369.644
G1 X-166.718 Y-369.752
G1 X-166.672 Y-369.858
G1 X-163.262 Y-377.29
G1 X-160.539 Y-383.226
G1 X-160.487 Y-383.333
G1 X-160.432 Y-383.438
G1 X-155.498 Y-392.366
G1 X-155.433 Y-392.477
G1 X-152.17 Y-397.854
G1 X-152.106 Y-397.956
G1 X-152.038 Y-398.055
G1 X-146.048 Y-406.422
G1 X-141.079 Y-413.36
G1 X-140.942 Y-413.539
G1 X-138.287 Y-416.741
G1 X-138.171 Y-416.873
G1 X-125.96 Y-430.04
G1 X-125.815 Y-430.186
G1 X-121.649 Y-434.132
G1 X-121.496 Y-434.268
G1 X-106.814 Y-446.475
G1 X-105.584 Y-447.498
G1 X-105.492 Y-447.572
G1 X-105.396 Y-447.643
G1 X-104.944 Y-447.965
G1 X-104.806 Y-448.058
G1 X-99.879 Y-451.191
G3 X-98.175 Y-451.687 I1.704 J2.679
G1 X-26.623
G3 X-23.509 Y-449.131 I0 J3.175
G1 X-23.448 Y-448.825
G1 Y-460.645
G1 X-23.509 Y-460.339
G3 X-26.623 Y-457.783 I-3.114 J-0.619
G1 X-74.952
G3 X-77.456 Y-459.005 I0 J-3.175
G1 X-77.951 Y-459.64
G3 X-77.401 Y-464.096 I2.503 J-1.953
G3 X-76.926 Y-464.403 I1.953 J2.503
G1 X-76.054 Y-464.862
G1 X-74.396 Y-465.736
G3 X-74.13 Y-465.861 I1.481 J2.808
G1 X-71.375 Y-467.003
G1 X-71.273 Y-467.043
G1 X-59.19 Y-471.568
G3 X-58.9 Y-471.661 I1.114 J2.973
G1 X-54.889 Y-472.738
G1 X-44.306 Y-475.581
G3 X-43.978 Y-475.651 I0.824 J3.066
G1 X-37.224 Y-476.717
G1 X-29.565 Y-477.926
G3 X-29.202 Y-477.962 I0.495 J3.136
G1 X-21.414 Y-478.286
G1 X-14.904 Y-478.557
G3 X-14.423 Y-478.541 I0.132 J3.172
G1 X-3.795 Y-477.366
G1 X6.921 Y-476.182
G3 X7.482 Y-476.068 I-0.349 J3.156
G1 X14.528 Y-473.96
G1 X28.682 Y-469.724
G3 X29.199 Y-469.518 I-0.91 J3.042
G1 X30.936 Y-468.644
G1 X34.392 Y-466.907
G1 X34.508 Y-466.845
G1 X44.105 Y-461.509
G1 X50.317 Y-458.054
G3 X50.668 Y-457.828 I-1.543 J2.775
G1 X54.491 Y-454.987
G1 X61.068 Y-450.101
G3 X61.273 Y-449.935 I-1.894 J2.549
G1 X62.057 Y-449.244
G1 X62.058 Y-449.243
G1 X63.739 Y-447.761
G1 X63.869 Y-447.64
G1 X68.785 Y-442.793
G1 X71.728 Y-439.891
G3 X71.9 Y-439.707 I-2.229 J2.261
G1 X75.245 Y-435.84
G1 X80.333 Y-429.958
G1 X80.456 Y-429.807
G1 X81.429 Y-428.531
G1 X82.256 Y-427.446
G1 X82.323 Y-427.355
G1 X82.387 Y-427.261
G1 X86.797 Y-420.531
G1 X91.567 Y-413.252
G1 X91.671 Y-413.082
G1 X92.105 Y-412.32
G1 X92.628 Y-411.401
G1 X92.718 Y-411.231
G1 X96.505 Y-403.519
G1 X99.409 Y-397.607
G1 X99.487 Y-397.435
G1 X100.718 Y-394.499
G1 X102.841 Y-389.435
G1 X102.896 Y-389.295
G1 X104.388 Y-385.204
G1 X105.195 Y-382.989
G1 X105.248 Y-382.831
G1 X107.455 Y-375.616
G1 X109.336 Y-369.462
G1 X109.379 Y-369.31
G1 X110.227 Y-365.944
G1 X112.527 Y-356.813
G1 X112.558 Y-356.675
G1 X112.647 Y-356.241
G1 X113.035 Y-354.351
G1 X113.049 Y-354.279
G1 X114.443 Y-346.58
G1 X114.444 Y-346.577
G1 X114.744 Y-344.911
G1 X114.764 Y-344.781
G1 X116.632 Y-331.202
G1 X116.633 Y-331.2
G1 X117.678 Y-323.567
G1 X117.687 Y-323.492
G1 X118.397 Y-317.199
G1 Y-317.198
G1 X119.202 Y-310.034
G1 X119.207 Y-309.992
G1 X119.633 Y-305.688
G1 Y-305.686
G1 X120.429 Y-297.605
G1 X120.433 Y-297.559
G1 X120.67 Y-294.728
G1 Y-294.727
G1 X121.39 Y-286.092
G1 X121.394 Y-286.041
G1 X121.513 Y-284.273
G1 X122.114 Y-275.341
G1 X122.118 Y-275.263
G1 X122.201 Y-273.319
G1 X122.961 Y-255.55
G1 X122.964 Y-255.45
G1 X122.969 Y-255.005
G1 X123.195 Y-236.965
G1 Y-236.925
G1 Y-236.887
G1 Y-236.847
G1 X122.964 Y-218.396
G1 X122.961 Y-218.299
G1 X122.938 Y-217.767
G1 X122.118 Y-198.585
G1 X122.114 Y-198.508
G1 X122.031 Y-197.275
G1 X121.394 Y-187.808
G1 X121.39 Y-187.756
G1 X121.202 Y-185.513
G1 X120.433 Y-176.292
G1 X120.429 Y-176.243
G1 X120.052 Y-172.433
G1 X119.207 Y-163.86
G1 X119.202 Y-163.815
G1 X118.506 Y-157.644
G1 X117.687 Y-150.358
G1 X117.681 Y-150.311
G1 X116.694 Y-142.582
G1 X116.132 Y-138.166
G1 X116.119 Y-138.077
G1 X114.339 Y-126.673
G1 X114.075 Y-124.976
G1 X114.052 Y-124.847
G1 X113.042 Y-119.752
G1 X113.026 Y-119.672
G1 X110.985 Y-110.604
G1 X110.941 Y-110.431
G1 X109.405 Y-105.038
G1 X106.577 Y-95.104
G1 X106.518 Y-94.918
G1 X102.909 Y-84.677
G1 X102.857 Y-84.54
G1 X100.282 Y-78.184
G1 X100.191 Y-77.981
G1 X92.721 Y-62.71
G1 X92.631 Y-62.539
G1 X91.101 Y-59.84
G1 X91.042 Y-59.739
G1 X90.979 Y-59.641
G1 X82.373 Y-46.765
G1 X82.308 Y-46.671
G1 X82.24 Y-46.58
G1 X77.126 Y-40.006
G1 X76.982 Y-39.834
G1 X71.861 Y-34.134
G3 X71.685 Y-33.953 I-2.362 J-2.122
G1 X66.528 Y-29.057
G1 X61.362 Y-24.154
G3 X61.16 Y-23.977 I-2.186 J-2.303
G1 X54.245 Y-18.444
G1 X54.114 Y-18.344
G1 X50.625 Y-15.837
G3 X50.276 Y-15.619 I-1.853 J-2.578
G1 X38.525 Y-9.301
G1 X29.275 Y-4.327
G3 X28.739 Y-4.099 I-1.504 J-2.796
G1 X22.734 Y-2.177
G1 X22.665 Y-2.156
G1 X7.469 Y2.329
G3 X6.915 Y2.44 I-0.899 J-3.045
G1 X0.344 Y3.156
G1 X-14.429 Y4.767
G3 X-14.903 Y4.783 I-0.344 J-3.156
G1 Z-12.7
G1 X-20.468 Y4.554
G1 X-29.202 Y4.196
G3 X-29.56 Y4.161 I0.13 J-3.172
G1 X-34.225 Y3.434
G1 X-43.973 Y1.917
G3 X-44.297 Y1.849 I0.488 J-3.137
G1 X-47.067 Y1.115
G1 X-58.892 Y-2.018
G3 X-59.179 Y-2.108 I0.813 J-3.069
G1 X-59.253 Y-2.136
G1 X-59.489 Y-2.223
G1 X-59.57 Y-2.254
G1 X-70.031 Y-6.446
G1 X-74.095 Y-8.074
G3 X-74.355 Y-8.192 I1.181 J-2.947
G1 X-76.781 Y-9.428
G3 X-78.168 Y-13.699 I1.441 J-2.829
G3 X-77.843 Y-14.21 I2.829 J1.441
G1 X-77.347 Y-14.845
G3 X-74.844 Y-16.067 I2.503 J1.953
G1 X-26.613
G3 X-23.499 Y-13.512 I0 J3.175
G1 X-23.438 Y-13.205
G1 Y-25.026
G1 X-23.499 Y-24.719
G3 X-26.613 Y-22.163 I-3.114 J-0.619
G1 X-98.052
G3 X-99.847 Y-22.72 I0 J-3.175
G1 X-101.246 Y-23.679
G1 X-105.346 Y-26.491
G1 X-105.441 Y-26.559
G1 X-105.533 Y-26.63
G1 X-111.473 Y-31.381
G1 X-121.451 Y-39.361
G1 X-121.607 Y-39.494
G1 X-121.656 Y-39.538
G1 X-121.729 Y-39.605
G1 X-121.817 Y-39.687
G1 X-121.901 Y-39.773
G1 X-130.402 Y-48.754
G1 X-138.149 Y-56.939
G1 X-138.266 Y-57.071
G1 X-139.225 Y-58.202
G1 Y-58.203
G1 X-140.199 Y-59.355
G3 X-140.36 Y-59.562 I2.424 J-2.05
G1 X-146.735 Y-68.502
G1 X-153.174 Y-77.533
G3 X-153.329 Y-77.772 I2.585 J-1.843
G1 X-154.092 Y-79.075
G1 X-155.459 Y-81.411
G1 X-155.521 Y-81.521
G1 X-160.056 Y-90.029
G1 X-162.429 Y-94.48
G3 X-162.549 Y-94.731 I2.802 J-1.494
G1 X-165.365 Y-101.352
G1 X-169.067 Y-110.059
G3 X-169.16 Y-110.305 I2.922 J-1.242
G1 X-169.979 Y-112.783
G1 X-172.129 Y-119.288
G1 Z-10.16
G1 X-173.076 Y-122.152
G1 X-173.106 Y-122.249
G1 X-173.715 Y-124.31
G1 X-173.789 Y-124.562
G1 X-173.841 Y-124.759
G1 X-175.109 Y-130.332
G1 Z-12.7
G1 X-176.528 Y-136.565
G1 X-176.823 Y-137.863
G1 X-176.85 Y-137.995
G1 X-178.715 Y-148.172
G1 X-179.076 Y-150.14
G1 X-179.087 Y-150.206
G1 X-180.178 Y-156.957
G3 X-179.548 Y-159.416 I3.134 J-0.507
G1 X-179.053 Y-160.051
G3 X-176.549 Y-161.274 I2.504 J1.952
G1 X-37.657
G3 X-34.543 Y-158.718 I0 J3.175
G1 X-34.482 Y-158.412
G1 Y-170.232
G1 X-34.543 Y-169.926
G3 X-37.657 Y-167.37 I-3.114 J-0.619
G1 X-178.631
G3 X-181.133 Y-168.591 I0 J-3.175
G1 X-181.629 Y-169.226
G3 X-182.27 Y-170.734 I2.502 J-1.954
G1 X-182.554 Y-172.733
G1 X-183.035 Y-176.108
G1 X-183.044 Y-176.174
G1 X-183.998 Y-184.045
G1 X-184.433 Y-187.639
G1 X-184.441 Y-187.71
G1 X-185.13 Y-194.716
G1 X-185.493 Y-198.41
G1 X-185.502 Y-198.521
G1 X-186.277 Y-210.796
G1 X-186.746 Y-218.236
G1 X-186.751 Y-218.376
G1 X-186.961 Y-229.543
G1 X-187.099 Y-236.865
G1 Y-236.985
G1 X-186.888 Y-248.194
G1 X-186.751 Y-255.474
G1 X-186.746 Y-255.614
G1 X-186.319 Y-262.38
G1 Z-10.16
G1 X-185.959 Y-268.084
G1 X-185.599 Y-273.788
G1 Z-12.7
G1 X-185.502 Y-275.328
G1 X-185.493 Y-275.438
G1 X-184.794 Y-282.555
G1 X-184.441 Y-286.139
G1 X-184.433 Y-286.21
G1 X-183.457 Y-294.27
G1 X-183.044 Y-297.676
G1 X-183.035 Y-297.741
G1 X-182.27 Y-303.117
G3 X-181.629 Y-304.624 I3.143 J0.447
G1 X-181.133 Y-305.259
G3 X-178.631 Y-306.48 I2.502 J1.954
G1 X-37.657
G3 X-34.543 Y-303.924 I0 J3.175
G1 X-34.482 Y-303.618
G1 Y-315.438
G1 X-34.543 Y-315.132
G3 X-37.657 Y-312.576 I-3.114 J-0.619
G1 X-176.549
G3 X-179.053 Y-313.799 I0 J-3.175
G1 X-179.548 Y-314.434
G3 X-180.178 Y-316.893 I2.504 J-1.952
G1 X-179.485 Y-321.18
G1 X-179.087 Y-323.642
G1 X-179.067 Y-323.754
G1 X-175.094 Y-343.785
G1 Y-343.787
G1 X-174.859 Y-344.968
G1 X-174.812 Y-345.167
G1 X-173.128 Y-351.471
G1 X-173.103 Y-351.563
G1 X-173.073 Y-351.662
G1 Z-10.16
G1 X-171.491 Y-356.948
G1 X-171.424 Y-357.147
G1 X-170.838 Y-358.718
G1 X-169.426 Y-362.501
G1 Z-12.7
G1 X-166.761 Y-369.644
G1 X-166.718 Y-369.752
G1 X-166.672 Y-369.858
G1 X-163.262 Y-377.29
G1 X-160.539 Y-383.226
G1 X-160.487 Y-383.333
G1 X-160.432 Y-383.438
G1 X-155.498 Y-392.366
G1 X-155.433 Y-392.477
G1 X-152.17 Y-397.854
G1 X-152.106 Y-397.956
G1 X-152.038 Y-398.055
G1 X-146.048 Y-406.422
G1 X-141.761 Y-412.408
G1 Z-10.16
G1 X-141.079 Y-413.36
G1 X-140.942 Y-413.539
G1 X-138.287 Y-416.741
G1 X-138.171 Y-416.873
G1 X-134.285 Y-421.063
G1 Z-12.7
G1 X-125.96 Y-430.04
G1 X-125.815 Y-430.186
G1 X-121.649 Y-434.132
G1 X-121.496 Y-434.268
G1 X-106.814 Y-446.475
G1 X-105.584 Y-447.498
G1 X-105.492 Y-447.572
G1 X-105.396 Y-447.643
G1 X-104.944 Y-447.965
G1 X-104.806 Y-448.058
G1 X-99.879 Y-451.191
G3 X-98.175 Y-451.687 I1.704 J2.679
G1 X-26.623
G3 X-23.509 Y-449.131 I0 J3.175
G1 X-23.448 Y-448.825
G1 Y-460.645
G1 X-23.509 Y-460.339
G3 X-26.623 Y-457.783 I-3.114 J-0.619
G1 X-74.952
G3 X-77.456 Y-459.005 I0 J-3.175
G1 X-77.951 Y-459.64
G3 X-77.401 Y-464.096 I2.503 J-1.953
G3 X-76.926 Y-464.403 I1.953 J2.503
G1 X-76.054 Y-464.862
G1 X-74.396 Y-465.736
G3 X-74.13 Y-465.861 I1.481 J2.808
G1 X-71.375 Y-467.003
G1 X-71.273 Y-467.043
G1 X-59.19 Y-471.568
G3 X-58.9 Y-471.661 I1.114 J2.973
G1 X-54.889 Y-472.738
G1 X-44.306 Y-475.581
G3 X-43.978 Y-475.651 I0.824 J3.066
G1 X-37.224 Y-476.717
G1 X-29.565 Y-477.926
G3 X-29.202 Y-477.962 I0.495 J3.136
G1 X-21.414 Y-478.286
G1 X-14.904 Y-478.557
G3 X-14.423 Y-478.541 I0.132 J3.172
G1 X-3.795 Y-477.366
G1 X6.921 Y-476.182
G3 X7.482 Y-476.068 I-0.349 J3.156
G1 X14.528 Y-473.96
G1 X28.682 Y-469.724
G3 X29.199 Y-469.518 I-0.91 J3.042
G1 X30.936 Y-468.644
G1 X34.392 Y-466.907
G1 X34.508 Y-466.845
G1 X44.105 Y-461.509
G1 X50.317 Y-458.054
G3 X50.668 Y-457.828 I-1.543 J2.775
G1 X54.491 Y-454.987
G1 X61.068 Y-450.101
G3 X61.273 Y-449.935 I-1.894 J2.549
G1 X62.057 Y-449.244
G1 X62.058 Y-449.243
G1 X63.739 Y-447.761
G1 X63.869 Y-447.64
G1 X64.716 Y-446.805
G1 Z-10.16
G1 X68.785 Y-442.793
G1 X71.728 Y-439.891
G3 X71.9 Y-439.707 I-2.229 J2.261
G1 X72.773 Y-438.698
G1 Z-12.7
G1 X75.245 Y-435.84
G1 X80.333 Y-429.958
G1 X80.456 Y-429.807
G1 X81.429 Y-428.531
G1 X82.256 Y-427.446
G1 X82.323 Y-427.355
G1 X82.387 Y-427.261
G1 X86.797 Y-420.531
G1 X91.567 Y-413.252
G1 X91.671 Y-413.082
G1 X92.105 Y-412.32
G1 X92.628 Y-411.401
G1 X92.718 Y-411.231
G1 X96.505 Y-403.519
G1 X99.409 Y-397.607
G1 X99.487 Y-397.435
G1 X100.718 Y-394.499
G1 X102.841 Y-389.435
G1 X102.896 Y-389.295
G1 X104.388 Y-385.204
G1 X105.195 Y-382.989
G1 X105.248 Y-382.831
G1 X107.455 Y-375.616
G1 X109.336 Y-369.462
G1 X109.379 Y-369.31
G1 X110.227 Y-365.944
G1 X112.527 Y-356.813
G1 X112.558 Y-356.675
G1 X112.647 Y-356.241
G1 X113.035 Y-354.351
G1 X113.049 Y-354.279
G1 X113.75 Y-350.41
G1 Z-10.16
G1 X114.443 Y-346.58
G1 X114.444 Y-346.577
G1 X114.744 Y-344.911
G1 X114.764 Y-344.781
G1 X115.543 Y-339.119
G1 Z-12.7
G1 X116.632 Y-331.202
G1 X116.633 Y-331.2
G1 X117.678 Y-323.567
G1 X117.687 Y-323.492
G1 X118.397 Y-317.199
G1 Y-317.198
G1 X119.202 Y-310.034
G1 X119.207 Y-309.992
G1 X119.633 Y-305.688
G1 Y-305.686
G1 X120.429 Y-297.605
G1 X120.433 Y-297.559
G1 X120.67 Y-294.728
G1 Y-294.727
G1 X121.39 Y-286.092
G1 X121.394 Y-286.041
G1 X121.513 Y-284.273
G1 X122.114 Y-275.341
G1 X122.118 Y-275.263
G1 X122.201 Y-273.319
G1 X122.961 Y-255.55
G1 X122.964 Y-255.45
G1 X122.969 Y-255.005
G1 X123.195 Y-236.965
G1 Y-236.925
G1 Y-236.887
G1 Y-236.847
G1 X123.034 Y-224.017
G1 Z-10.16
G1 X122.964 Y-218.396
G1 X122.961 Y-218.299
G1 X122.938 Y-217.767
G1 X122.717 Y-212.59
G1 Z-12.7
G1 X122.118 Y-198.585
G1 X122.114 Y-198.508
G1 X122.031 Y-197.275
G1 X121.394 Y-187.808
G1 X121.39 Y-187.756
G1 X121.202 Y-185.513
G1 X120.433 Y-176.292
G1 X120.429 Y-176.243
G1 X120.052 Y-172.433
G1 X119.207 Y-163.86
G1 X119.202 Y-163.815
G1 X118.506 Y-157.644
G1 X117.687 Y-150.358
G1 X117.681 Y-150.311
G1 X116.694 Y-142.582
G1 X116.132 Y-138.166
G1 X116.119 Y-138.077
G1 X114.339 Y-126.673
G1 X114.075 Y-124.976
G1 X114.052 Y-124.847
G1 X113.042 Y-119.752
G1 X113.026 Y-119.672
G1 X110.985 Y-110.604
G1 X110.941 Y-110.431
G1 X109.405 Y-105.038
G1 X106.577 Y-95.104
G1 X106.518 Y-94.918
G1 X102.909 Y-84.677
G1 X102.857 Y-84.54
G1 X100.282 Y-78.184
G1 X100.191 Y-77.981
G1 X92.721 Y-62.71
G1 X92.631 Y-62.539
G1 X91.101 Y-59.84
G1 X91.042 Y-59.739
G1 X90.979 Y-59.641
G1 X82.373 Y-46.765
G1 X82.308 Y-46.671
G1 X82.24 Y-46.58
G1 X77.126 Y-40.006
G1 X76.982 Y-39.834
G1 X71.861 Y-34.134
G3 X71.685 Y-33.953 I-2.362 J-2.122
G1 X66.528 Y-29.057
G1 X61.362 Y-24.154
G3 X61.16 Y-23.977 I-2.186 J-2.303
G1 X58.585 Y-21.916
G1 Z-10.16
G1 X54.245 Y-18.444
G1 X54.114 Y-18.344
G1 X50.625 Y-15.837
G3 X50.276 Y-15.619 I-1.853 J-2.578
G1 X49.381 Y-15.138
G1 Z-12.7
G1 X38.525 Y-9.301
G1 X29.275 Y-4.327
G3 X28.739 Y-4.099 I-1.504 J-2.796
G1 X22.734 Y-2.177
G1 X22.665 Y-2.156
G1 X7.469 Y2.329
G3 X6.915 Y2.44 I-0.899 J-3.045
G1 X0.344 Y3.156
G1 X-14.429 Y4.767
G3 X-14.903 Y4.783 I-0.344 J-3.156
G0 Z6.096

G0 Z6.096
M5
M30
