(1001)
(T1  D=6.35 CR=0 - ZMIN=-12.7 - FLAT END MILL)
G0 G40 G90 G17
G21

(2D CONTOUR2)
T1 M6
M3 S5000
G0 X18.169 Y4.254
G0 Z6.096
G1 Z4.191 F508.
G1 Z-7.484
G1 X18.056 Y4.25
G1 X16.818 Y4.186
G1 X3.023 Y3.475
G1 X2.885 Y3.465
G1 X-0.301 Y3.161
G1 X-12.319 Y2.014
G1 X-12.473 Y1.996
G1 X-20.017 Y0.904
G1 X-28.129 Y-0.27
G1 X-28.271 Y-0.294
G1 X-44.128 Y-3.327
G1 X-44.573 Y-3.412
G1 X-44.699 Y-3.438
G1 X-45.359 Y-3.593
G1 X-45.456 Y-3.617
G1 X-61.847 Y-7.995
G1 X-61.975 Y-8.032
G1 X-77.363 Y-12.841
G1 X-77.481 Y-12.88
G1 X-80.038 Y-13.791
G1 X-80.17 Y-13.841
G1 X-87.735 Y-16.917
G1 X-91.301 Y-18.367
G3 X-93.046 Y-22.504 I1.196 J-2.941
G3 X-92.609 Y-23.261 I2.941 J1.196
G1 X-92.113 Y-23.896
G3 X-89.61 Y-25.118 I2.503 J1.953
G1 X30.26
G3 X33.374 Y-22.563 I0 J3.175
G1 X33.435 Y-22.256
G1 Y-34.077
G1 X33.374 Y-33.77
G3 X30.26 Y-31.215 I-3.114 J-0.619
G1 X-117.35
G3 X-118.813 Y-31.572 I0 J-3.175
G1 X-119.906 Y-32.139
G1 X-120.048 Y-32.218
G1 X-123.416 Y-34.191
G1 X-123.562 Y-34.282
G1 X-142.896 Y-47.066
G1 X-143.032 Y-47.161
G1 X-148.077 Y-50.889
G1 X-148.224 Y-51.004
G1 X-169.18 Y-68.482
G1 X-169.274 Y-68.563
G1 X-169.309 Y-68.595
G1 X-169.45 Y-68.731
G1 X-169.5 Y-68.782
G1 X-187.191 Y-86.831
G1 X-187.291 Y-86.938
G1 X-200.498 Y-101.714
G1 X-200.576 Y-101.804
G1 X-203.488 Y-105.318
G1 X-203.568 Y-105.419
G1 X-205.383 Y-107.8
G1 X-217.349 Y-123.494
G1 X-217.418 Y-123.588
G1 X-225.671 Y-135.277
G1 X-229.743 Y-141.044
G1 X-229.806 Y-141.137
G1 X-239.039 Y-155.252
G1 X-239.083 Y-155.322
G1 X-240.608 Y-157.791
G1 X-240.668 Y-157.892
G1 X-241.055 Y-158.573
G1 X-244.676 Y-164.946
G3 X-244.418 Y-168.469 I2.76 J-1.569
G1 X-243.922 Y-169.104
G3 X-241.42 Y-170.325 I2.502 J1.954
G1 X22.338
G3 X25.452 Y-167.769 I0 J3.175
G1 X25.513 Y-167.463
G1 Y-179.283
G1 X25.452 Y-178.977
G3 X22.338 Y-176.421 I-3.114 J-0.619
G1 X-248.91
G3 X-251.414 Y-177.644 I0 J-3.175
G1 X-251.909 Y-178.279
G3 X-252.236 Y-178.794 I2.504 J-1.952
G1 X-252.892 Y-180.085
G1 X-260.356 Y-194.775
G1 X-260.434 Y-194.941
G1 X-265.178 Y-205.794
G1 X-268.935 Y-214.392
G1 X-269.006 Y-214.568
G1 X-273.83 Y-227.7
G1 X-275.608 Y-232.539
G1 X-275.669 Y-232.72
G1 X-279.897 Y-246.791
G1 X-280.656 Y-249.317
G1 X-280.703 Y-249.494
G1 X-284.093 Y-263.703
G1 X-284.36 Y-264.822
G1 X-284.394 Y-264.984
G1 X-286.953 Y-278.869
G1 X-286.954 Y-278.871
G1 X-287.005 Y-279.149
G1 X-287.026 Y-279.278
G1 X-288.015 Y-286.283
G1 X-288.018 Y-286.303
G1 X-288.837 Y-292.376
G1 X-288.845 Y-292.448
G1 X-288.866 Y-292.636
G1 X-288.868 Y-292.647
G1 X-290.154 Y-304.559
G1 X-290.158 Y-304.599
G1 X-290.807 Y-311.42
G3 X-290.15 Y-313.673 I3.161 J-0.301
G1 X-289.655 Y-314.308
G3 X-287.151 Y-315.531 I2.504 J1.952
G1 X15.875
G3 X18.989 Y-312.975 I0 J3.175
G1 X19.05 Y-312.669
G1 Y-324.489
G1 X18.989 Y-324.183
G3 X15.875 Y-321.627 I-3.114 J-0.619
G1 X-288.38
G3 X-290.884 Y-322.85 I0 J-3.175
G1 X-291.379 Y-323.485
G3 X-292.039 Y-325.171 I2.504 J-1.952
G1 X-292.448 Y-330.043
G1 X-292.45 Y-330.075
G1 X-292.568 Y-331.67
G1 X-292.569 Y-331.677
G1 X-293.321 Y-342.188
G1 X-293.324 Y-342.231
G1 X-293.879 Y-351.776
G1 X-293.88 Y-351.793
G1 X-293.978 Y-353.656
G1 X-293.98 Y-353.704
G1 X-294.631 Y-371.088
G1 X-294.632 Y-371.145
G1 X-294.706 Y-374.924
G1 X-294.707 Y-374.951
G1 X-294.888 Y-391.148
G1 Y-391.218
G1 X-294.707 Y-407.414
G1 X-294.706 Y-407.441
G1 X-294.632 Y-411.22
G1 X-294.631 Y-411.277
G1 X-293.98 Y-428.661
G1 X-293.978 Y-428.709
G1 X-293.88 Y-430.572
G1 X-293.879 Y-430.589
G1 X-293.324 Y-440.134
G1 X-293.321 Y-440.177
G1 X-292.569 Y-450.688
G1 X-292.568 Y-450.695
G1 X-292.45 Y-452.29
G1 X-292.448 Y-452.322
G1 X-292.039 Y-457.194
G3 X-291.379 Y-458.88 I3.164 J0.266
G1 X-290.884 Y-459.515
G3 X-288.38 Y-460.738 I2.504 J1.952
G1 X15.865
G3 X18.979 Y-458.182 I0 J3.175
G1 X19.04 Y-457.876
G1 Y-469.696
G1 X18.979 Y-469.39
G3 X15.865 Y-466.834 I-3.114 J-0.619
G1 X-287.151
G3 X-289.655 Y-468.057 I0 J-3.175
G1 X-290.15 Y-468.692
G3 X-290.807 Y-470.945 I2.504 J-1.952
G1 X-290.158 Y-477.766
G1 X-290.153 Y-477.815
G1 X-290.101 Y-478.284
G1 X-290.098 Y-478.304
G1 X-288.025 Y-495.981
G1 X-288.023 Y-495.998
G1 X-287.672 Y-498.853
G1 X-287.656 Y-498.991
G1 X-287.636 Y-499.127
G1 X-285.772 Y-510.33
G1 X-285.691 Y-510.817
G1 X-285.667 Y-510.944
G1 X-283.286 Y-522.35
G1 X-283.058 Y-523.441
G1 X-283.025 Y-523.584
G1 X-280.084 Y-534.995
G1 X-279.578 Y-536.953
G1 X-279.535 Y-537.105
G1 X-276.063 Y-548.243
G1 X-275.076 Y-551.409
G1 X-275.024 Y-551.563
G1 X-271.155 Y-562.053
G1 X-269.378 Y-566.868
G1 X-269.318 Y-567.019
G1 X-265.314 Y-576.372
G1 X-262.31 Y-583.389
G1 X-262.244 Y-583.532
G1 X-258.535 Y-591.126
G1 X-253.698 Y-601.03
G1 X-253.629 Y-601.164
G1 X-252.259 Y-603.661
G3 X-251.977 Y-604.088 I2.784 J1.527
G1 X-251.481 Y-604.723
G3 X-248.979 Y-605.944 I2.502 J1.954
G1 X22.283
G3 X25.397 Y-603.388 I0 J3.175
G1 X25.458 Y-603.082
G1 Y-614.902
G1 X25.397 Y-614.596
G3 X22.283 Y-612.04 I-3.114 J-0.619
G1 X-241.452
G3 X-243.954 Y-613.261 I0 J-3.175
G1 X-244.45 Y-613.896
G3 X-244.731 Y-617.378 I2.502 J-1.954
G1 X-243.371 Y-619.856
G1 X-243.3 Y-619.979
G1 X-242.351 Y-621.538
G1 X-239.093 Y-626.89
G1 X-239.049 Y-626.96
G1 X-232.561 Y-637.018
G1 X-230.64 Y-639.997
G1 X-230.563 Y-640.111
G1 X-221.722 Y-652.596
G1 X-215.534 Y-661.335
G1 X-215.449 Y-661.45
G1 X-210.463 Y-667.856
G1 X-200.636 Y-680.484
G1 X-200.562 Y-680.576
G1 X-198.893 Y-682.563
G1 X-198.032 Y-683.59
G1 X-197.922 Y-683.715
G1 X-186.048 Y-696.455
G1 X-177.273 Y-705.87
G1 X-177.139 Y-706.005
G1 X-173.562 Y-709.409
G1 X-169.344 Y-713.423
G1 X-169.23 Y-713.526
G1 X-160.445 Y-721.111
G1 X-152.881 Y-727.644
G1 X-152.709 Y-727.782
G1 X-147.455 Y-731.717
G1 X-143.053 Y-735.014
G1 X-142.918 Y-735.11
G1 X-134.132 Y-740.999
G1 X-123.579 Y-748.072
G1 X-123.389 Y-748.19
G1 X-121.459 Y-749.295
G1 X-120.063 Y-750.095
G1 X-120.044 Y-750.106
G1 X-120.005 Y-750.128
G1 X-119.883 Y-750.194
G1 X-118.676 Y-750.807
G3 X-117.238 Y-751.151 I1.438 J2.831
G1 X30.261
G3 X33.375 Y-748.595 I0 J3.175
G1 X33.436 Y-748.289
G1 Y-760.109
G1 X33.375 Y-759.803
G3 X30.261 Y-757.247 I-3.114 J-0.619
G1 X-89.885
G3 X-92.389 Y-758.469 I0 J-3.175
G1 X-92.884 Y-759.104
G3 X-92.333 Y-763.56 I2.503 J-1.953
G3 X-91.499 Y-764.029 I1.953 J2.503
G1 X-84.212 Y-766.771
G1 X-80.092 Y-768.321
G1 X-79.967 Y-768.366
G1 X-71.56 Y-771.135
G1 X-62.025 Y-774.278
G1 X-61.891 Y-774.318
G1 X-59.187 Y-775.079
G1 X-52.477 Y-776.969
G1 X-52.339 Y-777.005
G1 X-46.447 Y-778.383
G1 X-44.686 Y-778.794
G1 X-44.559 Y-778.821
G1 X-33.255 Y-780.983
G1 X-28.255 Y-781.94
G1 X-28.114 Y-781.963
G1 X-20.06 Y-783.129
G1 X-12.457 Y-784.23
G1 X-12.303 Y-784.249
G1 X-6.684 Y-784.785
G1 X2.902 Y-785.7
G1 X3.04 Y-785.71
G1 X7.058 Y-785.917
G1 X18.073 Y-786.485
G1 X18.186 Y-786.489
G1 X21.351 Y-786.54
G1 X33.277 Y-786.729
G1 X33.365
G1 X36.348 Y-786.694
G1 X48.673 Y-786.549
G1 X48.747 Y-786.547
G1 X52.168 Y-786.427
G1 X64.394 Y-785.998
G1 X64.499 Y-785.993
G1 X69.126 Y-785.677
G1 X80.714 Y-784.894
G1 X80.817 Y-784.885
G1 X84.072 Y-784.558
G1 X89.264 Y-784.046
G1 X89.346 Y-784.036
G1 X93.522 Y-783.514
G1 X98.123 Y-782.947
G1 X98.211 Y-782.935
G1 X103.695 Y-782.103
G1 X107.426 Y-781.545
G1 X107.519 Y-781.53
G1 X114.865 Y-780.21
G1 X117.315 Y-779.775
G1 X117.407 Y-779.758
G1 X127.404 Y-777.679
G1 X127.948 Y-777.566
G1 X128.03 Y-777.548
G1 X130.414 Y-776.987
G1 X130.553 Y-776.951
G1 X139.541 Y-774.403
G1 X139.639 Y-774.373
G1 X143.198 Y-773.239
G1 X151.871 Y-770.493
G1 X151.97 Y-770.46
G1 X161.876 Y-766.962
G1 X165.116 Y-765.825
G1 X165.218 Y-765.787
G1 X171.327 Y-763.407
G1 X171.518 Y-763.326
G1 X179.444 Y-759.623
G1 X179.561 Y-759.565
G1 X187.27 Y-755.569
G1 X194.48 Y-751.849
G1 X194.604 Y-751.781
G1 X201.281 Y-747.949
G1 X201.385 Y-747.887
G1 X201.487 Y-747.82
G1 X210.521 Y-741.676
G1 X210.658 Y-741.578
G1 X223.702 Y-731.652
G1 X227.096 Y-729.078
G1 X227.236 Y-728.965
G1 X229.307 Y-727.201
G1 X229.399 Y-727.12
G1 X229.487 Y-727.035
G1 X244.286 Y-712.311
G1 X244.4 Y-712.192
G1 X250.75 Y-705.184
G1 X250.881 Y-705.03
G1 X261.875 Y-691.222
G1 X261.96 Y-691.11
G1 X268.126 Y-682.62
G1 X268.217 Y-682.487
G1 X279.741 Y-664.793
G1 X279.806 Y-664.69
G1 X282.455 Y-660.262
G1 X282.519 Y-660.15
G1 X287.463 Y-651.063
G1 X294.076 Y-638.93
G1 X294.129 Y-638.828
G1 X297.87 Y-631.325
G1 X297.916 Y-631.228
G1 X303.577 Y-618.849
G1 X303.626 Y-618.736
G1 X307.913 Y-608.313
G1 X311.292 Y-600.159
G1 X311.34 Y-600.037
G1 X316.048 Y-587.212
G1 X316.079 Y-587.123
G1 X317.596 Y-582.575
G1 X317.636 Y-582.444
G1 X318.22 Y-580.406
G1 X322.369 Y-566.23
G1 X322.405 Y-566.096
G1 X324.178 Y-558.881
G1 X326.185 Y-550.952
G1 X326.216 Y-550.816
G1 X328.307 Y-540.705
G1 X329.173 Y-536.673
G1 X329.199 Y-536.54
G1 X331.179 Y-524.929
G1 X331.465 Y-523.329
G1 X331.485 Y-523.201
G1 X333.17 Y-510.951
G1 X333.184 Y-510.853
G1 X333.198 Y-510.74
G1 X333.337 Y-509.463
G1 X333.342 Y-509.418
G1 X334.317 Y-499.116
G1 X334.326 Y-498.999
G1 X334.42 Y-497.357
G1 X335.728 Y-477.985
G1 X335.732 Y-477.909
G1 X335.84 Y-475.417
G1 X336.404 Y-464.537
G1 X336.406 Y-464.49
G1 X336.516 Y-461.508
G1 X336.916 Y-452.139
G1 X336.918 Y-452.098
G1 X337.015 Y-448.834
G1 X337.293 Y-440.623
G1 X337.294 Y-440.59
G1 X337.373 Y-437.181
G1 X337.559 Y-429.845
G1 X337.56 Y-429.809
G1 X337.654 Y-422.95
G1 X337.834 Y-409.928
G1 Y-409.895
G1 X337.858 Y-403.013
G1 Y-403.011
G1 X337.893 Y-391.192
G1 Y-391.172
G1 X337.868 Y-384.245
G1 X337.834 Y-372.472
G1 Y-372.437
G1 X337.737 Y-365.38
G1 X337.56 Y-352.557
G1 X337.559 Y-352.528
G1 X337.478 Y-349.01
G1 Y-349.002
G1 X337.294 Y-341.768
G1 Y-341.755
G1 X337.192 Y-338.31
G1 X337.191 Y-338.296
G1 X336.917 Y-330.254
G1 Y-330.247
G1 X336.798 Y-326.974
G1 X336.797 Y-326.952
G1 X336.405 Y-317.855
G1 X336.278 Y-314.901
G1 X336.277 Y-314.871
G1 X335.731 Y-304.431
G1 X335.628 Y-302.4
G1 X335.626 Y-302.363
G1 X335.001 Y-292.337
G1 X335 Y-292.322
G1 X334.901 Y-290.851
G1 X334.898 Y-290.81
G1 X333.974 Y-279.294
G1 X333.97 Y-279.254
G1 X333.916 Y-278.674
G1 X333.912 Y-278.631
G1 X333.337 Y-273.238
G1 X333.332 Y-273.196
G1 X332.449 Y-265.852
G1 X332.445 Y-265.818
G1 X332.352 Y-265.109
G1 X332.341 Y-265.032
G1 X330.368 Y-252.407
G1 X330.362 Y-252.372
G1 X329.934 Y-249.821
G1 X329.918 Y-249.731
G1 X327.706 Y-238.529
G1 X327.699 Y-238.493
G1 X326.603 Y-233.258
G1 X326.581 Y-233.161
G1 X324.443 Y-224.338
G1 X324.434 Y-224.303
G1 X322.148 Y-215.319
G1 X322.121 Y-215.219
G1 X320.601 Y-209.97
G1 X320.591 Y-209.936
G1 X316.355 Y-195.896
G1 X316.324 Y-195.801
G1 X316.248 Y-195.575
G1 X316.235 Y-195.536
G1 X316.061 Y-195.04
G1 X316.034 Y-194.965
G1 X310.622 Y-180.692
G1 X310.613 Y-180.67
G1 X308.327 Y-174.773
G1 X308.291 Y-174.684
G1 X305.416 Y-167.891
G1 X305.408 Y-167.873
G1 X301.598 Y-159.023
G1 X301.567 Y-158.953
G1 X300.426 Y-156.468
G1 X300.419 Y-156.452
G1 X297.905 Y-151.058
G1 X297.863 Y-150.971
G1 X294.813 Y-144.916
G1 X294.808 Y-144.906
G1 X293.486 Y-142.304
G1 X293.447 Y-142.231
G1 X288.62 Y-133.311
G1 X288.616 Y-133.303
G1 X283.966 Y-124.771
G1 X283.92 Y-124.69
G1 X282.321 Y-121.95
G1 X282.316 Y-121.942
G1 X279.82 Y-117.694
G1 X279.761 Y-117.596
G1 X275.351 Y-110.674
G1 X275.348 Y-110.67
G1 X272.655 Y-106.458
G1 X272.59 Y-106.36
G1 X267.991 Y-99.723
G1 X267.986 Y-99.716
G1 X262.025 Y-91.159
G1 X261.947 Y-91.051
G1 X260.552 Y-89.217
G1 X260.549 Y-89.213
G1 X259.513 Y-87.856
G1 X259.423 Y-87.744
G1 X252.213 Y-79.135
G1 X252.207 Y-79.127
G1 X244.53 Y-70.016
G1 X244.425 Y-69.898
G1 X244.171 Y-69.625
G1 X243.94 Y-69.378
G1 X243.819 Y-69.254
G1 X234.987 Y-60.753
G1 X234.977 Y-60.743
G1 X227.377 Y-53.493
G1 X227.252 Y-53.381
G1 X226.198 Y-52.476
G1 X226.189 Y-52.469
G1 X224.986 Y-51.443
G1 X224.837 Y-51.324
G1 X216.405 Y-44.975
G1 X216.39 Y-44.965
G1 X210.646 Y-40.691
G1 X210.526 Y-40.606
G1 X206.821 Y-38.107
G1 X206.809 Y-38.099
G1 X201.464 Y-34.53
G1 X201.316 Y-34.437
G1 X197.547 Y-32.21
G1 X197.533 Y-32.202
G1 X194.641 Y-30.513
G1 X194.533 Y-30.453
G1 X188.687 Y-27.338
G1 X188.676 Y-27.332
G1 X181.025 Y-23.295
G1 X180.889 Y-23.227
G1 X180.013 Y-22.817
G1 X180 Y-22.811
G1 X179.463 Y-22.562
G1 X179.37 Y-22.521
G1 X170.81 Y-18.889
G1 X170.799 Y-18.885
G1 X165.29 Y-16.572
G1 X165.2 Y-16.536
G1 X161.928 Y-15.279
G1 X161.918 Y-15.275
G1 X155.827 Y-12.958
G1 X155.705 Y-12.914
G1 X153.057 Y-12.028
G1 X153.047 Y-12.025
G1 X151.925 Y-11.654
G1 X151.846 Y-11.629
G1 X144.035 Y-9.27
G1 X144.026 Y-9.267
G1 X139.59 Y-7.941
G1 X139.51 Y-7.918
G1 X135.311 Y-6.783
G1 X135.303 Y-6.78
G1 X128.12 Y-4.858
G1 X128.037 Y-4.837
G1 X126.843 Y-4.552
G1 X126.835 Y-4.55
G1 X122.842 Y-3.606
G1 X122.759 Y-3.588
G1 X118.412 Y-2.684
G1 X118.404 Y-2.682
G1 X117.383 Y-2.472
G1 X117.305 Y-2.457
G1 X110.1 Y-1.163
G1 X110.093 Y-1.162
G1 X107.495 Y-0.702
G1 X107.417 Y-0.689
G1 X102.019 Y0.129
G1 X102.012 Y0.13
G1 X98.188 Y0.702
G1 X98.112 Y0.713
G1 X94.11 Y1.213
G1 X94.105
G1 X89.323 Y1.803
G1 X89.252 Y1.811
G1 X86.325 Y2.104
G1 X86.321 Y2.105
G1 X80.796 Y2.651
G1 X80.699 Y2.659
G1 X76.737 Y2.93
G1 X76.735
G1 X64.479 Y3.758
G1 X64.377 Y3.763
G1 X62.36 Y3.834
G1 X48.73 Y4.312
G1 X48.656 Y4.313
G1 X47.651 Y4.325
G1 X33.348 Y4.493
G1 X33.26
G1 X32.578 Y4.482
G1 X18.169 Y4.254
G0 Z6.096
G0 X18.056 Y4.25
G1 Z-4.309 F508.
G1 Z-12.7
G1 X16.818 Y4.186
G1 X3.023 Y3.475
G1 X2.885 Y3.465
G1 X-0.301 Y3.161
G1 X-12.319 Y2.014
G1 X-12.473 Y1.996
G1 X-20.017 Y0.904
G1 X-28.129 Y-0.27
G1 X-28.271 Y-0.294
G1 X-44.128 Y-3.327
G1 X-44.573 Y-3.412
G1 X-44.699 Y-3.438
G1 X-45.359 Y-3.593
G1 X-45.456 Y-3.617
G1 X-61.847 Y-7.995
G1 X-61.975 Y-8.032
G1 X-77.363 Y-12.841
G1 X-77.481 Y-12.88
G1 X-80.038 Y-13.791
G1 X-80.17 Y-13.841
G1 X-87.735 Y-16.917
G1 X-91.301 Y-18.367
G3 X-93.046 Y-22.504 I1.196 J-2.941
G3 X-92.609 Y-23.261 I2.941 J1.196
G1 X-92.113 Y-23.896
G3 X-89.61 Y-25.118 I2.503 J1.953
G1 X30.26
G3 X33.374 Y-22.563 I0 J3.175
G1 X33.435 Y-22.256
G1 Y-34.077
G1 X33.374 Y-33.77
G3 X30.26 Y-31.215 I-3.114 J-0.619
G1 X-117.35
G3 X-118.813 Y-31.572 I0 J-3.175
G1 X-119.906 Y-32.139
G1 X-120.048 Y-32.218
G1 X-123.416 Y-34.191
G1 X-123.562 Y-34.282
G1 X-142.896 Y-47.066
G1 X-143.032 Y-47.161
G1 X-148.077 Y-50.889
G1 X-148.224 Y-51.004
G1 X-169.18 Y-68.482
G1 X-169.274 Y-68.563
G1 X-169.309 Y-68.595
G1 X-169.45 Y-68.731
G1 X-169.5 Y-68.782
G1 X-183.289 Y-82.85
G1 Z-10.16
G1 X-187.191 Y-86.831
G1 X-187.291 Y-86.938
G1 X-191.1 Y-91.199
G1 Z-12.7
G1 X-200.498 Y-101.714
G1 X-200.576 Y-101.804
G1 X-203.488 Y-105.318
G1 X-203.568 Y-105.419
G1 X-205.383 Y-107.8
G1 X-217.349 Y-123.494
G1 X-217.418 Y-123.588
G1 X-225.671 Y-135.277
G1 X-229.743 Y-141.044
G1 X-229.806 Y-141.137
G1 X-239.039 Y-155.252
G1 X-239.083 Y-155.322
G1 X-240.608 Y-157.791
G1 X-240.668 Y-157.892
G1 X-241.055 Y-158.573
G1 X-244.676 Y-164.946
G3 X-244.418 Y-168.469 I2.76 J-1.569
G1 X-243.922 Y-169.104
G3 X-241.42 Y-170.325 I2.502 J1.954
G1 X22.338
G3 X25.452 Y-167.769 I0 J3.175
G1 X25.513 Y-167.463
G1 Y-179.283
G1 X25.452 Y-178.977
G3 X22.338 Y-176.421 I-3.114 J-0.619
G1 X-248.91
G3 X-251.414 Y-177.644 I0 J-3.175
G1 X-251.909 Y-178.279
G3 X-252.236 Y-178.794 I2.504 J-1.952
G1 X-252.892 Y-180.085
G1 X-260.356 Y-194.775
G1 X-260.434 Y-194.941
G1 X-265.178 Y-205.794
G1 X-268.935 Y-214.392
G1 X-269.006 Y-214.568
G1 X-271.86 Y-222.336
G1 Z-10.16
G1 X-273.83 Y-227.7
G1 X-275.608 Y-232.539
G1 X-275.669 Y-232.72
G1 X-275.775 Y-233.074
G1 Z-12.7
G1 X-279.897 Y-246.791
G1 X-280.656 Y-249.317
G1 X-280.703 Y-249.494
G1 X-284.093 Y-263.703
G1 X-284.36 Y-264.822
G1 X-284.394 Y-264.984
G1 X-286.953 Y-278.869
G1 X-286.954 Y-278.871
G1 X-287.005 Y-279.149
G1 X-287.026 Y-279.278
G1 X-288.015 Y-286.283
G1 X-288.018 Y-286.303
G1 X-288.837 Y-292.376
G1 X-288.845 Y-292.448
G1 X-288.866 Y-292.636
G1 X-288.868 Y-292.647
G1 X-290.154 Y-304.559
G1 X-290.158 Y-304.599
G1 X-290.807 Y-311.42
G3 X-290.15 Y-313.673 I3.161 J-0.301
G1 X-289.655 Y-314.308
G3 X-287.151 Y-315.531 I2.504 J1.952
G1 X15.875
G3 X18.989 Y-312.975 I0 J3.175
G1 X19.05 Y-312.669
G1 Y-324.489
G1 X18.989 Y-324.183
G3 X15.875 Y-321.627 I-3.114 J-0.619
G1 X-288.38
G3 X-290.884 Y-322.85 I0 J-3.175
G1 X-291.379 Y-323.485
G3 X-292.039 Y-325.171 I2.504 J-1.952
G1 X-292.448 Y-330.043
G1 X-292.45 Y-330.075
G1 X-292.568 Y-331.67
G1 X-292.569 Y-331.677
G1 X-293.321 Y-342.188
G1 X-293.324 Y-342.231
G1 X-293.879 Y-351.776
G1 X-293.88 Y-351.793
G1 X-293.978 Y-353.656
G1 X-293.98 Y-353.704
G1 X-294.561 Y-369.237
G1 Z-10.16
G1 X-294.631 Y-371.088
G1 X-294.632 Y-371.145
G1 X-294.706 Y-374.924
G1 X-294.707 Y-374.951
G1 X-294.771 Y-380.665
G1 Z-12.7
G1 X-294.888 Y-391.148
G1 Y-391.218
G1 X-294.707 Y-407.414
G1 X-294.706 Y-407.441
G1 X-294.632 Y-411.22
G1 X-294.631 Y-411.277
G1 X-293.98 Y-428.661
G1 X-293.978 Y-428.709
G1 X-293.88 Y-430.572
G1 X-293.879 Y-430.589
G1 X-293.324 Y-440.134
G1 X-293.321 Y-440.177
G1 X-292.569 Y-450.688
G1 X-292.568 Y-450.695
G1 X-292.45 Y-452.29
G1 X-292.448 Y-452.322
G1 X-292.039 Y-457.194
G3 X-291.379 Y-458.88 I3.164 J0.266
G1 X-290.884 Y-459.515
G3 X-288.38 Y-460.738 I2.504 J1.952
G1 X15.865
G3 X18.979 Y-458.182 I0 J3.175
G1 X19.04 Y-457.876
G1 Y-469.696
G1 X18.979 Y-469.39
G3 X15.865 Y-466.834 I-3.114 J-0.619
G1 X-287.151
G3 X-289.655 Y-468.057 I0 J-3.175
G1 X-290.15 Y-468.692
G3 X-290.807 Y-470.945 I2.504 J-1.952
G1 X-290.158 Y-477.766
G1 X-290.153 Y-477.815
G1 X-290.101 Y-478.284
G1 X-290.098 Y-478.304
G1 X-288.025 Y-495.981
G1 X-288.023 Y-495.998
G1 X-287.672 Y-498.853
G1 X-287.656 Y-498.991
G1 X-287.636 Y-499.127
G1 X-285.772 Y-510.33
G1 X-285.691 Y-510.817
G1 X-285.667 Y-510.944
G1 X-283.286 Y-522.35
G1 X-283.058 Y-523.441
G1 X-283.025 Y-523.584
G1 X-280.084 Y-534.995
G1 X-279.578 Y-536.953
G1 X-279.535 Y-537.105
G1 X-276.731 Y-546.101
G1 Z-10.16
G1 X-276.063 Y-548.243
G1 X-275.076 Y-551.409
G1 X-275.024 Y-551.563
G1 X-273.046 Y-556.925
G1 Z-12.7
G1 X-271.155 Y-562.053
G1 X-269.378 Y-566.868
G1 X-269.318 Y-567.019
G1 X-265.314 Y-576.372
G1 X-262.31 Y-583.389
G1 X-262.244 Y-583.532
G1 X-258.535 Y-591.126
G1 X-253.698 Y-601.03
G1 X-253.629 Y-601.164
G1 X-252.259 Y-603.661
G3 X-251.977 Y-604.088 I2.784 J1.527
G1 X-251.481 Y-604.723
G3 X-248.979 Y-605.944 I2.502 J1.954
G1 X22.283
G3 X25.397 Y-603.388 I0 J3.175
G1 X25.458 Y-603.082
G1 Y-614.902
G1 X25.397 Y-614.596
G3 X22.283 Y-612.04 I-3.114 J-0.619
G1 X-241.452
G3 X-243.954 Y-613.261 I0 J-3.175
G1 X-244.45 Y-613.896
G3 X-244.731 Y-617.378 I2.502 J-1.954
G1 X-243.371 Y-619.856
G1 X-243.3 Y-619.979
G1 X-242.351 Y-621.538
G1 X-239.093 Y-626.89
G1 X-239.049 Y-626.96
G1 X-232.561 Y-637.018
G1 X-230.64 Y-639.997
G1 X-230.563 Y-640.111
G1 X-221.722 Y-652.596
G1 X-215.534 Y-661.335
G1 X-215.449 Y-661.45
G1 X-210.463 Y-667.856
G1 X-200.636 Y-680.484
G1 X-200.562 Y-680.576
G1 X-198.893 Y-682.563
G1 X-198.032 Y-683.59
G1 X-197.922 Y-683.715
G1 X-186.048 Y-696.455
G1 X-177.674 Y-705.44
G1 Z-10.16
G1 X-177.273 Y-705.87
G1 X-177.139 Y-706.005
G1 X-173.562 Y-709.409
G1 X-169.422 Y-713.349
G1 Z-12.7
G1 X-169.344 Y-713.423
G1 X-169.23 Y-713.526
G1 X-160.445 Y-721.111
G1 X-152.881 Y-727.644
G1 X-152.709 Y-727.782
G1 X-147.455 Y-731.717
G1 X-143.053 Y-735.014
G1 X-142.918 Y-735.11
G1 X-134.132 Y-740.999
G1 X-123.579 Y-748.072
G1 X-123.389 Y-748.19
G1 X-121.459 Y-749.295
G1 X-120.063 Y-750.095
G1 X-120.044 Y-750.106
G1 X-120.005 Y-750.128
G1 X-119.883 Y-750.194
G1 X-118.676 Y-750.807
G3 X-117.238 Y-751.151 I1.438 J2.831
G1 X30.261
G3 X33.375 Y-748.595 I0 J3.175
G1 X33.436 Y-748.289
G1 Y-760.109
G1 X33.375 Y-759.803
G3 X30.261 Y-757.247 I-3.114 J-0.619
G1 X-89.885
G3 X-92.389 Y-758.469 I0 J-3.175
G1 X-92.884 Y-759.104
G3 X-92.333 Y-763.56 I2.503 J-1.953
G3 X-91.499 Y-764.029 I1.953 J2.503
G1 X-84.212 Y-766.771
G1 X-80.092 Y-768.321
G1 X-79.967 Y-768.366
G1 X-71.56 Y-771.135
G1 X-62.025 Y-774.278
G1 X-61.891 Y-774.318
G1 X-59.187 Y-775.079
G1 X-52.477 Y-776.969
G1 X-52.339 Y-777.005
G1 X-46.447 Y-778.383
G1 X-44.686 Y-778.794
G1 X-44.559 Y-778.821
G1 X-33.255 Y-780.983
G1 X-28.255 Y-781.94
G1 X-28.114 Y-781.963
G1 X-20.06 Y-783.129
G1 X-12.457 Y-784.23
G1 X-12.303 Y-784.249
G1 X-6.684 Y-784.785
G1 X2.902 Y-785.7
G1 X3.04 Y-785.71
G1 X7.058 Y-785.917
G1 X18.073 Y-786.485
G1 X18.186 Y-786.489
G1 X21.351 Y-786.54
G1 X33.277 Y-786.729
G1 X33.365
G1 X36.348 Y-786.694
G1 X48.673 Y-786.549
G1 X48.747 Y-786.547
G1 X52.168 Y-786.427
G1 X64.394 Y-785.998
G1 X64.499 Y-785.993
G1 X69.126 Y-785.677
G1 X80.714 Y-784.894
G1 X80.817 Y-784.885
G1 X84.072 Y-784.558
G1 X89.264 Y-784.046
G1 X89.346 Y-784.036
G1 X92.537 Y-783.637
G1 Z-10.16
G1 X93.522 Y-783.514
G1 X98.123 Y-782.947
G1 X98.211 Y-782.935
G1 X103.695 Y-782.103
G1 X103.862 Y-782.078
G1 Z-12.7
G1 X107.426 Y-781.545
G1 X107.519 Y-781.53
G1 X114.865 Y-780.21
G1 X117.315 Y-779.775
G1 X117.407 Y-779.758
G1 X127.404 Y-777.679
G1 X127.948 Y-777.566
G1 X128.03 Y-777.548
G1 X130.414 Y-776.987
G1 X130.553 Y-776.951
G1 X139.541 Y-774.403
G1 X139.639 Y-774.373
G1 X143.198 Y-773.239
G1 X151.871 Y-770.493
G1 X151.97 Y-770.46
G1 X161.876 Y-766.962
G1 X165.116 Y-765.825
G1 X165.218 Y-765.787
G1 X171.327 Y-763.407
G1 X171.518 Y-763.326
G1 X179.444 Y-759.623
G1 X179.561 Y-759.565
G1 X187.27 Y-755.569
G1 X194.48 Y-751.849
G1 X194.604 Y-751.781
G1 X201.281 Y-747.949
G1 X201.385 Y-747.887
G1 X201.487 Y-747.82
G1 X210.521 Y-741.676
G1 X210.658 Y-741.578
G1 X222.679 Y-732.43
G1 Z-10.16
G1 X223.702 Y-731.652
G1 X227.096 Y-729.078
G1 X227.236 Y-728.965
G1 X229.307 Y-727.201
G1 X229.399 Y-727.12
G1 X229.487 Y-727.035
G1 X231.442 Y-725.09
G1 Z-12.7
G1 X244.286 Y-712.311
G1 X244.4 Y-712.192
G1 X250.75 Y-705.184
G1 X250.881 Y-705.03
G1 X261.875 Y-691.222
G1 X261.96 Y-691.11
G1 X268.126 Y-682.62
G1 X268.217 Y-682.487
G1 X279.741 Y-664.793
G1 X279.806 Y-664.69
G1 X282.455 Y-660.262
G1 X282.519 Y-660.15
G1 X287.463 Y-651.063
G1 X294.076 Y-638.93
G1 X294.129 Y-638.828
G1 X295.366 Y-636.347
G1 Z-10.16
G1 X297.87 Y-631.325
G1 X297.916 Y-631.228
G1 X300.293 Y-626.031
G1 Z-12.7
G1 X303.577 Y-618.849
G1 X303.626 Y-618.736
G1 X307.913 Y-608.313
G1 X311.292 Y-600.159
G1 X311.34 Y-600.037
G1 X316.048 Y-587.212
G1 X316.079 Y-587.123
G1 X317.596 Y-582.575
G1 X317.636 Y-582.444
G1 X318.22 Y-580.406
G1 X322.369 Y-566.23
G1 X322.405 Y-566.096
G1 X324.178 Y-558.881
G1 X326.185 Y-550.952
G1 X326.216 Y-550.816
G1 X328.307 Y-540.705
G1 X329.173 Y-536.673
G1 X329.199 Y-536.54
G1 X331.179 Y-524.929
G1 X331.465 Y-523.329
G1 X331.485 Y-523.201
G1 X332.389 Y-516.629
G1 Z-10.16
G1 X333.17 Y-510.951
G1 X333.184 Y-510.853
G1 X333.198 Y-510.74
G1 X333.337 Y-509.463
G1 X333.342 Y-509.418
G1 X333.734 Y-505.274
G1 Z-12.7
G1 X334.317 Y-499.116
G1 X334.326 Y-498.999
G1 X334.42 Y-497.357
G1 X335.728 Y-477.985
G1 X335.732 Y-477.909
G1 X335.84 Y-475.417
G1 X336.404 Y-464.537
G1 X336.406 Y-464.49
G1 X336.516 Y-461.508
G1 X336.916 Y-452.139
G1 X336.918 Y-452.098
G1 X337.015 Y-448.834
G1 X337.293 Y-440.623
G1 X337.294 Y-440.59
G1 X337.373 Y-437.181
G1 X337.559 Y-429.845
G1 X337.56 Y-429.809
G1 X337.654 Y-422.95
G1 X337.834 Y-409.928
G1 Y-409.895
G1 X337.858 Y-403.013
G1 Y-403.011
G1 X337.893 Y-391.192
G1 Y-391.172
G1 X337.89 Y-390.41
G1 Z-10.16
G1 X337.868 Y-384.245
G1 X337.853 Y-378.98
G1 Z-12.7
G1 X337.834 Y-372.472
G1 Y-372.437
G1 X337.737 Y-365.38
G1 X337.638 Y-358.242
G1 Z-10.16
G1 X337.56 Y-352.557
G1 X337.559 Y-352.528
G1 X337.478 Y-349.01
G1 Y-349.002
G1 X337.422 Y-346.814
G1 Z-12.7
G1 X337.294 Y-341.768
G1 Y-341.755
G1 X337.192 Y-338.31
G1 X337.191 Y-338.296
G1 X336.917 Y-330.254
G1 Y-330.247
G1 X336.798 Y-326.974
G1 X336.797 Y-326.952
G1 X336.405 Y-317.855
G1 X336.278 Y-314.901
G1 X336.277 Y-314.871
G1 X335.731 Y-304.431
G1 X335.628 Y-302.4
G1 X335.626 Y-302.363
G1 X335.001 Y-292.337
G1 X335 Y-292.322
G1 X334.901 Y-290.851
G1 X334.898 Y-290.81
G1 X333.974 Y-279.294
G1 X333.97 Y-279.254
G1 X333.916 Y-278.674
G1 X333.912 Y-278.631
G1 X333.337 Y-273.238
G1 X333.332 Y-273.196
G1 X332.449 Y-265.852
G1 X332.445 Y-265.818
G1 X332.352 Y-265.109
G1 X332.341 Y-265.032
G1 X330.368 Y-252.407
G1 X330.362 Y-252.372
G1 X329.934 Y-249.821
G1 X329.918 Y-249.731
G1 X327.706 Y-238.529
G1 X327.699 Y-238.493
G1 X326.603 Y-233.258
G1 X326.581 Y-233.161
G1 X324.443 Y-224.338
G1 X324.434 Y-224.303
G1 X322.148 Y-215.319
G1 X322.121 Y-215.219
G1 X320.601 Y-209.97
G1 X320.591 Y-209.936
G1 X316.355 Y-195.896
G1 X316.324 Y-195.801
G1 X316.248 Y-195.575
G1 X316.235 Y-195.536
G1 X316.061 Y-195.04
G1 X316.034 Y-194.965
G1 X310.622 Y-180.692
G1 X310.613 Y-180.67
G1 X310.359 Y-180.014
G1 Z-10.16
G1 X308.327 Y-174.773
G1 X308.291 Y-174.684
G1 X306.063 Y-169.421
G1 Z-12.7
G1 X305.416 Y-167.891
G1 X305.408 Y-167.873
G1 X301.598 Y-159.023
G1 X301.567 Y-158.953
G1 X300.426 Y-156.468
G1 X300.419 Y-156.452
G1 X297.905 Y-151.058
G1 X297.863 Y-150.971
G1 X294.813 Y-144.916
G1 X294.808 Y-144.906
G1 X293.486 Y-142.304
G1 X293.447 Y-142.231
G1 X288.62 Y-133.311
G1 X288.616 Y-133.303
G1 X283.966 Y-124.771
G1 X283.92 Y-124.69
G1 X282.321 Y-121.95
G1 X282.316 Y-121.942
G1 X279.82 Y-117.694
G1 X279.761 Y-117.596
G1 X275.351 Y-110.674
G1 X275.348 Y-110.67
G1 X272.655 Y-106.458
G1 X272.59 Y-106.36
G1 X267.991 Y-99.723
G1 X267.986 Y-99.716
G1 X262.025 Y-91.159
G1 X261.947 Y-91.051
G1 X260.552 Y-89.217
G1 X260.549 Y-89.213
G1 X259.513 Y-87.856
G1 X259.423 Y-87.744
G1 X252.213 Y-79.135
G1 X252.207 Y-79.127
G1 X247.872 Y-73.983
G1 Z-10.16
G1 X244.53 Y-70.016
G1 X244.425 Y-69.898
G1 X244.171 Y-69.625
G1 X243.94 Y-69.378
G1 X243.819 Y-69.254
G1 X240.062 Y-65.638
G1 Z-12.7
G1 X234.987 Y-60.753
G1 X234.977 Y-60.743
G1 X227.377 Y-53.493
G1 X227.252 Y-53.381
G1 X226.198 Y-52.476
G1 X226.189 Y-52.469
G1 X224.986 Y-51.443
G1 X224.837 Y-51.324
G1 X216.405 Y-44.975
G1 X216.39 Y-44.965
G1 X210.646 Y-40.691
G1 X210.526 Y-40.606
G1 X206.821 Y-38.107
G1 X206.809 Y-38.099
G1 X201.464 Y-34.53
G1 X201.316 Y-34.437
G1 X197.547 Y-32.21
G1 X197.533 Y-32.202
G1 X194.641 Y-30.513
G1 X194.533 Y-30.453
G1 X188.687 Y-27.338
G1 X188.676 Y-27.332
G1 X181.025 Y-23.295
G1 X180.889 Y-23.227
G1 X180.013 Y-22.817
G1 X180 Y-22.811
G1 X179.463 Y-22.562
G1 X179.37 Y-22.521
G1 X170.81 Y-18.889
G1 X170.799 Y-18.885
G1 X165.29 Y-16.572
G1 X165.2 Y-16.536
G1 X161.928 Y-15.279
G1 X161.918 Y-15.275
G1 X155.827 Y-12.958
G1 X155.705 Y-12.914
G1 X153.057 Y-12.028
G1 X153.047 Y-12.025
G1 X151.925 Y-11.654
G1 X151.846 Y-11.629
G1 X144.035 Y-9.27
G1 X144.026 Y-9.267
G1 X139.59 Y-7.941
G1 X139.51 Y-7.918
G1 X135.311 Y-6.783
G1 X135.303 Y-6.78
G1 X128.12 Y-4.858
G1 X128.037 Y-4.837
G1 X126.843 Y-4.552
G1 X126.835 Y-4.55
G1 X123.993 Y-3.878
G1 Z-10.16
G1 X122.842 Y-3.606
G1 X122.759 Y-3.588
G1 X118.412 Y-2.684
G1 X118.404 Y-2.682
G1 X117.383 Y-2.472
G1 X117.305 Y-2.457
G1 X112.783 Y-1.645
G1 Z-12.7
G1 X110.1 Y-1.163
G1 X110.093 Y-1.162
G1 X107.495 Y-0.702
G1 X107.417 Y-0.689
G1 X102.019 Y0.129
G1 X102.012 Y0.13
G1 X98.188 Y0.702
G1 X98.112 Y0.713
G1 X94.11 Y1.213
G1 X94.105
G1 X89.323 Y1.803
G1 X89.252 Y1.811
G1 X86.325 Y2.104
G1 X86.321 Y2.105
G1 X80.796 Y2.651
G1 X80.699 Y2.659
G1 X76.737 Y2.93
G1 X76.735
G1 X64.479 Y3.758
G1 X64.377 Y3.763
G1 X62.36 Y3.834
G1 X48.73 Y4.312
G1 X48.656 Y4.313
G1 X47.651 Y4.325
G1 X33.348 Y4.493
G1 X33.26
G1 X32.578 Y4.482
G1 X18.169 Y4.254
G1 X18.056 Y4.25
G0 Z6.096

G0 Z6.096
M5
M30
