(1001)
(T1  D=6.35 CR=0 - ZMIN=-12.7 - FLAT END MILL)
G0 G40 G90 G17
G21

(2D CONTOUR2)
T1 M6
M3 S5000
G0 X-0.195 Y3.176
G0 Z6.096
G1 Z4.191 F508.
G1 Z-6.604
G1 X-0.398 Y3.15
G1 X-16.764 Y1.083
G3 X-17.041 Y1.036 I0.398 J-3.15
G1 X-17.241 Y0.992
G1 X-33.432 Y-2.528
G3 X-33.691 Y-2.596 I0.675 J-3.103
G1 X-33.888 Y-2.656
G1 X-49.836 Y-7.561
G3 X-50.076 Y-7.645 I0.933 J-3.035
G1 X-50.269 Y-7.722
G1 X-65.906 Y-13.941
G1 X-66.018 Y-13.988
G1 X-66.128 Y-14.039
G1 X-66.316 Y-14.131
G1 X-81.574 Y-21.593
G1 X-81.677 Y-21.646
G1 X-81.779 Y-21.703
G1 X-81.962 Y-21.81
G1 X-96.773 Y-30.447
G1 X-96.961 Y-30.566
G1 X-97.138 Y-30.686
G1 X-111.434 Y-40.428
G1 X-111.604 Y-40.552
G1 X-111.774 Y-40.686
G1 X-111.775 Y-40.687
G1 X-125.497 Y-51.447
G1 X-125.647 Y-51.573
G1 X-125.808 Y-51.715
G1 X-138.926 Y-63.347
G1 X-139.016 Y-63.429
G1 X-139.102 Y-63.515
G1 X-139.404 Y-63.827
G1 X-139.406 Y-63.829
G1 X-163.765 Y-89.057
G3 X-163.946 Y-89.261 I2.284 J-2.205
G1 X-164.215 Y-89.592
G1 X-185.939 Y-116.35
G1 X-186.074 Y-116.529
G1 X-186.308 Y-116.862
G1 X-205.242 Y-143.842
G1 X-205.351 Y-144.008
G1 X-205.55 Y-144.333
G1 X-221.645 Y-170.627
G1 X-221.754 Y-170.82
G1 X-221.923 Y-171.145
G1 X-221.925 Y-171.149
G1 X-235.538 Y-197.412
G1 X-235.593 Y-197.523
G1 X-235.643 Y-197.636
G1 X-235.785 Y-197.972
G1 X-247.373 Y-225.254
G1 X-247.416 Y-225.36
G1 X-247.456 Y-225.469
G1 X-247.58 Y-225.832
G1 X-257.603 Y-255.187
G1 X-257.66 Y-255.374
G1 X-257.769 Y-255.772
G1 X-266.564 Y-287.915
G1 X-266.605 Y-288.081
G1 X-266.697 Y-288.506
G1 Y-288.507
G1 X-274.109 Y-322.807
G1 X-274.14 Y-322.972
G1 X-274.211 Y-323.411
G1 X-279.965 Y-358.907
G1 X-279.987 Y-359.072
G1 X-280.035 Y-359.514
G1 X-280.036 Y-359.519
G1 X-283.856 Y-395.249
G1 X-283.871 Y-395.441
G1 X-283.891 Y-395.875
G1 X-285.542 Y-431.038
G1 X-285.545 Y-431.239
G1 X-285.538 Y-431.666
G1 Y-431.669
G1 X-284.943 Y-466.132
G1 X-284.932 Y-466.341
G1 X-284.897 Y-466.76
G1 Y-466.765
G1 X-282.021 Y-500.555
G1 X-281.994 Y-500.775
G1 X-281.93 Y-501.186
G1 Y-501.188
G1 X-276.739 Y-534.335
G1 X-276.719 Y-534.448
G1 X-276.695 Y-534.56
G1 X-276.602 Y-534.961
G1 X-269.086 Y-567.485
G1 X-269.029 Y-567.7
G1 X-268.908 Y-568.094
G1 X-259.173 Y-599.983
G1 X-259.106 Y-600.179
G1 X-258.96 Y-600.565
G1 X-247.132 Y-631.807
G1 X-247.058 Y-631.988
G1 X-246.724 Y-632.729
G1 X-246.722 Y-632.732
G1 X-233.071 Y-662.924
G1 X-232.991 Y-663.087
G1 X-217.568 Y-692.576
G1 X-217.567 Y-692.579
G1 X-217.188 Y-693.302
G1 X-217.09 Y-693.475
G1 X-216.874 Y-693.831
G1 X-216.873 Y-693.834
G1 X-199.396 Y-722.569
G1 X-199.334 Y-722.666
G1 X-199.269 Y-722.761
G1 X-199.031 Y-723.095
G1 X-179.704 Y-750.336
G3 X-179.549 Y-750.538 I2.589 J1.837
G1 X-179.287 Y-750.851
G1 X-158.096 Y-776.197
G3 X-157.913 Y-776.397 I2.436 J2.037
G1 X-157.628 Y-776.684
G1 X-157.624 Y-776.688
G1 X-134.563 Y-799.837
G3 X-134.367 Y-800.018 I2.249 J2.241
G1 X-134.059 Y-800.279
G1 X-134.055 Y-800.282
G1 X-109.143 Y-821.337
G3 X-108.942 Y-821.493 I2.049 J2.425
G1 X-108.612 Y-821.73
G1 X-81.875 Y-840.896
G1 X-81.779 Y-840.962
G1 X-81.681 Y-841.024
G1 X-81.329 Y-841.239
G1 X-52.79 Y-858.72
G1 X-52.61 Y-858.823
G1 X-52.235 Y-859.02
G1 X-21.989 Y-874.919
G1 X-21.803 Y-875.01
G1 X-21.412 Y-875.183
G1 X-21.408 Y-875.185
G1 X10.154 Y-889.186
G1 X10.363 Y-889.27
G1 X10.764 Y-889.415
G1 X10.766 Y-889.416
G1 X43.185 Y-901.101
G3 X43.432 Y-901.179 I1.077 J2.987
G1 X43.835 Y-901.288
G1 X76.646 Y-910.237
G3 X76.913 Y-910.298 I0.835 J3.063
G1 X77.32 Y-910.372
G1 X77.323
G1 X110.148 Y-916.314
G3 X110.402 Y-916.35 I0.566 J3.124
G1 X110.806 Y-916.39
G1 X143.566 Y-919.638
G1 X143.777 Y-919.651
G1 X144.181 Y-919.664
G1 X144.185
G1 X176.878 Y-920.677
G1 X177.047 Y-920.678
G1 X177.451 Y-920.669
G1 X177.454
G1 X210.079 Y-919.907
G1 X210.233 Y-919.9
G1 X210.635 Y-919.871
G1 X243.169 Y-917.539
G1 X243.285 Y-917.528
G1 X243.401 Y-917.514
G1 X243.812 Y-917.454
G1 X276.12 Y-912.74
G1 X276.235 Y-912.721
G1 X276.349 Y-912.698
G1 X276.588 Y-912.645
G1 X276.594 Y-912.643
G1 X292.589 Y-909.066
G1 X292.77 Y-909.02
G1 X293.046 Y-908.941
G1 X293.05 Y-908.94
G1 X308.898 Y-904.381
G1 X309.099 Y-904.316
G1 X309.431 Y-904.196
G1 X325.097 Y-898.533
G1 X325.207 Y-898.491
G1 X325.314 Y-898.445
G1 X325.719 Y-898.264
G1 X341.162 Y-891.385
G1 X341.273 Y-891.333
G1 X341.382 Y-891.277
G1 X341.886 Y-891.004
G1 X357.012 Y-882.84
G1 X357.12 Y-882.779
G1 X357.225 Y-882.714
G1 X357.842 Y-882.316
G1 X372.351 Y-872.954
G3 X372.566 Y-872.801 I-1.722 J2.668
G1 X373.284 Y-872.249
G1 X386.837 Y-861.816
G3 X387.061 Y-861.626 I-1.937 J2.516
G1 X387.848 Y-860.895
G1 X395.72 Y-853.597
G3 X396.065 Y-849.317 I-2.159 J2.328
G1 X395.57 Y-848.682
G3 X393.066 Y-847.459 I-2.504 J-1.952
G1 X171.638
G3 X168.524 Y-850.016 I0 J-3.175
G1 X168.463 Y-850.322
G1 Y-838.501
G1 X168.524 Y-838.806
G3 X171.638 Y-841.363 I3.114 J0.618
G1 X405.847
G3 X408.235 Y-840.28 I0 J3.175
G1 X411.883 Y-836.116
G3 X412.118 Y-835.812 I-2.388 J2.092
G1 X412.876 Y-834.702
G1 X421.749 Y-821.714
G3 X421.973 Y-821.33 I-2.622 J1.791
G1 X422.607 Y-820.047
G1 X429.367 Y-806.381
G3 X429.556 Y-805.904 I-2.846 J1.408
G1 X429.991 Y-804.486
G1 X429.992 Y-804.485
G1 X434.368 Y-790.199
G3 X434.484 Y-789.652 I-3.036 J0.93
G1 X434.666 Y-788.154
G1 X436.467 Y-773.328
G3 X436.487 Y-772.813 I-3.152 J0.383
G1 X436.425 Y-771.32
G1 X435.803 Y-756.163
G3 X435.753 Y-755.714 I-3.172 J-0.13
G1 X435.491 Y-754.302
G1 X432.666 Y-739.062
G3 X432.567 Y-738.671 I-3.122 J-0.579
G1 X432.161 Y-737.407
G1 X427.343 Y-722.353
G3 X427.208 Y-722.005 I-3.024 J-0.968
G1 X426.72 Y-720.932
G1 X420.111 Y-706.352
G3 X419.943 Y-706.032 I-2.892 J-1.311
G1 X419.427 Y-705.17
G1 X413.457 Y-695.114
G3 X413.231 Y-694.783 I-2.73 J-1.621
G1 X412.736 Y-694.148
G3 X410.232 Y-692.925 I-2.504 J-1.952
G1 X101.718
G3 X98.604 Y-695.482 I0 J-3.175
G1 X98.543 Y-695.787
G1 Y-683.967
G1 X98.604 Y-684.272
G3 X101.718 Y-686.829 I3.114 J0.618
G1 X400.492
G3 X402.996 Y-685.606 I0 J3.175
G1 X403.491 Y-684.971
G3 X403.523 Y-681.109 I-2.504 J1.952
G1 X400.987 Y-677.742
G3 X400.74 Y-677.451 I-2.536 J-1.91
G1 X400.294 Y-676.988
G1 X389.61 Y-665.768
G3 X389.308 Y-665.488 I-2.299 J-2.189
G1 X388.929 Y-665.182
G1 X377.337 Y-655.676
G3 X377.028 Y-655.452 I-2.013 J-2.455
G1 X376.709 Y-655.249
G1 X364.332 Y-647.278
G3 X364.049 Y-647.115 I-1.719 J-2.669
G1 X363.781 Y-646.979
G1 X350.725 Y-640.245
G1 X350.615 Y-640.191
G1 X350.502 Y-640.141
G1 X350.268 Y-640.042
G1 X336.636 Y-634.231
G1 X336.439 Y-634.155
G1 X336.014 Y-634.006
G1 X307.46 Y-623.874
G1 X307.428 Y-623.863
G1 X307.054 Y-623.735
G1 X277.527 Y-613.421
G1 X277.253 Y-613.306
G1 X247.516 Y-600.563
G1 X247.28 Y-600.436
G1 X218.183 Y-584.649
G1 X218.112 Y-584.603
G1 X204.125 Y-575.532
G1 X204.029 Y-575.462
G1 X190.558 Y-565.568
G1 X190.474 Y-565.498
G1 X177.626 Y-554.755
G1 X177.553 Y-554.686
G1 X165.461 Y-543.086
G1 X165.397 Y-543.016
G1 X162.747 Y-540.076
G1 X162.175 Y-539.441
G3 X159.816 Y-538.391 I-2.359 J-2.125
G1 X-52.345
G3 X-55.459 Y-540.947 I0 J-3.175
G1 X-55.52 Y-541.253
G1 Y-529.433
G1 X-55.459 Y-529.739
G3 X-52.345 Y-532.295 I3.114 J0.619
G1 X148.041
G3 X150.545 Y-531.072 I0 J3.175
G1 X151.04 Y-530.437
G3 X151.044 Y-526.538 I-2.504 J1.952
G1 X143.779 Y-517.178
G1 X143.728 Y-517.102
G1 Y-517.101
G1 X134.432 Y-503.09
G1 X134.389 Y-503.013
G1 X126.199 Y-488.372
G1 X126.166 Y-488.298
G1 X126.162 Y-488.29
G1 X119.152 Y-473.09
G1 X119.125 Y-473.016
G1 X113.382 Y-457.356
G1 X113.363 Y-457.284
G1 X108.967 Y-441.246
G1 X108.955 Y-441.179
G1 X105.987 Y-424.844
G1 X105.982 Y-424.785
G1 X105.981 Y-424.776
G1 X104.491 Y-408.225
G1 Y-408.16
G1 Y-408.145
G1 X104.415 Y-391.468
G1 X104.421 Y-391.387
G1 Y-391.382
G1 X104.681 Y-387.905
G3 X104.019 Y-385.716 I-3.166 J0.237
G1 X103.524 Y-385.081
G3 X101.02 Y-383.858 I-2.504 J-1.952
G1 X-82.079
G3 X-85.193 Y-386.414 I0 J-3.175
G1 X-85.254 Y-386.72
G1 Y-374.9
G1 X-85.193 Y-375.206
G3 X-82.079 Y-377.762 I3.114 J0.619
G1 X102.072
G3 X104.574 Y-376.541 I0 J3.175
G1 X105.07 Y-375.906
G3 X105.708 Y-374.42 I-2.502 J1.954
G1 X108.155 Y-357.993
G1 X108.175 Y-357.903
G1 X108.179 Y-357.887
G1 X111.786 Y-341.481
G1 X111.814 Y-341.385
G1 X111.819 Y-341.371
G1 X116.463 Y-325.276
G1 X116.496 Y-325.186
G1 X116.507 Y-325.156
G1 X122.094 Y-309.473
G1 X122.131 Y-309.388
G1 X122.147 Y-309.351
G1 X128.58 Y-294.19
G1 X128.665 Y-294.025
G1 X128.681 Y-293.993
G1 X139.62 Y-272.208
G1 X139.727 Y-272.021
G1 X139.754 Y-271.974
G1 X151.294 Y-250.941
G1 X151.435 Y-250.684
G1 X151.46 Y-250.638
G1 X159.908 Y-234.615
G3 X159.603 Y-231.182 I-2.809 J1.481
G1 X159.108 Y-230.547
G3 X156.604 Y-229.324 I-2.504 J-1.952
G1 X-35.315
G3 X-38.429 Y-231.88 I0 J-3.175
G1 X-38.49 Y-232.186
G1 Y-220.366
G1 X-38.429 Y-220.672
G3 X-35.315 Y-223.228 I3.114 J0.619
G1 X163.035
G3 X165.537 Y-222.007 I0 J3.175
G1 X166.033 Y-221.372
G3 X166.44 Y-220.69 I-2.502 J1.954
G1 X171.868 Y-208.277
G1 X171.914 Y-208.167
G1 X171.955 Y-208.056
G1 X172.002 Y-207.922
G1 X172.019 Y-207.873
G1 X175.629 Y-197.016
G1 X175.688 Y-196.815
G1 X175.724 Y-196.677
G1 X175.735 Y-196.636
G1 X178.483 Y-185.482
G3 X178.535 Y-185.226 I-3.083 J0.76
G1 X178.558 Y-185.083
G1 X178.562 Y-185.054
G1 X180.307 Y-173.532
G3 X180.336 Y-173.271 I-3.139 J0.475
G1 X180.346 Y-173.123
G1 X180.348 Y-173.086
G1 X181.012 Y-161.194
G3 X181.016 Y-160.932 I-3.17 J0.177
G1 X181.012 Y-160.782
G1 X181.011 Y-160.764
G1 X180.616 Y-148.609
G1 X180.611 Y-148.494
G1 X180.601 Y-148.38
G1 X180.585 Y-148.228
G1 X180.581 Y-148.195
G1 X179.159 Y-135.896
G3 X179.12 Y-135.646 I-3.154 J-0.365
G1 X179.09 Y-135.496
G1 X176.673 Y-123.171
G1 X176.647 Y-123.053
G1 X176.617 Y-122.936
G1 X176.575 Y-122.784
G1 X173.191 Y-110.547
G1 X173.159 Y-110.437
G1 X173.122 Y-110.329
G1 X173.069 Y-110.18
G1 X173.066 Y-110.171
G1 X168.748 Y-98.14
G1 X168.708 Y-98.035
G1 X168.665 Y-97.931
G1 X168.601 Y-97.786
G1 X168.596 Y-97.774
G1 X163.374 Y-86.066
G1 X163.324 Y-85.96
G1 X163.27 Y-85.856
G1 X163.195 Y-85.717
G1 X163.192 Y-85.71
G1 X158.53 Y-77.09
G3 X158.241 Y-76.649 I-2.793 J-1.51
G1 X157.746 Y-76.014
G3 X155.242 Y-74.791 I-2.504 J-1.952
G1 X10.814
G3 X7.7 Y-77.346 I0 J-3.175
G1 X7.639 Y-77.653
G1 Y-65.832
G1 X7.7 Y-66.139
G3 X10.814 Y-68.695 I3.114 J0.619
G1 X146.615
G3 X149.119 Y-67.472 I0 J3.175
G1 X149.614 Y-66.837
G3 X149.624 Y-62.945 I-2.504 J1.952
G1 X141.957 Y-53.009
G3 X141.773 Y-52.792 I-2.514 J-1.94
G1 X141.669 Y-52.681
G1 X133.15 Y-43.433
G3 X132.957 Y-43.241 I-2.335 J-2.151
G1 X132.843 Y-43.137
G1 X132.839 Y-43.133
G1 X123.598 Y-34.716
G3 X123.395 Y-34.547 I-2.138 J-2.347
G1 X123.273 Y-34.453
G1 X123.269 Y-34.45
G1 X113.382 Y-26.874
G3 X113.173 Y-26.727 I-1.931 J-2.52
G1 X113.044 Y-26.644
G1 X113.04 Y-26.641
G1 X102.583 Y-19.912
G3 X102.363 Y-19.783 I-1.718 J-2.67
G1 X102.229 Y-19.71
G1 X91.276 Y-13.835
G3 X90.946 Y-13.682 I-1.501 J-2.798
G1 X90.66 Y-13.568
G1 X67.559 Y-4.4
G3 X67.113 Y-4.26 I-1.171 J-2.951
G1 X66.814 Y-4.19
G1 X42.615 Y1.493
G3 X42.164 Y1.565 I-0.726 J-3.091
G1 X41.858 Y1.592
G1 X17.155 Y3.739
G3 X16.775 Y3.749 I-0.275 J-3.163
G1 X16.572 Y3.742
G1 X0.098 Y3.199
G3 X-0.195 Y3.176 I0.105 J-3.173
G1 Z-12.7
G1 X-0.398 Y3.15
G1 X-16.764 Y1.083
G3 X-17.041 Y1.036 I0.398 J-3.15
G1 X-17.241 Y0.992
G1 X-33.432 Y-2.528
G3 X-33.691 Y-2.596 I0.675 J-3.103
G1 X-33.888 Y-2.656
G1 X-49.836 Y-7.561
G3 X-50.076 Y-7.645 I0.933 J-3.035
G1 X-50.269 Y-7.722
G1 X-65.906 Y-13.941
G1 X-66.018 Y-13.988
G1 X-66.128 Y-14.039
G1 X-66.316 Y-14.131
G1 X-76.826 Y-19.271
G1 Z-10.16
G1 X-81.574 Y-21.593
G1 X-81.677 Y-21.646
G1 X-81.779 Y-21.703
G1 X-81.962 Y-21.81
G1 X-86.899 Y-24.689
G1 Z-12.7
G1 X-96.773 Y-30.447
G1 X-96.961 Y-30.566
G1 X-97.138 Y-30.686
G1 X-111.434 Y-40.428
G1 X-111.604 Y-40.552
G1 X-111.774 Y-40.686
G1 X-111.775 Y-40.687
G1 X-125.497 Y-51.447
G1 X-125.647 Y-51.573
G1 X-125.808 Y-51.715
G1 X-138.926 Y-63.347
G1 X-139.016 Y-63.429
G1 X-139.102 Y-63.515
G1 X-139.404 Y-63.827
G1 X-139.406 Y-63.829
G1 X-163.765 Y-89.057
G3 X-163.946 Y-89.261 I2.284 J-2.205
G1 X-164.215 Y-89.592
G1 X-182.468 Y-112.075
G1 Z-10.16
G1 X-185.939 Y-116.35
G1 X-186.074 Y-116.529
G1 X-186.308 Y-116.862
G1 X-189.356 Y-121.205
G1 Z-12.7
G1 X-205.242 Y-143.842
G1 X-205.351 Y-144.008
G1 X-205.55 Y-144.333
G1 X-221.645 Y-170.627
G1 X-221.754 Y-170.82
G1 X-221.923 Y-171.145
G1 X-221.925 Y-171.149
G1 X-235.538 Y-197.412
G1 X-235.593 Y-197.523
G1 X-235.643 Y-197.636
G1 X-235.785 Y-197.972
G1 X-247.373 Y-225.254
G1 X-247.416 Y-225.36
G1 X-247.456 Y-225.469
G1 X-247.58 Y-225.832
G1 X-257.603 Y-255.187
G1 X-257.66 Y-255.374
G1 X-257.769 Y-255.772
G1 X-265.214 Y-282.981
G1 Z-10.16
G1 X-266.564 Y-287.915
G1 X-266.605 Y-288.081
G1 X-266.697 Y-288.506
G1 Y-288.507
G1 X-267.904 Y-294.093
G1 Z-12.7
G1 X-274.109 Y-322.807
G1 X-274.14 Y-322.972
G1 X-274.211 Y-323.411
G1 X-279.965 Y-358.907
G1 X-279.987 Y-359.072
G1 X-280.035 Y-359.514
G1 X-280.036 Y-359.519
G1 X-283.856 Y-395.249
G1 X-283.871 Y-395.441
G1 X-283.891 Y-395.875
G1 X-285.542 Y-431.038
G1 X-285.545 Y-431.239
G1 X-285.538 Y-431.666
G1 Y-431.669
G1 X-285.03 Y-461.041
G1 Z-10.16
G1 X-284.943 Y-466.132
G1 X-284.932 Y-466.341
G1 X-284.897 Y-466.76
G1 Y-466.765
G1 X-284.412 Y-472.46
G1 Z-12.7
G1 X-282.021 Y-500.555
G1 X-281.994 Y-500.775
G1 X-281.93 Y-501.186
G1 Y-501.188
G1 X-276.739 Y-534.335
G1 X-276.719 Y-534.448
G1 X-276.695 Y-534.56
G1 X-276.602 Y-534.961
G1 X-269.086 Y-567.485
G1 X-269.029 Y-567.7
G1 X-268.908 Y-568.094
G1 X-259.173 Y-599.983
G1 X-259.106 Y-600.179
G1 X-258.96 Y-600.565
G1 X-247.132 Y-631.807
G1 X-247.058 Y-631.988
G1 X-246.724 Y-632.729
G1 X-246.722 Y-632.732
G1 X-235.354 Y-657.874
G1 Z-10.16
G1 X-233.071 Y-662.924
G1 X-232.991 Y-663.087
G1 X-230.343 Y-668.152
G1 Z-12.7
G1 X-217.568 Y-692.576
G1 X-217.567 Y-692.579
G1 X-217.188 Y-693.302
G1 X-217.09 Y-693.475
G1 X-216.874 Y-693.831
G1 X-216.873 Y-693.834
G1 X-199.396 Y-722.569
G1 X-199.334 Y-722.666
G1 X-199.269 Y-722.761
G1 X-199.031 Y-723.095
G1 X-179.704 Y-750.336
G3 X-179.549 Y-750.538 I2.589 J1.837
G1 X-179.287 Y-750.851
G1 X-158.096 Y-776.197
G3 X-157.913 Y-776.397 I2.436 J2.037
G1 X-157.628 Y-776.684
G1 X-157.624 Y-776.688
G1 X-138.133 Y-796.253
G1 Z-10.16
G1 X-134.563 Y-799.837
G3 X-134.367 Y-800.018 I2.249 J2.241
G1 X-134.059 Y-800.279
G1 X-134.055 Y-800.282
G1 X-129.691 Y-803.971
G1 Z-12.7
G1 X-109.143 Y-821.337
G3 X-108.942 Y-821.493 I2.049 J2.425
G1 X-108.612 Y-821.73
G1 X-81.875 Y-840.896
G1 X-81.779 Y-840.962
G1 X-81.681 Y-841.024
G1 X-81.329 Y-841.239
G1 X-52.79 Y-858.72
G1 X-52.61 Y-858.823
G1 X-52.235 Y-859.02
G1 X-21.989 Y-874.919
G1 X-21.803 Y-875.01
G1 X-21.412 Y-875.183
G1 X-21.408 Y-875.185
G1 X10.154 Y-889.186
G1 X10.363 Y-889.27
G1 X10.764 Y-889.415
G1 X10.766 Y-889.416
G1 X38.03 Y-899.243
G1 Z-10.16
G1 X43.185 Y-901.101
G3 X43.432 Y-901.179 I1.077 J2.987
G1 X43.835 Y-901.288
G1 X48.94 Y-902.68
G1 Z-12.7
G1 X76.646 Y-910.237
G3 X76.913 Y-910.298 I0.835 J3.063
G1 X77.32 Y-910.372
G1 X77.323
G1 X110.148 Y-916.314
G3 X110.402 Y-916.35 I0.566 J3.124
G1 X110.806 Y-916.39
G1 X143.566 Y-919.638
G1 X143.777 Y-919.651
G1 X144.181 Y-919.664
G1 X144.185
G1 X171.734 Y-920.518
G1 Z-10.16
G1 X176.878 Y-920.677
G1 X177.047 Y-920.678
G1 X177.451 Y-920.669
G1 X177.454
G1 X183.168 Y-920.536
G1 Z-12.7
G1 X210.079 Y-919.907
G1 X210.233 Y-919.9
G1 X210.635 Y-919.871
G1 X243.169 Y-917.539
G1 X243.285 Y-917.528
G1 X243.401 Y-917.514
G1 X243.812 Y-917.454
G1 X276.12 Y-912.74
G1 X276.235 Y-912.721
G1 X276.349 Y-912.698
G1 X276.588 Y-912.645
G1 X276.594 Y-912.643
G1 X292.589 Y-909.066
G1 X292.77 Y-909.02
G1 X293.046 Y-908.941
G1 X293.05 Y-908.94
G1 X308.898 Y-904.381
G1 X309.099 Y-904.316
G1 X309.431 Y-904.196
G1 X325.097 Y-898.533
G1 X325.207 Y-898.491
G1 X325.314 Y-898.445
G1 X325.719 Y-898.264
G1 X341.162 Y-891.385
G1 X341.273 Y-891.333
G1 X341.382 Y-891.277
G1 X341.886 Y-891.004
G1 X352.834 Y-885.095
G1 Z-10.16
G1 X357.012 Y-882.84
G1 X357.12 Y-882.779
G1 X357.225 Y-882.714
G1 X357.842 Y-882.316
G1 X362.644 Y-879.217
G1 Z-12.7
G1 X372.351 Y-872.954
G3 X372.566 Y-872.801 I-1.722 J2.668
G1 X373.284 Y-872.249
G1 X386.837 Y-861.816
G3 X387.061 Y-861.626 I-1.937 J2.516
G1 X387.848 Y-860.895
G1 X395.72 Y-853.597
G3 X396.065 Y-849.317 I-2.159 J2.328
G1 X395.57 Y-848.682
G3 X393.066 Y-847.459 I-2.504 J-1.952
G1 X171.638
G3 X168.524 Y-850.016 I0 J-3.175
G1 X168.463 Y-850.322
G1 Y-838.501
G1 X168.524 Y-838.806
G3 X171.638 Y-841.363 I3.114 J0.618
G1 X405.847
G3 X408.235 Y-840.28 I0 J3.175
G1 X411.883 Y-836.116
G3 X412.118 Y-835.812 I-2.388 J2.092
G1 X412.876 Y-834.702
G1 X421.749 Y-821.714
G3 X421.973 Y-821.33 I-2.622 J1.791
G1 X422.607 Y-820.047
G1 X429.367 Y-806.381
G3 X429.556 Y-805.904 I-2.846 J1.408
G1 X429.991 Y-804.486
G1 X429.992 Y-804.485
G1 X434.368 Y-790.199
G3 X434.484 Y-789.652 I-3.036 J0.93
G1 X434.666 Y-788.154
G1 X436.467 Y-773.328
G3 X436.487 Y-772.813 I-3.152 J0.383
G1 X436.425 Y-771.32
G1 X435.803 Y-756.163
G3 X435.753 Y-755.714 I-3.172 J-0.13
G1 X435.491 Y-754.302
G1 X432.666 Y-739.062
G3 X432.567 Y-738.671 I-3.122 J-0.579
G1 X432.161 Y-737.407
G1 X427.343 Y-722.353
G3 X427.208 Y-722.005 I-3.024 J-0.968
G1 X426.72 Y-720.932
G1 X420.111 Y-706.352
G3 X419.943 Y-706.032 I-2.892 J-1.311
G1 X419.427 Y-705.17
G1 X413.457 Y-695.114
G3 X413.231 Y-694.783 I-2.73 J-1.621
G1 X412.736 Y-694.148
G3 X410.232 Y-692.925 I-2.504 J-1.952
G1 X101.718
G3 X98.604 Y-695.482 I0 J-3.175
G1 X98.543 Y-695.787
G1 Y-683.967
G1 X98.604 Y-684.272
G3 X101.718 Y-686.829 I3.114 J0.618
G1 X400.492
G3 X402.996 Y-685.606 I0 J3.175
G1 X403.491 Y-684.971
G3 X403.523 Y-681.109 I-2.504 J1.952
G1 X400.987 Y-677.742
G3 X400.74 Y-677.451 I-2.536 J-1.91
G1 X400.294 Y-676.988
G1 X389.61 Y-665.768
G3 X389.308 Y-665.488 I-2.299 J-2.189
G1 X388.929 Y-665.182
G1 X377.337 Y-655.676
G3 X377.028 Y-655.452 I-2.013 J-2.455
G1 X376.709 Y-655.249
G1 X364.332 Y-647.278
G3 X364.049 Y-647.115 I-1.719 J-2.669
G1 X363.781 Y-646.979
G1 X350.725 Y-640.245
G1 X350.615 Y-640.191
G1 X350.502 Y-640.141
G1 X350.268 Y-640.042
G1 X336.636 Y-634.231
G1 X336.439 Y-634.155
G1 X336.014 Y-634.006
G1 X307.46 Y-623.874
G1 X307.428 Y-623.863
G1 X307.054 Y-623.735
G1 X277.527 Y-613.421
G1 X277.253 Y-613.306
G1 X252.552 Y-602.721
G1 Z-10.16
G1 X247.516 Y-600.563
G1 X247.28 Y-600.436
G1 X242.264 Y-597.715
G1 Z-12.7
G1 X218.183 Y-584.649
G1 X218.112 Y-584.603
G1 X204.125 Y-575.532
G1 X204.029 Y-575.462
G1 X190.558 Y-565.568
G1 X190.474 Y-565.498
G1 X177.626 Y-554.755
G1 X177.553 Y-554.686
G1 X165.461 Y-543.086
G1 X165.397 Y-543.016
G1 X162.747 Y-540.076
G1 X162.175 Y-539.441
G3 X159.816 Y-538.391 I-2.359 J-2.125
G1 X-52.345
G3 X-55.459 Y-540.947 I0 J-3.175
G1 X-55.52 Y-541.253
G1 Y-529.433
G1 X-55.459 Y-529.739
G3 X-52.345 Y-532.295 I3.114 J0.619
G1 X148.041
G3 X150.545 Y-531.072 I0 J3.175
G1 X151.04 Y-530.437
G3 X151.044 Y-526.538 I-2.504 J1.952
G1 X143.779 Y-517.178
G1 X143.728 Y-517.102
G1 Y-517.101
G1 X134.432 Y-503.09
G1 X134.389 Y-503.013
G1 X126.199 Y-488.372
G1 X126.166 Y-488.298
G1 X126.162 Y-488.29
G1 X121.609 Y-478.418
G1 Z-10.16
G1 X119.152 Y-473.09
G1 X119.125 Y-473.016
G1 X117.23 Y-467.849
G1 Z-12.7
G1 X113.382 Y-457.356
G1 X113.363 Y-457.284
G1 X108.967 Y-441.246
G1 X108.955 Y-441.179
G1 X105.987 Y-424.844
G1 X105.982 Y-424.785
G1 X105.981 Y-424.776
G1 X104.491 Y-408.225
G1 Y-408.16
G1 Y-408.145
G1 X104.415 Y-391.468
G1 X104.421 Y-391.387
G1 Y-391.382
G1 X104.681 Y-387.905
G3 X104.019 Y-385.716 I-3.166 J0.237
G1 X103.524 Y-385.081
G3 X101.02 Y-383.858 I-2.504 J-1.952
G1 X-82.079
G3 X-85.193 Y-386.414 I0 J-3.175
G1 X-85.254 Y-386.72
G1 Y-374.9
G1 X-85.193 Y-375.206
G3 X-82.079 Y-377.762 I3.114 J0.619
G1 X102.072
G3 X104.574 Y-376.541 I0 J3.175
G1 X105.07 Y-375.906
G3 X105.708 Y-374.42 I-2.502 J1.954
G1 X108.155 Y-357.993
G1 X108.175 Y-357.903
G1 X108.179 Y-357.887
G1 X111.786 Y-341.481
G1 X111.814 Y-341.385
G1 X111.819 Y-341.371
G1 X116.463 Y-325.276
G1 X116.496 Y-325.186
G1 X116.507 Y-325.156
G1 X120.217 Y-314.741
G1 Z-10.16
G1 X122.094 Y-309.473
G1 X122.131 Y-309.388
G1 X122.147 Y-309.351
G1 X124.379 Y-304.09
G1 Z-12.7
G1 X128.58 Y-294.19
G1 X128.665 Y-294.025
G1 X128.681 Y-293.993
G1 X139.62 Y-272.208
G1 X139.727 Y-272.021
G1 X139.754 Y-271.974
G1 X151.294 Y-250.941
G1 X151.435 Y-250.684
G1 X151.46 Y-250.638
G1 X159.908 Y-234.615
G3 X159.603 Y-231.182 I-2.809 J1.481
G1 X159.108 Y-230.547
G3 X156.604 Y-229.324 I-2.504 J-1.952
G1 X-35.315
G3 X-38.429 Y-231.88 I0 J-3.175
G1 X-38.49 Y-232.186
G1 Y-220.366
G1 X-38.429 Y-220.672
G3 X-35.315 Y-223.228 I3.114 J0.619
G1 X163.035
G3 X165.537 Y-222.007 I0 J3.175
G1 X166.033 Y-221.372
G3 X166.44 Y-220.69 I-2.502 J1.954
G1 X171.868 Y-208.277
G1 X171.914 Y-208.167
G1 X171.955 Y-208.056
G1 X172.002 Y-207.922
G1 X172.019 Y-207.873
G1 X175.629 Y-197.016
G1 X175.688 Y-196.815
G1 X175.724 Y-196.677
G1 X175.735 Y-196.636
G1 X178.483 Y-185.482
G3 X178.535 Y-185.226 I-3.083 J0.76
G1 X178.558 Y-185.083
G1 X178.562 Y-185.054
G1 X180.307 Y-173.532
G3 X180.336 Y-173.271 I-3.139 J0.475
G1 X180.346 Y-173.123
G1 X180.348 Y-173.086
G1 X181.012 Y-161.194
G3 X181.016 Y-160.932 I-3.17 J0.177
G1 X181.012 Y-160.782
G1 X181.011 Y-160.764
G1 X180.795 Y-154.094
G1 Z-10.16
G1 X180.616 Y-148.609
G1 X180.611 Y-148.494
G1 X180.601 Y-148.38
G1 X180.585 Y-148.228
G1 X180.581 Y-148.195
G1 X179.944 Y-142.689
G1 Z-12.7
G1 X179.159 Y-135.896
G3 X179.12 Y-135.646 I-3.154 J-0.365
G1 X179.09 Y-135.496
G1 X176.673 Y-123.171
G1 X176.647 Y-123.053
G1 X176.617 Y-122.936
G1 X176.575 Y-122.784
G1 X173.191 Y-110.547
G1 X173.159 Y-110.437
G1 X173.122 Y-110.329
G1 X173.069 Y-110.18
G1 X173.066 Y-110.171
G1 X168.748 Y-98.14
G1 X168.708 Y-98.035
G1 X168.665 Y-97.931
G1 X168.601 Y-97.786
G1 X168.596 Y-97.774
G1 X163.374 Y-86.066
G1 X163.324 Y-85.96
G1 X163.27 Y-85.856
G1 X163.195 Y-85.717
G1 X163.192 Y-85.71
G1 X158.53 Y-77.09
G3 X158.241 Y-76.649 I-2.793 J-1.51
G1 X157.746 Y-76.014
G3 X155.242 Y-74.791 I-2.504 J-1.952
G1 X10.814
G3 X7.7 Y-77.346 I0 J-3.175
G1 X7.639 Y-77.653
G1 Y-65.832
G1 X7.7 Y-66.139
G3 X10.814 Y-68.695 I3.114 J0.619
G1 X146.615
G3 X149.119 Y-67.472 I0 J3.175
G1 X149.614 Y-66.837
G3 X149.624 Y-62.945 I-2.504 J1.952
G1 X141.957 Y-53.009
G3 X141.773 Y-52.792 I-2.514 J-1.94
G1 X141.669 Y-52.681
G1 X133.15 Y-43.433
G3 X132.957 Y-43.241 I-2.335 J-2.151
G1 X132.843 Y-43.137
G1 X132.839 Y-43.133
G1 X123.598 Y-34.716
G3 X123.395 Y-34.547 I-2.138 J-2.347
G1 X123.273 Y-34.453
G1 X123.269 Y-34.45
G1 X113.382 Y-26.874
G3 X113.173 Y-26.727 I-1.931 J-2.52
G1 X113.044 Y-26.644
G1 X113.04 Y-26.641
G1 X102.583 Y-19.912
G3 X102.363 Y-19.783 I-1.718 J-2.67
G1 X102.229 Y-19.71
G1 X91.276 Y-13.835
G3 X90.946 Y-13.682 I-1.501 J-2.798
G1 X90.66 Y-13.568
G1 X67.559 Y-4.4
G3 X67.113 Y-4.26 I-1.171 J-2.951
G1 X66.814 Y-4.19
G1 X42.615 Y1.493
G3 X42.164 Y1.565 I-0.726 J-3.091
G1 X41.858 Y1.592
G1 X17.155 Y3.739
G3 X16.775 Y3.749 I-0.275 J-3.163
G1 X16.572 Y3.742
G1 X0.098 Y3.199
G3 X-0.195 Y3.176 I0.105 J-3.173
G0 Z6.096

G0 Z6.096
M5
M30
