(1001)
(T1  D=6.35 CR=0 - ZMIN=-12.7 - FLAT END MILL)
G0 G40 G90 G17
G21

(2D CONTOUR2)
T1 M6
M3 S5000
G0 X138.504 Y-234.713
G0 Z6.096
G1 Z4.191 F508.
G1 Z-5.334
G1 X139.719 Y-234.472
G3 X140.866 Y-233.997 I-0.618 J3.114
G1 X141.896 Y-233.308
G3 X142.771 Y-232.433 I-1.765 J2.639
G1 X143.459 Y-231.403
G3 X143.933 Y-230.259 I-2.64 J1.764
G1 X144.175 Y-229.044
G3 Y-227.804 I-3.114 J0.62
G1 X143.933 Y-226.589
G3 X143.459 Y-225.445 I-3.114 J-0.62
G1 X143.306 Y-225.216
G1 Y-223.676
G1 X143.459 Y-223.447
G3 X143.933 Y-222.303 I-2.64 J1.764
G1 X144.175 Y-221.088
G3 Y-219.848 I-3.114 J0.62
G1 X143.933 Y-218.633
G3 X143.459 Y-217.489 I-3.114 J-0.62
G1 X142.771 Y-216.459
G3 X141.895 Y-215.583 I-2.64 J-1.764
G1 X140.865 Y-214.895
G3 X139.721 Y-214.421 I-1.764 J-2.64
G1 X138.506 Y-214.179
G3 X137.266 I-0.62 J-3.114
G1 X136.051 Y-214.421
G3 X134.907 Y-214.895 I0.62 J-3.114
G1 X134.678 Y-215.048
G1 X-113.224
G1 X-112.27 Y-210.771
G1 X-111.613 Y-207.826
G1 X-110.174 Y-202.088
G1 X-109.488 Y-199.348
G1 X-107.706 Y-192.975
G1 X-107.022 Y-190.524
G1 X-104.818 Y-183.396
G1 X-104.182 Y-181.34
G1 X-101.456 Y-173.313
G1 X-100.935 Y-171.778
G1 X-97.565 Y-162.685
G1 X-97.247 Y-161.827
G1 X-93.081 Y-151.464
G1 X-92.975 Y-151.221
G1 X-88.368 Y-140.708
G1 X-87.829 Y-139.563
G1 X-83.095 Y-129.496
G1 X-82.209 Y-127.715
G1 X-79.065 Y-121.391
G1 X-77.686 Y-118.737
G1 X-74.735 Y-113.056
G1 X-72.749 Y-109.389
G1 X-70.098 Y-104.494
G1 X-69.179 Y-102.864
G1 X176.334
G1 X176.563 Y-103.017
G3 X177.707 Y-103.491 I1.764 J2.64
G1 X178.922 Y-103.733
G3 X180.162 I0.62 J3.114
G1 X181.378 Y-103.491
G3 X182.522 Y-103.017 I-0.62 J3.114
G1 X183.552 Y-102.329
G3 X184.428 Y-101.452 I-1.764 J2.64
G1 X185.116 Y-100.422
G3 X185.59 Y-99.277 I-2.64 J1.763
G1 X185.831 Y-98.062
G3 Y-96.826 I-3.114 J0.618
G1 X185.59 Y-95.611
G3 X185.116 Y-94.465 I-3.114 J-0.618
G1 X184.963 Y-94.236
G1 Y-92.696
G1 X185.116 Y-92.466
G3 X185.59 Y-91.321 I-2.64 J1.763
G1 X185.831 Y-90.106
G3 Y-88.87 I-3.114 J0.618
G1 X185.59 Y-87.655
G3 X185.116 Y-86.509 I-3.114 J-0.618
G1 X184.428 Y-85.479
G3 X183.552 Y-84.603 I-2.64 J-1.764
G1 X182.522 Y-83.915
G3 X181.377 Y-83.441 I-1.764 J-2.64
G1 X180.161 Y-83.199
G3 X178.923 I-0.619 J-3.114
G1 X177.708 Y-83.441
G3 X176.563 Y-83.915 I0.619 J-3.114
G1 X176.334 Y-84.068
G1 X-58.274
G1 X-55.095 Y-78.837
G1 X-54.232 Y-77.418
G1 X-48.933 Y-69.029
G1 X-48.292 Y-68.025
G1 X-48.173 Y-67.847
G1 X-41.959 Y-58.509
G1 X-40.413 Y-56.281
G1 X-35.32 Y-48.938
G1 X-32.018 Y-44.38
G1 X-28.386 Y-39.367
G1 X-22.945 Y-32.193
G1 X-21.167 Y-29.848
G1 X-15.197 Y-22.35
G1 X-13.664 Y-20.452
G1 X-13.099 Y-19.787
G1 X-5.796 Y-11.198
G1 X-1.883 Y-6.845
G1 X2.33 Y-2.158
G1 X10.391 Y6.291
G1 X10.703 Y6.617
G1 X11.333 Y7.237
G1 X17.546 Y13.256
G1 X21.786 Y17.224
G1 X26.888 Y21.78
G1 X32.895 Y26.837
G1 X34.415 Y28.117
G1 X215.48
G1 X215.709 Y27.963
G3 X216.854 Y27.489 I1.764 J2.64
G1 X218.069 Y27.248
G3 X219.307 I0.619 J3.114
G1 X220.522 Y27.489
G3 X221.667 Y27.963 I-0.619 J3.114
G1 X222.697 Y28.652
G3 X223.572 Y29.526 I-1.764 J2.64
G1 X224.261 Y30.557
G3 X224.736 Y31.704 I-2.639 J1.765
G1 X224.977 Y32.919
G3 Y34.154 I-3.114 J0.618
G1 X224.736 Y35.369
G3 X224.261 Y36.517 I-3.114 J-0.618
G1 X224.108 Y36.746
G1 Y38.283
G1 X224.261 Y38.512
G3 X224.736 Y39.66 I-2.639 J1.765
G1 X224.977 Y40.875
G3 Y42.11 I-3.114 J0.618
G1 X224.736 Y43.325
G3 X224.261 Y44.473 I-3.114 J-0.618
G1 X223.572 Y45.503
G3 X222.697 Y46.377 I-2.639 J-1.765
G1 X221.667 Y47.066
G3 X220.522 Y47.54 I-1.764 J-2.64
G1 X219.307 Y47.782
G3 X218.069 I-0.619 J-3.114
G1 X216.854 Y47.54
G3 X215.709 Y47.066 I0.619 J-3.114
G1 X215.48 Y46.913
G1 X60.668
G1 X65.895 Y50.065
G1 X67.384 Y50.943
G1 X69.412 Y52.058
G1 X75.088 Y55.18
G1 X79.038 Y57.203
G1 X83.045 Y59.204
G1 X90.673 Y62.75
G1 X91.318 Y63.041
G1 X94.894 Y64.543
G1 X100.06 Y66.713
G1 X100.969 Y67.068
G1 X109.264 Y70.205
G1 X110.303 Y70.57
G1 X117.276 Y72.933
G1 X118.832 Y73.46
G1 X119.034 Y73.525
G1 X126.583 Y75.809
G1 X129.692 Y76.706
G1 X133.713 Y77.786
G1 X139.155 Y79.177
G1 X140.38 Y79.49
G1 X141.296 Y79.712
G1 X146.59 Y80.907
G1 X150.981 Y81.845
G1 X152.486 Y82.166
G1 X154.364 Y82.545
G1 X158.056 Y83.238
G1 X160.149 Y83.608
G1 X163.425 Y84.188
G1 X168.148 Y84.974
G1 X168.584 Y85.047
G1 X169.48 Y85.188
G1 X173.551 Y85.779
G1 X175.068 Y85.986
G1 X178.407 Y86.442
G1 X181.53 Y86.84
G1 X183.121 Y87.043
G1 X187.587 Y87.572
G1 X187.698 Y87.585
G1 X188.109 Y87.63
G1 X192.132 Y88.034
G1 X193.014 Y88.114
G1 X196.472 Y88.43
G1 X198.171 Y88.568
G1 X200.699 Y88.774
G1 X203.051 Y88.942
G1 X204.822 Y89.069
G1 X207.677 Y89.241
G1 X208.851 Y89.312
G1 X212.077 Y89.471
G1 X212.801 Y89.507
G1 X216.299 Y89.641
G1 X216.695 Y89.656
G1 X220.388 Y89.761
G1 X220.556 Y89.766
G1 X224.379 Y89.84
G1 X224.385
G1 X224.402
G1 X225.886 Y89.857
G1 X228.242 Y89.881
G1 X228.273
G1 X232.095 Y89.894
G1 X232.149
G1 X232.151
G1 X235.97 Y89.884
G1 X236.009
G1 X236.011
G1 X239.592 Y89.857
G1 X239.868 Y89.854
G1 X243.713 Y89.803
G1 X243.807 Y89.802
G1 X247.538 Y89.731
G1 X247.539
G1 X247.773 Y89.726
G1 X251.343 Y89.633
G1 X251.768 Y89.622
G1 X255.126 Y89.507
G1 X255.802 Y89.484
G1 X258.889 Y89.349
G1 X259.883 Y89.306
G1 X262.637 Y89.156
G1 X264.033 Y89.08
G1 X265.275 Y89.002
G1 X266.131 Y88.948
G1 X267.261 Y88.87
G1 X268.258 Y88.8
G1 X269.261 Y88.724
G1 X270.414 Y88.637
G1 X271.274 Y88.566
G1 X272.603 Y88.455
G1 X273.306 Y88.392
G1 X274.831 Y88.255
G1 X275.362 Y88.204
G1 X277.099 Y88.036
G1 X277.44 Y88.001
G1 X279.413 Y87.796
G1 X279.546 Y87.782
G1 X280.89 Y87.633
G1 X281.66 Y87.542
G1 X281.75 Y87.531
G1 X283.786 Y87.275
G1 X284.171 Y87.226
G1 X285.944 Y86.99
G1 X286.648 Y86.896
G1 X288.132 Y86.688
G1 X289.182 Y86.54
G1 X290.355 Y86.368
G1 X291.774 Y86.158
G1 X292.61 Y86.029
G1 X294.428 Y85.747
G1 X294.902 Y85.671
G1 X297.144 Y85.307
G1 X297.231 Y85.292
G1 X297.776 Y85.2
G1 X299.543 Y84.88
G1 X299.909 Y84.813
G1 X301.896 Y84.437
G1 X302.789 Y84.267
G1 X304.287 Y83.971
G1 X305.741 Y83.681
G1 X306.718 Y83.48
G1 X308.766 Y83.054
G1 X309.186 Y82.964
G1 X311.026 Y82.563
G1 X311.655 Y82.418
G1 X311.825 Y82.378
G1 X314.139 Y81.821
G1 X315.049 Y81.599
G1 X316.66 Y81.194
G1 X318.351 Y80.76
G1 X319.223 Y80.532
G1 X321.74 Y79.859
G1 X321.829 Y79.835
G1 X322.133 Y79.751
G1 X324.396 Y79.087
G1 X325.238 Y78.835
G1 X327.036 Y78.288
G1 X328.918 Y77.701
G1 X329.73 Y77.445
G1 X331.88 Y76.75
G1 X332.428 Y76.564
G1 X332.677 Y76.478
G1 X335.172 Y75.603
G1 X336.733 Y75.039
G1 X337.977 Y74.589
G1 X340.658 Y73.59
G1 X340.792 Y73.537
G1 X340.874 Y73.504
G1 X340.876
G1 X343.664 Y72.382
G1 X345.414 Y71.655
G1 X345.416 Y71.654
G1 X346.598 Y71.164
G1 X348.67 Y70.279
G1 X349.525 Y69.896
G1 X350.112 Y69.624
G1 X350.116 Y69.623
G1 X352.524 Y68.514
G1 X355.23 Y67.225
G1 X355.239 Y67.221
G1 X355.589 Y67.056
G1 X356.078 Y66.817
G1 X358.593 Y65.528
G1 X360.646 Y64.44
G1 X360.653 Y64.436
G1 X361.708 Y63.881
G1 X363.001 Y63.177
G1 X364.77 Y62.168
G1 X366.435 Y61.186
G1 X366.444 Y61.181
G1 X367.918 Y60.318
G1 X369.492 Y59.363
G1 X371.006 Y58.403
G1 X372.623 Y57.341
G1 X372.633 Y57.334
G1 X374.162 Y56.338
G1 X375.601 Y55.366
G1 X377.24 Y54.209
G1 X379.183 Y52.787
G1 X379.194 Y52.779
G1 X380.375 Y51.922
G1 X381.366 Y51.177
G1 X383.4 Y49.576
G1 X386.013 Y47.447
G1 X386.024 Y47.438
G1 X386.484 Y47.066
G1 X386.82 Y46.784
G1 X389.411 Y44.512
G1 X392.011 Y42.147
G1 X392.328 Y41.846
G1 X392.81 Y41.371
G1 X392.819 Y41.363
G1 X395.19 Y39.042
G1 X396.886 Y37.318
G1 X397.94 Y36.197
G1 X399.451 Y34.531
G1 X399.457 Y34.525
G1 X400.656 Y33.21
G1 X401.493 Y32.255
G1 X403.207 Y30.214
G1 X405.587 Y27.266
G1 X405.59 Y27.262
G1 X405.744 Y27.072
G1 X405.82 Y26.974
G1 X408.917 Y22.717
G1 X410.966 Y19.721
G1 X410.986 Y19.692
G1 X412.091 Y18.113
G1 X413.697 Y15.651
G1 X414.777 Y13.877
G1 X415.782 Y12.128
G1 X415.789 Y12.117
G1 X417.104 Y9.849
G1 X418.476 Y7.325
G1 X419.242 Y5.851
G1 X419.917 Y4.46
G1 X419.922 Y4.449
G1 X421.235 Y1.77
G1 X422.634 Y-1.319
G1 X423.054 Y-2.282
G1 X423.404 Y-3.156
G1 X425.148 Y-7.523
G1 X426.051 Y-10.162
G1 X426.058 Y-10.181
G1 X427.097 Y-13.155
G1 X428.602 Y-18.263
G1 X428.765 Y-18.824
G1 X428.842 Y-19.159
G1 X428.851 Y-19.196
G1 X430.136 Y-24.472
G1 X430.874 Y-28.488
G1 X430.884 Y-28.537
G1 X431.216 Y-30.196
G1 X431.611 Y-32.963
G1 X431.613 Y-32.978
G1 X432.044 Y-35.9
G1 X432.2 Y-37.752
G1 X432.207 Y-37.819
G1 X432.614 Y-41.659
G1 X432.866 Y-47.249
G1 X432.87 Y-47.319
G1 X432.881 Y-47.481
G1 X432.884 Y-47.81
G1 X432.885 Y-47.874
G1 X433.047 Y-53.352
G1 X432.943 Y-56.625
G1 X432.941 Y-56.71
G1 X432.928 Y-59.285
G1 X432.628 Y-63.868
G1 X432.622 Y-63.995
G1 X432.588 Y-65.337
G1 X432.531 Y-66.027
G1 X432.525 Y-66.112
G1 X432.224 Y-71.468
G1 X431.779 Y-75.388
G1 X431.77 Y-75.478
G1 X431.587 Y-77.643
G1 X430.937 Y-82.27
G1 X430.919 Y-82.43
G1 X430.782 Y-83.964
G1 X430.693 Y-84.59
G1 X430.681 Y-84.679
G1 X430.036 Y-90.344
G1 X429.499 Y-93.598
G1 X429.485 Y-93.686
G1 X429.069 Y-96.738
G1 X428.019 Y-102.377
G1 X428.003 Y-102.465
G1 X427.898 Y-103.137
G1 X427.462 Y-105.256
G1 X427.437 Y-105.392
G1 X426.752 Y-109.658
G1 X426.491 Y-110.929
G1 X426.476 Y-111.009
G1 X425.555 Y-116.151
G1 X424.863 Y-119.262
G1 X424.846 Y-119.342
G1 X424.204 Y-122.624
G1 X423.071 Y-127.377
G1 X423.054 Y-127.453
G1 X422.6 Y-129.589
G1 X420.874 Y-136.309
G1 X420.847 Y-136.421
G1 X420.473 Y-138.132
G1 X420.352 Y-138.6
G1 X420.337 Y-138.661
G1 X418.429 Y-146.691
G1 X417.681 Y-149.402
G1 X417.664 Y-149.464
G1 X416.205 Y-155.198
G1 X414.864 Y-159.794
G1 X414.846 Y-159.857
G1 X413.83 Y-163.632
G1 X411.953 Y-169.79
G1 X411.934 Y-169.856
G1 X411.337 Y-171.976
G1 X408.991 Y-179.404
G1 X408.971 Y-179.47
G1 X408.756 Y-180.208
G1 X406.971 Y-185.703
G1 X406.951 Y-185.77
G1 X406.18 Y-188.333
G1 X406.082 Y-188.627
G1 X406.062 Y-188.689
G1 X403.691 Y-196.342
G1 X403.294 Y-197.517
G1 X403.274 Y-197.577
G1 X401.182 Y-204.19
G1 X400.538 Y-206.062
G1 X400.518 Y-206.124
G1 X398.676 Y-211.866
G1 X397.839 Y-214.279
G1 X397.816 Y-214.345
G1 X396.199 Y-219.361
G1 X395.217 Y-222.181
G1 X395.193 Y-222.252
G1 X393.771 Y-226.668
G1 X392.69 Y-229.782
G1 X392.664 Y-229.858
G1 X391.413 Y-233.78
G1 X390.276 Y-237.099
G1 X390.249 Y-237.18
G1 X389.149 Y-240.694
G1 X387.989 Y-244.145
G1 X387.962 Y-244.231
G1 X386.995 Y-247.407
G1 X385.845 Y-250.933
G1 X385.816 Y-251.026
G1 X384.968 Y-253.92
G1 X383.853 Y-257.478
G1 X383.823 Y-257.577
G1 X383.085 Y-260.231
G1 X382.024 Y-263.795
G1 X381.993 Y-263.906
G1 X381.239 Y-266.822
G1 X380.059 Y-271.086
G1 X380.029 Y-271.201
G1 X379.401 Y-273.855
G1 X378.331 Y-278.084
G1 X378.304 Y-278.199
G1 X377.786 Y-280.621
G1 X376.83 Y-284.802
G1 X376.807 Y-284.913
G1 X376.381 Y-287.135
G1 X375.539 Y-291.261
G1 X375.519 Y-291.368
G1 X375.174 Y-293.416
G1 X374.444 Y-297.478
G1 X374.427 Y-297.583
G1 X374.151 Y-299.479
G1 X373.53 Y-303.474
G1 X373.512 Y-303.607
G1 X373.122 Y-307.066
G1 X372.184 Y-314.843
G1 X372.169 Y-314.994
G1 X371.947 Y-318.071
G1 X371.363 Y-325.592
G1 X371.356 Y-325.715
G1 X371.248 Y-328.53
G1 X370.944 Y-335.838
G1 X370.941 Y-335.943
G1 X370.897 Y-341.195
G1 X370.769 Y-355.398
G1 Y-355.454
G1 X370.813 Y-360.654
G1 Y-360.656
G1 X370.941 Y-374.913
G1 X370.943 Y-375.007
G1 X371.051 Y-377.788
G1 X371.052 Y-377.797
G1 X371.357 Y-385.148
G1 X371.362 Y-385.246
G1 X371.582 Y-388.274
G1 X371.583 Y-388.289
G1 X372.17 Y-395.876
G1 X372.181 Y-395.988
G1 X372.565 Y-399.381
G1 X372.568 Y-399.403
G1 X373.515 Y-407.27
G1 X373.525 Y-407.348
G1 X373.8 Y-409.237
G1 X373.805 Y-409.268
G1 X374.432 Y-413.302
G1 X374.438 Y-413.341
G1 X374.781 Y-415.38
G1 X374.787 Y-415.415
G1 X375.525 Y-419.52
G1 X375.531 Y-419.554
G1 X375.954 Y-421.768
G1 X375.962 Y-421.807
G1 X376.814 Y-425.978
G1 X376.82 Y-426.007
G1 X377.337 Y-428.425
G1 X377.347 Y-428.469
G1 X378.314 Y-432.699
G1 X378.32 Y-432.723
G1 X378.948 Y-435.374
G1 X378.959 Y-435.42
G1 X380.041 Y-439.699
G1 X380.045 Y-439.717
G1 X380.801 Y-442.637
G1 X380.815 Y-442.687
G1 X382.007 Y-446.999
G1 X382.008 Y-447.005
G1 X382.751 Y-449.673
G1 X382.767 Y-449.726
G1 X383.837 Y-453.325
G1 X384.689 Y-456.233
G1 X384.706 Y-456.29
G1 X385.83 Y-459.874
G1 X386.803 Y-463.066
G1 X386.821 Y-463.123
G1 X387.975 Y-466.665
G1 X389.087 Y-470.206
G1 X389.106 Y-470.264
G1 X390.262 Y-473.713
G1 X391.532 Y-477.685
G1 X391.552 Y-477.745
G1 X392.676 Y-481.033
G1 X394.135 Y-485.544
G1 X394.155 Y-485.605
G1 X395.204 Y-488.637
G1 X396.886 Y-493.825
G1 X396.906 Y-493.886
G1 X397.827 Y-496.542
G1 X399.775 Y-502.582
G1 X399.796 Y-502.644
G1 X400.528 Y-504.76
G1 X402.794 Y-511.872
G1 X402.814 Y-511.934
G1 X403.283 Y-513.306
G1 X405.929 Y-521.768
G1 X405.948 Y-521.828
G1 X406.07 Y-522.193
G1 X406.954 Y-525.094
G1 X406.968 Y-525.14
G1 X408.98 Y-531.416
G1 X409.292 Y-532.503
G1 X409.312 Y-532.572
G1 X411.943 Y-541.031
G1 X412.839 Y-544.286
G1 X412.858 Y-544.353
G1 X414.854 Y-551.028
G1 X416.457 Y-557.157
G1 X416.476 Y-557.224
G1 X417.672 Y-561.42
G1 X420.111 Y-571.351
G1 X420.128 Y-571.417
G1 X420.344 Y-572.222
G1 X420.853 Y-574.46
G1 X420.866 Y-574.514
G1 X423.062 Y-583.439
G1 X423.639 Y-586.261
G1 X423.656 Y-586.336
G1 X424.854 Y-591.552
G1 X425.983 Y-597.539
G1 X425.998 Y-597.614
G1 X426.482 Y-599.884
G1 X427.443 Y-605.493
G1 X427.455 Y-605.559
G1 X428.01 Y-608.433
G1 X428.248 Y-610.021
G1 X428.259 Y-610.091
G1 X429.491 Y-617.212
G1 X430.44 Y-624.582
G1 X430.449 Y-624.649
G1 X430.686 Y-626.219
G1 X430.923 Y-628.475
G1 X430.93 Y-628.528
G1 X431.774 Y-635.421
G1 X432.301 Y-642.385
G1 X432.306 Y-642.443
G1 X432.527 Y-644.784
G1 X432.624 Y-646.92
G1 X432.941 Y-654.186
G1 X432.884 Y-663.014
G1 X432.867 Y-663.568
G1 X432.784 Y-664.579
G1 X432.78 Y-664.623
G1 X432.202 Y-673.067
G1 X431.611 Y-677.888
G1 X430.878 Y-682.34
G1 X429.222 Y-689.853
G1 X429.214 Y-689.894
G1 X428.845 Y-691.678
G1 X428.6 Y-692.596
G1 X426.053 Y-700.681
G1 X423.402 Y-707.703
G1 X422.633 Y-709.535
G1 X419.918 Y-715.311
G1 X418.476 Y-718.177
G1 X415.784 Y-722.979
G1 X413.69 Y-726.516
G1 X410.985 Y-730.619
G1 X408.315 Y-734.494
G1 X405.524 Y-738.127
G1 X402.388 Y-742.057
G1 X399.434 Y-745.362
G1 X395.924 Y-749.161
G1 X392.84 Y-752.141
G1 X388.925 Y-755.81
G1 X386.002 Y-758.259
G1 X381.364 Y-762.031
G1 X379.217 Y-763.595
G1 X373.191 Y-767.85
G1 X372.677 Y-768.176
G1 X371.328 Y-769.004
G1 X371.319 Y-769.009
G1 X366.408 Y-772.043
G1 X364.337 Y-773.279
G1 X360.679 Y-775.249
G1 X355.86 Y-777.747
G1 X355.847 Y-777.754
G1 X355.142 Y-778.123
G1 X354.659 Y-778.366
G1 X350.197 Y-780.407
G1 X346.569 Y-781.996
G1 X346.553 Y-782.003
G1 X345.36 Y-782.533
G1 X343.934 Y-783.139
G1 X340.99 Y-784.281
G1 X339.408 Y-784.866
G1 X339.392 Y-784.872
G1 X336.75 Y-785.867
G1 X333.089 Y-787.178
G1 X333.071 Y-787.185
G1 X332.667 Y-787.332
G1 X331.88 Y-787.604
G1 X328.947 Y-788.535
G1 X327.91 Y-788.846
G1 X327.892 Y-788.851
G1 X325.282 Y-789.651
G1 X323.039 Y-790.3
G1 X323.023 Y-790.305
G1 X321.732 Y-790.686
G1 X318.412 Y-791.61
G1 X318.395 Y-791.615
G1 X318.282 Y-791.647
G1 X317.91 Y-791.747
G1 X315.086 Y-792.438
G1 X314.438 Y-792.587
G1 X314.427 Y-792.589
G1 X311.893 Y-793.182
G1 X310.548 Y-793.48
G1 X310.54 Y-793.482
G1 X308.777 Y-793.877
G1 X306.802 Y-794.295
G1 X306.794 Y-794.297
G1 X305.735 Y-794.524
G1 X303.194 Y-795.041
G1 X303.19
G1 X302.769 Y-795.127
G1 X300.639 Y-795.542
G1 X299.947 Y-795.665
G1 X299.854 Y-795.68
G1 X299.844 Y-795.682
G1 X297.164 Y-796.137
G1 X296.685 Y-796.214
G1 X296.674 Y-796.215
G1 X294.445 Y-796.578
G1 X293.612 Y-796.706
G1 X293.607 Y-796.707
G1 X291.791 Y-796.989
G1 X290.64 Y-797.158
G1 X290.638
G1 X289.198 Y-797.37
G1 X287.761 Y-797.572
G1 X287.759
G1 X286.663 Y-797.726
G1 X284.972 Y-797.952
G1 X284.186 Y-798.056
G1 X282.268 Y-798.298
G1 X282.262 Y-798.299
G1 X281.76 Y-798.363
G1 X279.647 Y-798.614
G1 X279.393 Y-798.644
G1 X277.115 Y-798.899
G1 X277.093 Y-798.901
G1 X277.077 Y-798.902
G1 X276.638 Y-798.949
G1 X274.839 Y-799.117
G1 X274.735 Y-799.126
G1 X274.726 Y-799.127
G1 X272.61 Y-799.311
G1 X272.371 Y-799.33
G1 X272.369
G1 X270.428 Y-799.486
G1 X270.075 Y-799.511
G1 X270.065 Y-799.512
G1 X268.268 Y-799.644
G1 X267.807 Y-799.675
G1 X266.145 Y-799.786
G1 X265.592 Y-799.82
G1 X265.587
G1 X264.047 Y-799.915
G1 X262.73 Y-799.983
G1 X262.726
G1 X259.898 Y-800.134
G1 X258.319 Y-800.2
G1 X255.818 Y-800.305
G1 X254.035 Y-800.365
G1 X251.785 Y-800.439
G1 X249.855 Y-800.488
G1 X247.79 Y-800.541
G1 X245.756 Y-800.578
G1 X245.754
G1 X243.824 Y-800.613
G1 X241.722 Y-800.64
G1 X239.889 Y-800.664
G1 X237.75 Y-800.681
G1 X235.985 Y-800.695
G1 X233.835 Y-800.701
G1 X232.11 Y-800.706
G1 X229.978 Y-800.698
G1 X228.257 Y-800.692
G1 X226.169 Y-800.669
G1 X224.414 Y-800.65
G1 X222.4 Y-800.613
G1 X220.568 Y-800.579
G1 X218.659 Y-800.526
G1 X216.705 Y-800.473
G1 X214.938 Y-800.407
G1 X212.808 Y-800.328
G1 X211.22 Y-800.253
G1 X208.855 Y-800.139
G1 X207.492 Y-800.059
G1 X204.822 Y-799.903
G1 X203.733 Y-799.828
G1 X200.693 Y-799.62
G1 X199.934 Y-799.56
G1 X196.465 Y-799.286
G1 X196.092 Y-799.253
G1 X196.086 Y-799.252
G1 X192.615 Y-798.947
G1 X192.202 Y-798.906
G1 X192.193 Y-798.905
G1 X192.15 Y-798.901
G1 X188.367 Y-798.489
G1 X188.364 Y-798.488
G1 X187.704 Y-798.417
G1 X184.475 Y-798.034
G1 X183.128 Y-797.875
G1 X180.515 Y-797.542
G1 X178.416 Y-797.273
G1 X176.483 Y-797.009
G1 X176.482
G1 X173.56 Y-796.611
G1 X172.37 Y-796.438
G1 X168.552 Y-795.883
G1 X168.17 Y-795.824
G1 X166.263 Y-795.53
G1 X164.018 Y-795.145
G1 X163.442 Y-795.046
G1 X159.838 Y-794.389
G1 X158.084 Y-794.069
G1 X155.54 Y-793.579
G1 X152.473 Y-792.986
G1 X151.106 Y-792.706
G1 X151.104 Y-792.705
G1 X146.557 Y-791.776
G1 X146.514 Y-791.766
G1 X146.507 Y-791.765
G1 X146.333 Y-791.727
G1 X142.06 Y-790.706
G1 X140.386 Y-790.305
G1 X137.41 Y-789.556
G1 X133.708 Y-788.623
G1 X132.546 Y-788.316
G1 X129.693 Y-787.559
G1 X127.655 Y-786.963
G1 X127.654
G1 X126.6 Y-786.654
G1 X122.709 Y-785.461
G1 X118.8 Y-784.261
G1 X117.488 Y-783.842
G1 X115.082 Y-783.072
G1 X112.293 Y-782.084
G1 X110.36 Y-781.4
G1 X106.962 Y-780.153
G1 X101.831 Y-778.268
G1 X101.417 Y-778.1
G1 X101.046 Y-777.949
G1 X95.959 Y-775.812
G1 X90.597 Y-773.56
G1 X90.143 Y-773.364
G1 X89.657 Y-773.153
G1 X84.565 Y-770.717
G1 X78.986 Y-768.049
G1 X78.574 Y-767.846
G1 X78.221 Y-767.673
G1 X72.837 Y-764.754
G1 X67.385 Y-761.797
G1 X66.802 Y-761.448
G1 X66.801 Y-761.447
G1 X65.913 Y-760.916
G1 X60.814 Y-757.798
G1 X60.761 Y-757.766
G1 X215.458
G1 X215.687 Y-757.919
G3 X216.834 Y-758.394 I1.765 J2.639
G1 X218.049 Y-758.635
G3 X219.285 I0.618 J3.114
G1 X220.5 Y-758.394
G3 X221.647 Y-757.919 I-0.618 J3.114
G1 X222.677 Y-757.23
G3 X223.552 Y-756.355 I-1.765 J2.639
G1 X224.24 Y-755.325
G3 X224.714 Y-754.181 I-2.64 J1.764
G1 X224.956 Y-752.966
G3 Y-751.726 I-3.114 J0.62
G1 X224.714 Y-750.511
G3 X224.24 Y-749.367 I-3.114 J-0.62
G1 X224.087 Y-749.138
G1 Y-747.598
G1 X224.24 Y-747.369
G3 X224.714 Y-746.225 I-2.64 J1.764
G1 X224.956 Y-745.01
G3 Y-743.77 I-3.114 J0.62
G1 X224.714 Y-742.555
G3 X224.24 Y-741.411 I-3.114 J-0.62
G1 X223.552 Y-740.381
G3 X222.676 Y-739.505 I-2.64 J-1.764
G1 X221.646 Y-738.817
G3 X220.502 Y-738.343 I-1.764 J-2.64
G1 X219.287 Y-738.101
G3 X218.047 I-0.62 J-3.114
G1 X216.832 Y-738.343
G3 X215.688 Y-738.817 I0.62 J-3.114
G1 X215.459 Y-738.97
G1 X34.416
G1 X32.895 Y-737.691
G1 X25.864 Y-731.766
G1 X21.794 Y-728.085
G1 X17.546 Y-724.11
G1 X11.333 Y-718.09
G1 X10.851 Y-717.616
G1 X10.848 Y-717.614
G1 X10.701 Y-717.47
G1 X4.667 Y-711.146
G1 X2.33 Y-708.696
G1 X-1.547 Y-704.384
G1 X-5.796 Y-699.655
G1 X-7.762 Y-697.343
G1 X-13.664 Y-690.403
G1 X-13.95 Y-690.048
G1 X-13.951 Y-690.046
G1 X-15.197 Y-688.504
G1 X-19.975 Y-682.503
G1 X-21.167 Y-681.006
G1 X-25.864 Y-674.812
G1 X-28.386 Y-671.487
G1 X-31.67 Y-666.954
G1 X-35.32 Y-661.916
G1 X-37.369 Y-658.962
G1 X-41.959 Y-652.344
G1 X-42.941 Y-650.869
G1 X-48.289 Y-642.832
G1 X-48.36 Y-642.721
G1 X-48.365 Y-642.714
G1 X-48.934 Y-641.825
G1 X-53.53 Y-634.548
G1 X-54.232 Y-633.436
G1 X-58.273 Y-626.786
G1 X176.3
G1 X176.529 Y-626.939
G3 X177.673 Y-627.413 I1.764 J2.64
G1 X178.888 Y-627.655
G3 X180.128 I0.62 J3.114
G1 X181.343 Y-627.413
G3 X182.487 Y-626.939 I-0.62 J3.114
G1 X183.517 Y-626.251
G3 X184.393 Y-625.375 I-1.764 J2.64
G1 X185.081 Y-624.345
G3 X185.555 Y-623.201 I-2.64 J1.764
G1 X185.797 Y-621.986
G3 Y-620.746 I-3.114 J0.62
G1 X185.555 Y-619.531
G3 X185.081 Y-618.387 I-3.114 J-0.62
G1 X184.928 Y-618.158
G1 Y-616.618
G1 X185.081 Y-616.389
G3 X185.555 Y-615.245 I-2.64 J1.764
G1 X185.797 Y-614.03
G3 Y-612.79 I-3.114 J0.62
G1 X185.555 Y-611.575
G3 X185.081 Y-610.431 I-3.114 J-0.62
G1 X184.393 Y-609.401
G3 X183.517 Y-608.525 I-2.64 J-1.763
G1 X182.487 Y-607.837
G3 X181.343 Y-607.363 I-1.764 J-2.64
G1 X180.128 Y-607.121
G3 X178.888 I-0.62 J-3.114
G1 X177.673 Y-607.363
G3 X176.529 Y-607.837 I0.62 J-3.114
G1 X176.3 Y-607.99
G1 X-69.179
G1 X-70.098 Y-606.36
G1 X-72.115 Y-602.634
G1 X-74.735 Y-597.797
G1 X-76.225 Y-594.929
G1 X-79.065 Y-589.463
G1 X-80.114 Y-587.353
G1 X-83.095 Y-581.358
G1 X-84.029 Y-579.372
G1 X-88.368 Y-570.145
G1 X-88.746 Y-569.281
G1 X-92.975 Y-559.634
G1 X-93.082 Y-559.387
G1 X-96.933 Y-549.807
G1 X-96.934 Y-549.805
G1 X-97.247 Y-549.026
G1 X-100.407 Y-540.499
G1 Y-540.498
G1 X-100.935 Y-539.075
G1 X-103.524 Y-531.451
G1 X-104.181 Y-529.515
G1 X-106.299 Y-522.668
G1 X-107.022 Y-520.33
G1 X-108.748 Y-514.152
G1 X-109.488 Y-511.505
G1 X-110.892 Y-505.903
G1 X-111.613 Y-503.027
G1 X-112.753 Y-497.92
G1 X-113.225 Y-495.805
G1 X134.644
G1 X134.873 Y-495.958
G3 X136.02 Y-496.433 I1.765 J2.639
G1 X137.235 Y-496.674
G3 X138.471 I0.618 J3.114
G1 X139.686 Y-496.433
G3 X140.833 Y-495.958 I-0.618 J3.114
G1 X141.863 Y-495.269
G3 X142.738 Y-494.394 I-1.765 J2.639
G1 X143.426 Y-493.364
G3 X143.9 Y-492.22 I-2.64 J1.764
G1 X144.142 Y-491.005
G3 Y-489.765 I-3.114 J0.62
G1 X143.9 Y-488.55
G3 X143.426 Y-487.406 I-3.114 J-0.62
G1 X143.273 Y-487.177
G1 Y-485.637
G1 X143.426 Y-485.408
G3 X143.9 Y-484.264 I-2.64 J1.764
G1 X144.142 Y-483.049
G3 Y-481.809 I-3.114 J0.62
G1 X143.9 Y-480.594
G3 X143.426 Y-479.45 I-3.114 J-0.62
G1 X142.738 Y-478.42
G3 X141.862 Y-477.544 I-2.64 J-1.764
G1 X140.832 Y-476.856
G3 X139.688 Y-476.382 I-1.764 J-2.64
G1 X138.473 Y-476.14
G3 X137.233 I-0.62 J-3.114
G1 X136.018 Y-476.382
G3 X134.874 Y-476.856 I0.62 J-3.114
G1 X134.645 Y-477.009
G1 X-116.658
G1 X-116.884 Y-475.52
G1 X-117.373 Y-472.28
G1 X-117.866 Y-468.55
G1 X-118.294 Y-465.307
G1 X-118.699 Y-461.815
G1 X-119.073 Y-458.59
G1 X-119.413 Y-455.306
G1 X-119.742 Y-452.113
G1 X-120.037 Y-449.012
G1 X-120.336 Y-445.861
G1 X-120.652 Y-442.357
G1 X-120.986 Y-438.644
G1 X-121.265 Y-435.363
G1 X-121.574 Y-431.73
G1 X-121.82 Y-428.647
G1 X-122.104 Y-425.098
G1 X-122.321 Y-422.194
G1 X-122.578 Y-418.731
G1 X-122.768 Y-415.984
G1 X-123 Y-412.606
G1 X-123.163 Y-409.999
G1 X-123.37 Y-406.707
G1 X-123.631 Y-401.841
G1 X-123.971 Y-395.481
G1 X-124.155 Y-390.996
G1 X-124.403 Y-384.907
G1 X-124.52 Y-380.689
G1 X-124.684 Y-374.823
G1 X-124.767 Y-366.79
G1 X-124.788 Y-364.825
G1 X117.39
G1 X117.619 Y-364.978
G3 X118.763 Y-365.452 I1.764 J2.64
G1 X119.978 Y-365.694
G3 X121.218 I0.62 J3.114
G1 X122.433 Y-365.452
G3 X123.577 Y-364.978 I-0.62 J3.114
G1 X124.607 Y-364.29
G3 X125.483 Y-363.414 I-1.764 J2.64
G1 X126.171 Y-362.384
G3 X126.645 Y-361.24 I-2.64 J1.764
G1 X126.887 Y-360.025
G3 Y-358.785 I-3.114 J0.62
G1 X126.645 Y-357.57
G3 X126.171 Y-356.426 I-3.114 J-0.62
G1 X126.018 Y-356.197
G1 Y-354.657
G1 X126.171 Y-354.428
G3 X126.645 Y-353.284 I-2.64 J1.764
G1 X126.887 Y-352.069
G3 Y-350.829 I-3.114 J0.62
G1 X126.645 Y-349.614
G3 X126.171 Y-348.47 I-3.114 J-0.62
G1 X125.483 Y-347.44
G3 X124.607 Y-346.564 I-2.64 J-1.764
G1 X123.577 Y-345.876
G3 X122.433 Y-345.402 I-1.764 J-2.64
G1 X121.218 Y-345.16
G3 X119.978 I-0.62 J-3.114
G1 X118.763 Y-345.402
G3 X117.619 Y-345.876 I0.62 J-3.114
G1 X117.39 Y-346.029
G1 X-124.788
G1 X-124.684 Y-336.031
G1 X-124.566 Y-331.823
G1 X-124.403 Y-325.947
G1 X-124.22 Y-321.467
G1 X-123.971 Y-315.372
G1 X-123.712 Y-310.518
G1 X-123.37 Y-304.146
G1 X-123.207 Y-301.547
G1 X-123 Y-298.249
G1 X-122.811 Y-295.505
G1 X-122.578 Y-292.123
G1 X-122.362 Y-289.219
G1 X-122.104 Y-285.754
G1 X-121.858 Y-282.672
G1 X-121.574 Y-279.124
G1 X-121.294 Y-275.84
G1 X-120.986 Y-272.209
G1 X-120.671 Y-268.702
G1 X-120.336 Y-264.994
G1 X-120.041 Y-261.882
G1 X-119.742 Y-258.741
G1 X-119.402 Y-255.442
G1 X-119.073 Y-252.264
G1 X-118.666 Y-248.754
G1 X-118.294 Y-245.547
G1 X-117.798 Y-241.795
G1 X-117.373 Y-238.574
G1 X-116.764 Y-234.541
G1 X-116.658 Y-233.844
G1 X134.677
G1 X134.906 Y-233.997
G3 X136.053 Y-234.472 I1.765 J2.639
G1 X137.268 Y-234.713
G3 X138.504 I0.618 J3.114
G1 Z-9.017
G1 X139.719 Y-234.472
G3 X140.866 Y-233.997 I-0.618 J3.114
G1 X141.896 Y-233.308
G3 X142.771 Y-232.433 I-1.765 J2.639
G1 X143.459 Y-231.403
G3 X143.933 Y-230.259 I-2.64 J1.764
G1 X144.175 Y-229.044
G3 Y-227.804 I-3.114 J0.62
G1 X143.933 Y-226.589
G3 X143.459 Y-225.445 I-3.114 J-0.62
G1 X143.306 Y-225.216
G1 Y-223.676
G1 X143.459 Y-223.447
G3 X143.933 Y-222.303 I-2.64 J1.764
G1 X144.175 Y-221.088
G3 Y-219.848 I-3.114 J0.62
G1 X143.933 Y-218.633
G3 X143.459 Y-217.489 I-3.114 J-0.62
G1 X142.771 Y-216.459
G3 X141.895 Y-215.583 I-2.64 J-1.764
G1 X140.865 Y-214.895
G3 X139.721 Y-214.421 I-1.764 J-2.64
G1 X138.506 Y-214.179
G3 X137.266 I-0.62 J-3.114
G1 X136.051 Y-214.421
G3 X134.907 Y-214.895 I0.62 J-3.114
G1 X134.678 Y-215.048
G1 X-113.224
G1 X-112.27 Y-210.771
G1 X-111.613 Y-207.826
G1 X-110.174 Y-202.088
G1 X-109.488 Y-199.348
G1 X-107.706 Y-192.975
G1 X-107.022 Y-190.524
G1 X-104.818 Y-183.396
G1 X-104.182 Y-181.34
G1 X-101.456 Y-173.313
G1 X-100.935 Y-171.778
G1 X-97.565 Y-162.685
G1 X-97.247 Y-161.827
G1 X-93.081 Y-151.464
G1 X-92.975 Y-151.221
G1 X-88.368 Y-140.708
G1 X-87.829 Y-139.563
G1 X-83.095 Y-129.496
G1 X-82.209 Y-127.715
G1 X-79.065 Y-121.391
G1 X-77.686 Y-118.737
G1 X-74.735 Y-113.056
G1 X-72.749 Y-109.389
G1 X-70.098 Y-104.494
G1 X-69.179 Y-102.864
G1 X176.334
G1 X176.563 Y-103.017
G3 X177.707 Y-103.491 I1.764 J2.64
G1 X178.922 Y-103.733
G3 X180.162 I0.62 J3.114
G1 X181.378 Y-103.491
G3 X182.522 Y-103.017 I-0.62 J3.114
G1 X183.552 Y-102.329
G3 X184.428 Y-101.452 I-1.764 J2.64
G1 X185.116 Y-100.422
G3 X185.59 Y-99.277 I-2.64 J1.763
G1 X185.831 Y-98.062
G3 Y-96.826 I-3.114 J0.618
G1 X185.59 Y-95.611
G3 X185.116 Y-94.465 I-3.114 J-0.618
G1 X184.963 Y-94.236
G1 Y-92.696
G1 X185.116 Y-92.466
G3 X185.59 Y-91.321 I-2.64 J1.763
G1 X185.831 Y-90.106
G3 Y-88.87 I-3.114 J0.618
G1 X185.59 Y-87.655
G3 X185.116 Y-86.509 I-3.114 J-0.618
G1 X184.428 Y-85.479
G3 X183.552 Y-84.603 I-2.64 J-1.764
G1 X182.522 Y-83.915
G3 X181.377 Y-83.441 I-1.764 J-2.64
G1 X180.161 Y-83.199
G3 X178.923 I-0.619 J-3.114
G1 X177.708 Y-83.441
G3 X176.563 Y-83.915 I0.619 J-3.114
G1 X176.334 Y-84.068
G1 X-58.274
G1 X-55.095 Y-78.837
G1 X-54.232 Y-77.418
G1 X-48.933 Y-69.029
G1 X-48.292 Y-68.025
G1 X-48.173 Y-67.847
G1 X-41.959 Y-58.509
G1 X-40.413 Y-56.281
G1 X-35.32 Y-48.938
G1 X-32.018 Y-44.38
G1 X-28.386 Y-39.367
G1 X-22.945 Y-32.193
G1 X-21.167 Y-29.848
G1 X-15.197 Y-22.35
G1 X-13.664 Y-20.452
G1 X-13.099 Y-19.787
G1 X-5.796 Y-11.198
G1 X-1.883 Y-6.845
G1 X2.33 Y-2.158
G1 X10.391 Y6.291
G1 X10.703 Y6.617
G1 X11.333 Y7.237
G1 X17.546 Y13.256
G1 X21.786 Y17.224
G1 X26.888 Y21.78
G1 X32.895 Y26.837
G1 X34.415 Y28.117
G1 X215.48
G1 X215.709 Y27.963
G3 X216.854 Y27.489 I1.764 J2.64
G1 X218.069 Y27.248
G3 X219.307 I0.619 J3.114
G1 X220.522 Y27.489
G3 X221.667 Y27.963 I-0.619 J3.114
G1 X222.697 Y28.652
G3 X223.572 Y29.526 I-1.764 J2.64
G1 X224.261 Y30.557
G3 X224.736 Y31.704 I-2.639 J1.765
G1 X224.977 Y32.919
G3 Y34.154 I-3.114 J0.618
G1 X224.736 Y35.369
G3 X224.261 Y36.517 I-3.114 J-0.618
G1 X224.108 Y36.746
G1 Y38.283
G1 X224.261 Y38.512
G3 X224.736 Y39.66 I-2.639 J1.765
G1 X224.977 Y40.875
G3 Y42.11 I-3.114 J0.618
G1 X224.736 Y43.325
G3 X224.261 Y44.473 I-3.114 J-0.618
G1 X223.572 Y45.503
G3 X222.697 Y46.377 I-2.639 J-1.765
G1 X221.667 Y47.066
G3 X220.522 Y47.54 I-1.764 J-2.64
G1 X219.307 Y47.782
G3 X218.069 I-0.619 J-3.114
G1 X216.854 Y47.54
G3 X215.709 Y47.066 I0.619 J-3.114
G1 X215.48 Y46.913
G1 X60.668
G1 X65.895 Y50.065
G1 X67.384 Y50.943
G1 X69.412 Y52.058
G1 X75.088 Y55.18
G1 X79.038 Y57.203
G1 X83.045 Y59.204
G1 X90.673 Y62.75
G1 X91.318 Y63.041
G1 X94.894 Y64.543
G1 X100.06 Y66.713
G1 X100.969 Y67.068
G1 X109.264 Y70.205
G1 X110.303 Y70.57
G1 X117.276 Y72.933
G1 X118.832 Y73.46
G1 X119.034 Y73.525
G1 X126.583 Y75.809
G1 X129.692 Y76.706
G1 X133.713 Y77.786
G1 X139.155 Y79.177
G1 X140.38 Y79.49
G1 X141.296 Y79.712
G1 X146.59 Y80.907
G1 X150.981 Y81.845
G1 X152.486 Y82.166
G1 X154.364 Y82.545
G1 X158.056 Y83.238
G1 X160.149 Y83.608
G1 X163.425 Y84.188
G1 X168.148 Y84.974
G1 X168.584 Y85.047
G1 X169.48 Y85.188
G1 X173.551 Y85.779
G1 X175.068 Y85.986
G1 X178.407 Y86.442
G1 X181.53 Y86.84
G1 X183.121 Y87.043
G1 X187.587 Y87.572
G1 X187.698 Y87.585
G1 X188.109 Y87.63
G1 X192.132 Y88.034
G1 X193.014 Y88.114
G1 X196.472 Y88.43
G1 X198.171 Y88.568
G1 X200.699 Y88.774
G1 X203.051 Y88.942
G1 X204.822 Y89.069
G1 X207.677 Y89.241
G1 X208.851 Y89.312
G1 X212.077 Y89.471
G1 X212.801 Y89.507
G1 X216.299 Y89.641
G1 X216.695 Y89.656
G1 X220.388 Y89.761
G1 X220.556 Y89.766
G1 X224.379 Y89.84
G1 X224.385
G1 X224.402
G1 X225.886 Y89.857
G1 X228.242 Y89.881
G1 X228.273
G1 X232.095 Y89.894
G1 X232.149
G1 X232.151
G1 X235.97 Y89.884
G1 X236.009
G1 X236.011
G1 X239.592 Y89.857
G1 X239.868 Y89.854
G1 X243.713 Y89.803
G1 X243.807 Y89.802
G1 X247.538 Y89.731
G1 X247.539
G1 X247.773 Y89.726
G1 X251.343 Y89.633
G1 X251.768 Y89.622
G1 X255.126 Y89.507
G1 X255.802 Y89.484
G1 X258.889 Y89.349
G1 X259.883 Y89.306
G1 X262.637 Y89.156
G1 X264.033 Y89.08
G1 X265.275 Y89.002
G1 X266.131 Y88.948
G1 X267.261 Y88.87
G1 X268.258 Y88.8
G1 X269.261 Y88.724
G1 X270.414 Y88.637
G1 X271.274 Y88.566
G1 X272.603 Y88.455
G1 X273.306 Y88.392
G1 X274.831 Y88.255
G1 X275.362 Y88.204
G1 X277.099 Y88.036
G1 X277.44 Y88.001
G1 X279.413 Y87.796
G1 X279.546 Y87.782
G1 X280.89 Y87.633
G1 X281.66 Y87.542
G1 X281.75 Y87.531
G1 X283.786 Y87.275
G1 X284.171 Y87.226
G1 X285.944 Y86.99
G1 X286.648 Y86.896
G1 X288.132 Y86.688
G1 X289.182 Y86.54
G1 X290.355 Y86.368
G1 X291.774 Y86.158
G1 X292.61 Y86.029
G1 X294.428 Y85.747
G1 X294.902 Y85.671
G1 X297.144 Y85.307
G1 X297.231 Y85.292
G1 X297.776 Y85.2
G1 X299.543 Y84.88
G1 X299.909 Y84.813
G1 X301.896 Y84.437
G1 X302.789 Y84.267
G1 X304.287 Y83.971
G1 X305.741 Y83.681
G1 X306.718 Y83.48
G1 X308.766 Y83.054
G1 X309.186 Y82.964
G1 X311.026 Y82.563
G1 X311.655 Y82.418
G1 X311.825 Y82.378
G1 X314.139 Y81.821
G1 X315.049 Y81.599
G1 X316.66 Y81.194
G1 X318.351 Y80.76
G1 X319.223 Y80.532
G1 X321.74 Y79.859
G1 X321.829 Y79.835
G1 X322.133 Y79.751
G1 X324.396 Y79.087
G1 X325.238 Y78.835
G1 X327.036 Y78.288
G1 X328.918 Y77.701
G1 X329.73 Y77.445
G1 X331.88 Y76.75
G1 X332.428 Y76.564
G1 X332.677 Y76.478
G1 X335.172 Y75.603
G1 X336.733 Y75.039
G1 X337.977 Y74.589
G1 X340.658 Y73.59
G1 X340.792 Y73.537
G1 X340.874 Y73.504
G1 X340.876
G1 X343.664 Y72.382
G1 X345.414 Y71.655
G1 X345.416 Y71.654
G1 X346.598 Y71.164
G1 X348.67 Y70.279
G1 X349.525 Y69.896
G1 X350.112 Y69.624
G1 X350.116 Y69.623
G1 X352.524 Y68.514
G1 X355.23 Y67.225
G1 X355.239 Y67.221
G1 X355.589 Y67.056
G1 X356.078 Y66.817
G1 X358.593 Y65.528
G1 X360.646 Y64.44
G1 X360.653 Y64.436
G1 X361.708 Y63.881
G1 X363.001 Y63.177
G1 X364.77 Y62.168
G1 X366.435 Y61.186
G1 X366.444 Y61.181
G1 X367.918 Y60.318
G1 X369.492 Y59.363
G1 X371.006 Y58.403
G1 X372.623 Y57.341
G1 X372.633 Y57.334
G1 X374.162 Y56.338
G1 X375.601 Y55.366
G1 X377.24 Y54.209
G1 X379.183 Y52.787
G1 X379.194 Y52.779
G1 X380.375 Y51.922
G1 X381.366 Y51.177
G1 X383.4 Y49.576
G1 X386.013 Y47.447
G1 X386.024 Y47.438
G1 X386.484 Y47.066
G1 X386.82 Y46.784
G1 X389.411 Y44.512
G1 X392.011 Y42.147
G1 X392.328 Y41.846
G1 X392.81 Y41.371
G1 X392.819 Y41.363
G1 X395.19 Y39.042
G1 X396.886 Y37.318
G1 X397.94 Y36.197
G1 X399.451 Y34.531
G1 X399.457 Y34.525
G1 X400.656 Y33.21
G1 X401.493 Y32.255
G1 X403.207 Y30.214
G1 X405.587 Y27.266
G1 X405.59 Y27.262
G1 X405.744 Y27.072
G1 X405.82 Y26.974
G1 X408.917 Y22.717
G1 X410.966 Y19.721
G1 X410.986 Y19.692
G1 X412.091 Y18.113
G1 X413.697 Y15.651
G1 X414.777 Y13.877
G1 X415.782 Y12.128
G1 X415.789 Y12.117
G1 X417.104 Y9.849
G1 X418.476 Y7.325
G1 X419.242 Y5.851
G1 X419.917 Y4.46
G1 X419.922 Y4.449
G1 X421.235 Y1.77
G1 X422.634 Y-1.319
G1 X423.054 Y-2.282
G1 X423.404 Y-3.156
G1 X425.148 Y-7.523
G1 X426.051 Y-10.162
G1 X426.058 Y-10.181
G1 X427.097 Y-13.155
G1 X428.602 Y-18.263
G1 X428.765 Y-18.824
G1 X428.842 Y-19.159
G1 X428.851 Y-19.196
G1 X430.136 Y-24.472
G1 X430.874 Y-28.488
G1 X430.884 Y-28.537
G1 X431.216 Y-30.196
G1 X431.611 Y-32.963
G1 X431.613 Y-32.978
G1 X432.044 Y-35.9
G1 X432.2 Y-37.752
G1 X432.207 Y-37.819
G1 X432.614 Y-41.659
G1 X432.866 Y-47.249
G1 X432.87 Y-47.319
G1 X432.881 Y-47.481
G1 X432.884 Y-47.81
G1 X432.885 Y-47.874
G1 X433.047 Y-53.352
G1 X432.943 Y-56.625
G1 X432.941 Y-56.71
G1 X432.928 Y-59.285
G1 X432.628 Y-63.868
G1 X432.622 Y-63.995
G1 X432.588 Y-65.337
G1 X432.531 Y-66.027
G1 X432.525 Y-66.112
G1 X432.224 Y-71.468
G1 X431.779 Y-75.388
G1 X431.77 Y-75.478
G1 X431.587 Y-77.643
G1 X430.937 Y-82.27
G1 X430.919 Y-82.43
G1 X430.782 Y-83.964
G1 X430.693 Y-84.59
G1 X430.681 Y-84.679
G1 X430.036 Y-90.344
G1 X429.499 Y-93.598
G1 X429.485 Y-93.686
G1 X429.069 Y-96.738
G1 X428.019 Y-102.377
G1 X428.003 Y-102.465
G1 X427.898 Y-103.137
G1 X427.462 Y-105.256
G1 X427.437 Y-105.392
G1 X426.752 Y-109.658
G1 X426.491 Y-110.929
G1 X426.476 Y-111.009
G1 X425.555 Y-116.151
G1 X424.863 Y-119.262
G1 X424.846 Y-119.342
G1 X424.204 Y-122.624
G1 X423.071 Y-127.377
G1 X423.054 Y-127.453
G1 X422.6 Y-129.589
G1 X420.874 Y-136.309
G1 X420.847 Y-136.421
G1 X420.473 Y-138.132
G1 X420.352 Y-138.6
G1 X420.337 Y-138.661
G1 X418.429 Y-146.691
G1 X417.681 Y-149.402
G1 X417.664 Y-149.464
G1 X416.205 Y-155.198
G1 X414.864 Y-159.794
G1 X414.846 Y-159.857
G1 X413.83 Y-163.632
G1 X411.953 Y-169.79
G1 X411.934 Y-169.856
G1 X411.337 Y-171.976
G1 X408.991 Y-179.404
G1 X408.971 Y-179.47
G1 X408.756 Y-180.208
G1 X406.971 Y-185.703
G1 X406.951 Y-185.77
G1 X406.18 Y-188.333
G1 X406.082 Y-188.627
G1 X406.062 Y-188.689
G1 X403.691 Y-196.342
G1 X403.294 Y-197.517
G1 X403.274 Y-197.577
G1 X401.182 Y-204.19
G1 X400.538 Y-206.062
G1 X400.518 Y-206.124
G1 X398.676 Y-211.866
G1 X397.839 Y-214.279
G1 X397.816 Y-214.345
G1 X396.199 Y-219.361
G1 X395.217 Y-222.181
G1 X395.193 Y-222.252
G1 X393.771 Y-226.668
G1 X392.69 Y-229.782
G1 X392.664 Y-229.858
G1 X391.413 Y-233.78
G1 X390.276 Y-237.099
G1 X390.249 Y-237.18
G1 X389.149 Y-240.694
G1 X387.989 Y-244.145
G1 X387.962 Y-244.231
G1 X386.995 Y-247.407
G1 X385.845 Y-250.933
G1 X385.816 Y-251.026
G1 X384.968 Y-253.92
G1 X383.853 Y-257.478
G1 X383.823 Y-257.577
G1 X383.085 Y-260.231
G1 X382.024 Y-263.795
G1 X381.993 Y-263.906
G1 X381.239 Y-266.822
G1 X380.059 Y-271.086
G1 X380.029 Y-271.201
G1 X379.401 Y-273.855
G1 X378.331 Y-278.084
G1 X378.304 Y-278.199
G1 X377.786 Y-280.621
G1 X376.83 Y-284.802
G1 X376.807 Y-284.913
G1 X376.381 Y-287.135
G1 X375.539 Y-291.261
G1 X375.519 Y-291.368
G1 X375.174 Y-293.416
G1 X374.444 Y-297.478
G1 X374.427 Y-297.583
G1 X374.151 Y-299.479
G1 X373.53 Y-303.474
G1 X373.512 Y-303.607
G1 X373.122 Y-307.066
G1 X372.184 Y-314.843
G1 X372.169 Y-314.994
G1 X371.947 Y-318.071
G1 X371.363 Y-325.592
G1 X371.356 Y-325.715
G1 X371.248 Y-328.53
G1 X370.944 Y-335.838
G1 X370.941 Y-335.943
G1 X370.897 Y-341.195
G1 X370.769 Y-355.398
G1 Y-355.454
G1 X370.813 Y-360.654
G1 Y-360.656
G1 X370.941 Y-374.913
G1 X370.943 Y-375.007
G1 X371.051 Y-377.788
G1 X371.052 Y-377.797
G1 X371.357 Y-385.148
G1 X371.362 Y-385.246
G1 X371.582 Y-388.274
G1 X371.583 Y-388.289
G1 X372.17 Y-395.876
G1 X372.181 Y-395.988
G1 X372.565 Y-399.381
G1 X372.568 Y-399.403
G1 X373.515 Y-407.27
G1 X373.525 Y-407.348
G1 X373.8 Y-409.237
G1 X373.805 Y-409.268
G1 X374.432 Y-413.302
G1 X374.438 Y-413.341
G1 X374.781 Y-415.38
G1 X374.787 Y-415.415
G1 X375.525 Y-419.52
G1 X375.531 Y-419.554
G1 X375.954 Y-421.768
G1 X375.962 Y-421.807
G1 X376.814 Y-425.978
G1 X376.82 Y-426.007
G1 X377.337 Y-428.425
G1 X377.347 Y-428.469
G1 X378.314 Y-432.699
G1 X378.32 Y-432.723
G1 X378.948 Y-435.374
G1 X378.959 Y-435.42
G1 X380.041 Y-439.699
G1 X380.045 Y-439.717
G1 X380.801 Y-442.637
G1 X380.815 Y-442.687
G1 X382.007 Y-446.999
G1 X382.008 Y-447.005
G1 X382.751 Y-449.673
G1 X382.767 Y-449.726
G1 X383.837 Y-453.325
G1 X384.689 Y-456.233
G1 X384.706 Y-456.29
G1 X385.83 Y-459.874
G1 X386.803 Y-463.066
G1 X386.821 Y-463.123
G1 X387.975 Y-466.665
G1 X389.087 Y-470.206
G1 X389.106 Y-470.264
G1 X390.262 Y-473.713
G1 X391.532 Y-477.685
G1 X391.552 Y-477.745
G1 X392.676 Y-481.033
G1 X394.135 Y-485.544
G1 X394.155 Y-485.605
G1 X395.204 Y-488.637
G1 X396.886 Y-493.825
G1 X396.906 Y-493.886
G1 X397.827 Y-496.542
G1 X399.775 Y-502.582
G1 X399.796 Y-502.644
G1 X400.528 Y-504.76
G1 X402.794 Y-511.872
G1 X402.814 Y-511.934
G1 X403.283 Y-513.306
G1 X405.929 Y-521.768
G1 X405.948 Y-521.828
G1 X406.07 Y-522.193
G1 X406.954 Y-525.094
G1 X406.968 Y-525.14
G1 X408.98 Y-531.416
G1 X409.292 Y-532.503
G1 X409.312 Y-532.572
G1 X411.943 Y-541.031
G1 X412.839 Y-544.286
G1 X412.858 Y-544.353
G1 X414.854 Y-551.028
G1 X416.457 Y-557.157
G1 X416.476 Y-557.224
G1 X417.672 Y-561.42
G1 X420.111 Y-571.351
G1 X420.128 Y-571.417
G1 X420.344 Y-572.222
G1 X420.853 Y-574.46
G1 X420.866 Y-574.514
G1 X423.062 Y-583.439
G1 X423.639 Y-586.261
G1 X423.656 Y-586.336
G1 X424.854 Y-591.552
G1 X425.983 Y-597.539
G1 X425.998 Y-597.614
G1 X426.482 Y-599.884
G1 X427.443 Y-605.493
G1 X427.455 Y-605.559
G1 X428.01 Y-608.433
G1 X428.248 Y-610.021
G1 X428.259 Y-610.091
G1 X429.491 Y-617.212
G1 X430.44 Y-624.582
G1 X430.449 Y-624.649
G1 X430.686 Y-626.219
G1 X430.923 Y-628.475
G1 X430.93 Y-628.528
G1 X431.774 Y-635.421
G1 X432.301 Y-642.385
G1 X432.306 Y-642.443
G1 X432.527 Y-644.784
G1 X432.624 Y-646.92
G1 X432.941 Y-654.186
G1 X432.884 Y-663.014
G1 X432.867 Y-663.568
G1 X432.784 Y-664.579
G1 X432.78 Y-664.623
G1 X432.202 Y-673.067
G1 X431.611 Y-677.888
G1 X430.878 Y-682.34
G1 X429.222 Y-689.853
G1 X429.214 Y-689.894
G1 X428.845 Y-691.678
G1 X428.6 Y-692.596
G1 X426.053 Y-700.681
G1 X423.402 Y-707.703
G1 X422.633 Y-709.535
G1 X419.918 Y-715.311
G1 X418.476 Y-718.177
G1 X415.784 Y-722.979
G1 X413.69 Y-726.516
G1 X410.985 Y-730.619
G1 X408.315 Y-734.494
G1 X405.524 Y-738.127
G1 X402.388 Y-742.057
G1 X399.434 Y-745.362
G1 X395.924 Y-749.161
G1 X392.84 Y-752.141
G1 X388.925 Y-755.81
G1 X386.002 Y-758.259
G1 X381.364 Y-762.031
G1 X379.217 Y-763.595
G1 X373.191 Y-767.85
G1 X372.677 Y-768.176
G1 X371.328 Y-769.004
G1 X371.319 Y-769.009
G1 X366.408 Y-772.043
G1 X364.337 Y-773.279
G1 X360.679 Y-775.249
G1 X355.86 Y-777.747
G1 X355.847 Y-777.754
G1 X355.142 Y-778.123
G1 X354.659 Y-778.366
G1 X350.197 Y-780.407
G1 X346.569 Y-781.996
G1 X346.553 Y-782.003
G1 X345.36 Y-782.533
G1 X343.934 Y-783.139
G1 X340.99 Y-784.281
G1 X339.408 Y-784.866
G1 X339.392 Y-784.872
G1 X336.75 Y-785.867
G1 X333.089 Y-787.178
G1 X333.071 Y-787.185
G1 X332.667 Y-787.332
G1 X331.88 Y-787.604
G1 X328.947 Y-788.535
G1 X327.91 Y-788.846
G1 X327.892 Y-788.851
G1 X325.282 Y-789.651
G1 X323.039 Y-790.3
G1 X323.023 Y-790.305
G1 X321.732 Y-790.686
G1 X318.412 Y-791.61
G1 X318.395 Y-791.615
G1 X318.282 Y-791.647
G1 X317.91 Y-791.747
G1 X315.086 Y-792.438
G1 X314.438 Y-792.587
G1 X314.427 Y-792.589
G1 X311.893 Y-793.182
G1 X310.548 Y-793.48
G1 X310.54 Y-793.482
G1 X308.777 Y-793.877
G1 X306.802 Y-794.295
G1 X306.794 Y-794.297
G1 X305.735 Y-794.524
G1 X303.194 Y-795.041
G1 X303.19
G1 X302.769 Y-795.127
G1 X300.639 Y-795.542
G1 X299.947 Y-795.665
G1 X299.854 Y-795.68
G1 X299.844 Y-795.682
G1 X297.164 Y-796.137
G1 X296.685 Y-796.214
G1 X296.674 Y-796.215
G1 X294.445 Y-796.578
G1 X293.612 Y-796.706
G1 X293.607 Y-796.707
G1 X291.791 Y-796.989
G1 X290.64 Y-797.158
G1 X290.638
G1 X289.198 Y-797.37
G1 X287.761 Y-797.572
G1 X287.759
G1 X286.663 Y-797.726
G1 X284.972 Y-797.952
G1 X284.186 Y-798.056
G1 X282.268 Y-798.298
G1 X282.262 Y-798.299
G1 X281.76 Y-798.363
G1 X279.647 Y-798.614
G1 X279.393 Y-798.644
G1 X277.115 Y-798.899
G1 X277.093 Y-798.901
G1 X277.077 Y-798.902
G1 X276.638 Y-798.949
G1 X274.839 Y-799.117
G1 X274.735 Y-799.126
G1 X274.726 Y-799.127
G1 X272.61 Y-799.311
G1 X272.371 Y-799.33
G1 X272.369
G1 X270.428 Y-799.486
G1 X270.075 Y-799.511
G1 X270.065 Y-799.512
G1 X268.268 Y-799.644
G1 X267.807 Y-799.675
G1 X266.145 Y-799.786
G1 X265.592 Y-799.82
G1 X265.587
G1 X264.047 Y-799.915
G1 X262.73 Y-799.983
G1 X262.726
G1 X259.898 Y-800.134
G1 X258.319 Y-800.2
G1 X255.818 Y-800.305
G1 X254.035 Y-800.365
G1 X251.785 Y-800.439
G1 X249.855 Y-800.488
G1 X247.79 Y-800.541
G1 X245.756 Y-800.578
G1 X245.754
G1 X243.824 Y-800.613
G1 X241.722 Y-800.64
G1 X239.889 Y-800.664
G1 X237.75 Y-800.681
G1 X235.985 Y-800.695
G1 X233.835 Y-800.701
G1 X232.11 Y-800.706
G1 X229.978 Y-800.698
G1 X228.257 Y-800.692
G1 X226.169 Y-800.669
G1 X224.414 Y-800.65
G1 X222.4 Y-800.613
G1 X220.568 Y-800.579
G1 X218.659 Y-800.526
G1 X216.705 Y-800.473
G1 X214.938 Y-800.407
G1 X212.808 Y-800.328
G1 X211.22 Y-800.253
G1 X208.855 Y-800.139
G1 X207.492 Y-800.059
G1 X204.822 Y-799.903
G1 X203.733 Y-799.828
G1 X200.693 Y-799.62
G1 X199.934 Y-799.56
G1 X196.465 Y-799.286
G1 X196.092 Y-799.253
G1 X196.086 Y-799.252
G1 X192.615 Y-798.947
G1 X192.202 Y-798.906
G1 X192.193 Y-798.905
G1 X192.15 Y-798.901
G1 X188.367 Y-798.489
G1 X188.364 Y-798.488
G1 X187.704 Y-798.417
G1 X184.475 Y-798.034
G1 X183.128 Y-797.875
G1 X180.515 Y-797.542
G1 X178.416 Y-797.273
G1 X176.483 Y-797.009
G1 X176.482
G1 X173.56 Y-796.611
G1 X172.37 Y-796.438
G1 X168.552 Y-795.883
G1 X168.17 Y-795.824
G1 X166.263 Y-795.53
G1 X164.018 Y-795.145
G1 X163.442 Y-795.046
G1 X159.838 Y-794.389
G1 X158.084 Y-794.069
G1 X155.54 Y-793.579
G1 X152.473 Y-792.986
G1 X151.106 Y-792.706
G1 X151.104 Y-792.705
G1 X146.557 Y-791.776
G1 X146.514 Y-791.766
G1 X146.507 Y-791.765
G1 X146.333 Y-791.727
G1 X142.06 Y-790.706
G1 X140.386 Y-790.305
G1 X137.41 Y-789.556
G1 X133.708 Y-788.623
G1 X132.546 Y-788.316
G1 X129.693 Y-787.559
G1 X127.655 Y-786.963
G1 X127.654
G1 X126.6 Y-786.654
G1 X122.709 Y-785.461
G1 X118.8 Y-784.261
G1 X117.488 Y-783.842
G1 X115.082 Y-783.072
G1 X112.293 Y-782.084
G1 X110.36 Y-781.4
G1 X106.962 Y-780.153
G1 X101.831 Y-778.268
G1 X101.417 Y-778.1
G1 X101.046 Y-777.949
G1 X95.959 Y-775.812
G1 X90.597 Y-773.56
G1 X90.143 Y-773.364
G1 X89.657 Y-773.153
G1 X84.565 Y-770.717
G1 X78.986 Y-768.049
G1 X78.574 Y-767.846
G1 X78.221 Y-767.673
G1 X72.837 Y-764.754
G1 X67.385 Y-761.797
G1 X66.802 Y-761.448
G1 X66.801 Y-761.447
G1 X65.913 Y-760.916
G1 X60.814 Y-757.798
G1 X60.761 Y-757.766
G1 X215.458
G1 X215.687 Y-757.919
G3 X216.834 Y-758.394 I1.765 J2.639
G1 X218.049 Y-758.635
G3 X219.285 I0.618 J3.114
G1 X220.5 Y-758.394
G3 X221.647 Y-757.919 I-0.618 J3.114
G1 X222.677 Y-757.23
G3 X223.552 Y-756.355 I-1.765 J2.639
G1 X224.24 Y-755.325
G3 X224.714 Y-754.181 I-2.64 J1.764
G1 X224.956 Y-752.966
G3 Y-751.726 I-3.114 J0.62
G1 X224.714 Y-750.511
G3 X224.24 Y-749.367 I-3.114 J-0.62
G1 X224.087 Y-749.138
G1 Y-747.598
G1 X224.24 Y-747.369
G3 X224.714 Y-746.225 I-2.64 J1.764
G1 X224.956 Y-745.01
G3 Y-743.77 I-3.114 J0.62
G1 X224.714 Y-742.555
G3 X224.24 Y-741.411 I-3.114 J-0.62
G1 X223.552 Y-740.381
G3 X222.676 Y-739.505 I-2.64 J-1.764
G1 X221.646 Y-738.817
G3 X220.502 Y-738.343 I-1.764 J-2.64
G1 X219.287 Y-738.101
G3 X218.047 I-0.62 J-3.114
G1 X216.832 Y-738.343
G3 X215.688 Y-738.817 I0.62 J-3.114
G1 X215.459 Y-738.97
G1 X34.416
G1 X32.895 Y-737.691
G1 X25.864 Y-731.766
G1 X21.794 Y-728.085
G1 X17.546 Y-724.11
G1 X11.333 Y-718.09
G1 X10.851 Y-717.616
G1 X10.848 Y-717.614
G1 X10.701 Y-717.47
G1 X4.667 Y-711.146
G1 X2.33 Y-708.696
G1 X-1.547 Y-704.384
G1 X-5.796 Y-699.655
G1 X-7.762 Y-697.343
G1 X-13.664 Y-690.403
G1 X-13.95 Y-690.048
G1 X-13.951 Y-690.046
G1 X-15.197 Y-688.504
G1 X-19.975 Y-682.503
G1 X-21.167 Y-681.006
G1 X-25.864 Y-674.812
G1 X-28.386 Y-671.487
G1 X-31.67 Y-666.954
G1 X-35.32 Y-661.916
G1 X-37.369 Y-658.962
G1 X-41.959 Y-652.344
G1 X-42.941 Y-650.869
G1 X-48.289 Y-642.832
G1 X-48.36 Y-642.721
G1 X-48.365 Y-642.714
G1 X-48.934 Y-641.825
G1 X-53.53 Y-634.548
G1 X-54.232 Y-633.436
G1 X-58.273 Y-626.786
G1 X176.3
G1 X176.529 Y-626.939
G3 X177.673 Y-627.413 I1.764 J2.64
G1 X178.888 Y-627.655
G3 X180.128 I0.62 J3.114
G1 X181.343 Y-627.413
G3 X182.487 Y-626.939 I-0.62 J3.114
G1 X183.517 Y-626.251
G3 X184.393 Y-625.375 I-1.764 J2.64
G1 X185.081 Y-624.345
G3 X185.555 Y-623.201 I-2.64 J1.764
G1 X185.797 Y-621.986
G3 Y-620.746 I-3.114 J0.62
G1 X185.555 Y-619.531
G3 X185.081 Y-618.387 I-3.114 J-0.62
G1 X184.928 Y-618.158
G1 Y-616.618
G1 X185.081 Y-616.389
G3 X185.555 Y-615.245 I-2.64 J1.764
G1 X185.797 Y-614.03
G3 Y-612.79 I-3.114 J0.62
G1 X185.555 Y-611.575
G3 X185.081 Y-610.431 I-3.114 J-0.62
G1 X184.393 Y-609.401
G3 X183.517 Y-608.525 I-2.64 J-1.763
G1 X182.487 Y-607.837
G3 X181.343 Y-607.363 I-1.764 J-2.64
G1 X180.128 Y-607.121
G3 X178.888 I-0.62 J-3.114
G1 X177.673 Y-607.363
G3 X176.529 Y-607.837 I0.62 J-3.114
G1 X176.3 Y-607.99
G1 X-69.179
G1 X-70.098 Y-606.36
G1 X-72.115 Y-602.634
G1 X-74.735 Y-597.797
G1 X-76.225 Y-594.929
G1 X-79.065 Y-589.463
G1 X-80.114 Y-587.353
G1 X-83.095 Y-581.358
G1 X-84.029 Y-579.372
G1 X-88.368 Y-570.145
G1 X-88.746 Y-569.281
G1 X-92.975 Y-559.634
G1 X-93.082 Y-559.387
G1 X-96.933 Y-549.807
G1 X-96.934 Y-549.805
G1 X-97.247 Y-549.026
G1 X-100.407 Y-540.499
G1 Y-540.498
G1 X-100.935 Y-539.075
G1 X-103.524 Y-531.451
G1 X-104.181 Y-529.515
G1 X-106.299 Y-522.668
G1 X-107.022 Y-520.33
G1 X-108.748 Y-514.152
G1 X-109.488 Y-511.505
G1 X-110.892 Y-505.903
G1 X-111.613 Y-503.027
G1 X-112.753 Y-497.92
G1 X-113.225 Y-495.805
G1 X134.644
G1 X134.873 Y-495.958
G3 X136.02 Y-496.433 I1.765 J2.639
G1 X137.235 Y-496.674
G3 X138.471 I0.618 J3.114
G1 X139.686 Y-496.433
G3 X140.833 Y-495.958 I-0.618 J3.114
G1 X141.863 Y-495.269
G3 X142.738 Y-494.394 I-1.765 J2.639
G1 X143.426 Y-493.364
G3 X143.9 Y-492.22 I-2.64 J1.764
G1 X144.142 Y-491.005
G3 Y-489.765 I-3.114 J0.62
G1 X143.9 Y-488.55
G3 X143.426 Y-487.406 I-3.114 J-0.62
G1 X143.273 Y-487.177
G1 Y-485.637
G1 X143.426 Y-485.408
G3 X143.9 Y-484.264 I-2.64 J1.764
G1 X144.142 Y-483.049
G3 Y-481.809 I-3.114 J0.62
G1 X143.9 Y-480.594
G3 X143.426 Y-479.45 I-3.114 J-0.62
G1 X142.738 Y-478.42
G3 X141.862 Y-477.544 I-2.64 J-1.764
G1 X140.832 Y-476.856
G3 X139.688 Y-476.382 I-1.764 J-2.64
G1 X138.473 Y-476.14
G3 X137.233 I-0.62 J-3.114
G1 X136.018 Y-476.382
G3 X134.874 Y-476.856 I0.62 J-3.114
G1 X134.645 Y-477.009
G1 X-116.658
G1 X-116.884 Y-475.52
G1 X-117.373 Y-472.28
G1 X-117.866 Y-468.55
G1 X-118.294 Y-465.307
G1 X-118.699 Y-461.815
G1 X-119.073 Y-458.59
G1 X-119.413 Y-455.306
G1 X-119.742 Y-452.113
G1 X-120.037 Y-449.012
G1 X-120.336 Y-445.861
G1 X-120.652 Y-442.357
G1 X-120.986 Y-438.644
G1 X-121.265 Y-435.363
G1 X-121.574 Y-431.73
G1 X-121.82 Y-428.647
G1 X-122.104 Y-425.098
G1 X-122.321 Y-422.194
G1 X-122.578 Y-418.731
G1 X-122.768 Y-415.984
G1 X-123 Y-412.606
G1 X-123.163 Y-409.999
G1 X-123.37 Y-406.707
G1 X-123.631 Y-401.841
G1 X-123.971 Y-395.481
G1 X-124.155 Y-390.996
G1 X-124.403 Y-384.907
G1 X-124.52 Y-380.689
G1 X-124.684 Y-374.823
G1 X-124.767 Y-366.79
G1 X-124.788 Y-364.825
G1 X117.39
G1 X117.619 Y-364.978
G3 X118.763 Y-365.452 I1.764 J2.64
G1 X119.978 Y-365.694
G3 X121.218 I0.62 J3.114
G1 X122.433 Y-365.452
G3 X123.577 Y-364.978 I-0.62 J3.114
G1 X124.607 Y-364.29
G3 X125.483 Y-363.414 I-1.764 J2.64
G1 X126.171 Y-362.384
G3 X126.645 Y-361.24 I-2.64 J1.764
G1 X126.887 Y-360.025
G3 Y-358.785 I-3.114 J0.62
G1 X126.645 Y-357.57
G3 X126.171 Y-356.426 I-3.114 J-0.62
G1 X126.018 Y-356.197
G1 Y-354.657
G1 X126.171 Y-354.428
G3 X126.645 Y-353.284 I-2.64 J1.764
G1 X126.887 Y-352.069
G3 Y-350.829 I-3.114 J0.62
G1 X126.645 Y-349.614
G3 X126.171 Y-348.47 I-3.114 J-0.62
G1 X125.483 Y-347.44
G3 X124.607 Y-346.564 I-2.64 J-1.764
G1 X123.577 Y-345.876
G3 X122.433 Y-345.402 I-1.764 J-2.64
G1 X121.218 Y-345.16
G3 X119.978 I-0.62 J-3.114
G1 X118.763 Y-345.402
G3 X117.619 Y-345.876 I0.62 J-3.114
G1 X117.39 Y-346.029
G1 X-124.788
G1 X-124.684 Y-336.031
G1 X-124.566 Y-331.823
G1 X-124.403 Y-325.947
G1 X-124.22 Y-321.467
G1 X-123.971 Y-315.372
G1 X-123.712 Y-310.518
G1 X-123.37 Y-304.146
G1 X-123.207 Y-301.547
G1 X-123 Y-298.249
G1 X-122.811 Y-295.505
G1 X-122.578 Y-292.123
G1 X-122.362 Y-289.219
G1 X-122.104 Y-285.754
G1 X-121.858 Y-282.672
G1 X-121.574 Y-279.124
G1 X-121.294 Y-275.84
G1 X-120.986 Y-272.209
G1 X-120.671 Y-268.702
G1 X-120.336 Y-264.994
G1 X-120.041 Y-261.882
G1 X-119.742 Y-258.741
G1 X-119.402 Y-255.442
G1 X-119.073 Y-252.264
G1 X-118.666 Y-248.754
G1 X-118.294 Y-245.547
G1 X-117.798 Y-241.795
G1 X-117.373 Y-238.574
G1 X-116.764 Y-234.541
G1 X-116.658 Y-233.844
G1 X134.677
G1 X134.906 Y-233.997
G3 X136.053 Y-234.472 I1.765 J2.639
G1 X137.268 Y-234.713
G3 X138.504 I0.618 J3.114
G1 Z-12.7
G1 X139.719 Y-234.472
G3 X140.866 Y-233.997 I-0.618 J3.114
G1 X141.896 Y-233.308
G3 X142.771 Y-232.433 I-1.765 J2.639
G1 X143.459 Y-231.403
G3 X143.933 Y-230.259 I-2.64 J1.764
G1 X144.175 Y-229.044
G3 Y-227.804 I-3.114 J0.62
G1 X143.933 Y-226.589
G3 X143.459 Y-225.445 I-3.114 J-0.62
G1 X143.306 Y-225.216
G1 Y-223.676
G1 X143.459 Y-223.447
G3 X143.933 Y-222.303 I-2.64 J1.764
G1 X144.175 Y-221.088
G3 Y-219.848 I-3.114 J0.62
G1 X143.933 Y-218.633
G3 X143.459 Y-217.489 I-3.114 J-0.62
G1 X142.771 Y-216.459
G3 X141.895 Y-215.583 I-2.64 J-1.764
G1 X140.865 Y-214.895
G3 X139.721 Y-214.421 I-1.764 J-2.64
G1 X138.506 Y-214.179
G3 X137.266 I-0.62 J-3.114
G1 X136.051 Y-214.421
G3 X134.907 Y-214.895 I0.62 J-3.114
G1 X134.678 Y-215.048
G1 X-113.224
G1 X-112.27 Y-210.771
G1 X-111.613 Y-207.826
G1 X-110.174 Y-202.088
G1 X-109.488 Y-199.348
G1 X-107.706 Y-192.975
G1 X-107.022 Y-190.524
G1 X-104.818 Y-183.396
G1 X-104.182 Y-181.34
G1 X-101.456 Y-173.313
G1 X-100.935 Y-171.778
G1 X-97.565 Y-162.685
G1 X-97.247 Y-161.827
G1 X-93.081 Y-151.464
G1 X-92.975 Y-151.221
G1 X-88.368 Y-140.708
G1 X-87.829 Y-139.563
G1 X-84.681 Y-132.868
G1 Z-10.16
G1 X-83.095 Y-129.496
G1 X-82.209 Y-127.715
G1 X-79.665 Y-122.597
G1 Z-12.7
G1 X-79.065 Y-121.391
G1 X-77.686 Y-118.737
G1 X-74.735 Y-113.056
G1 X-72.749 Y-109.389
G1 X-70.098 Y-104.494
G1 X-69.179 Y-102.864
G1 X176.334
G1 X176.563 Y-103.017
G3 X177.707 Y-103.491 I1.764 J2.64
G1 X178.922 Y-103.733
G3 X180.162 I0.62 J3.114
G1 X181.378 Y-103.491
G3 X182.522 Y-103.017 I-0.62 J3.114
G1 X183.552 Y-102.329
G3 X184.428 Y-101.452 I-1.764 J2.64
G1 X185.116 Y-100.422
G3 X185.59 Y-99.277 I-2.64 J1.763
G1 X185.831 Y-98.062
G3 Y-96.826 I-3.114 J0.618
G1 X185.59 Y-95.611
G3 X185.116 Y-94.465 I-3.114 J-0.618
G1 X184.963 Y-94.236
G1 Y-92.696
G1 X185.116 Y-92.466
G3 X185.59 Y-91.321 I-2.64 J1.763
G1 X185.831 Y-90.106
G3 Y-88.87 I-3.114 J0.618
G1 X185.59 Y-87.655
G3 X185.116 Y-86.509 I-3.114 J-0.618
G1 X184.428 Y-85.479
G3 X183.552 Y-84.603 I-2.64 J-1.764
G1 X182.522 Y-83.915
G3 X181.377 Y-83.441 I-1.764 J-2.64
G1 X180.161 Y-83.199
G3 X178.923 I-0.619 J-3.114
G1 X177.708 Y-83.441
G3 X176.563 Y-83.915 I0.619 J-3.114
G1 X176.334 Y-84.068
G1 X-58.274
G1 X-55.095 Y-78.837
G1 X-54.232 Y-77.418
G1 X-48.933 Y-69.029
G1 X-48.292 Y-68.025
G1 X-48.173 Y-67.847
G1 X-41.959 Y-58.509
G1 X-40.413 Y-56.281
G1 X-35.32 Y-48.938
G1 X-32.018 Y-44.38
G1 X-28.386 Y-39.367
G1 X-22.945 Y-32.193
G1 X-21.167 Y-29.848
G1 X-15.197 Y-22.35
G1 X-13.664 Y-20.452
G1 X-13.099 Y-19.787
G1 X-5.796 Y-11.198
G1 X-1.883 Y-6.845
G1 X-1.524 Y-6.445
G1 Z-10.16
G1 X2.33 Y-2.158
G1 X6.242 Y1.943
G1 Z-12.7
G1 X10.391 Y6.291
G1 X10.703 Y6.617
G1 X11.333 Y7.237
G1 X17.546 Y13.256
G1 X21.786 Y17.224
G1 X26.888 Y21.78
G1 X32.895 Y26.837
G1 X34.415 Y28.117
G1 X215.48
G1 X215.709 Y27.963
G3 X216.854 Y27.489 I1.764 J2.64
G1 X218.069 Y27.248
G3 X219.307 I0.619 J3.114
G1 X220.522 Y27.489
G3 X221.667 Y27.963 I-0.619 J3.114
G1 X222.697 Y28.652
G3 X223.572 Y29.526 I-1.764 J2.64
G1 X224.261 Y30.557
G3 X224.736 Y31.704 I-2.639 J1.765
G1 X224.977 Y32.919
G3 Y34.154 I-3.114 J0.618
G1 X224.736 Y35.369
G3 X224.261 Y36.517 I-3.114 J-0.618
G1 X224.108 Y36.746
G1 Y38.283
G1 X224.261 Y38.512
G3 X224.736 Y39.66 I-2.639 J1.765
G1 X224.977 Y40.875
G3 Y42.11 I-3.114 J0.618
G1 X224.736 Y43.325
G3 X224.261 Y44.473 I-3.114 J-0.618
G1 X223.572 Y45.503
G3 X222.697 Y46.377 I-2.639 J-1.765
G1 X221.667 Y47.066
G3 X220.522 Y47.54 I-1.764 J-2.64
G1 X219.307 Y47.782
G3 X218.069 I-0.619 J-3.114
G1 X216.854 Y47.54
G3 X215.709 Y47.066 I0.619 J-3.114
G1 X215.48 Y46.913
G1 X60.668
G1 X65.895 Y50.065
G1 X67.384 Y50.943
G1 X69.412 Y52.058
G1 X75.088 Y55.18
G1 X79.038 Y57.203
G1 X83.045 Y59.204
G1 X90.673 Y62.75
G1 X91.318 Y63.041
G1 X94.894 Y64.543
G1 X100.06 Y66.713
G1 X100.969 Y67.068
G1 X109.264 Y70.205
G1 X110.303 Y70.57
G1 X117.276 Y72.933
G1 X118.832 Y73.46
G1 X119.034 Y73.525
G1 X126.583 Y75.809
G1 X129.692 Y76.706
G1 X133.713 Y77.786
G1 X139.155 Y79.177
G1 X140.38 Y79.49
G1 X141.296 Y79.712
G1 X146.59 Y80.907
G1 X150.981 Y81.845
G1 X152.486 Y82.166
G1 X154.364 Y82.545
G1 X158.056 Y83.238
G1 X160.149 Y83.608
G1 X163.425 Y84.188
G1 X168.148 Y84.974
G1 X168.584 Y85.047
G1 X169.48 Y85.188
G1 X173.551 Y85.779
G1 X175.068 Y85.986
G1 X178.407 Y86.442
G1 X181.53 Y86.84
G1 X183.121 Y87.043
G1 X187.587 Y87.572
G1 X187.698 Y87.585
G1 X188.109 Y87.63
G1 X192.132 Y88.034
G1 X193.014 Y88.114
G1 X196.472 Y88.43
G1 X198.171 Y88.568
G1 X200.699 Y88.774
G1 X203.051 Y88.942
G1 X204.822 Y89.069
G1 X207.677 Y89.241
G1 X208.851 Y89.312
G1 X210.589 Y89.398
G1 Z-10.16
G1 X212.077 Y89.471
G1 X212.801 Y89.507
G1 X216.299 Y89.641
G1 X216.695 Y89.656
G1 X220.388 Y89.761
G1 X220.556 Y89.766
G1 X222.012 Y89.794
G1 Z-12.7
G1 X224.379 Y89.84
G1 X224.385
G1 X224.402
G1 X225.886 Y89.857
G1 X228.242 Y89.881
G1 X228.273
G1 X232.095 Y89.894
G1 X232.149
G1 X232.151
G1 X235.97 Y89.884
G1 X236.009
G1 X236.011
G1 X239.592 Y89.857
G1 X239.868 Y89.854
G1 X243.713 Y89.803
G1 X243.807 Y89.802
G1 X247.538 Y89.731
G1 X247.539
G1 X247.773 Y89.726
G1 X251.343 Y89.633
G1 X251.768 Y89.622
G1 X255.126 Y89.507
G1 X255.802 Y89.484
G1 X258.889 Y89.349
G1 X259.883 Y89.306
G1 X262.637 Y89.156
G1 X264.033 Y89.08
G1 X265.275 Y89.002
G1 X266.131 Y88.948
G1 X267.261 Y88.87
G1 X268.258 Y88.8
G1 X269.261 Y88.724
G1 X270.414 Y88.637
G1 X271.274 Y88.566
G1 X272.603 Y88.455
G1 X273.306 Y88.392
G1 X274.831 Y88.255
G1 X275.362 Y88.204
G1 X277.099 Y88.036
G1 X277.44 Y88.001
G1 X279.413 Y87.796
G1 X279.546 Y87.782
G1 X280.89 Y87.633
G1 X281.66 Y87.542
G1 X281.75 Y87.531
G1 X283.786 Y87.275
G1 X284.171 Y87.226
G1 X285.944 Y86.99
G1 X286.648 Y86.896
G1 X288.132 Y86.688
G1 X289.182 Y86.54
G1 X290.355 Y86.368
G1 X291.774 Y86.158
G1 X292.61 Y86.029
G1 X294.428 Y85.747
G1 X294.902 Y85.671
G1 X297.144 Y85.307
G1 X297.231 Y85.292
G1 X297.776 Y85.2
G1 X299.543 Y84.88
G1 X299.909 Y84.813
G1 X301.896 Y84.437
G1 X302.789 Y84.267
G1 X304.287 Y83.971
G1 X305.741 Y83.681
G1 X306.718 Y83.48
G1 X308.766 Y83.054
G1 X309.186 Y82.964
G1 X311.026 Y82.563
G1 X311.655 Y82.418
G1 X311.825 Y82.378
G1 X314.139 Y81.821
G1 X315.049 Y81.599
G1 X316.66 Y81.194
G1 X318.351 Y80.76
G1 X319.223 Y80.532
G1 X321.74 Y79.859
G1 X321.829 Y79.835
G1 X322.133 Y79.751
G1 X324.396 Y79.087
G1 X325.238 Y78.835
G1 X327.036 Y78.288
G1 X328.918 Y77.701
G1 X329.73 Y77.445
G1 X331.88 Y76.75
G1 X332.428 Y76.564
G1 X332.677 Y76.478
G1 X335.172 Y75.603
G1 X336.733 Y75.039
G1 X337.977 Y74.589
G1 X340.658 Y73.59
G1 X340.792 Y73.537
G1 X340.874 Y73.504
G1 X340.876
G1 X343.664 Y72.382
G1 X345.414 Y71.655
G1 X345.416 Y71.654
G1 X346.598 Y71.164
G1 X348.67 Y70.279
G1 X349.525 Y69.896
G1 X350.112 Y69.624
G1 X350.116 Y69.623
G1 X352.524 Y68.514
G1 X355.23 Y67.225
G1 X355.239 Y67.221
G1 X355.589 Y67.056
G1 X356.078 Y66.817
G1 X358.593 Y65.528
G1 X360.646 Y64.44
G1 X360.653 Y64.436
G1 X361.708 Y63.881
G1 X363.001 Y63.177
G1 X364.77 Y62.168
G1 X366.435 Y61.186
G1 X366.444 Y61.181
G1 X367.918 Y60.318
G1 X369.492 Y59.363
G1 X371.006 Y58.403
G1 X372.623 Y57.341
G1 X372.633 Y57.334
G1 X374.162 Y56.338
G1 X375.601 Y55.366
G1 X377.24 Y54.209
G1 X379.183 Y52.787
G1 X379.194 Y52.779
G1 X380.375 Y51.922
G1 X381.366 Y51.177
G1 X383.4 Y49.576
G1 X386.013 Y47.447
G1 X386.024 Y47.438
G1 X386.484 Y47.066
G1 X386.82 Y46.784
G1 X389.411 Y44.512
G1 X392.011 Y42.147
G1 X392.328 Y41.846
G1 X392.81 Y41.371
G1 X392.819 Y41.363
G1 X395.19 Y39.042
G1 X396.764 Y37.441
G1 Z-10.16
G1 X396.886 Y37.318
G1 X397.94 Y36.197
G1 X399.451 Y34.531
G1 X399.457 Y34.525
G1 X400.656 Y33.21
G1 X401.493 Y32.255
G1 X403.207 Y30.214
G1 X404.306 Y28.853
G1 Z-12.7
G1 X405.587 Y27.266
G1 X405.59 Y27.262
G1 X405.744 Y27.072
G1 X405.82 Y26.974
G1 X408.917 Y22.717
G1 X410.966 Y19.721
G1 X410.986 Y19.692
G1 X412.091 Y18.113
G1 X413.697 Y15.651
G1 X414.777 Y13.877
G1 X415.782 Y12.128
G1 X415.789 Y12.117
G1 X417.104 Y9.849
G1 X418.476 Y7.325
G1 X419.242 Y5.851
G1 X419.917 Y4.46
G1 X419.922 Y4.449
G1 X421.235 Y1.77
G1 X422.634 Y-1.319
G1 X423.054 Y-2.282
G1 X423.404 Y-3.156
G1 X425.148 Y-7.523
G1 X426.051 Y-10.162
G1 X426.058 Y-10.181
G1 X427.097 Y-13.155
G1 X428.602 Y-18.263
G1 X428.765 Y-18.824
G1 X428.842 Y-19.159
G1 X428.851 Y-19.196
G1 X430.136 Y-24.472
G1 X430.874 Y-28.488
G1 X430.884 Y-28.537
G1 X431.216 Y-30.196
G1 X431.611 Y-32.963
G1 X431.613 Y-32.978
G1 X432.044 Y-35.9
G1 X432.2 Y-37.752
G1 X432.207 Y-37.819
G1 X432.614 Y-41.659
G1 X432.866 Y-47.249
G1 X432.87 Y-47.319
G1 X432.881 Y-47.481
G1 X432.884 Y-47.81
G1 X432.885 Y-47.874
G1 X433.047 Y-53.352
G1 X432.943 Y-56.625
G1 X432.941 Y-56.71
G1 X432.933 Y-58.287
G1 Z-10.16
G1 X432.928 Y-59.285
G1 X432.628 Y-63.868
G1 X432.622 Y-63.995
G1 X432.588 Y-65.337
G1 X432.531 Y-66.027
G1 X432.525 Y-66.112
G1 X432.323 Y-69.705
G1 Z-12.7
G1 X432.224 Y-71.468
G1 X431.779 Y-75.388
G1 X431.77 Y-75.478
G1 X431.587 Y-77.643
G1 X430.937 Y-82.27
G1 X430.919 Y-82.43
G1 X430.782 Y-83.964
G1 X430.693 Y-84.59
G1 X430.681 Y-84.679
G1 X430.036 Y-90.344
G1 X429.499 Y-93.598
G1 X429.485 Y-93.686
G1 X429.069 Y-96.738
G1 X428.019 Y-102.377
G1 X428.003 Y-102.465
G1 X427.898 Y-103.137
G1 X427.462 Y-105.256
G1 X427.437 Y-105.392
G1 X426.752 Y-109.658
G1 X426.491 Y-110.929
G1 X426.476 Y-111.009
G1 X425.555 Y-116.151
G1 X424.863 Y-119.262
G1 X424.846 Y-119.342
G1 X424.204 Y-122.624
G1 X423.071 Y-127.377
G1 X423.054 Y-127.453
G1 X422.6 Y-129.589
G1 X421.696 Y-133.11
G1 Z-10.16
G1 X420.874 Y-136.309
G1 X420.847 Y-136.421
G1 X420.473 Y-138.132
G1 X420.352 Y-138.6
G1 X420.337 Y-138.661
G1 X419.016 Y-144.221
G1 Z-12.7
G1 X418.429 Y-146.691
G1 X417.681 Y-149.402
G1 X417.664 Y-149.464
G1 X416.205 Y-155.198
G1 X414.864 Y-159.794
G1 X414.846 Y-159.857
G1 X413.83 Y-163.632
G1 X411.953 Y-169.79
G1 X411.934 Y-169.856
G1 X411.337 Y-171.976
G1 X408.991 Y-179.404
G1 X408.971 Y-179.47
G1 X408.756 Y-180.208
G1 X406.971 Y-185.703
G1 X406.951 Y-185.77
G1 X406.18 Y-188.333
G1 X406.082 Y-188.627
G1 X406.062 Y-188.689
G1 X403.691 Y-196.342
G1 X403.294 Y-197.517
G1 X403.274 Y-197.577
G1 X401.182 Y-204.19
G1 X400.538 Y-206.062
G1 X400.518 Y-206.124
G1 X398.676 Y-211.866
G1 X397.839 Y-214.279
G1 X397.816 Y-214.345
G1 X396.199 Y-219.361
G1 X395.217 Y-222.181
G1 X395.193 Y-222.252
G1 X393.771 Y-226.668
G1 X392.69 Y-229.782
G1 X392.664 Y-229.858
G1 X391.413 Y-233.78
G1 X390.276 Y-237.099
G1 X390.249 Y-237.18
G1 X389.149 Y-240.694
G1 X387.989 Y-244.145
G1 X387.962 Y-244.231
G1 X386.995 Y-247.407
G1 X385.845 Y-250.933
G1 X385.816 Y-251.026
G1 X384.968 Y-253.92
G1 X383.853 Y-257.478
G1 X383.823 Y-257.577
G1 X383.085 Y-260.231
G1 X382.024 Y-263.795
G1 X381.993 Y-263.906
G1 X381.239 Y-266.822
G1 X380.059 Y-271.086
G1 X380.029 Y-271.201
G1 X379.401 Y-273.855
G1 X378.331 Y-278.084
G1 X378.304 Y-278.199
G1 X377.786 Y-280.621
G1 X376.83 Y-284.802
G1 X376.807 Y-284.913
G1 X376.381 Y-287.135
G1 X375.539 Y-291.261
G1 X375.519 Y-291.368
G1 X375.174 Y-293.416
G1 X375.1 Y-293.828
G1 Z-10.16
G1 X374.444 Y-297.478
G1 X374.427 Y-297.583
G1 X374.151 Y-299.479
G1 X373.53 Y-303.474
G1 X373.512 Y-303.607
G1 X373.341 Y-305.121
G1 Z-12.7
G1 X373.122 Y-307.066
G1 X372.184 Y-314.843
G1 X372.169 Y-314.994
G1 X371.947 Y-318.071
G1 X371.363 Y-325.592
G1 X371.356 Y-325.715
G1 X371.248 Y-328.53
G1 X370.944 Y-335.838
G1 X370.941 Y-335.943
G1 X370.897 Y-341.195
G1 X370.769 Y-355.398
G1 Y-355.454
G1 X370.813 Y-360.654
G1 Y-360.656
G1 X370.941 Y-374.913
G1 X370.943 Y-375.007
G1 X371.051 Y-377.788
G1 X371.052 Y-377.797
G1 X371.357 Y-385.148
G1 X371.362 Y-385.246
G1 X371.582 Y-388.274
G1 X371.583 Y-388.289
G1 X372.17 Y-395.876
G1 X372.181 Y-395.988
G1 X372.565 Y-399.381
G1 X372.568 Y-399.403
G1 X373.515 Y-407.27
G1 X373.525 Y-407.348
G1 X373.8 Y-409.237
G1 X373.805 Y-409.268
G1 X374.432 Y-413.302
G1 X374.438 Y-413.341
G1 X374.781 Y-415.38
G1 X374.787 Y-415.415
G1 X375.525 Y-419.52
G1 X375.531 Y-419.554
G1 X375.954 Y-421.768
G1 X375.962 Y-421.807
G1 X376.814 Y-425.978
G1 X376.82 Y-426.007
G1 X377.337 Y-428.425
G1 X377.347 Y-428.469
G1 X378.314 Y-432.699
G1 X378.32 Y-432.723
G1 X378.948 Y-435.374
G1 X378.959 Y-435.42
G1 X380.041 Y-439.699
G1 X380.045 Y-439.717
G1 X380.801 Y-442.637
G1 X380.815 Y-442.687
G1 X382.007 Y-446.999
G1 X382.008 Y-447.005
G1 X382.751 Y-449.673
G1 X382.767 Y-449.726
G1 X383.837 Y-453.325
G1 X384.689 Y-456.233
G1 X384.706 Y-456.29
G1 X385.83 Y-459.874
G1 X386.803 Y-463.066
G1 X386.821 Y-463.123
G1 X387.373 Y-464.818
G1 Z-10.16
G1 X387.975 Y-466.665
G1 X389.087 Y-470.206
G1 X389.106 Y-470.264
G1 X390.262 Y-473.713
G1 X390.895 Y-475.692
G1 Z-12.7
G1 X391.532 Y-477.685
G1 X391.552 Y-477.745
G1 X392.676 Y-481.033
G1 X394.135 Y-485.544
G1 X394.155 Y-485.605
G1 X395.204 Y-488.637
G1 X396.886 Y-493.825
G1 X396.906 Y-493.886
G1 X397.827 Y-496.542
G1 X399.775 Y-502.582
G1 X399.796 Y-502.644
G1 X400.528 Y-504.76
G1 X402.794 Y-511.872
G1 X402.814 Y-511.934
G1 X403.283 Y-513.306
G1 X405.929 Y-521.768
G1 X405.948 Y-521.828
G1 X406.07 Y-522.193
G1 X406.954 Y-525.094
G1 X406.968 Y-525.14
G1 X408.98 Y-531.416
G1 X409.292 Y-532.503
G1 X409.312 Y-532.572
G1 X411.943 Y-541.031
G1 X412.839 Y-544.286
G1 X412.858 Y-544.353
G1 X414.854 Y-551.028
G1 X416.457 Y-557.157
G1 X416.476 Y-557.224
G1 X417.672 Y-561.42
G1 X420.111 Y-571.351
G1 X420.128 Y-571.417
G1 X420.344 Y-572.222
G1 X420.853 Y-574.46
G1 X420.866 Y-574.514
G1 X423.062 Y-583.439
G1 X423.569 Y-585.915
G1 Z-10.16
G1 X423.639 Y-586.261
G1 X423.656 Y-586.336
G1 X424.854 Y-591.552
G1 X425.901 Y-597.107
G1 Z-12.7
G1 X425.983 Y-597.539
G1 X425.998 Y-597.614
G1 X426.482 Y-599.884
G1 X427.443 Y-605.493
G1 X427.455 Y-605.559
G1 X428.01 Y-608.433
G1 X428.248 Y-610.021
G1 X428.259 Y-610.091
G1 X429.491 Y-617.212
G1 X430.44 Y-624.582
G1 X430.449 Y-624.649
G1 X430.686 Y-626.219
G1 X430.923 Y-628.475
G1 X430.93 Y-628.528
G1 X431.774 Y-635.421
G1 X432.301 Y-642.385
G1 X432.306 Y-642.443
G1 X432.527 Y-644.784
G1 X432.624 Y-646.92
G1 X432.941 Y-654.186
G1 X432.884 Y-663.014
G1 X432.867 Y-663.568
G1 X432.784 Y-664.579
G1 X432.78 Y-664.623
G1 X432.202 Y-673.067
G1 X431.611 Y-677.888
G1 X430.878 Y-682.34
G1 X429.222 Y-689.853
G1 X429.214 Y-689.894
G1 X428.845 Y-691.678
G1 X428.6 Y-692.596
G1 X426.053 Y-700.681
G1 X423.402 Y-707.703
G1 X422.633 Y-709.535
G1 X419.918 Y-715.311
G1 X418.476 Y-718.177
G1 X415.784 Y-722.979
G1 X413.69 Y-726.516
G1 X410.985 Y-730.619
G1 X408.315 Y-734.494
G1 X405.524 Y-738.127
G1 X402.388 Y-742.057
G1 X399.434 Y-745.362
G1 X395.924 Y-749.161
G1 X392.84 Y-752.141
G1 X388.925 Y-755.81
G1 X386.002 Y-758.259
G1 X385.87 Y-758.366
G1 Z-10.16
G1 X381.364 Y-762.031
G1 X379.217 Y-763.595
G1 X376.788 Y-765.311
G1 Z-12.7
G1 X373.191 Y-767.85
G1 X372.677 Y-768.176
G1 X371.328 Y-769.004
G1 X371.319 Y-769.009
G1 X366.408 Y-772.043
G1 X364.337 Y-773.279
G1 X360.679 Y-775.249
G1 X355.86 Y-777.747
G1 X355.847 Y-777.754
G1 X355.142 Y-778.123
G1 X354.659 Y-778.366
G1 X350.197 Y-780.407
G1 X346.569 Y-781.996
G1 X346.553 Y-782.003
G1 X345.36 Y-782.533
G1 X343.934 Y-783.139
G1 X340.99 Y-784.281
G1 X339.408 Y-784.866
G1 X339.392 Y-784.872
G1 X336.75 Y-785.867
G1 X333.089 Y-787.178
G1 X333.071 Y-787.185
G1 X332.667 Y-787.332
G1 X331.88 Y-787.604
G1 X328.947 Y-788.535
G1 X327.91 Y-788.846
G1 X327.892 Y-788.851
G1 X325.282 Y-789.651
G1 X323.039 Y-790.3
G1 X323.023 Y-790.305
G1 X321.732 Y-790.686
G1 X318.412 Y-791.61
G1 X318.395 Y-791.615
G1 X318.282 Y-791.647
G1 X317.91 Y-791.747
G1 X315.086 Y-792.438
G1 X314.438 Y-792.587
G1 X314.427 Y-792.589
G1 X311.893 Y-793.182
G1 X310.548 Y-793.48
G1 X310.54 Y-793.482
G1 X308.777 Y-793.877
G1 X306.802 Y-794.295
G1 X306.794 Y-794.297
G1 X305.735 Y-794.524
G1 X303.194 Y-795.041
G1 X303.19
G1 X302.769 Y-795.127
G1 X300.639 Y-795.542
G1 X299.947 Y-795.665
G1 X299.854 Y-795.68
G1 X299.844 Y-795.682
G1 X297.164 Y-796.137
G1 X296.685 Y-796.214
G1 X296.674 Y-796.215
G1 X294.445 Y-796.578
G1 X293.612 Y-796.706
G1 X293.607 Y-796.707
G1 X291.791 Y-796.989
G1 X290.64 Y-797.158
G1 X290.638
G1 X289.198 Y-797.37
G1 X287.761 Y-797.572
G1 X287.759
G1 X286.663 Y-797.726
G1 X284.972 Y-797.952
G1 X284.186 Y-798.056
G1 X282.268 Y-798.298
G1 X282.262 Y-798.299
G1 X281.76 Y-798.363
G1 X279.647 Y-798.614
G1 X279.393 Y-798.644
G1 X277.115 Y-798.899
G1 X277.093 Y-798.901
G1 X277.077 Y-798.902
G1 X276.638 Y-798.949
G1 X274.839 Y-799.117
G1 X274.735 Y-799.126
G1 X274.726 Y-799.127
G1 X272.61 Y-799.311
G1 X272.371 Y-799.33
G1 X272.369
G1 X270.428 Y-799.486
G1 X270.075 Y-799.511
G1 X270.065 Y-799.512
G1 X268.268 Y-799.644
G1 X267.807 Y-799.675
G1 X266.145 Y-799.786
G1 X265.592 Y-799.82
G1 X265.587
G1 X264.047 Y-799.915
G1 X262.73 Y-799.983
G1 X262.726
G1 X259.898 Y-800.134
G1 X258.319 Y-800.2
G1 X255.818 Y-800.305
G1 X254.035 Y-800.365
G1 X251.785 Y-800.439
G1 X249.855 Y-800.488
G1 X247.79 Y-800.541
G1 X245.756 Y-800.578
G1 X245.754
G1 X243.824 Y-800.613
G1 X241.722 Y-800.64
G1 X239.889 Y-800.664
G1 X237.75 Y-800.681
G1 X235.985 Y-800.695
G1 X233.835 Y-800.701
G1 X232.11 Y-800.706
G1 X229.978 Y-800.698
G1 X228.257 Y-800.692
G1 X226.169 Y-800.669
G1 X224.414 Y-800.65
G1 X222.4 Y-800.613
G1 X220.568 Y-800.579
G1 X218.659 Y-800.526
G1 X216.705 Y-800.473
G1 X214.938 Y-800.407
G1 X214.581 Y-800.394
G1 Z-10.16
G1 X212.808 Y-800.328
G1 X211.22 Y-800.253
G1 X208.855 Y-800.139
G1 X207.492 Y-800.059
G1 X204.822 Y-799.903
G1 X203.733 Y-799.828
G1 X203.167 Y-799.79
G1 Z-12.7
G1 X200.693 Y-799.62
G1 X199.934 Y-799.56
G1 X196.465 Y-799.286
G1 X196.092 Y-799.253
G1 X196.086 Y-799.252
G1 X192.615 Y-798.947
G1 X192.202 Y-798.906
G1 X192.193 Y-798.905
G1 X192.15 Y-798.901
G1 X188.367 Y-798.489
G1 X188.364 Y-798.488
G1 X187.704 Y-798.417
G1 X184.475 Y-798.034
G1 X183.128 Y-797.875
G1 X180.515 Y-797.542
G1 X178.416 Y-797.273
G1 X176.483 Y-797.009
G1 X176.482
G1 X173.56 Y-796.611
G1 X172.37 Y-796.438
G1 X168.552 Y-795.883
G1 X168.17 Y-795.824
G1 X166.263 Y-795.53
G1 X164.018 Y-795.145
G1 X163.442 Y-795.046
G1 X159.838 Y-794.389
G1 X158.084 Y-794.069
G1 X155.54 Y-793.579
G1 X152.473 Y-792.986
G1 X151.106 Y-792.706
G1 X151.104 Y-792.705
G1 X146.557 Y-791.776
G1 X146.514 Y-791.766
G1 X146.507 Y-791.765
G1 X146.333 Y-791.727
G1 X142.06 Y-790.706
G1 X140.386 Y-790.305
G1 X137.41 Y-789.556
G1 X133.708 Y-788.623
G1 X132.546 Y-788.316
G1 X129.693 Y-787.559
G1 X127.655 Y-786.963
G1 X127.654
G1 X126.6 Y-786.654
G1 X122.709 Y-785.461
G1 X118.8 Y-784.261
G1 X117.488 Y-783.842
G1 X115.082 Y-783.072
G1 X112.293 Y-782.084
G1 X110.36 Y-781.4
G1 X106.962 Y-780.153
G1 X101.831 Y-778.268
G1 X101.417 Y-778.1
G1 X101.046 Y-777.949
G1 X95.959 Y-775.812
G1 X90.597 Y-773.56
G1 X90.143 Y-773.364
G1 X89.657 Y-773.153
G1 X84.565 Y-770.717
G1 X78.986 Y-768.049
G1 X78.574 Y-767.846
G1 X78.221 Y-767.673
G1 X72.837 Y-764.754
G1 X67.385 Y-761.797
G1 X66.802 Y-761.448
G1 X66.801 Y-761.447
G1 X65.913 Y-760.916
G1 X60.814 Y-757.798
G1 X60.761 Y-757.766
G1 X215.458
G1 X215.687 Y-757.919
G3 X216.834 Y-758.394 I1.765 J2.639
G1 X218.049 Y-758.635
G3 X219.285 I0.618 J3.114
G1 X220.5 Y-758.394
G3 X221.647 Y-757.919 I-0.618 J3.114
G1 X222.677 Y-757.23
G3 X223.552 Y-756.355 I-1.765 J2.639
G1 X224.24 Y-755.325
G3 X224.714 Y-754.181 I-2.64 J1.764
G1 X224.956 Y-752.966
G3 Y-751.726 I-3.114 J0.62
G1 X224.714 Y-750.511
G3 X224.24 Y-749.367 I-3.114 J-0.62
G1 X224.087 Y-749.138
G1 Y-747.598
G1 X224.24 Y-747.369
G3 X224.714 Y-746.225 I-2.64 J1.764
G1 X224.956 Y-745.01
G3 Y-743.77 I-3.114 J0.62
G1 X224.714 Y-742.555
G3 X224.24 Y-741.411 I-3.114 J-0.62
G1 X223.552 Y-740.381
G3 X222.676 Y-739.505 I-2.64 J-1.764
G1 X221.646 Y-738.817
G3 X220.502 Y-738.343 I-1.764 J-2.64
G1 X219.287 Y-738.101
G3 X218.047 I-0.62 J-3.114
G1 X216.832 Y-738.343
G3 X215.688 Y-738.817 I0.62 J-3.114
G1 X215.459 Y-738.97
G1 X34.416
G1 X32.895 Y-737.691
G1 X25.864 Y-731.766
G1 X21.794 Y-728.085
G1 X17.546 Y-724.11
G1 X11.333 Y-718.09
G1 X10.851 Y-717.616
G1 X10.848 Y-717.614
G1 X10.701 Y-717.47
G1 X4.667 Y-711.146
G1 X2.33 Y-708.696
G1 X-1.547 Y-704.384
G1 X-5.796 Y-699.655
G1 X-7.762 Y-697.343
G1 X-11.534 Y-692.907
G1 Z-10.16
G1 X-13.664 Y-690.403
G1 X-13.95 Y-690.048
G1 X-13.951 Y-690.046
G1 X-15.197 Y-688.504
G1 X-18.75 Y-684.042
G1 Z-12.7
G1 X-19.975 Y-682.503
G1 X-21.167 Y-681.006
G1 X-25.864 Y-674.812
G1 X-28.386 Y-671.487
G1 X-31.67 Y-666.954
G1 X-35.32 Y-661.916
G1 X-37.369 Y-658.962
G1 X-41.959 Y-652.344
G1 X-42.941 Y-650.869
G1 X-48.289 Y-642.832
G1 X-48.36 Y-642.721
G1 X-48.365 Y-642.714
G1 X-48.934 Y-641.825
G1 X-53.53 Y-634.548
G1 X-54.232 Y-633.436
G1 X-58.273 Y-626.786
G1 X176.3
G1 X176.529 Y-626.939
G3 X177.673 Y-627.413 I1.764 J2.64
G1 X178.888 Y-627.655
G3 X180.128 I0.62 J3.114
G1 X181.343 Y-627.413
G3 X182.487 Y-626.939 I-0.62 J3.114
G1 X183.517 Y-626.251
G3 X184.393 Y-625.375 I-1.764 J2.64
G1 X185.081 Y-624.345
G3 X185.555 Y-623.201 I-2.64 J1.764
G1 X185.797 Y-621.986
G3 Y-620.746 I-3.114 J0.62
G1 X185.555 Y-619.531
G3 X185.081 Y-618.387 I-3.114 J-0.62
G1 X184.928 Y-618.158
G1 Y-616.618
G1 X185.081 Y-616.389
G3 X185.555 Y-615.245 I-2.64 J1.764
G1 X185.797 Y-614.03
G3 Y-612.79 I-3.114 J0.62
G1 X185.555 Y-611.575
G3 X185.081 Y-610.431 I-3.114 J-0.62
G1 X184.393 Y-609.401
G3 X183.517 Y-608.525 I-2.64 J-1.763
G1 X182.487 Y-607.837
G3 X181.343 Y-607.363 I-1.764 J-2.64
G1 X180.128 Y-607.121
G3 X178.888 I-0.62 J-3.114
G1 X177.673 Y-607.363
G3 X176.529 Y-607.837 I0.62 J-3.114
G1 X176.3 Y-607.99
G1 X-69.179
G1 X-70.098 Y-606.36
G1 X-72.115 Y-602.634
G1 X-74.735 Y-597.797
G1 X-76.225 Y-594.929
G1 X-79.065 Y-589.463
G1 X-80.114 Y-587.353
G1 X-83.095 Y-581.358
G1 X-84.029 Y-579.372
G1 X-86.336 Y-574.465
G1 Z-10.16
G1 X-88.368 Y-570.145
G1 X-88.746 Y-569.281
G1 X-91.041 Y-564.047
G1 Z-12.7
G1 X-92.975 Y-559.634
G1 X-93.082 Y-559.387
G1 X-96.933 Y-549.807
G1 X-96.934 Y-549.805
G1 X-97.247 Y-549.026
G1 X-100.407 Y-540.499
G1 Y-540.498
G1 X-100.935 Y-539.075
G1 X-103.524 Y-531.451
G1 X-104.181 Y-529.515
G1 X-106.299 Y-522.668
G1 X-107.022 Y-520.33
G1 X-108.748 Y-514.152
G1 X-109.488 Y-511.505
G1 X-110.892 Y-505.903
G1 X-111.613 Y-503.027
G1 X-112.753 Y-497.92
G1 X-113.225 Y-495.805
G1 X134.644
G1 X134.873 Y-495.958
G3 X136.02 Y-496.433 I1.765 J2.639
G1 X137.235 Y-496.674
G3 X138.471 I0.618 J3.114
G1 X139.686 Y-496.433
G3 X140.833 Y-495.958 I-0.618 J3.114
G1 X141.863 Y-495.269
G3 X142.738 Y-494.394 I-1.765 J2.639
G1 X143.426 Y-493.364
G3 X143.9 Y-492.22 I-2.64 J1.764
G1 X144.142 Y-491.005
G3 Y-489.765 I-3.114 J0.62
G1 X143.9 Y-488.55
G3 X143.426 Y-487.406 I-3.114 J-0.62
G1 X143.273 Y-487.177
G1 Y-485.637
G1 X143.426 Y-485.408
G3 X143.9 Y-484.264 I-2.64 J1.764
G1 X144.142 Y-483.049
G3 Y-481.809 I-3.114 J0.62
G1 X143.9 Y-480.594
G3 X143.426 Y-479.45 I-3.114 J-0.62
G1 X142.738 Y-478.42
G3 X141.862 Y-477.544 I-2.64 J-1.764
G1 X140.832 Y-476.856
G3 X139.688 Y-476.382 I-1.764 J-2.64
G1 X138.473 Y-476.14
G3 X137.233 I-0.62 J-3.114
G1 X136.018 Y-476.382
G3 X134.874 Y-476.856 I0.62 J-3.114
G1 X134.645 Y-477.009
G1 X-116.658
G1 X-116.884 Y-475.52
G1 X-117.373 Y-472.28
G1 X-117.866 Y-468.55
G1 X-118.294 Y-465.307
G1 X-118.699 Y-461.815
G1 X-119.073 Y-458.59
G1 X-119.413 Y-455.306
G1 X-119.742 Y-452.113
G1 X-120.037 Y-449.012
G1 X-120.336 Y-445.861
G1 X-120.652 Y-442.357
G1 X-120.986 Y-438.644
G1 X-121.265 Y-435.363
G1 X-121.574 Y-431.73
G1 X-121.82 Y-428.647
G1 X-121.881 Y-427.892
G1 Z-10.16
G1 X-122.104 Y-425.098
G1 X-122.321 Y-422.194
G1 X-122.578 Y-418.731
G1 X-122.732 Y-416.494
G1 Z-12.7
G1 X-122.768 Y-415.984
G1 X-123 Y-412.606
G1 X-123.163 Y-409.999
G1 X-123.37 Y-406.707
G1 X-123.631 Y-401.841
G1 X-123.971 Y-395.481
G1 X-124.155 Y-390.996
G1 X-124.403 Y-384.907
G1 X-124.52 Y-380.689
G1 X-124.684 Y-374.823
G1 X-124.767 Y-366.79
G1 X-124.788 Y-364.825
G1 X117.39
G1 X117.619 Y-364.978
G3 X118.763 Y-365.452 I1.764 J2.64
G1 X119.978 Y-365.694
G3 X121.218 I0.62 J3.114
G1 X122.433 Y-365.452
G3 X123.577 Y-364.978 I-0.62 J3.114
G1 X124.607 Y-364.29
G3 X125.483 Y-363.414 I-1.764 J2.64
G1 X126.171 Y-362.384
G3 X126.645 Y-361.24 I-2.64 J1.764
G1 X126.887 Y-360.025
G3 Y-358.785 I-3.114 J0.62
G1 X126.645 Y-357.57
G3 X126.171 Y-356.426 I-3.114 J-0.62
G1 X126.018 Y-356.197
G1 Y-354.657
G1 X126.171 Y-354.428
G3 X126.645 Y-353.284 I-2.64 J1.764
G1 X126.887 Y-352.069
G3 Y-350.829 I-3.114 J0.62
G1 X126.645 Y-349.614
G3 X126.171 Y-348.47 I-3.114 J-0.62
G1 X125.483 Y-347.44
G3 X124.607 Y-346.564 I-2.64 J-1.764
G1 X123.577 Y-345.876
G3 X122.433 Y-345.402 I-1.764 J-2.64
G1 X121.218 Y-345.16
G3 X119.978 I-0.62 J-3.114
G1 X118.763 Y-345.402
G3 X117.619 Y-345.876 I0.62 J-3.114
G1 X117.39 Y-346.029
G1 X-124.788
G1 X-124.684 Y-336.031
G1 X-124.566 Y-331.823
G1 X-124.403 Y-325.947
G1 X-124.22 Y-321.467
G1 X-123.971 Y-315.372
G1 X-123.712 Y-310.518
G1 X-123.37 Y-304.146
G1 X-123.207 Y-301.547
G1 X-123 Y-298.249
G1 X-122.811 Y-295.505
G1 X-122.578 Y-292.123
G1 X-122.362 Y-289.219
G1 X-122.104 Y-285.754
G1 X-122.03 Y-284.829
G1 Z-10.16
G1 X-121.858 Y-282.672
G1 X-121.574 Y-279.124
G1 X-121.294 Y-275.84
G1 X-121.09 Y-273.438
G1 Z-12.7
G1 X-120.986 Y-272.209
G1 X-120.671 Y-268.702
G1 X-120.336 Y-264.994
G1 X-120.041 Y-261.882
G1 X-119.742 Y-258.741
G1 X-119.402 Y-255.442
G1 X-119.073 Y-252.264
G1 X-118.666 Y-248.754
G1 X-118.294 Y-245.547
G1 X-117.798 Y-241.795
G1 X-117.373 Y-238.574
G1 X-116.764 Y-234.541
G1 X-116.658 Y-233.844
G1 X134.677
G1 X134.906 Y-233.997
G3 X136.053 Y-234.472 I1.765 J2.639
G1 X137.268 Y-234.713
G3 X138.504 I0.618 J3.114
G0 Z6.096

G0 Z6.096
M5
M30
