(1001)
(T1  D=6.35 CR=0 - ZMIN=-12.7 - FLAT END MILL)
G0 G40 G90 G17
G21

(2D CONTOUR2)
T1 M6
M3 S5000
G0 X-9.394 Y3.019
G0 Z6.096
G1 Z4.191 F508.
G1 Z-6.604
G1 X-12.686 Y2.891
G1 X-12.735 Y2.888
G1 X-13.485 Y2.848
G1 X-16.97 Y2.658
G1 X-17.018 Y2.655
G1 X-17.566 Y2.617
G1 X-21.323 Y2.355
G1 X-21.368 Y2.352
G1 X-21.662 Y2.327
G1 X-25.552 Y2.001
G1 X-25.598 Y1.996
G1 X-25.793 Y1.977
G1 X-25.812 Y1.975
G1 X-25.866 Y1.969
G1 X-29.844 Y1.512
G1 X-30.364 Y1.452
G1 X-30.413 Y1.446
G1 X-33.955 Y0.983
G1 X-35.059 Y0.838
G1 X-35.105 Y0.832
G1 X-38.148 Y0.389
G1 X-39.928 Y0.13
G1 X-39.969 Y0.123
G1 X-42.44 Y-0.27
G1 X-44.991 Y-0.676
G1 X-45.044 Y-0.685
G1 X-48.188 Y-1.241
G1 X-55.754 Y-2.579
G1 X-55.812 Y-2.59
G1 X-56.27 Y-2.679
G1 X-57.489 Y-2.918
G1 X-57.581 Y-2.938
G1 X-63.974 Y-4.389
G1 X-67.446 Y-5.177
G1 X-67.499 Y-5.19
G1 X-71.923 Y-6.274
G1 X-79.927 Y-8.236
G1 X-79.972 Y-8.247
G1 X-80.379 Y-8.354
G1 X-81.194 Y-8.566
G1 X-81.306 Y-8.598
G1 X-88.218 Y-10.676
G1 X-93.16 Y-12.162
G1 X-93.216 Y-12.18
G1 X-96.456 Y-13.22
G1 X-101.581 Y-14.865
G1 X-101.715 Y-14.911
G1 X-104.847 Y-16.072
G1 X-107.639 Y-17.108
G1 X-107.703 Y-17.132
G1 X-113.078 Y-19.259
G1 X-119.527 Y-21.811
G1 X-119.679 Y-21.876
G1 X-121.826 Y-22.858
G1 X-124.31 Y-23.993
G1 X-124.373 Y-24.023
G1 X-130.363 Y-26.921
G1 X-135.643 Y-29.476
G1 X-135.806 Y-29.561
G1 X-139.352 Y-31.539
G1 X-144.919 Y-34.643
G1 X-144.97 Y-34.673
G1 X-148.399 Y-36.67
G1 X-150.564 Y-37.932
G1 X-150.73 Y-38.035
G1 X-157.531 Y-42.581
G1 X-164.475 Y-47.222
G1 X-164.634 Y-47.336
G1 X-166.987 Y-49.127
G1 X-171.776 Y-52.773
G3 X-173.002 Y-54.892 I1.923 J-2.526
G3 X-172.355 Y-57.254 I3.149 J-0.407
G1 X-171.859 Y-57.889
G3 X-169.357 Y-59.109 I2.502 J1.954
G1 X-38.84
G3 X-35.726 Y-56.554 I0 J3.175
G1 X-35.665 Y-56.247
G1 Y-68.067
G1 X-35.726 Y-67.761
G3 X-38.84 Y-65.205 I-3.114 J-0.619
G1 X-185.325
G3 X-187.428 Y-66.002 I0 J-3.175
G1 X-190.301 Y-68.543
G1 X-190.44 Y-68.673
G1 X-196.271 Y-74.487
G1 X-207 Y-85.185
G1 X-207.13 Y-85.323
G1 X-208.478 Y-86.838
G1 X-212.787 Y-91.683
G1 X-212.815 Y-91.715
G1 X-220.117 Y-100.145
G1 X-222.472 Y-102.863
G1 X-222.575 Y-102.988
G1 X-231.486 Y-114.403
G1 X-236.708 Y-121.09
G1 X-236.792 Y-121.202
G1 X-242.583 Y-129.334
G1 X-249.819 Y-139.493
G1 X-249.888 Y-139.594
G1 X-253.239 Y-144.706
G1 X-261.736 Y-157.669
G1 X-261.795 Y-157.762
G1 X-263.304 Y-160.247
G1 X-272.391 Y-175.219
G1 X-272.446 Y-175.313
G1 X-272.639 Y-175.658
G1 X-274.292 Y-178.596
G1 X-274.306 Y-178.622
G1 X-280.833 Y-190.486
G1 X-280.834 Y-190.487
G1 X-281.622 Y-191.921
G1 X-281.672 Y-192.016
G1 X-285.243 Y-199.072
G3 X-284.912 Y-202.46 I2.833 J-1.434
G1 X-284.416 Y-203.095
G3 X-281.914 Y-204.316 I2.502 J1.954
G1 X-96.648
G3 X-93.534 Y-201.76 I0 J3.175
G1 X-93.473 Y-201.454
G1 Y-213.274
G1 X-93.534 Y-212.968
G3 X-96.648 Y-210.412 I-3.114 J-0.619
G1 X-288.585
G3 X-291.089 Y-211.635 I0 J-3.175
G1 X-291.584 Y-212.27
G3 X-291.973 Y-212.913 I2.504 J-1.952
G1 X-296.563 Y-223.059
G1 X-299.204 Y-228.895
G1 X-299.27 Y-229.053
G1 X-304.11 Y-241.492
G1 X-306.837 Y-248.503
G1 X-306.896 Y-248.668
G1 X-310.273 Y-259
G1 X-312.77 Y-266.639
G1 X-312.819 Y-266.805
G1 X-315.149 Y-275.526
G1 X-317.253 Y-283.403
G1 X-317.292 Y-283.564
G1 X-318.879 Y-291.05
G1 X-320.541 Y-298.892
G1 X-320.568 Y-299.038
G1 X-321.636 Y-305.568
G1 X-322.885 Y-313.199
G1 X-322.902 Y-313.318
G1 X-323.625 Y-319.104
G1 X-324.541 Y-326.421
G1 X-324.55 Y-326.499
G1 X-325.069 Y-331.687
G1 X-325.766 Y-338.646
G1 X-325.77 Y-338.683
G1 X-326.263 Y-344.266
G1 X-326.366 Y-345.433
G3 X-325.707 Y-347.664 I3.163 J-0.279
G1 X-325.212 Y-348.299
G3 X-322.708 Y-349.522 I2.504 J1.952
G1 X-139.722
G3 X-136.608 Y-346.967 I0 J3.175
G1 X-136.547 Y-346.66
G1 Y-358.48
G1 X-136.608 Y-358.173
G3 X-139.722 Y-355.618 I-3.114 J-0.62
G1 X-323.846
G3 X-326.35 Y-356.841 I0 J-3.175
G1 X-326.845 Y-357.476
G3 X-327.506 Y-359.181 I2.504 J-1.952
G1 X-327.925 Y-364.557
G1 X-327.928 Y-364.594
G1 X-328.229 Y-369.126
G1 X-328.689 Y-376.06
G1 X-328.691 Y-376.098
G1 X-328.916 Y-380.255
G1 X-329.269 Y-386.799
G1 X-329.272 Y-386.86
G1 X-329.534 Y-394.397
G1 X-329.958 Y-406.574
G1 X-329.96 Y-406.651
G1 X-330.032 Y-413.637
G1 X-330.152 Y-425.14
G1 Y-425.206
G1 X-330.08 Y-432.188
G1 X-329.96 Y-443.695
G1 X-329.958 Y-443.772
G1 X-329.696 Y-451.298
G1 X-329.272 Y-463.487
G1 X-329.269 Y-463.548
G1 X-329.045 Y-467.7
G1 X-328.691 Y-474.248
G1 X-328.689 Y-474.287
G1 X-328.389 Y-478.813
G1 X-327.928 Y-485.753
G1 X-327.925 Y-485.789
G1 X-327.536 Y-490.786
G1 Y-490.791
G1 X-327.506 Y-491.17
G3 X-326.845 Y-492.871 I3.165 J0.251
G1 X-326.35 Y-493.506
G3 X-323.846 Y-494.729 I2.504 J1.952
G1 X-139.722
G3 X-136.608 Y-492.174 I0 J3.175
G1 X-136.547 Y-491.867
G1 Y-503.687
G1 X-136.608 Y-503.38
G3 X-139.722 Y-500.825 I-3.114 J-0.62
G1 X-322.708
G3 X-325.212 Y-502.048 I0 J-3.175
G1 X-325.707 Y-502.683
G3 X-326.366 Y-504.914 I2.504 J-1.952
G1 X-325.77 Y-511.664
G1 X-325.763 Y-511.728
G1 X-324.766 Y-520.91
G1 X-323.459 Y-532.94
G1 X-323.444 Y-533.06
G1 X-322.661 Y-538.367
G1 X-321.718 Y-544.75
G1 X-321.699 Y-544.864
G1 X-320.599 Y-550.803
G1 X-319.383 Y-557.361
G1 X-319.356 Y-557.491
G1 X-317.813 Y-564.23
G1 X-316.294 Y-570.86
G1 X-316.259 Y-570.999
G1 X-314.107 Y-578.762
G1 X-312.294 Y-585.303
G1 X-312.251 Y-585.445
G1 X-309.267 Y-594.535
G1 X-307.227 Y-600.75
G1 X-307.177 Y-600.891
G1 X-303.052 Y-611.716
G1 X-300.939 Y-617.26
G1 X-300.884 Y-617.395
G1 X-295.182 Y-630.509
G1 X-293.274 Y-634.893
G1 X-293.215 Y-635.021
G1 X-291.994 Y-637.519
G3 X-291.646 Y-638.077 I2.852 J1.394
G1 X-291.151 Y-638.712
G3 X-288.647 Y-639.935 I2.504 J1.952
G1 X-96.622
G3 X-93.509 Y-637.379 I0 J3.175
G1 X-93.448 Y-637.073
G1 Y-648.893
G1 X-93.509 Y-648.587
G3 X-96.622 Y-646.031 I-3.114 J-0.619
G1 X-281.943
G3 X-284.447 Y-647.254 I0 J-3.175
G1 X-284.942 Y-647.889
G3 X-285.291 Y-651.235 I2.504 J-1.952
G1 X-284.08 Y-653.713
G1 X-284.018 Y-653.833
G1 X-274.316 Y-671.723
G1 X-274.302 Y-671.749
G1 X-273.161 Y-673.807
G1 X-273.098 Y-673.915
G1 X-272.855 Y-674.315
G1 X-272.853 Y-674.318
G1 X-260.176 Y-695.142
G1 X-260.103 Y-695.257
G1 X-256.33 Y-700.895
G1 X-245.351 Y-717.305
G1 X-245.261 Y-717.433
G1 X-235.574 Y-730.479
G1 X-228.809 Y-739.588
G1 X-228.695 Y-739.732
G1 X-212.848 Y-758.671
G1 X-212.821 Y-758.703
G1 X-210.589 Y-761.301
G1 X-210.438 Y-761.465
G1 X-208.524 Y-763.399
G1 X-190.455 Y-781.658
G1 X-190.366 Y-781.744
G1 X-190.275 Y-781.827
G1 X-188.071 Y-783.732
G1 X-187.337 Y-784.367
G3 X-185.26 Y-785.141 I2.077 J2.401
G1 X-38.762
G3 X-35.648 Y-782.585 I0 J3.175
G1 X-35.587 Y-782.279
G1 Y-794.099
G1 X-35.648 Y-793.793
G3 X-38.762 Y-791.237 I-3.114 J-0.619
G1 X-169.503
G3 X-172.007 Y-792.46 I0 J-3.175
G1 X-172.502 Y-793.095
G3 X-173.139 Y-795.513 I2.504 J-1.952
G3 X-171.827 Y-797.642 I3.141 J0.466
G1 X-153.587 Y-810.499
G3 X-153.356 Y-810.647 I1.829 J2.595
G1 X-144.955 Y-815.542
G1 X-144.904 Y-815.572
G1 X-132.736 Y-822.359
G3 X-132.508 Y-822.474 I1.547 J2.773
G1 X-124.274 Y-826.235
G1 X-124.213 Y-826.262
G1 X-109.296 Y-832.702
G1 X-109.093 Y-832.782
G1 X-107.605 Y-833.306
G1 X-107.548 Y-833.325
G1 X-105.995 Y-833.839
G1 X-105.993 Y-833.84
G1 X-93.2 Y-838.067
G1 X-93.143 Y-838.085
G1 X-81.331 Y-841.741
G1 X-81.173 Y-841.785
G1 X-79.949 Y-842.096
G1 X-79.904 Y-842.107
G1 X-79.221 Y-842.27
G1 X-79.22 Y-842.271
G1 X-67.441 Y-845.077
G1 X-67.39 Y-845.088
G1 X-60.51 Y-846.607
G1 X-55.839 Y-847.638
G1 X-55.774 Y-847.652
G1 X-46.639 Y-849.468
G1 X-46.522 Y-849.489
G1 X-45.02 Y-849.73
G1 X-44.977 Y-849.736
G1 X-44.8 Y-849.762
G1 X-44.794 Y-849.763
G1 X-39.923 Y-850.468
G1 X-39.889 Y-850.473
G1 X-39.194 Y-850.566
G1 X-39.19 Y-850.567
G1 X-35.038 Y-851.117
G1 X-34.998 Y-851.122
G1 X-33.874 Y-851.256
G1 X-30.33 Y-851.678
G1 X-30.285 Y-851.683
G1 X-28.813 Y-851.837
G1 X-25.771 Y-852.156
G1 X-25.725 Y-852.16
G1 X-23.97 Y-852.318
G1 X-21.332 Y-852.555
G1 X-21.283 Y-852.559
G1 X-19.305 Y-852.706
G1 X-16.987 Y-852.879
G1 X-16.935 Y-852.883
G1 X-14.783 Y-853.008
G1 X-12.707 Y-853.129
G1 X-12.653 Y-853.131
G1 X-10.373 Y-853.225
G1 X-8.468 Y-853.305
G1 X-8.411 Y-853.307
G1 X-6.042 Y-853.364
G1 X-4.237 Y-853.408
G1 X-4.18 Y-853.409
G1 X-1.76 Y-853.424
G1 X0.01 Y-853.435
G1 X0.08
G1 X3.701 Y-853.377
G1 X6.441 Y-853.333
G1 X6.517 Y-853.33
G1 X9.984 Y-853.191
G1 X9.987
G1 X12.968 Y-853.068
G1 X13.036 Y-853.065
G1 X16.185 Y-852.868
G1 X16.193 Y-852.867
G1 X19.548 Y-852.648
G1 X19.591 Y-852.645
G1 X21.001 Y-852.534
G1 X21.014 Y-852.533
G1 X22.861 Y-852.38
G1 X22.883 Y-852.378
G1 X24.153 Y-852.264
G1 X24.169 Y-852.263
G1 X26.149 Y-852.075
G1 X26.167 Y-852.073
G1 X27.28 Y-851.961
G1 X27.303 Y-851.959
G1 X29.422 Y-851.73
G1 X29.433 Y-851.728
G1 X30.374 Y-851.623
G1 X30.404 Y-851.62
G1 X32.666 Y-851.346
G1 X32.679 Y-851.344
G1 X33.436 Y-851.249
G1 X33.467 Y-851.245
G1 X35.87 Y-850.919
G1 X35.877 Y-850.918
G1 X36.442 Y-850.84
G1 X36.482 Y-850.834
G1 X39.03 Y-850.449
G1 X39.401 Y-850.393
G1 X39.449 Y-850.386
G1 X42.162 Y-849.933
G1 X42.33 Y-849.905
G1 X42.382 Y-849.896
G1 X44.672 Y-849.477
G1 X44.794 Y-849.452
G1 X45.353 Y-849.327
G1 X45.475 Y-849.297
G1 X45.504 Y-849.29
G1 X48.175 Y-848.637
G1 X48.261 Y-848.615
G1 X48.627 Y-848.515
G1 X51.003 Y-847.886
G1 X51.09 Y-847.862
G1 X51.796 Y-847.654
G1 X53.85 Y-847.07
G1 X53.942 Y-847.043
G1 X55.016 Y-846.702
G1 X56.732 Y-846.183
G1 X56.827 Y-846.152
G1 X58.313 Y-845.651
G1 X59.667 Y-845.218
G1 X59.762 Y-845.186
G1 X61.712 Y-844.493
G1 X62.672 Y-844.171
G1 X62.767 Y-844.137
G1 X65.25 Y-843.215
G1 X65.77 Y-843.033
G1 X65.858 Y-843
G1 X68.932 Y-841.816
G1 X69.065 Y-841.766
G1 X69.341 Y-841.656
G3 X69.582 Y-841.548 I-1.178 J2.948
G1 X72.37 Y-840.155
G1 X72.473 Y-840.102
G1 X73.096 Y-839.761
G1 X75.549 Y-838.495
G1 X75.643 Y-838.445
G1 X77.074 Y-837.644
G1 X78.829 Y-836.711
G1 X78.918 Y-836.662
G1 X81.258 Y-835.32
G1 X82.882 Y-834.425
G1 X82.983 Y-834.366
G1 X86.077 Y-832.509
G3 X86.363 Y-832.316 I-1.634 J2.722
G1 X88.695 Y-830.546
G1 X88.812 Y-830.454
G1 X90.363 Y-829.157
G1 X93.872 Y-826.317
G1 X93.986 Y-826.22
G1 X98.773 Y-821.957
G3 X99.019 Y-821.713 I-2.112 J2.371
G1 X99.301 Y-821.4
G1 X99.423 Y-821.256
G1 X99.637 Y-820.989
G1 X103.815 Y-815.917
G1 X103.945 Y-815.748
G1 X107.967 Y-810.141
G1 X108.084 Y-809.983
G3 X108.229 Y-809.769 I-2.552 J1.889
G1 X108.347 Y-809.579
G3 X108.472 Y-809.359 I-2.697 J1.675
G1 X111.893 Y-802.722
G3 X112.008 Y-802.474 I-2.822 J1.455
G1 X114.774 Y-795.743
G1 X114.816 Y-795.635
G1 X115.082 Y-794.914
G3 X115.165 Y-794.654 I-2.979 J1.099
G1 X115.431 Y-793.682
G1 X117.257 Y-787.41
G1 X117.31 Y-787.201
G1 X118.861 Y-780.103
G1 X118.88 Y-780.006
G1 X119.005 Y-779.335
G1 X119.037 Y-779.129
G1 X119.11 Y-778.513
G1 X120.414 Y-769.504
G1 X120.436 Y-769.313
G1 X121.255 Y-759.496
G1 X121.26 Y-759.433
G1 X121.31 Y-758.646
G1 X121.316 Y-758.486
G1 X121.328 Y-757.512
G1 X121.705 Y-746.732
G1 X121.707 Y-746.59
G1 X121.619 Y-737.664
G1 X121.618 Y-737.621
G1 X121.527 Y-733.696
G1 X121.522 Y-733.576
G1 X121.112 Y-726.885
G1 X120.813 Y-719.795
G1 X120.807 Y-719.692
G1 X120.479 Y-715.303
G1 X120.476 Y-715.26
G1 X119.572 Y-705.049
G1 X119.563 Y-704.961
G1 X118.181 Y-693.123
G1 X118.175 Y-693.075
G1 X117.715 Y-689.598
G1 X117.703 Y-689.521
G1 X116.174 Y-679.792
G1 X115.346 Y-673.983
G1 X115.336 Y-673.918
G1 X114.982 Y-671.754
G1 X114.971 Y-671.691
G1 X112.521 Y-658.418
G1 X112.51 Y-658.361
G1 X111.152 Y-651.686
G1 X111.139 Y-651.624
G1 X109.183 Y-642.908
G1 X109.171 Y-642.857
G1 X106.76 Y-632.881
G1 X106.746 Y-632.825
G1 X105.389 Y-627.63
G1 X105.377 Y-627.584
G1 X101.965 Y-615.281
G1 X101.951 Y-615.231
G1 X101.208 Y-612.711
G1 X101.196 Y-612.67
G1 X96.907 Y-598.821
G1 X96.895 Y-598.782
G1 X96.723 Y-598.252
G1 X96.71 Y-598.213
G1 X95.065 Y-593.348
G1 X92.126 Y-584.44
G1 X92.116 Y-584.41
G1 X91.781 Y-583.43
G1 X91.769 Y-583.394
G1 X87.426 Y-571.145
G1 X87.416 Y-571.117
G1 X86.665 Y-569.062
G1 X86.658 Y-569.042
G1 X82.704 Y-558.44
G1 X82.694 Y-558.414
G1 X81.635 Y-555.647
G1 X81.634 Y-555.644
G1 X78.068 Y-546.352
G1 X78.059 Y-546.329
G1 X76.804 Y-543.135
G1 X73.632 Y-534.899
G1 X73.624 Y-534.877
G1 X72.284 Y-531.473
G1 X67.198 Y-517.493
G1 X67.19 Y-517.472
G1 X64.55 Y-510.365
G1 X61.979 Y-501.995
G1 X61.973 Y-501.978
G1 X60.434 Y-497.067
G1 X58.577 Y-489.647
G1 X58.573 Y-489.633
G1 X57.352 Y-484.849
G1 X56.068 Y-478.192
G1 X56.066 Y-478.18
G1 X55.155 Y-473.553
G1 X54.32 Y-467.49
G1 X54.319 Y-467.481
G1 X53.696 Y-463.049
G1 X52.955 Y-452.089
G1 X52.954 Y-452.085
G1 X52.365 Y-443.537
G1 X52.267 Y-433.395
G1 X52.186 Y-425.173
G1 X52.285 Y-414.955
G1 X52.365 Y-406.807
G1 X53.111 Y-395.77
G1 X53.696 Y-387.296
G1 X54.532 Y-381.225
G1 X55.155 Y-376.792
G1 X56.45 Y-370.08
G1 X57.352 Y-365.496
G1 X59.229 Y-357.999
G1 X60.434 Y-353.278
G1 X63.044 Y-344.787
G1 X64.554 Y-339.967
G1 X67.391 Y-331.964
G1 X68.853 Y-327.917
G1 X72.308 Y-318.804
G1 X73.834 Y-314.857
G1 X73.835 Y-314.855
G1 X77.908 Y-304.306
G1 X79.323 Y-300.714
G1 X79.339 Y-300.674
G1 X84.057 Y-288.209
G1 X85.156 Y-285.368
G1 X85.183 Y-285.296
G1 X90.621 Y-270.174
G1 X91.156 Y-268.722
G1 X91.19 Y-268.625
G1 X95.015 Y-257.098
G1 X97.183 Y-250.669
G1 X97.222 Y-250.545
G1 X97.543 Y-249.447
G1 X103.095 Y-231.125
G1 X103.134 Y-230.982
G1 X104.655 Y-224.964
G1 X108.599 Y-209.979
G1 X108.633 Y-209.839
G1 X110.526 Y-201.047
G1 X112.089 Y-194.152
G1 X112.116 Y-194.021
G1 X114.701 Y-179.879
G1 X115.169 Y-177.471
G1 X115.192 Y-177.334
G1 X116.213 Y-170.486
G1 X117.829 Y-159.889
G1 X117.847 Y-159.745
G1 X118.424 Y-154.3
G1 X119.908 Y-141.707
G1 X119.922 Y-141.559
G1 X121.211 Y-123.352
G1 X121.214 Y-123.321
G1 X121.224 Y-123.145
G1 X121.226 Y-123.082
G1 X121.227 Y-123.062
G1 X121.689 Y-105.023
G1 X121.688 Y-104.838
G1 X121.297 Y-92.915
G1 X121.295 Y-92.857
G1 X121.01 Y-87.271
G1 X121.002 Y-87.158
G1 X120.99 Y-87.045
G1 X119.118 Y-71.843
G1 X119.103 Y-71.732
G1 X118.895 Y-70.423
G3 X118.844 Y-70.172 I-3.136 J-0.498
G1 X118.095 Y-67.085
G1 X116.264 Y-59.24
G3 X116.19 Y-58.977 I-3.092 J-0.722
G1 X115.395 Y-56.54
G1 X115.343 Y-56.391
G1 X112.413 Y-48.728
G3 X112.26 Y-48.389 I-2.966 J-1.134
G1 X108.205 Y-40.645
G1 X108.121 Y-40.495
G1 X107.263 Y-39.052
G3 X107.045 Y-38.732 I-2.729 J-1.623
G1 X103.711 Y-34.424
G1 X100.647 Y-30.408
G3 X100.377 Y-30.098 I-2.524 J-1.926
G1 X99.416 Y-29.13
G1 X99.332 Y-29.047
G1 X92.277 Y-22.445
G3 X91.991 Y-22.208 I-2.169 J-2.318
G1 X90.289 Y-20.952
G1 X90.212 Y-20.898
G1 X82.099 Y-15.278
G3 X81.826 Y-15.109 I-1.808 J-2.61
G1 X81.324 Y-14.831
G1 X81.254 Y-14.793
G1 X81.004 Y-14.664
G1 X77.099 Y-12.573
G1 X77.033 Y-12.539
G1 X74.77 Y-11.395
G1 X73.094 Y-10.521
G1 X73.024 Y-10.486
G1 X69.561 Y-8.788
G1 X69.356 Y-8.696
G1 X69.035 Y-8.566
G1 X68.959 Y-8.536
G1 X68.881 Y-8.507
G1 X65.344 Y-7.116
G1 X65.261 Y-7.085
G1 X64.111 Y-6.669
G1 X61.819 Y-5.801
G1 X61.727 Y-5.768
G1 X59.677 Y-5.062
G1 X58.425 Y-4.608
G1 X58.326 Y-4.574
G1 X55.502 Y-3.656
G1 X55.131 Y-3.528
G1 X55.026 Y-3.494
G1 X53.398 Y-2.997
G1 X53.264 Y-2.96
G1 X51.719 Y-2.561
G1 X51.629 Y-2.539
G1 X51.385 Y-2.484
G1 X48.547 Y-1.8
G1 X48.457 Y-1.779
G1 X47.717 Y-1.624
G1 X45.408 Y-1.108
G1 X45.319 Y-1.089
G1 X44.124 Y-0.858
G1 X42.279 Y-0.479
G1 X42.192 Y-0.463
G1 X40.57 Y-0.177
G1 X39.139 Y0.091
G1 X39.057 Y0.105
G1 X37.025 Y0.43
G1 X35.969 Y0.608
G1 X35.892 Y0.62
G1 X33.463 Y0.969
G1 X32.752 Y1.077
G1 X32.682 Y1.087
G1 X29.878 Y1.447
G1 X29.492 Y1.499
G1 X29.429 Y1.507
G1 X26.289 Y1.867
G1 X26.204 Y1.877
G1 X26.147 Y1.884
G1 X25.045 Y1.995
G1 X24.998 Y2
G1 X22.846 Y2.186
G1 X22.804 Y2.19
G1 X22.673 Y2.199
G1 X19.554 Y2.436
G1 X19.498 Y2.44
G1 X18.842 Y2.478
G1 X12.999 Y2.828
G1 X12.928 Y2.832
G1 X11.72 Y2.877
G1 X6.482 Y3.077
G1 X6.408 Y3.079
G1 X4.906 Y3.102
G1 X0.048 Y3.175
G1 X-0.019
G1 X-1.066 Y3.169
G1 X-4.21 Y3.15
G1 X-4.263
G1 X-5.265 Y3.127
G1 X-8.441 Y3.055
G1 X-8.492 Y3.054
G1 X-9.394 Y3.019
G1 Z-12.7
G1 X-12.686 Y2.891
G1 X-12.735 Y2.888
G1 X-13.485 Y2.848
G1 X-16.97 Y2.658
G1 X-17.018 Y2.655
G1 X-17.566 Y2.617
G1 X-21.323 Y2.355
G1 X-21.368 Y2.352
G1 X-21.662 Y2.327
G1 X-25.552 Y2.001
G1 X-25.598 Y1.996
G1 X-25.793 Y1.977
G1 X-25.812 Y1.975
G1 X-25.866 Y1.969
G1 X-29.844 Y1.512
G1 X-30.364 Y1.452
G1 X-30.413 Y1.446
G1 X-33.955 Y0.983
G1 X-35.059 Y0.838
G1 X-35.105 Y0.832
G1 X-38.148 Y0.389
G1 X-39.928 Y0.13
G1 X-39.969 Y0.123
G1 X-42.44 Y-0.27
G1 X-44.991 Y-0.676
G1 X-45.044 Y-0.685
G1 X-48.188 Y-1.241
G1 X-55.754 Y-2.579
G1 X-55.812 Y-2.59
G1 X-56.27 Y-2.679
G1 X-57.489 Y-2.918
G1 X-57.581 Y-2.938
G1 X-63.974 Y-4.389
G1 X-67.446 Y-5.177
G1 X-67.499 Y-5.19
G1 X-71.923 Y-6.274
G1 X-75.755 Y-7.213
G1 Z-10.16
G1 X-79.927 Y-8.236
G1 X-79.972 Y-8.247
G1 X-80.379 Y-8.354
G1 X-81.194 Y-8.566
G1 X-81.306 Y-8.598
G1 X-86.779 Y-10.243
G1 Z-12.7
G1 X-88.218 Y-10.676
G1 X-93.16 Y-12.162
G1 X-93.216 Y-12.18
G1 X-96.456 Y-13.22
G1 X-101.581 Y-14.865
G1 X-101.715 Y-14.911
G1 X-104.847 Y-16.072
G1 X-107.639 Y-17.108
G1 X-107.703 Y-17.132
G1 X-113.078 Y-19.259
G1 X-119.527 Y-21.811
G1 X-119.679 Y-21.876
G1 X-121.826 Y-22.858
G1 X-124.31 Y-23.993
G1 X-124.373 Y-24.023
G1 X-130.363 Y-26.921
G1 X-135.643 Y-29.476
G1 X-135.806 Y-29.561
G1 X-139.352 Y-31.539
G1 X-144.919 Y-34.643
G1 X-144.97 Y-34.673
G1 X-148.399 Y-36.67
G1 X-150.564 Y-37.932
G1 X-150.73 Y-38.035
G1 X-157.531 Y-42.581
G1 X-164.475 Y-47.222
G1 X-164.634 Y-47.336
G1 X-166.987 Y-49.127
G1 X-171.776 Y-52.773
G3 X-173.002 Y-54.892 I1.923 J-2.526
G3 X-172.355 Y-57.254 I3.149 J-0.407
G1 X-171.859 Y-57.889
G3 X-169.357 Y-59.109 I2.502 J1.954
G1 X-38.84
G3 X-35.726 Y-56.554 I0 J3.175
G1 X-35.665 Y-56.247
G1 Y-68.067
G1 X-35.726 Y-67.761
G3 X-38.84 Y-65.205 I-3.114 J-0.619
G1 X-185.325
G3 X-187.428 Y-66.002 I0 J-3.175
G1 X-190.301 Y-68.543
G1 X-190.44 Y-68.673
G1 X-196.271 Y-74.487
G1 X-207 Y-85.185
G1 X-207.13 Y-85.323
G1 X-208.478 Y-86.838
G1 X-212.787 Y-91.683
G1 X-212.815 Y-91.715
G1 X-220.117 Y-100.145
G1 X-222.472 Y-102.863
G1 X-222.575 Y-102.988
G1 X-231.486 Y-114.403
G1 X-236.708 Y-121.09
G1 X-236.792 Y-121.202
G1 X-242.583 Y-129.334
G1 X-249.819 Y-139.493
G1 X-249.888 Y-139.594
G1 X-253.239 Y-144.706
G1 X-258.662 Y-152.979
G1 Z-10.16
G1 X-261.736 Y-157.669
G1 X-261.795 Y-157.762
G1 X-263.304 Y-160.247
G1 X-264.761 Y-162.648
G1 Z-12.7
G1 X-272.391 Y-175.219
G1 X-272.446 Y-175.313
G1 X-272.639 Y-175.658
G1 X-274.292 Y-178.596
G1 X-274.306 Y-178.622
G1 X-280.833 Y-190.486
G1 X-280.834 Y-190.487
G1 X-281.622 Y-191.921
G1 X-281.672 Y-192.016
G1 X-285.243 Y-199.072
G3 X-284.912 Y-202.46 I2.833 J-1.434
G1 X-284.416 Y-203.095
G3 X-281.914 Y-204.316 I2.502 J1.954
G1 X-96.648
G3 X-93.534 Y-201.76 I0 J3.175
G1 X-93.473 Y-201.454
G1 Y-213.274
G1 X-93.534 Y-212.968
G3 X-96.648 Y-210.412 I-3.114 J-0.619
G1 X-288.585
G3 X-291.089 Y-211.635 I0 J-3.175
G1 X-291.584 Y-212.27
G3 X-291.973 Y-212.913 I2.504 J-1.952
G1 X-296.563 Y-223.059
G1 X-299.204 Y-228.895
G1 X-299.27 Y-229.053
G1 X-304.11 Y-241.492
G1 X-306.837 Y-248.503
G1 X-306.896 Y-248.668
G1 X-310.273 Y-259
G1 X-312.77 Y-266.639
G1 X-312.819 Y-266.805
G1 X-313.674 Y-270.005
G1 Z-10.16
G1 X-315.149 Y-275.526
G1 X-316.624 Y-281.048
G1 Z-12.7
G1 X-317.253 Y-283.403
G1 X-317.292 Y-283.564
G1 X-318.879 Y-291.05
G1 X-320.541 Y-298.892
G1 X-320.568 Y-299.038
G1 X-321.636 Y-305.568
G1 X-322.885 Y-313.199
G1 X-322.902 Y-313.318
G1 X-323.625 Y-319.104
G1 X-324.541 Y-326.421
G1 X-324.55 Y-326.499
G1 X-325.069 Y-331.687
G1 X-325.766 Y-338.646
G1 X-325.77 Y-338.683
G1 X-326.263 Y-344.266
G1 X-326.366 Y-345.433
G3 X-325.707 Y-347.664 I3.163 J-0.279
G1 X-325.212 Y-348.299
G3 X-322.708 Y-349.522 I2.504 J1.952
G1 X-139.722
G3 X-136.608 Y-346.967 I0 J3.175
G1 X-136.547 Y-346.66
G1 Y-358.48
G1 X-136.608 Y-358.173
G3 X-139.722 Y-355.618 I-3.114 J-0.62
G1 X-323.846
G3 X-326.35 Y-356.841 I0 J-3.175
G1 X-326.845 Y-357.476
G3 X-327.506 Y-359.181 I2.504 J-1.952
G1 X-327.925 Y-364.557
G1 X-327.928 Y-364.594
G1 X-328.229 Y-369.126
G1 X-328.689 Y-376.06
G1 X-328.691 Y-376.098
G1 X-328.916 Y-380.255
G1 X-329.269 Y-386.799
G1 X-329.272 Y-386.86
G1 X-329.534 Y-394.397
G1 X-329.958 Y-406.574
G1 X-329.96 Y-406.651
G1 X-330.032 Y-413.637
G1 X-330.152 Y-425.14
G1 Y-425.206
G1 X-330.139 Y-426.473
G1 Z-10.16
G1 X-330.08 Y-432.188
G1 X-330.02 Y-437.903
G1 Z-12.7
G1 X-329.96 Y-443.695
G1 X-329.958 Y-443.772
G1 X-329.696 Y-451.298
G1 X-329.272 Y-463.487
G1 X-329.269 Y-463.548
G1 X-329.045 Y-467.7
G1 X-328.691 Y-474.248
G1 X-328.689 Y-474.287
G1 X-328.389 Y-478.813
G1 X-327.928 Y-485.753
G1 X-327.925 Y-485.789
G1 X-327.536 Y-490.786
G1 Y-490.791
G1 X-327.506 Y-491.17
G3 X-326.845 Y-492.871 I3.165 J0.251
G1 X-326.35 Y-493.506
G3 X-323.846 Y-494.729 I2.504 J1.952
G1 X-139.722
G3 X-136.608 Y-492.174 I0 J3.175
G1 X-136.547 Y-491.867
G1 Y-503.687
G1 X-136.608 Y-503.38
G3 X-139.722 Y-500.825 I-3.114 J-0.62
G1 X-322.708
G3 X-325.212 Y-502.048 I0 J-3.175
G1 X-325.707 Y-502.683
G3 X-326.366 Y-504.914 I2.504 J-1.952
G1 X-325.77 Y-511.664
G1 X-325.763 Y-511.728
G1 X-324.766 Y-520.91
G1 X-323.459 Y-532.94
G1 X-323.444 Y-533.06
G1 X-322.661 Y-538.367
G1 X-321.718 Y-544.75
G1 X-321.699 Y-544.864
G1 X-320.599 Y-550.803
G1 X-319.383 Y-557.361
G1 X-319.356 Y-557.491
G1 X-317.813 Y-564.23
G1 X-316.294 Y-570.86
G1 X-316.259 Y-570.999
G1 X-314.107 Y-578.762
G1 X-312.294 Y-585.303
G1 X-312.251 Y-585.445
G1 X-311.049 Y-589.105
G1 Z-10.16
G1 X-309.267 Y-594.535
G1 X-307.484 Y-599.965
G1 Z-12.7
G1 X-307.227 Y-600.75
G1 X-307.177 Y-600.891
G1 X-303.052 Y-611.716
G1 X-300.939 Y-617.26
G1 X-300.884 Y-617.395
G1 X-295.182 Y-630.509
G1 X-293.274 Y-634.893
G1 X-293.215 Y-635.021
G1 X-291.994 Y-637.519
G3 X-291.646 Y-638.077 I2.852 J1.394
G1 X-291.151 Y-638.712
G3 X-288.647 Y-639.935 I2.504 J1.952
G1 X-96.622
G3 X-93.509 Y-637.379 I0 J3.175
G1 X-93.448 Y-637.073
G1 Y-648.893
G1 X-93.509 Y-648.587
G3 X-96.622 Y-646.031 I-3.114 J-0.619
G1 X-281.943
G3 X-284.447 Y-647.254 I0 J-3.175
G1 X-284.942 Y-647.889
G3 X-285.291 Y-651.235 I2.504 J-1.952
G1 X-284.08 Y-653.713
G1 X-284.018 Y-653.833
G1 X-274.316 Y-671.723
G1 X-274.302 Y-671.749
G1 X-273.161 Y-673.807
G1 X-273.098 Y-673.915
G1 X-272.855 Y-674.315
G1 X-272.853 Y-674.318
G1 X-260.176 Y-695.142
G1 X-260.103 Y-695.257
G1 X-256.33 Y-700.895
G1 X-245.351 Y-717.305
G1 X-245.261 Y-717.433
G1 X-238.981 Y-725.891
G1 Z-10.16
G1 X-235.574 Y-730.479
G1 X-232.167 Y-735.067
G1 Z-12.7
G1 X-228.809 Y-739.588
G1 X-228.695 Y-739.732
G1 X-212.848 Y-758.671
G1 X-212.821 Y-758.703
G1 X-210.589 Y-761.301
G1 X-210.438 Y-761.465
G1 X-208.524 Y-763.399
G1 X-190.455 Y-781.658
G1 X-190.366 Y-781.744
G1 X-190.275 Y-781.827
G1 X-188.071 Y-783.732
G1 X-187.337 Y-784.367
G3 X-185.26 Y-785.141 I2.077 J2.401
G1 X-38.762
G3 X-35.648 Y-782.585 I0 J3.175
G1 X-35.587 Y-782.279
G1 Y-794.099
G1 X-35.648 Y-793.793
G3 X-38.762 Y-791.237 I-3.114 J-0.619
G1 X-169.503
G3 X-172.007 Y-792.46 I0 J-3.175
G1 X-172.502 Y-793.095
G3 X-173.139 Y-795.513 I2.504 J-1.952
G3 X-171.827 Y-797.642 I3.141 J0.466
G1 X-153.587 Y-810.499
G3 X-153.356 Y-810.647 I1.829 J2.595
G1 X-144.955 Y-815.542
G1 X-144.904 Y-815.572
G1 X-132.736 Y-822.359
G3 X-132.508 Y-822.474 I1.547 J2.773
G1 X-124.274 Y-826.235
G1 X-124.213 Y-826.262
G1 X-109.296 Y-832.702
G1 X-109.093 Y-832.782
G1 X-107.605 Y-833.306
G1 X-107.548 Y-833.325
G1 X-105.995 Y-833.839
G1 X-105.993 Y-833.84
G1 X-98.571 Y-836.292
G1 Z-10.16
G1 X-93.2 Y-838.067
G1 X-93.143 Y-838.085
G1 X-87.684 Y-839.775
G1 Z-12.7
G1 X-81.331 Y-841.741
G1 X-81.173 Y-841.785
G1 X-79.949 Y-842.096
G1 X-79.904 Y-842.107
G1 X-79.221 Y-842.27
G1 X-79.22 Y-842.271
G1 X-67.441 Y-845.077
G1 X-67.39 Y-845.088
G1 X-60.51 Y-846.607
G1 X-55.839 Y-847.638
G1 X-55.774 Y-847.652
G1 X-46.639 Y-849.468
G1 X-46.522 Y-849.489
G1 X-45.02 Y-849.73
G1 X-44.977 Y-849.736
G1 X-44.8 Y-849.762
G1 X-44.794 Y-849.763
G1 X-39.923 Y-850.468
G1 X-39.889 Y-850.473
G1 X-39.194 Y-850.566
G1 X-39.19 Y-850.567
G1 X-35.038 Y-851.117
G1 X-34.998 Y-851.122
G1 X-33.874 Y-851.256
G1 X-30.33 Y-851.678
G1 X-30.285 Y-851.683
G1 X-28.813 Y-851.837
G1 X-25.771 Y-852.156
G1 X-25.725 Y-852.16
G1 X-23.97 Y-852.318
G1 X-21.332 Y-852.555
G1 X-21.283 Y-852.559
G1 X-19.305 Y-852.706
G1 X-16.987 Y-852.879
G1 X-16.935 Y-852.883
G1 X-14.783 Y-853.008
G1 X-12.707 Y-853.129
G1 X-12.653 Y-853.131
G1 X-10.373 Y-853.225
G1 X-8.468 Y-853.305
G1 X-8.411 Y-853.307
G1 X-6.042 Y-853.364
G1 X-4.237 Y-853.408
G1 X-4.18 Y-853.409
G1 X-1.76 Y-853.424
G1 X0.01 Y-853.435
G1 X0.08
G1 X3.701 Y-853.377
G1 X6.441 Y-853.333
G1 X6.517 Y-853.33
G1 X9.984 Y-853.191
G1 X9.987
G1 X12.968 Y-853.068
G1 X13.036 Y-853.065
G1 X16.185 Y-852.868
G1 X16.193 Y-852.867
G1 X19.548 Y-852.648
G1 X19.591 Y-852.645
G1 X21.001 Y-852.534
G1 X21.014 Y-852.533
G1 X22.861 Y-852.38
G1 X22.883 Y-852.378
G1 X24.153 Y-852.264
G1 X24.169 Y-852.263
G1 X26.149 Y-852.075
G1 X26.167 Y-852.073
G1 X27.28 Y-851.961
G1 X27.303 Y-851.959
G1 X29.422 Y-851.73
G1 X29.433 Y-851.728
G1 X30.374 Y-851.623
G1 X30.404 Y-851.62
G1 X32.666 Y-851.346
G1 X32.679 Y-851.344
G1 X33.436 Y-851.249
G1 X33.467 Y-851.245
G1 X35.87 Y-850.919
G1 X35.877 Y-850.918
G1 X36.442 Y-850.84
G1 X36.482 Y-850.834
G1 X39.03 Y-850.449
G1 X39.401 Y-850.393
G1 X39.449 Y-850.386
G1 X42.162 Y-849.933
G1 X42.33 Y-849.905
G1 X42.382 Y-849.896
G1 X44.672 Y-849.477
G1 X44.794 Y-849.452
G1 X45.353 Y-849.327
G1 X45.475 Y-849.297
G1 X45.504 Y-849.29
G1 X48.175 Y-848.637
G1 X48.261 Y-848.615
G1 X48.627 Y-848.515
G1 X51.003 Y-847.886
G1 X51.09 Y-847.862
G1 X51.796 Y-847.654
G1 X53.85 Y-847.07
G1 X53.942 Y-847.043
G1 X55.016 Y-846.702
G1 X56.732 Y-846.183
G1 X56.827 Y-846.152
G1 X58.313 Y-845.651
G1 X59.667 Y-845.218
G1 X59.762 Y-845.186
G1 X61.712 Y-844.493
G1 X62.672 Y-844.171
G1 X62.767 Y-844.137
G1 X65.25 Y-843.215
G1 X65.77 Y-843.033
G1 X65.858 Y-843
G1 X68.932 Y-841.816
G1 X69.065 Y-841.766
G1 X69.341 Y-841.656
G3 X69.582 Y-841.548 I-1.178 J2.948
G1 X72.37 Y-840.155
G1 X72.473 Y-840.102
G1 X73.096 Y-839.761
G1 X75.549 Y-838.495
G1 X75.643 Y-838.445
G1 X77.074 Y-837.644
G1 X78.829 Y-836.711
G1 X78.918 Y-836.662
G1 X81.258 Y-835.32
G1 X82.882 Y-834.425
G1 X82.983 Y-834.366
G1 X86.077 Y-832.509
G3 X86.363 Y-832.316 I-1.634 J2.722
G1 X88.695 Y-830.546
G1 X88.812 Y-830.454
G1 X89.552 Y-829.835
G1 Z-10.16
G1 X90.363 Y-829.157
G1 X93.872 Y-826.317
G1 X93.986 Y-826.22
G1 X98.253 Y-822.419
G1 Z-12.7
G1 X98.773 Y-821.957
G3 X99.019 Y-821.713 I-2.112 J2.371
G1 X99.301 Y-821.4
G1 X99.423 Y-821.256
G1 X99.637 Y-820.989
G1 X103.815 Y-815.917
G1 X103.945 Y-815.748
G1 X107.967 Y-810.141
G1 X108.084 Y-809.983
G3 X108.229 Y-809.769 I-2.552 J1.889
G1 X108.347 Y-809.579
G3 X108.472 Y-809.359 I-2.697 J1.675
G1 X111.893 Y-802.722
G3 X112.008 Y-802.474 I-2.822 J1.455
G1 X114.774 Y-795.743
G1 X114.816 Y-795.635
G1 X115.082 Y-794.914
G3 X115.165 Y-794.654 I-2.979 J1.099
G1 X115.431 Y-793.682
G1 X117.257 Y-787.41
G1 X117.31 Y-787.201
G1 X118.861 Y-780.103
G1 X118.88 Y-780.006
G1 X119.005 Y-779.335
G1 X119.037 Y-779.129
G1 X119.11 Y-778.513
G1 X120.414 Y-769.504
G1 X120.436 Y-769.313
G1 X121.255 Y-759.496
G1 X121.26 Y-759.433
G1 X121.31 Y-758.646
G1 X121.316 Y-758.486
G1 X121.328 Y-757.512
G1 X121.705 Y-746.732
G1 X121.707 Y-746.59
G1 X121.619 Y-737.664
G1 X121.618 Y-737.621
G1 X121.527 Y-733.696
G1 X121.522 Y-733.576
G1 X121.112 Y-726.885
G1 X120.813 Y-719.795
G1 X120.807 Y-719.692
G1 X120.479 Y-715.303
G1 X120.476 Y-715.26
G1 X119.572 Y-705.049
G1 X119.563 Y-704.961
G1 X118.181 Y-693.123
G1 X118.175 Y-693.075
G1 X117.715 Y-689.598
G1 X117.703 Y-689.521
G1 X117.065 Y-685.461
G1 Z-10.16
G1 X116.174 Y-679.792
G1 X115.371 Y-674.157
G1 Z-12.7
G1 X115.346 Y-673.983
G1 X115.336 Y-673.918
G1 X114.982 Y-671.754
G1 X114.971 Y-671.691
G1 X112.521 Y-658.418
G1 X112.51 Y-658.361
G1 X111.152 Y-651.686
G1 X111.139 Y-651.624
G1 X109.183 Y-642.908
G1 X109.171 Y-642.857
G1 X106.76 Y-632.881
G1 X106.746 Y-632.825
G1 X105.389 Y-627.63
G1 X105.377 Y-627.584
G1 X101.965 Y-615.281
G1 X101.951 Y-615.231
G1 X101.208 Y-612.711
G1 X101.196 Y-612.67
G1 X96.907 Y-598.821
G1 X96.895 Y-598.782
G1 X96.723 Y-598.252
G1 X96.71 Y-598.213
G1 X95.065 Y-593.348
G1 X92.126 Y-584.44
G1 X92.116 Y-584.41
G1 X91.781 Y-583.43
G1 X91.769 Y-583.394
G1 X87.426 Y-571.145
G1 X87.416 Y-571.117
G1 X86.665 Y-569.062
G1 X86.658 Y-569.042
G1 X82.704 Y-558.44
G1 X82.694 Y-558.414
G1 X81.635 Y-555.647
G1 X81.634 Y-555.644
G1 X78.068 Y-546.352
G1 X78.059 Y-546.329
G1 X76.804 Y-543.135
G1 X75.678 Y-540.21
G1 Z-10.16
G1 X73.632 Y-534.899
G1 X73.624 Y-534.877
G1 X72.284 Y-531.473
G1 X71.58 Y-529.54
G1 Z-12.7
G1 X67.198 Y-517.493
G1 X67.19 Y-517.472
G1 X64.55 Y-510.365
G1 X61.979 Y-501.995
G1 X61.973 Y-501.978
G1 X60.434 Y-497.067
G1 X58.577 Y-489.647
G1 X58.573 Y-489.633
G1 X57.352 Y-484.849
G1 X56.068 Y-478.192
G1 X56.066 Y-478.18
G1 X55.155 Y-473.553
G1 X54.32 Y-467.49
G1 X54.319 Y-467.481
G1 X53.696 Y-463.049
G1 X52.955 Y-452.089
G1 X52.954 Y-452.085
G1 X52.365 Y-443.537
G1 X52.267 Y-433.395
G1 X52.186 Y-425.173
G1 X52.285 Y-414.955
G1 X52.365 Y-406.807
G1 X53.111 Y-395.77
G1 X53.696 Y-387.296
G1 X54.532 Y-381.225
G1 X55.155 Y-376.792
G1 X56.45 Y-370.08
G1 X57.352 Y-365.496
G1 X57.839 Y-363.55
G1 Z-10.16
G1 X59.229 Y-357.999
G1 X60.434 Y-353.278
G1 X60.68 Y-352.478
G1 Z-12.7
G1 X63.044 Y-344.787
G1 X64.554 Y-339.967
G1 X67.391 Y-331.964
G1 X68.853 Y-327.917
G1 X72.308 Y-318.804
G1 X73.834 Y-314.857
G1 X73.835 Y-314.855
G1 X77.908 Y-304.306
G1 X79.323 Y-300.714
G1 X79.339 Y-300.674
G1 X84.057 Y-288.209
G1 X85.156 Y-285.368
G1 X85.183 Y-285.296
G1 X90.621 Y-270.174
G1 X91.156 Y-268.722
G1 X91.19 Y-268.625
G1 X95.015 Y-257.098
G1 X97.183 Y-250.669
G1 X97.222 Y-250.545
G1 X97.543 Y-249.447
G1 X103.095 Y-231.125
G1 X103.134 Y-230.982
G1 X103.251 Y-230.52
G1 Z-10.16
G1 X104.655 Y-224.964
G1 X106.106 Y-219.452
G1 Z-12.7
G1 X108.599 Y-209.979
G1 X108.633 Y-209.839
G1 X110.526 Y-201.047
G1 X112.089 Y-194.152
G1 X112.116 Y-194.021
G1 X114.701 Y-179.879
G1 X115.169 Y-177.471
G1 X115.192 Y-177.334
G1 X116.213 Y-170.486
G1 X117.829 Y-159.889
G1 X117.847 Y-159.745
G1 X118.424 Y-154.3
G1 X119.908 Y-141.707
G1 X119.922 Y-141.559
G1 X121.211 Y-123.352
G1 X121.214 Y-123.321
G1 X121.224 Y-123.145
G1 X121.226 Y-123.082
G1 X121.227 Y-123.062
G1 X121.689 Y-105.023
G1 X121.688 Y-104.838
G1 X121.483 Y-98.57
G1 Z-10.16
G1 X121.297 Y-92.915
G1 X121.295 Y-92.857
G1 X121.01 Y-87.271
G1 X121.001 Y-87.15
G1 Z-12.7
G1 X120.99 Y-87.045
G1 X119.118 Y-71.843
G1 X119.103 Y-71.732
G1 X118.895 Y-70.423
G3 X118.844 Y-70.172 I-3.136 J-0.498
G1 X118.095 Y-67.085
G1 X116.264 Y-59.24
G3 X116.19 Y-58.977 I-3.092 J-0.722
G1 X115.395 Y-56.54
G1 X115.343 Y-56.391
G1 X112.413 Y-48.728
G3 X112.26 Y-48.389 I-2.966 J-1.134
G1 X108.205 Y-40.645
G1 X108.121 Y-40.495
G1 X107.263 Y-39.052
G3 X107.045 Y-38.732 I-2.729 J-1.623
G1 X103.711 Y-34.424
G1 X100.647 Y-30.408
G3 X100.377 Y-30.098 I-2.524 J-1.926
G1 X99.416 Y-29.13
G1 X99.332 Y-29.047
G1 X92.277 Y-22.445
G3 X91.991 Y-22.208 I-2.169 J-2.318
G1 X90.289 Y-20.952
G1 X90.212 Y-20.898
G1 X82.099 Y-15.278
G3 X81.826 Y-15.109 I-1.808 J-2.61
G1 X81.324 Y-14.831
G1 X81.254 Y-14.793
G1 X81.004 Y-14.664
G1 X77.099 Y-12.573
G1 X77.033 Y-12.539
G1 X74.77 Y-11.395
G1 X73.094 Y-10.521
G1 X73.024 Y-10.486
G1 X69.561 Y-8.788
G1 X69.356 Y-8.696
G1 X69.035 Y-8.566
G1 X68.959 Y-8.536
G1 X68.881 Y-8.507
G1 X65.344 Y-7.116
G1 X65.261 Y-7.085
G1 X64.111 Y-6.669
G1 X61.819 Y-5.801
G1 X61.727 Y-5.768
G1 X60.443 Y-5.325
G1 Z-10.16
G1 X59.677 Y-5.062
G1 X58.425 Y-4.608
G1 X58.326 Y-4.574
G1 X55.502 Y-3.656
G1 X55.131 Y-3.528
G1 X55.026 Y-3.494
G1 X53.398 Y-2.997
G1 X53.264 Y-2.96
G1 X51.719 Y-2.561
G1 X51.629 Y-2.539
G1 X51.385 Y-2.484
G1 X49.498 Y-2.029
G1 Z-12.7
G1 X48.547 Y-1.8
G1 X48.457 Y-1.779
G1 X47.717 Y-1.624
G1 X45.408 Y-1.108
G1 X45.319 Y-1.089
G1 X44.124 Y-0.858
G1 X42.279 Y-0.479
G1 X42.192 Y-0.463
G1 X40.57 Y-0.177
G1 X39.139 Y0.091
G1 X39.057 Y0.105
G1 X37.025 Y0.43
G1 X35.969 Y0.608
G1 X35.892 Y0.62
G1 X33.463 Y0.969
G1 X32.752 Y1.077
G1 X32.682 Y1.087
G1 X29.878 Y1.447
G1 X29.492 Y1.499
G1 X29.429 Y1.507
G1 X26.289 Y1.867
G1 X26.204 Y1.877
G1 X26.147 Y1.884
G1 X25.045 Y1.995
G1 X24.998 Y2
G1 X22.846 Y2.186
G1 X22.804 Y2.19
G1 X22.673 Y2.199
G1 X19.554 Y2.436
G1 X19.498 Y2.44
G1 X18.842 Y2.478
G1 X12.999 Y2.828
G1 X12.928 Y2.832
G1 X11.72 Y2.877
G1 X6.482 Y3.077
G1 X6.408 Y3.079
G1 X4.906 Y3.102
G1 X0.048 Y3.175
G1 X-0.019
G1 X-1.066 Y3.169
G1 X-4.21 Y3.15
G1 X-4.263
G1 X-5.265 Y3.127
G1 X-8.441 Y3.055
G1 X-8.492 Y3.054
G1 X-9.394 Y3.019
G0 Z6.096

G0 Z6.096
M5
M30
