(1001)
(T1  D=6.35 CR=0 - ZMIN=-12.7 - FLAT END MILL)
G0 G40 G90 G17
G21

(2D CONTOUR2)
T1 M6
M3 S5000
G0 X-0.105 Y3.173
G0 Z6.096
G1 Z4.191 F508.
G1 Z-6.604
G1 X-0.309 Y3.167
G3 X-0.602 Y3.143 I0.105 J-3.173
G1 X-16.968 Y1.077
G1 X-17.171 Y1.051
G3 X-17.447 Y1.004 I0.398 J-3.15
G1 X-33.638 Y-2.517
G1 X-33.838 Y-2.56
G3 X-34.097 Y-2.628 I0.674 J-3.103
G1 X-50.045 Y-7.532
G1 X-50.242 Y-7.593
G3 X-50.482 Y-7.678 I0.933 J-3.035
G1 X-66.119 Y-13.896
G1 X-66.312 Y-13.973
G1 X-66.424 Y-14.02
G1 X-66.534 Y-14.071
G1 X-81.792 Y-21.533
G1 X-81.793 Y-21.534
G1 X-81.982 Y-21.627
G1 X-82.084 Y-21.679
G1 X-82.185 Y-21.735
G1 X-96.996 Y-30.372
G1 X-97.18 Y-30.479
G1 X-97.368 Y-30.598
G1 X-111.664 Y-40.34
G1 X-111.841 Y-40.46
G1 X-112.012 Y-40.586
G1 X-125.734 Y-51.346
G1 X-125.741 Y-51.352
G1 X-125.91 Y-51.485
G1 X-126.05 Y-51.602
G1 X-139.171 Y-63.235
G1 X-139.174 Y-63.238
G1 X-139.336 Y-63.382
G1 X-139.425 Y-63.464
G1 X-139.511 Y-63.549
G1 X-163.869 Y-88.776
G1 X-164.17 Y-89.087
G3 X-164.353 Y-89.293 I2.282 J-2.207
G1 X-186.075 Y-116.05
G1 X-186.344 Y-116.381
G1 X-186.479 Y-116.559
G1 X-205.414 Y-143.54
G1 X-205.415 Y-143.542
G1 X-205.649 Y-143.876
G1 X-205.757 Y-144.04
G1 X-221.853 Y-170.333
G1 X-221.855 Y-170.337
G1 X-222.054 Y-170.663
G1 X-222.163 Y-170.856
G1 X-235.776 Y-197.119
G1 X-235.777 Y-197.122
G1 X-235.945 Y-197.447
G1 X-235.998 Y-197.554
G1 X-236.047 Y-197.664
G1 X-247.636 Y-224.948
G1 X-247.638 Y-224.952
G1 X-247.781 Y-225.29
G1 X-247.823 Y-225.395
G1 X-247.862 Y-225.501
G1 X-257.886 Y-254.856
G1 Y-254.858
G1 X-258.01 Y-255.222
G1 X-258.067 Y-255.408
G1 X-266.862 Y-287.549
G1 X-266.864 Y-287.556
G1 X-266.972 Y-287.954
G1 X-267.011 Y-288.114
G1 X-274.424 Y-322.415
G1 X-274.516 Y-322.839
G1 X-274.547 Y-323.003
G1 X-280.301 Y-358.499
G1 Y-358.501
G1 X-280.372 Y-358.941
G1 X-280.395 Y-359.109
G1 X-284.215 Y-394.837
G1 X-284.262 Y-395.276
G1 X-284.277 Y-395.47
G1 X-285.927 Y-430.633
G1 X-285.948 Y-431.066
G1 X-285.952 Y-431.274
G1 X-285.357 Y-465.736
G1 X-285.35 Y-466.162
G1 X-285.339 Y-466.379
G1 X-282.464 Y-500.169
G1 X-282.463 Y-500.172
G1 X-282.427 Y-500.591
G1 X-282.401 Y-500.81
G1 X-277.209 Y-533.956
G1 X-277.145 Y-534.366
G1 X-277.125 Y-534.479
G1 X-277.102 Y-534.591
G1 X-269.586 Y-567.115
G1 X-269.493 Y-567.518
G1 X-269.437 Y-567.729
G1 X-259.7 Y-599.618
G1 X-259.581 Y-600.011
G1 X-259.512 Y-600.212
G1 X-247.686 Y-631.453
G1 X-247.54 Y-631.838
G1 X-247.465 Y-632.018
G1 X-247.131 Y-632.76
G1 X-247.129 Y-632.765
G1 X-233.478 Y-662.956
G1 X-233.398 Y-663.119
G1 X-217.975 Y-692.608
G1 X-217.974 Y-692.611
G1 X-217.595 Y-693.334
G1 X-217.496 Y-693.51
G1 X-200.019 Y-722.245
G1 X-200.017 Y-722.247
G1 X-199.8 Y-722.604
G1 X-199.678 Y-722.788
G1 X-180.351 Y-750.029
G1 X-180.113 Y-750.365
G3 X-179.957 Y-750.569 I2.592 J1.833
G1 X-158.766 Y-775.914
G1 X-158.505 Y-776.227
G3 X-158.316 Y-776.434 I2.438 J2.034
G1 X-135.257 Y-799.581
G1 X-134.974 Y-799.866
G3 X-134.77 Y-800.054 I2.253 J2.237
G1 X-109.858 Y-821.109
G1 X-109.857 Y-821.11
G1 X-109.549 Y-821.37
G3 X-109.351 Y-821.525 I2.048 J2.426
G1 X-82.613 Y-840.691
G1 X-82.611 Y-840.692
G1 X-82.28 Y-840.929
G1 X-82.186 Y-840.993
G1 X-82.09 Y-841.054
G1 X-53.552 Y-858.536
G1 X-53.2 Y-858.752
G1 X-53.016 Y-858.856
G1 X-22.77 Y-874.755
G1 X-22.765 Y-874.758
G1 X-22.391 Y-874.954
G1 X-22.206 Y-875.043
G1 X9.356 Y-889.045
G1 X9.359 Y-889.046
G1 X9.75 Y-889.219
G1 X9.958 Y-889.303
G1 X42.376 Y-900.988
G1 X42.776 Y-901.132
G3 X43.019 Y-901.209 I1.079 J2.986
G1 X75.834 Y-910.159
G1 X75.839 Y-910.161
G1 X76.246 Y-910.271
G3 X76.51 Y-910.33 I0.83 J3.065
G1 X109.335 Y-916.273
G1 X109.339 Y-916.274
G1 X109.745 Y-916.347
G3 X109.994 Y-916.382 I0.562 J3.125
G1 X142.75 Y-919.629
G1 X143.153 Y-919.67
G1 X143.374 Y-919.684
G1 X176.067 Y-920.697
G1 X176.071 Y-920.698
G1 X176.475 Y-920.71
G1 X176.643
G1 X209.269 Y-919.949
G1 X209.274
G1 X209.678 Y-919.939
G1 X209.826 Y-919.932
G1 X242.349 Y-917.601
G1 X242.352
G1 X242.765 Y-917.571
G1 X242.879 Y-917.56
G1 X242.993 Y-917.546
G1 X275.233 Y-912.843
G1 X275.713 Y-912.773
G1 X275.831 Y-912.753
G1 X275.948 Y-912.729
G1 X291.905 Y-909.161
G1 X292.182 Y-909.099
G1 X292.367 Y-909.052
G1 X308.16 Y-904.508
G1 X308.49 Y-904.414
G1 X308.693 Y-904.348
G1 X324.284 Y-898.712
G1 X324.286 Y-898.711
G1 X324.692 Y-898.564
G1 X324.798 Y-898.524
G1 X324.903 Y-898.479
G1 X340.25 Y-891.642
G1 X340.755 Y-891.417
G1 X340.864 Y-891.366
G1 X340.971 Y-891.311
G1 X355.98 Y-883.21
G1 X355.982 Y-883.209
G1 X356.607 Y-882.871
G1 X356.714 Y-882.81
G1 X356.818 Y-882.746
G1 X371.198 Y-873.468
G1 X371.2 Y-873.467
G1 X371.946 Y-872.985
G3 X372.16 Y-872.834 I-1.723 J2.667
G1 X385.587 Y-862.498
G1 X385.589 Y-862.496
G1 X386.432 Y-861.846
G3 X386.652 Y-861.66 I-1.939 J2.514
G1 X395.314 Y-853.629
G3 X395.659 Y-849.349 I-2.159 J2.328
G1 X395.164 Y-848.714
G3 X392.66 Y-847.491 I-2.504 J-1.952
G1 X171.233
G3 X168.119 Y-850.046 I0 J-3.175
G1 X168.058 Y-850.353
G1 Y-838.533
G1 X168.119 Y-838.84
G3 X171.233 Y-841.395 I3.114 J0.62
G1 X405.441
G3 X407.829 Y-840.312 I0 J3.175
G1 X410.583 Y-837.168
G1 X411.477 Y-836.147
G3 X411.71 Y-835.847 I-2.389 J2.091
G1 X420.527 Y-822.941
G1 X420.528 Y-822.939
G1 X421.343 Y-821.744
G3 X421.566 Y-821.363 I-2.623 J1.789
G1 X428.298 Y-807.755
G1 X428.961 Y-806.413
G3 X429.151 Y-805.936 I-2.846 J1.407
G1 X433.52 Y-791.673
G1 X433.961 Y-790.233
G3 X434.078 Y-789.685 I-3.035 J0.931
G1 X435.881 Y-774.836
G1 X436.06 Y-773.36
G3 X436.08 Y-772.848 I-3.152 J0.382
G1 X435.455 Y-757.624
G1 X435.396 Y-756.194
G3 X435.346 Y-755.747 I-3.172 J-0.131
G1 X432.504 Y-740.408
G1 Y-740.406
G1 X432.26 Y-739.093
G3 X432.162 Y-738.705 I-3.122 J-0.58
G1 X427.304 Y-723.53
G1 X427.302 Y-723.526
G1 X426.934 Y-722.382
G3 X426.804 Y-722.043 I-3.022 J-0.972
G1 X420.135 Y-707.33
G1 X420.132 Y-707.323
G1 X419.701 Y-706.378
G3 X419.542 Y-706.075 I-2.889 J-1.318
G1 X413.053 Y-695.146
G3 X412.827 Y-694.815 I-2.73 J-1.621
G1 X412.332 Y-694.18
G3 X409.828 Y-692.957 I-2.504 J-1.952
G1 X101.322
G3 X98.208 Y-695.512 I0 J-3.175
G1 X98.147 Y-695.82
G1 Y-683.999
G1 X98.208 Y-684.306
G3 X101.322 Y-686.861 I3.114 J0.62
G1 X400.089
G3 X402.593 Y-685.638 I0 J3.175
G1 X403.088 Y-685.003
G3 X403.12 Y-681.14 I-2.504 J1.952
G1 X400.993 Y-678.317
G1 X400.986 Y-678.308
G1 X400.573 Y-677.764
G3 X400.343 Y-677.494 I-2.529 J-1.92
G1 X389.567 Y-666.178
G1 X389.558 Y-666.169
G1 X389.194 Y-665.79
G3 X388.917 Y-665.534 I-2.29 J-2.199
G1 X377.242 Y-655.961
G1 X377.229 Y-655.95
G1 X376.917 Y-655.697
G3 X376.636 Y-655.494 I-2 J-2.466
G1 X364.192 Y-647.48
G1 X364.178 Y-647.471
G1 X363.911 Y-647.301
G3 X363.661 Y-647.157 I-1.705 J-2.678
G1 X350.551 Y-640.395
G1 X350.535 Y-640.387
G1 X350.303 Y-640.269
G1 X350.109 Y-640.178
G1 X336.438 Y-634.35
G1 X336.418 Y-634.342
G1 X336.21 Y-634.255
G1 X336.047 Y-634.192
G1 X307.424 Y-624.036
G1 X307.414 Y-624.033
G1 X307.044 Y-623.903
G1 X307.039 Y-623.901
G1 X277.399 Y-613.549
G1 X277.39 Y-613.546
G1 X277.125 Y-613.455
G1 X247.359 Y-600.7
G1 X247.341 Y-600.692
G1 X247.11 Y-600.595
G1 X218.039 Y-584.822
G1 X218.03 Y-584.817
G1 X217.778 Y-584.682
G1 X203.821 Y-575.629
G1 X203.808 Y-575.621
G1 X203.716 Y-575.562
G1 X190.243 Y-565.667
G1 X190.235 Y-565.661
G1 X190.15 Y-565.599
G1 X177.306 Y-554.858
G1 X177.291 Y-554.846
G1 X177.221 Y-554.788
G1 X165.125 Y-543.185
G1 X165.119 Y-543.179
G1 X165.053 Y-543.116
G1 X162.34 Y-540.108
G1 X161.769 Y-539.474
G3 X159.41 Y-538.424 I-2.359 J-2.125
G1 X-52.741
G3 X-55.854 Y-540.98 I0 J-3.175
G1 X-55.916 Y-541.286
G1 Y-529.466
G1 X-55.854 Y-529.772
G3 X-52.741 Y-532.328 I3.114 J0.619
G1 X147.635
G3 X150.139 Y-531.105 I0 J3.175
G1 X150.634 Y-530.47
G3 X150.638 Y-526.571 I-2.504 J1.952
G1 X143.429 Y-517.282
G1 X143.428 Y-517.281
G1 X143.372 Y-517.209
G1 X134.077 Y-503.198
G1 X134.073 Y-503.192
G1 X134.025 Y-503.121
G1 X125.834 Y-488.477
G1 X125.792 Y-488.402
G1 X118.782 Y-473.203
G1 X118.748 Y-473.13
G1 X113.002 Y-457.46
G1 X113.001 Y-457.458
G1 X112.976 Y-457.388
G1 X108.578 Y-441.343
G1 X108.577 Y-441.34
G1 X108.56 Y-441.276
G1 X105.591 Y-424.937
G1 X105.579 Y-424.874
G1 X104.09 Y-408.322
G1 Y-408.317
G1 X104.083 Y-408.247
G1 X104.008 Y-391.587
G1 Y-391.504
G1 X104.274 Y-387.936
G3 X103.61 Y-385.746 I-3.166 J0.236
G1 X103.114 Y-385.111
G3 X100.612 Y-383.89 I-2.502 J-1.954
G1 X-82.486
G3 X-85.6 Y-386.446 I0 J-3.175
G1 X-85.661 Y-386.752
G1 Y-374.932
G1 X-85.6 Y-375.238
G3 X-82.486 Y-377.794 I3.114 J0.619
G1 X101.665
G3 X104.169 Y-376.571 I0 J3.175
G1 X104.664 Y-375.936
G3 X105.3 Y-374.452 I-2.504 J1.952
G1 X107.734 Y-358.117
G1 X107.749 Y-358.018
G1 X111.355 Y-341.618
G1 X111.379 Y-341.512
G1 X116.027 Y-325.407
G1 X116.058 Y-325.3
G1 X121.648 Y-309.611
G1 X121.687 Y-309.504
G1 X128.133 Y-294.312
G1 X128.174 Y-294.216
G1 X139.101 Y-272.456
G1 X139.215 Y-272.237
G1 X150.728 Y-251.254
G1 X150.865 Y-251.012
G1 X150.911 Y-250.927
G1 X159.495 Y-234.648
G3 X159.191 Y-231.215 I-2.808 J1.481
G1 X158.696 Y-230.58
G3 X156.192 Y-229.357 I-2.504 J-1.952
G1 X-35.755
G3 X-38.869 Y-231.913 I0 J-3.175
G1 X-38.93 Y-232.219
G1 Y-220.399
G1 X-38.869 Y-220.705
G3 X-35.755 Y-223.261 I3.114 J0.619
G1 X162.624
G3 X165.128 Y-222.038 I0 J3.175
G1 X165.623 Y-221.403
G3 X166.028 Y-220.723 I-2.504 J1.952
G1 X171.333 Y-208.592
G1 X171.443 Y-208.35
G3 X171.565 Y-208.039 I-2.891 J1.313
G1 X175.167 Y-197.207
G1 X175.205 Y-197.098
G3 X175.292 Y-196.806 I-2.996 J1.051
G1 X178.035 Y-185.672
G1 X178.065 Y-185.555
G3 X178.132 Y-185.229 I-3.072 J0.801
G1 X179.873 Y-173.732
G1 X179.893 Y-173.615
G3 X179.932 Y-173.266 I-3.131 J0.526
G1 X180.594 Y-161.392
G1 X180.603 Y-161.263
G3 X180.608 Y-160.946 I-3.168 J0.214
G1 X180.214 Y-148.812
G1 X180.211 Y-148.682
G3 X180.191 Y-148.38 I-3.174 J-0.063
G1 X178.77 Y-136.087
G1 X178.753 Y-135.941
G3 X178.714 Y-135.683 I-3.155 J-0.353
G1 X176.297 Y-123.366
G1 X176.269 Y-123.223
G3 X176.21 Y-122.968 I-3.119 J-0.591
G1 X172.829 Y-110.74
G1 X172.79 Y-110.598
G3 X172.713 Y-110.352 I-3.065 J-0.827
G1 X168.396 Y-98.326
G1 X168.344 Y-98.181
G1 X168.301 Y-98.066
G1 X168.253 Y-97.952
G1 X163.032 Y-86.244
G1 X163.029 Y-86.238
G1 X162.964 Y-86.093
G1 X162.914 Y-85.986
G1 X162.86 Y-85.882
G1 X158.123 Y-77.123
G3 X157.834 Y-76.681 I-2.793 J-1.51
G1 X157.339 Y-76.046
G3 X154.835 Y-74.823 I-2.504 J-1.952
G1 X10.407
G3 X7.293 Y-77.378 I0 J-3.175
G1 X7.232 Y-77.685
G1 Y-65.865
G1 X7.293 Y-66.171
G3 X10.407 Y-68.727 I3.114 J0.619
G1 X146.208
G3 X148.71 Y-67.506 I0 J3.175
G1 X149.206 Y-66.871
G3 X149.217 Y-62.977 I-2.502 J1.954
G1 X141.645 Y-53.166
G1 X141.644 Y-53.164
G1 X141.548 Y-53.04
G3 X141.371 Y-52.83 I-2.512 J-1.942
G1 X132.852 Y-43.583
G1 X132.749 Y-43.471
G3 X132.547 Y-43.269 I-2.34 J-2.146
G1 X123.306 Y-34.853
G1 X123.3 Y-34.847
G1 X123.185 Y-34.743
G3 X122.984 Y-34.576 I-2.132 J-2.353
G1 X113.1 Y-27.002
G1 X112.98 Y-26.909
G3 X112.763 Y-26.756 I-1.935 J-2.517
G1 X102.306 Y-20.027
G1 X102.301 Y-20.024
G1 X102.171 Y-19.941
G1 X102.066 Y-19.876
G1 X101.959 Y-19.816
G1 X91.005 Y-13.94
G1 X91.004 Y-13.939
G1 X90.868 Y-13.867
G3 X90.54 Y-13.714 I-1.499 J-2.799
G1 X67.438 Y-4.546
G1 X67.152 Y-4.432
G3 X66.707 Y-4.292 I-1.171 J-2.951
G1 X42.508 Y1.39
G1 X42.208 Y1.461
G3 X41.757 Y1.533 I-0.726 J-3.091
G1 X17.054 Y3.68
G1 X16.748 Y3.706
G3 X16.369 Y3.716 I-0.275 J-3.163
G1 X-0.105 Y3.173
G1 Z-12.7
G1 X-0.309 Y3.167
G3 X-0.602 Y3.143 I0.105 J-3.173
G1 X-16.968 Y1.077
G1 X-17.171 Y1.051
G3 X-17.447 Y1.004 I0.398 J-3.15
G1 X-33.638 Y-2.517
G1 X-33.838 Y-2.56
G3 X-34.097 Y-2.628 I0.674 J-3.103
G1 X-50.045 Y-7.532
G1 X-50.242 Y-7.593
G3 X-50.482 Y-7.678 I0.933 J-3.035
G1 X-61.212 Y-11.945
G1 Z-10.16
G1 X-66.119 Y-13.896
G1 X-66.312 Y-13.973
G1 X-66.424 Y-14.02
G1 X-66.534 Y-14.071
G1 X-71.668 Y-16.582
G1 Z-12.7
G1 X-81.792 Y-21.533
G1 X-81.793 Y-21.534
G1 X-81.982 Y-21.627
G1 X-82.084 Y-21.679
G1 X-82.185 Y-21.735
G1 X-96.996 Y-30.372
G1 X-97.18 Y-30.479
G1 X-97.368 Y-30.598
G1 X-111.664 Y-40.34
G1 X-111.841 Y-40.46
G1 X-112.012 Y-40.586
G1 X-125.734 Y-51.346
G1 X-125.741 Y-51.352
G1 X-125.91 Y-51.485
G1 X-126.05 Y-51.602
G1 X-139.171 Y-63.235
G1 X-139.174 Y-63.238
G1 X-139.336 Y-63.382
G1 X-139.425 Y-63.464
G1 X-139.511 Y-63.549
G1 X-159.9 Y-84.666
G1 Z-10.16
G1 X-163.869 Y-88.776
G1 X-164.17 Y-89.087
G3 X-164.353 Y-89.293 I2.282 J-2.207
G1 X-167.521 Y-93.196
G1 Z-12.7
G1 X-186.075 Y-116.05
G1 X-186.344 Y-116.381
G1 X-186.479 Y-116.559
G1 X-205.414 Y-143.54
G1 X-205.415 Y-143.542
G1 X-205.649 Y-143.876
G1 X-205.757 Y-144.04
G1 X-221.853 Y-170.333
G1 X-221.855 Y-170.337
G1 X-222.054 Y-170.663
G1 X-222.163 Y-170.856
G1 X-235.776 Y-197.119
G1 X-235.777 Y-197.122
G1 X-235.945 Y-197.447
G1 X-235.998 Y-197.554
G1 X-236.047 Y-197.664
G1 X-247.636 Y-224.948
G1 X-247.638 Y-224.952
G1 X-247.781 Y-225.29
G1 X-247.823 Y-225.395
G1 X-247.862 Y-225.501
G1 X-251.259 Y-235.45
G1 Z-10.16
G1 X-254.953 Y-246.266
G1 Z-12.7
G1 X-257.886 Y-254.856
G1 Y-254.858
G1 X-258.01 Y-255.222
G1 X-258.067 Y-255.408
G1 X-266.862 Y-287.549
G1 X-266.864 Y-287.556
G1 X-266.972 Y-287.954
G1 X-267.011 Y-288.114
G1 X-274.424 Y-322.415
G1 X-274.516 Y-322.839
G1 X-274.547 Y-323.003
G1 X-280.301 Y-358.499
G1 Y-358.501
G1 X-280.372 Y-358.941
G1 X-280.395 Y-359.109
G1 X-284.215 Y-394.837
G1 X-284.262 Y-395.276
G1 X-284.277 Y-395.47
G1 X-284.629 Y-402.951
G1 Z-10.16
G1 X-285.164 Y-414.369
G1 Z-12.7
G1 X-285.927 Y-430.633
G1 X-285.948 Y-431.066
G1 X-285.952 Y-431.274
G1 X-285.357 Y-465.736
G1 X-285.35 Y-466.162
G1 X-285.339 Y-466.379
G1 X-282.464 Y-500.169
G1 X-282.463 Y-500.172
G1 X-282.427 Y-500.591
G1 X-282.401 Y-500.81
G1 X-278.093 Y-528.311
G1 Z-10.16
G1 X-277.209 Y-533.956
G1 X-277.145 Y-534.366
G1 X-277.125 Y-534.479
G1 X-277.102 Y-534.591
G1 X-275.957 Y-539.546
G1 Z-12.7
G1 X-269.586 Y-567.115
G1 X-269.493 Y-567.518
G1 X-269.437 Y-567.729
G1 X-259.7 Y-599.618
G1 X-259.581 Y-600.011
G1 X-259.512 Y-600.212
G1 X-247.686 Y-631.453
G1 X-247.54 Y-631.838
G1 X-247.465 Y-632.018
G1 X-247.131 Y-632.76
G1 X-247.129 Y-632.765
G1 X-233.478 Y-662.956
G1 X-233.398 Y-663.119
G1 X-229.788 Y-670.023
G1 Z-10.16
G1 X-224.49 Y-680.152
G1 Z-12.7
G1 X-217.975 Y-692.608
G1 X-217.974 Y-692.611
G1 X-217.595 Y-693.334
G1 X-217.496 Y-693.51
G1 X-200.019 Y-722.245
G1 X-200.017 Y-722.247
G1 X-199.8 Y-722.604
G1 X-199.678 Y-722.788
G1 X-180.351 Y-750.029
G1 X-180.113 Y-750.365
G3 X-179.957 Y-750.569 I2.592 J1.833
G1 X-158.766 Y-775.914
G1 X-158.505 Y-776.227
G3 X-158.316 Y-776.434 I2.438 J2.034
G1 X-151.685 Y-783.091
G1 Z-10.16
G1 X-143.618 Y-791.188
G1 Z-12.7
G1 X-135.257 Y-799.581
G1 X-134.974 Y-799.866
G3 X-134.77 Y-800.054 I2.253 J2.237
G1 X-109.858 Y-821.109
G1 X-109.857 Y-821.11
G1 X-109.549 Y-821.37
G3 X-109.351 Y-821.525 I2.048 J2.426
G1 X-82.613 Y-840.691
G1 X-82.611 Y-840.692
G1 X-82.28 Y-840.929
G1 X-82.186 Y-840.993
G1 X-82.09 Y-841.054
G1 X-53.552 Y-858.536
G1 X-53.2 Y-858.752
G1 X-53.016 Y-858.856
G1 X-27.829 Y-872.096
G1 Z-10.16
G1 X-22.77 Y-874.755
G1 X-22.765 Y-874.758
G1 X-22.391 Y-874.954
G1 X-22.206 Y-875.043
G1 X-17.551 Y-877.108
G1 Z-12.7
G1 X9.356 Y-889.045
G1 X9.359 Y-889.046
G1 X9.75 Y-889.219
G1 X9.958 Y-889.303
G1 X42.376 Y-900.988
G1 X42.776 Y-901.132
G3 X43.019 Y-901.209 I1.079 J2.986
G1 X75.834 Y-910.159
G1 X75.839 Y-910.161
G1 X76.246 Y-910.271
G3 X76.51 Y-910.33 I0.83 J3.065
G1 X109.335 Y-916.273
G1 X109.339 Y-916.274
G1 X109.745 Y-916.347
G3 X109.994 Y-916.382 I0.562 J3.125
G1 X119.504 Y-917.324
G1 Z-10.16
G1 X130.878 Y-918.452
G1 Z-12.7
G1 X142.75 Y-919.629
G1 X143.153 Y-919.67
G1 X143.374 Y-919.684
G1 X176.067 Y-920.697
G1 X176.071 Y-920.698
G1 X176.475 Y-920.71
G1 X176.643
G1 X209.269 Y-919.949
G1 X209.274
G1 X209.678 Y-919.939
G1 X209.826 Y-919.932
G1 X242.349 Y-917.601
G1 X242.352
G1 X242.765 Y-917.571
G1 X242.879 Y-917.56
G1 X242.993 Y-917.546
G1 X275.233 Y-912.843
G1 X275.713 Y-912.773
G1 X275.831 Y-912.753
G1 X275.948 Y-912.729
G1 X286.328 Y-910.409
G1 Z-10.16
G1 X291.905 Y-909.161
G1 X292.182 Y-909.099
G1 X292.367 Y-909.052
G1 X297.412 Y-907.601
G1 Z-12.7
G1 X308.16 Y-904.508
G1 X308.49 Y-904.414
G1 X308.693 Y-904.348
G1 X324.284 Y-898.712
G1 X324.286 Y-898.711
G1 X324.692 Y-898.564
G1 X324.798 Y-898.524
G1 X324.903 Y-898.479
G1 X340.25 Y-891.642
G1 X340.755 Y-891.417
G1 X340.864 Y-891.366
G1 X340.971 Y-891.311
G1 X355.98 Y-883.21
G1 X355.982 Y-883.209
G1 X356.607 Y-882.871
G1 X356.714 Y-882.81
G1 X356.818 Y-882.746
G1 X371.198 Y-873.468
G1 X371.2 Y-873.467
G1 X371.946 Y-872.985
G3 X372.16 Y-872.834 I-1.723 J2.667
G1 X385.587 Y-862.498
G1 X385.589 Y-862.496
G1 X386.432 Y-861.846
G3 X386.652 Y-861.66 I-1.939 J2.514
G1 X395.314 Y-853.629
G3 X395.659 Y-849.349 I-2.159 J2.328
G1 X395.164 Y-848.714
G3 X392.66 Y-847.491 I-2.504 J-1.952
G1 X171.233
G3 X168.119 Y-850.046 I0 J-3.175
G1 X168.058 Y-850.353
G1 Y-838.533
G1 X168.119 Y-838.84
G3 X171.233 Y-841.395 I3.114 J0.62
G1 X405.441
G3 X407.829 Y-840.312 I0 J3.175
G1 X410.583 Y-837.168
G1 X411.477 Y-836.147
G3 X411.71 Y-835.847 I-2.389 J2.091
G1 X420.527 Y-822.941
G1 X420.528 Y-822.939
G1 X421.343 Y-821.744
G3 X421.566 Y-821.363 I-2.623 J1.789
G1 X428.298 Y-807.755
G1 X428.961 Y-806.413
G3 X429.151 Y-805.936 I-2.846 J1.407
G1 X433.52 Y-791.673
G1 X433.961 Y-790.233
G3 X434.078 Y-789.685 I-3.035 J0.931
G1 X435.424 Y-778.594
G1 Z-10.16
G1 X435.881 Y-774.836
G1 X436.06 Y-773.36
G3 X436.08 Y-772.848 I-3.152 J0.382
G1 X435.846 Y-767.138
G1 Z-12.7
G1 X435.455 Y-757.624
G1 X435.396 Y-756.194
G3 X435.346 Y-755.747 I-3.172 J-0.131
G1 X432.504 Y-740.408
G1 Y-740.406
G1 X432.26 Y-739.093
G3 X432.162 Y-738.705 I-3.122 J-0.58
G1 X427.304 Y-723.53
G1 X427.302 Y-723.526
G1 X426.934 Y-722.382
G3 X426.804 Y-722.043 I-3.022 J-0.972
G1 X420.135 Y-707.33
G1 X420.132 Y-707.323
G1 X419.701 Y-706.378
G3 X419.542 Y-706.075 I-2.889 J-1.318
G1 X413.053 Y-695.146
G3 X412.827 Y-694.815 I-2.73 J-1.621
G1 X412.332 Y-694.18
G3 X409.828 Y-692.957 I-2.504 J-1.952
G1 X101.322
G3 X98.208 Y-695.512 I0 J-3.175
G1 X98.147 Y-695.82
G1 Y-683.999
G1 X98.208 Y-684.306
G3 X101.322 Y-686.861 I3.114 J0.62
G1 X400.089
G3 X402.593 Y-685.638 I0 J3.175
G1 X403.088 Y-685.003
G3 X403.12 Y-681.14 I-2.504 J1.952
G1 X400.993 Y-678.317
G1 X400.986 Y-678.308
G1 X400.573 Y-677.764
G3 X400.343 Y-677.494 I-2.529 J-1.92
G1 X389.567 Y-666.178
G1 X389.558 Y-666.169
G1 X389.194 Y-665.79
G3 X388.917 Y-665.534 I-2.29 J-2.199
G1 X377.242 Y-655.961
G1 X377.229 Y-655.95
G1 X376.917 Y-655.697
G3 X376.636 Y-655.494 I-2 J-2.466
G1 X364.192 Y-647.48
G1 X364.178 Y-647.471
G1 X363.911 Y-647.301
G3 X363.661 Y-647.157 I-1.705 J-2.678
G1 X350.551 Y-640.395
G1 X350.535 Y-640.387
G1 X350.303 Y-640.269
G1 X350.109 Y-640.178
G1 X336.438 Y-634.35
G1 X336.418 Y-634.342
G1 X336.21 Y-634.255
G1 X336.047 Y-634.192
G1 X307.424 Y-624.036
G1 X307.414 Y-624.033
G1 X307.044 Y-623.903
G1 X307.039 Y-623.901
G1 X277.399 Y-613.549
G1 X277.39 Y-613.546
G1 X277.125 Y-613.455
G1 X247.359 Y-600.7
G1 X247.341 Y-600.692
G1 X247.11 Y-600.595
G1 X239.077 Y-596.237
G1 Z-10.16
G1 X229.031 Y-590.786
G1 Z-12.7
G1 X218.039 Y-584.822
G1 X218.03 Y-584.817
G1 X217.778 Y-584.682
G1 X203.821 Y-575.629
G1 X203.808 Y-575.621
G1 X203.716 Y-575.562
G1 X190.243 Y-565.667
G1 X190.235 Y-565.661
G1 X190.15 Y-565.599
G1 X177.306 Y-554.858
G1 X177.291 Y-554.846
G1 X177.221 Y-554.788
G1 X165.125 Y-543.185
G1 X165.119 Y-543.179
G1 X165.053 Y-543.116
G1 X162.34 Y-540.108
G1 X161.769 Y-539.474
G3 X159.41 Y-538.424 I-2.359 J-2.125
G1 X-52.741
G3 X-55.854 Y-540.98 I0 J-3.175
G1 X-55.916 Y-541.286
G1 Y-529.466
G1 X-55.854 Y-529.772
G3 X-52.741 Y-532.328 I3.114 J0.619
G1 X147.635
G3 X150.139 Y-531.105 I0 J3.175
G1 X150.634 Y-530.47
G3 X150.638 Y-526.571 I-2.504 J1.952
G1 X143.429 Y-517.282
G1 X143.428 Y-517.281
G1 X143.372 Y-517.209
G1 X134.077 Y-503.198
G1 X134.073 Y-503.192
G1 X134.025 Y-503.121
G1 X128.65 Y-493.511
G1 Z-10.16
G1 X125.834 Y-488.477
G1 X125.792 Y-488.402
G1 X123.449 Y-483.323
G1 Z-12.7
G1 X118.782 Y-473.203
G1 X118.748 Y-473.13
G1 X113.002 Y-457.46
G1 X113.001 Y-457.458
G1 X112.976 Y-457.388
G1 X108.578 Y-441.343
G1 X108.577 Y-441.34
G1 X108.56 Y-441.276
G1 X105.591 Y-424.937
G1 X105.579 Y-424.874
G1 X104.09 Y-408.322
G1 Y-408.317
G1 X104.083 Y-408.247
G1 X104.008 Y-391.587
G1 Y-391.504
G1 X104.274 Y-387.936
G3 X103.61 Y-385.746 I-3.166 J0.236
G1 X103.114 Y-385.111
G3 X100.612 Y-383.89 I-2.502 J-1.954
G1 X-82.486
G3 X-85.6 Y-386.446 I0 J-3.175
G1 X-85.661 Y-386.752
G1 Y-374.932
G1 X-85.6 Y-375.238
G3 X-82.486 Y-377.794 I3.114 J0.619
G1 X101.665
G3 X104.169 Y-376.571 I0 J3.175
G1 X104.664 Y-375.936
G3 X105.3 Y-374.452 I-2.504 J1.952
G1 X107.734 Y-358.117
G1 X107.749 Y-358.018
G1 X111.355 Y-341.618
G1 X111.379 Y-341.512
G1 X116.027 Y-325.407
G1 X116.058 Y-325.3
G1 X121.648 Y-309.611
G1 X121.687 Y-309.504
G1 X125.902 Y-299.57
G1 Z-10.16
G1 X128.133 Y-294.312
G1 X128.174 Y-294.216
G1 X130.699 Y-289.189
G1 Z-12.7
G1 X139.101 Y-272.456
G1 X139.215 Y-272.237
G1 X150.728 Y-251.254
G1 X150.865 Y-251.012
G1 X150.911 Y-250.927
G1 X159.495 Y-234.648
G3 X159.191 Y-231.215 I-2.808 J1.481
G1 X158.696 Y-230.58
G3 X156.192 Y-229.357 I-2.504 J-1.952
G1 X-35.755
G3 X-38.869 Y-231.913 I0 J-3.175
G1 X-38.93 Y-232.219
G1 Y-220.399
G1 X-38.869 Y-220.705
G3 X-35.755 Y-223.261 I3.114 J0.619
G1 X162.624
G3 X165.128 Y-222.038 I0 J3.175
G1 X165.623 Y-221.403
G3 X166.028 Y-220.723 I-2.504 J1.952
G1 X171.333 Y-208.592
G1 X171.443 Y-208.35
G3 X171.565 Y-208.039 I-2.891 J1.313
G1 X175.167 Y-197.207
G1 X175.205 Y-197.098
G3 X175.292 Y-196.806 I-2.996 J1.051
G1 X178.035 Y-185.672
G1 X178.065 Y-185.555
G3 X178.132 Y-185.229 I-3.072 J0.801
G1 X179.873 Y-173.732
G1 X179.893 Y-173.615
G3 X179.932 Y-173.266 I-3.131 J0.526
G1 X180.594 Y-161.392
G1 X180.603 Y-161.263
G3 X180.608 Y-160.946 I-3.168 J0.214
G1 X180.214 Y-148.812
G1 X180.211 Y-148.682
G3 X180.191 Y-148.38 I-3.174 J-0.063
G1 X178.77 Y-136.087
G1 X178.753 Y-135.941
G3 X178.714 Y-135.683 I-3.155 J-0.353
G1 X177.398 Y-128.978
G1 Z-10.16
G1 X176.297 Y-123.366
G1 X176.269 Y-123.223
G3 X176.21 Y-122.968 I-3.119 J-0.591
G1 X174.792 Y-117.84
G1 Z-12.7
G1 X172.829 Y-110.74
G1 X172.79 Y-110.598
G3 X172.713 Y-110.352 I-3.065 J-0.827
G1 X168.396 Y-98.326
G1 X168.344 Y-98.181
G1 X168.301 Y-98.066
G1 X168.253 Y-97.952
G1 X163.032 Y-86.244
G1 X163.029 Y-86.238
G1 X162.964 Y-86.093
G1 X162.914 Y-85.986
G1 X162.86 Y-85.882
G1 X158.123 Y-77.123
G3 X157.834 Y-76.681 I-2.793 J-1.51
G1 X157.339 Y-76.046
G3 X154.835 Y-74.823 I-2.504 J-1.952
G1 X10.407
G3 X7.293 Y-77.378 I0 J-3.175
G1 X7.232 Y-77.685
G1 Y-65.865
G1 X7.293 Y-66.171
G3 X10.407 Y-68.727 I3.114 J0.619
G1 X146.208
G3 X148.71 Y-67.506 I0 J3.175
G1 X149.206 Y-66.871
G3 X149.217 Y-62.977 I-2.502 J1.954
G1 X141.645 Y-53.166
G1 X141.644 Y-53.164
G1 X141.548 Y-53.04
G3 X141.371 Y-52.83 I-2.512 J-1.942
G1 X132.852 Y-43.583
G1 X132.749 Y-43.471
G3 X132.547 Y-43.269 I-2.34 J-2.146
G1 X123.306 Y-34.853
G1 X123.3 Y-34.847
G1 X123.185 Y-34.743
G3 X122.984 Y-34.576 I-2.132 J-2.353
G1 X117.32 Y-30.236
G1 Z-10.16
G1 X113.1 Y-27.002
G1 X112.98 Y-26.909
G3 X112.763 Y-26.756 I-1.935 J-2.517
G1 X107.957 Y-23.664
G1 Z-12.7
G1 X102.306 Y-20.027
G1 X102.301 Y-20.024
G1 X102.171 Y-19.941
G1 X102.066 Y-19.876
G1 X101.959 Y-19.816
G1 X91.005 Y-13.94
G1 X91.004 Y-13.939
G1 X90.868 Y-13.867
G3 X90.54 Y-13.714 I-1.499 J-2.799
G1 X67.438 Y-4.546
G1 X67.152 Y-4.432
G3 X66.707 Y-4.292 I-1.171 J-2.951
G1 X42.508 Y1.39
G1 X42.208 Y1.461
G3 X41.757 Y1.533 I-0.726 J-3.091
G1 X17.054 Y3.68
G1 X16.748 Y3.706
G3 X16.369 Y3.716 I-0.275 J-3.163
G1 X-0.105 Y3.173
G0 Z6.096

G0 Z6.096
M5
M30
