(1001)
(T1  D=6.35 CR=0 - ZMIN=-12.7 - FLAT END MILL)
G0 G40 G90 G17
G21

(2D CONTOUR2)
T1 M6
M3 S5000
G0 X9.636 Y3.274
G0 Z6.096
G1 Z4.191 F508.
G1 Z-7.484
G1 X9.62
G1 X9.559
G1 X6.574 Y3.265
G1 X6.554
G1 X6.464 Y3.264
G1 X3.489 Y3.237
G1 X3.465
G1 X3.278 Y3.234
G1 X0.33 Y3.184
G1 X0.303
G1 X-0.08 Y3.174
G1 X-2.968 Y3.102
G1 X-2.992 Y3.101
G1 X-3.702 Y3.078
G1 X-6.439 Y2.988
G1 X-6.461 Y2.987
G1 X-7.649 Y2.94
G1 X-10.113 Y2.842
G1 X-10.133
G1 X-11.97 Y2.757
G1 X-14.017 Y2.664
G1 X-14.036 Y2.663
G1 X-16.718 Y2.524
G1 X-18.185 Y2.448
G1 X-18.205 Y2.446
G1 X-22.036 Y2.224
G1 X-22.721 Y2.184
G1 X-22.742 Y2.182
G1 X-25.918 Y1.976
G1 X-26.027 Y1.967
G1 X-27.88 Y1.782
G1 X-27.913 Y1.779
G1 X-28.787 Y1.683
G1 X-33.68 Y1.143
G1 X-33.711 Y1.139
G1 X-38.385 Y0.577
G1 X-40.619 Y0.308
G1 X-40.646 Y0.305
G1 X-44.583 Y-0.203
G1 X-44.724 Y-0.224
G1 X-49.307 Y-1.026
G1 X-49.335 Y-1.031
G1 X-57.623 Y-2.558
G1 X-60.271 Y-3.046
G1 X-60.281 Y-3.048
G1 X-61.667 Y-3.308
G1 X-61.831 Y-3.343
G1 X-67.651 Y-4.757
G1 X-67.734 Y-4.779
G1 X-75.032 Y-6.763
G1 X-84.965 Y-9.152
G1 X-85.116 Y-9.192
G1 X-95.871 Y-12.349
G1 X-95.985 Y-12.385
G1 X-96.241 Y-12.47
G1 X-96.276 Y-12.482
G1 X-112.173 Y-18.011
G1 X-112.317 Y-18.065
G1 X-127.04 Y-24.002
G1 X-127.816 Y-24.315
G1 X-127.975 Y-24.384
G1 X-129.023 Y-24.875
G1 X-129.047 Y-24.886
G1 X-142.395 Y-31.271
G1 X-142.565 Y-31.359
G1 X-147.664 Y-34.186
G1 X-156.217 Y-38.929
G1 X-156.389 Y-39.032
G1 X-165.172 Y-44.656
G1 X-169.416 Y-47.373
G1 X-169.584 Y-47.489
G1 X-180.897 Y-55.803
G1 X-182.084 Y-56.676
G1 X-182.242 Y-56.799
G1 X-188.241 Y-61.822
G1 X-188.26 Y-61.837
G1 X-188.748 Y-62.252
G3 X-189.195 Y-66.623 I2.057 J-2.419
G1 X-188.7 Y-67.258
G3 X-186.196 Y-68.481 I2.504 J1.952
G1 X-26.58
G3 X-23.466 Y-65.926 I0 J3.175
G1 X-23.405 Y-65.619
G1 Y-77.439
G1 X-23.466 Y-77.133
G3 X-26.58 Y-74.577 I-3.114 J-0.619
G1 X-200.985
G3 X-203.178 Y-75.456 I0 J-3.175
G1 X-203.843 Y-76.091
G1 X-205.838 Y-77.998
G1 X-205.971 Y-78.132
G1 X-209.128 Y-81.531
G1 X-221.31 Y-94.644
G1 X-221.434 Y-94.786
G1 X-226.542 Y-100.984
G1 X-235.865 Y-112.295
G1 X-235.963 Y-112.42
G1 X-242.311 Y-120.963
G1 X-249.414 Y-130.522
G1 X-249.494 Y-130.634
G1 X-256.524 Y-141.002
G1 X-261.895 Y-148.925
G1 X-261.961 Y-149.026
G1 X-269.22 Y-160.659
G1 X-273.24 Y-167.101
G1 X-273.295 Y-167.193
G1 X-280.414 Y-179.512
G1 X-283.382 Y-184.65
G1 X-283.432 Y-184.74
G1 X-290.141 Y-197.277
G1 X-292.307 Y-201.324
G1 X-292.356 Y-201.42
G1 X-295.83 Y-208.476
G3 X-295.486 Y-211.83 I2.848 J-1.402
G1 X-294.991 Y-212.465
G3 X-292.487 Y-213.688 I2.504 J1.952
G1 X-82.901
G3 X-79.787 Y-211.132 I0 J3.175
G1 X-79.726 Y-210.826
G1 Y-222.646
G1 X-79.787 Y-222.34
G3 X-82.901 Y-219.784 I-3.114 J-0.619
G1 X-298.976
G3 X-301.48 Y-221.007 I0 J-3.175
G1 X-301.975 Y-221.642
G3 X-302.377 Y-222.315 I2.504 J-1.952
G1 X-307.911 Y-234.89
G1 X-309.41 Y-238.297
G1 X-309.473 Y-238.452
G1 X-315.897 Y-255.427
G1 X-316.834 Y-257.903
G1 X-316.89 Y-258.064
G1 X-322.019 Y-274.204
G1 X-322.601 Y-276.035
G1 X-322.648 Y-276.199
G1 X-326.598 Y-291.41
G1 X-326.958 Y-292.796
G1 X-326.995 Y-292.954
G1 X-329.928 Y-307.2
G1 X-330.151 Y-308.281
G1 X-330.177 Y-308.424
G1 X-332.288 Y-321.717
G1 X-332.426 Y-322.586
G1 X-332.442 Y-322.701
G1 X-333.945 Y-335.083
G1 Y-335.086
G1 X-334.032 Y-335.807
G1 X-334.04 Y-335.88
G1 X-335.16 Y-347.415
G1 Y-347.417
G1 X-335.219 Y-348.029
G1 X-335.222 Y-348.063
G1 X-335.8 Y-354.813
G3 X-335.141 Y-357.036 I3.163 J-0.271
G1 X-334.646 Y-357.671
G3 X-332.142 Y-358.894 I2.504 J1.952
G1 X-125.256
G3 X-122.142 Y-356.339 I0 J3.175
G1 X-122.081 Y-356.032
G1 Y-367.852
G1 X-122.142 Y-367.545
G3 X-125.256 Y-364.99 I-3.114 J-0.62
G1 X-333.246
G3 X-335.75 Y-366.213 I0 J-3.175
G1 X-336.245 Y-366.848
G3 X-336.907 Y-368.561 I2.504 J-1.952
G1 X-337.273 Y-373.411
G1 X-337.313 Y-373.935
G1 X-337.315 Y-373.972
G1 X-338.024 Y-384.984
G1 X-338.025 Y-384.986
G1 X-338.054 Y-385.44
G1 X-338.056 Y-385.476
G1 X-338.596 Y-395.775
G1 X-338.617 Y-396.176
G1 X-338.619 Y-396.235
G1 X-339.26 Y-415.256
G1 X-339.284 Y-415.946
G1 X-339.286 Y-416.024
G1 X-339.466 Y-433.878
G1 X-339.473 Y-434.51
G1 Y-434.577
G1 X-339.292 Y-452.421
G1 X-339.286 Y-453.064
G1 X-339.284 Y-453.141
G1 X-338.643 Y-472.122
G1 X-338.619 Y-472.853
G1 X-338.617 Y-472.915
G1 X-338.078 Y-483.195
G1 X-338.056 Y-483.615
G1 X-338.053 Y-483.653
G1 X-337.346 Y-494.638
G1 X-337.315 Y-495.119
G1 X-337.313 Y-495.154
G1 X-336.907 Y-500.53
G3 X-336.245 Y-502.243 I3.166 J0.239
G1 X-335.75 Y-502.878
G3 X-333.246 Y-504.101 I2.504 J1.952
G1 X-125.267
G3 X-122.153 Y-501.544 I0 J3.175
G1 X-122.092 Y-501.238
G1 Y-513.059
G1 X-122.153 Y-512.754
G3 X-125.267 Y-510.197 I-3.114 J-0.618
G1 X-332.142
G3 X-334.646 Y-511.42 I0 J-3.175
G1 X-335.141 Y-512.055
G3 X-335.8 Y-514.277 I2.504 J-1.952
G1 X-335.28 Y-520.36
G1 Y-520.365
G1 X-335.222 Y-521.032
G1 X-335.217 Y-521.089
G1 X-333.112 Y-541.081
G1 X-333.111 Y-541.083
G1 X-332.982 Y-542.303
G1 X-332.968 Y-542.419
G1 X-331.4 Y-553.359
G1 X-331.293 Y-554.107
G1 X-331.275 Y-554.22
G1 X-329.188 Y-565.814
G1 X-329.026 Y-566.715
G1 X-329 Y-566.844
G1 X-326.272 Y-579.102
G1 Y-579.104
G1 X-326.024 Y-580.215
G1 X-325.991 Y-580.349
G1 X-322.512 Y-593.261
G1 X-322.137 Y-594.653
G1 X-322.096 Y-594.792
G1 X-317.776 Y-608.329
G1 X-317.212 Y-610.097
G1 X-317.164 Y-610.235
G1 X-311.938 Y-624.335
G1 X-311.097 Y-626.604
G1 X-311.044 Y-626.738
G1 X-304.883 Y-641.304
G1 X-303.643 Y-644.236
G1 X-303.586 Y-644.363
G1 X-302.398 Y-646.861
G3 X-302.035 Y-647.449 I2.867 J1.364
G1 X-301.54 Y-648.084
G3 X-299.036 Y-649.307 I2.504 J1.952
G1 X-82.861
G3 X-79.747 Y-646.751 I0 J3.175
G1 X-79.686 Y-646.445
G1 Y-658.265
G1 X-79.747 Y-657.959
G3 X-82.861 Y-655.403 I-3.114 J-0.619
G1 X-292.514
G3 X-295.016 Y-656.624 I0 J-3.175
G1 X-295.512 Y-657.259
G3 X-295.877 Y-660.576 I2.502 J-1.954
G1 X-294.699 Y-663.054
G1 X-294.64 Y-663.173
G1 X-286.725 Y-678.173
G1 X-284.114 Y-683.121
G1 X-284.053 Y-683.231
G1 X-275.48 Y-698.024
G1 X-271.753 Y-704.455
G1 X-271.684 Y-704.568
G1 X-262.845 Y-718.448
G1 X-257.641 Y-726.618
G1 X-257.556 Y-726.744
G1 X-248.992 Y-738.862
G1 X-241.897 Y-748.9
G1 X-241.788 Y-749.045
G1 X-234.138 Y-758.652
G1 X-224.639 Y-770.582
G1 X-224.495 Y-770.749
G1 X-218.53 Y-777.256
G1 X-205.986 Y-790.942
G1 X-205.901 Y-791.031
G1 X-205.813 Y-791.117
G1 X-203.773 Y-793.023
G1 X-203.092 Y-793.659
G3 X-200.925 Y-794.513 I2.167 J2.32
G1 X-26.536
G3 X-23.422 Y-791.957 I0 J3.175
G1 X-23.361 Y-791.651
G1 Y-803.471
G1 X-23.422 Y-803.165
G3 X-26.536 Y-800.609 I-3.114 J-0.619
G1 X-186.325
G3 X-188.829 Y-801.832 I0 J-3.175
G1 X-189.324 Y-802.467
G3 X-188.784 Y-806.913 I2.504 J-1.952
G1 X-188.163 Y-807.402
G1 X-188.144 Y-807.417
G1 X-174.887 Y-817.694
G1 X-172.188 Y-819.786
G3 X-171.955 Y-819.95 I1.945 J2.51
G1 X-160.259 Y-827.44
G1 X-153.712 Y-831.632
G3 X-153.472 Y-831.771 I1.712 J2.674
G1 X-145.796 Y-835.786
G1 X-133.964 Y-841.973
G3 X-133.733 Y-842.082 I1.471 J2.814
G1 X-131.962 Y-842.834
G1 X-128.865 Y-844.148
G1 X-128.843 Y-844.158
G1 X-117.809 Y-848.744
G1 X-112.348 Y-851.012
G1 X-112.146 Y-851.088
G1 X-104.334 Y-853.727
G1 X-96.189 Y-856.478
G1 X-96.176 Y-856.482
G1 X-90.147 Y-858.49
G1 X-89.938 Y-858.552
G1 X-81.428 Y-860.752
G1 X-81.393 Y-860.761
G1 X-75.031 Y-862.328
G1 X-63.922 Y-865.283
G3 X-63.667 Y-865.34 I0.816 J3.068
G1 X-60.237 Y-865.957
G1 X-53.584 Y-867.182
G1 X-49.308 Y-867.97
G1 X-49.28 Y-867.976
G1 X-46.746 Y-868.419
G1 X-41.271 Y-869.376
G1 X-41.087 Y-869.403
G1 X-40.724 Y-869.445
G1 X-40.622 Y-869.457
G1 X-40.594 Y-869.46
G1 X-35.098 Y-870.05
G1 X-33.664 Y-870.205
G1 X-33.634 Y-870.208
G1 X-30.179 Y-870.548
G1 X-27.849 Y-870.777
G1 X-27.819 Y-870.78
G1 X-25.784 Y-870.96
G1 X-22.807 Y-871.226
G1 X-22.775 Y-871.229
G1 X-21.778 Y-871.308
G1 X-18.289 Y-871.587
G1 X-18.258 Y-871.589
G1 X-18.059 Y-871.603
G1 X-16.982 Y-871.68
G1 X-16.881 Y-871.686
G1 X-14.248 Y-871.79
G1 X-14.242
G1 X-14.004 Y-871.799
G1 X-13.995
G1 X-10.62 Y-871.917
G1 X-10.619
G1 X-10.098 Y-871.935
G1 X-10.085 Y-871.936
G1 X-7.169 Y-872.025
G1 X-7.166
G1 X-6.419 Y-872.047
G1 X-6.406
G1 X-3.868 Y-872.111
G1 X-2.951 Y-872.134
G1 X-2.932
G1 X-0.69 Y-872.177
G1 X-0.687
G1 X0.348 Y-872.196
G1 X0.365 Y-872.197
G1 X2.395 Y-872.223
G1 X3.502 Y-872.238
G1 X3.524
G1 X5.435 Y-872.251
G1 X6.59 Y-872.259
G1 X6.605
G1 X8.469 Y-872.263
G1 X9.651 Y-872.266
G1 X9.664
G1 X11.539 Y-872.263
G1 X12.731 Y-872.261
G1 X12.74
G1 X14.665 Y-872.252
G1 X14.666
G1 X15.847 Y-872.246
G1 X15.858
G1 X17.856 Y-872.229
G1 X18.992 Y-872.219
G1 X19.004
G1 X20.039 Y-872.206
G1 X20.041
G1 X20.582 Y-872.199
G1 X20.591
G1 X21.656 Y-872.182
G1 X22.168 Y-872.175
G1 X22.184 Y-872.174
G1 X23.295 Y-872.153
G1 X23.778 Y-872.144
G1 X23.792
G1 X24.955 Y-872.117
G1 X25.399 Y-872.107
G1 X25.412
G1 X26.643 Y-872.074
G1 X26.645
G1 X27.044 Y-872.063
G1 X27.053
G1 X28.366 Y-872.023
G1 X28.37 Y-872.022
G1 X28.717 Y-872.011
G1 X28.726
G1 X30.138 Y-871.962
G1 X30.426 Y-871.952
G1 X30.437
G1 X31.966 Y-871.893
G1 X32.18 Y-871.885
G1 X32.197 Y-871.884
G1 X33.858 Y-871.814
G1 X33.985 Y-871.809
G1 X34.014 Y-871.808
G1 X35.844 Y-871.724
G1 X35.848
G1 X35.89 Y-871.721
G1 X35.892
G1 X36.669 Y-871.684
G1 X36.792 Y-871.676
G1 X37.994 Y-871.572
G1 X38.027 Y-871.569
G1 X38.163 Y-871.556
G1 X40.103 Y-871.378
G1 X40.129 Y-871.375
G1 X40.544 Y-871.334
G1 X42.318 Y-871.161
G1 X42.351 Y-871.158
G1 X43.085 Y-871.079
G1 X44.657 Y-870.917
G1 X44.686 Y-870.914
G1 X45.806 Y-870.789
G1 X47.143 Y-870.645
G1 X47.172 Y-870.641
G1 X48.753 Y-870.456
G1 X49.801 Y-870.339
G1 X49.832 Y-870.336
G1 X51.978 Y-870.075
G1 X52.673 Y-869.994
G1 X52.698 Y-869.99
G1 X55.539 Y-869.635
G1 X55.789 Y-869.605
G1 X55.811 Y-869.602
G1 X57.401 Y-869.398
G1 X57.608 Y-869.365
G1 X59.5 Y-868.994
G1 X59.541 Y-868.985
G1 X60.038 Y-868.881
G1 X63.425 Y-868.201
G1 X63.46 Y-868.193
G1 X65.135 Y-867.837
G1 X67.741 Y-867.302
G1 X67.772 Y-867.296
G1 X70.924 Y-866.616
G1 X72.494 Y-866.288
G1 X72.525 Y-866.281
G1 X77.538 Y-865.183
G1 X77.744 Y-865.139
G1 X77.777 Y-865.132
G1 X78.535 Y-864.963
G1 X78.655 Y-864.934
G1 X78.774 Y-864.9
G1 X84.002 Y-863.299
G1 X84.042 Y-863.286
G1 X97.427 Y-858.993
G1 X97.948 Y-858.827
G1 X97.99 Y-858.814
G1 X98.215 Y-858.739
G3 X98.512 Y-858.623 I-1.002 J3.013
G1 X115.504 Y-851.006
G1 X115.55 Y-850.985
G1 X115.612 Y-850.956
G3 X115.99 Y-850.747 I-1.345 J2.876
G1 X116.117 Y-850.665
G1 X129.856 Y-841.829
G3 X130.312 Y-841.474 I-1.717 J2.67
G1 X136.088 Y-836.054
G1 X136.138 Y-836.006
G1 X141.015 Y-831.225
G3 X141.446 Y-830.7 I-2.223 J2.267
G1 X144.599 Y-825.898
G1 X149.344 Y-819.092
G3 X149.653 Y-818.539 I-2.604 J1.816
G1 X153.907 Y-808.722
G1 X153.937 Y-808.652
G1 X155.376 Y-805.1
G3 X155.513 Y-804.679 I-2.943 J1.192
G1 X158.531 Y-792.619
G1 X159.314 Y-789.592
G3 X159.386 Y-789.224 I-3.074 J0.795
G1 X159.532 Y-788.149
G1 X159.541 Y-788.077
G1 X161.694 Y-768.959
G3 X161.714 Y-768.641 I-3.155 J0.355
G1 X161.8 Y-761.228
G1 Y-761.19
G1 X161.797 Y-747.066
G1 X161.795 Y-746.943
G1 X161.787 Y-746.819
G1 X160.128 Y-725.631
G1 X160.064 Y-724.695
G1 X160.043 Y-724.489
G1 X159.937 Y-723.703
G1 X157.122 Y-702.446
G1 X157.096 Y-702.284
G1 X154.607 Y-688.853
G1 X153.251 Y-681.092
G1 X153.222 Y-680.947
G1 X149.444 Y-664.022
G1 X148.794 Y-661.019
G1 X148.765 Y-660.896
G1 X148.554 Y-660.08
G1 X144.084 Y-642.228
G1 X144.052 Y-642.111
G1 X142.691 Y-637.44
G1 X139.079 Y-624.639
G1 X139.046 Y-624.532
G1 X136.812 Y-617.56
G1 X133.895 Y-608.188
G1 X133.863 Y-608.094
G1 X131.007 Y-599.839
G1 X128.644 Y-592.815
G1 X128.616 Y-592.734
G1 X125.365 Y-583.868
G1 X123.432 Y-578.455
G1 X123.408 Y-578.391
G1 X119.959 Y-569.354
G1 X118.359 Y-565.048
G1 X118.342 Y-565.002
G1 X114.868 Y-556.077
G1 X113.522 Y-552.532
G1 X113.514 Y-552.51
G1 X110.161 Y-543.865
G1 X109.026 Y-540.864
G1 X103.138 Y-524.683
G1 X101.389 Y-519.76
G1 X98.202 Y-509.35
G1 X97.339 Y-506.462
G1 X94.927 Y-496.769
G1 X94.314 Y-494.242
G1 X92.582 Y-485.189
G1 X92.163 Y-482.943
G1 X91.006 Y-474.439
G1 X90.74 Y-472.435
G1 X89.693 Y-456.601
G1 X89.456 Y-452.918
G1 X89.322 Y-438.004
G1 X89.292 Y-434.545
G1 X89.426 Y-419.587
G1 X89.456 Y-416.175
G1 X90.5 Y-400.387
G1 Y-400.382
G1 X90.74 Y-396.659
G1 X91.89 Y-388.211
G1 X91.891 Y-388.201
G1 X92.163 Y-386.15
G1 X93.887 Y-377.143
G1 X93.889 Y-377.128
G1 X94.314 Y-374.851
G1 X96.71 Y-365.222
G1 X96.715 Y-365.204
G1 X97.339 Y-362.631
G1 X100.503 Y-352.299
G1 X100.51 Y-352.278
G1 X101.393 Y-349.319
G1 X104.646 Y-340.127
G1 X104.654 Y-340.104
G1 X105.632 Y-337.269
G1 X109.333 Y-327.535
G1 X109.342 Y-327.51
G1 X110.564 Y-324.212
G1 X114.532 Y-314.033
G1 X114.542 Y-314.006
G1 X116.041 Y-310.057
G1 X120.063 Y-299.629
G1 X120.074 Y-299.601
G1 X121.909 Y-294.709
G1 X121.913 Y-294.698
G1 X125.748 Y-284.356
G1 X125.759 Y-284.327
G1 X128.009 Y-278.072
G1 X128.02 Y-278.039
G1 X131.413 Y-268.273
G1 X131.424 Y-268.242
G1 X134.18 Y-260.037
G1 X134.196 Y-259.987
G1 X136.899 Y-251.476
G1 X136.909 Y-251.443
G1 X140.251 Y-240.504
G1 X140.27 Y-240.44
G1 X142.063 Y-234.1
G1 X142.073 Y-234.064
G1 X146.042 Y-219.371
G1 X146.057 Y-219.313
G1 X146.599 Y-217.144
G1 X146.608 Y-217.108
G1 X149.47 Y-205.056
G1 X149.779 Y-203.827
G1 X149.792 Y-203.772
G1 X149.846 Y-203.539
G1 X149.853 Y-203.51
G1 X152.809 Y-190.19
G1 X152.821 Y-190.131
G1 X153.481 Y-186.867
G1 X153.487 Y-186.835
G1 X155.474 Y-176.461
G1 X155.486 Y-176.397
G1 X156.692 Y-169.315
G1 X156.698 Y-169.278
G1 X157.719 Y-162.819
G1 X157.729 Y-162.748
G1 X159.298 Y-151.132
G1 X159.305 Y-151.082
G1 X159.502 Y-149.424
G1 X159.51 Y-149.347
G1 X159.886 Y-145.36
G1 X160.88 Y-136.484
G1 X160.89 Y-136.379
G1 X161.181 Y-132.664
G1 X161.185 Y-132.615
G1 X161.729 Y-123.932
G1 X161.734 Y-123.817
G1 X161.983 Y-114.398
G1 X161.984 Y-114.322
G1 X161.99 Y-111.963
G1 X161.988 Y-111.84
G1 X161.841 Y-107.783
G1 X161.738 Y-100.797
G1 X161.732 Y-100.646
G1 X161.479 Y-96.607
G1 X161.471 Y-96.506
G1 X160.87 Y-90.147
G1 X160.851 Y-89.991
G1 X159.541 Y-80.949
G1 X159.471 Y-80.358
G1 X159.444 Y-80.178
G1 X159.366 Y-79.739
G1 X159.346 Y-79.637
G1 X157.883 Y-72.715
G1 X157.846 Y-72.559
G1 X156.778 Y-68.522
G1 X156.746 Y-68.407
G1 X155.885 Y-65.585
G1 X155.836 Y-65.439
G1 X154.079 Y-60.541
G1 X153.484 Y-58.762
G3 X153.383 Y-58.5 I-3.011 J-1.007
G1 X153.15 Y-57.965
G1 X153.124 Y-57.906
G1 X150.082 Y-51.297
G3 X149.967 Y-51.071 I-2.884 J-1.327
G1 X148.521 Y-48.494
G1 X148.439 Y-48.356
G1 X145.906 Y-44.33
G1 X145.786 Y-44.153
G1 X142.648 Y-39.838
G1 X142.574 Y-39.742
G1 X142.498 Y-39.648
G1 X141 Y-37.888
G1 X140.889 Y-37.764
G1 X136.392 Y-33.01
G1 X135.709 Y-32.268
G1 X135.58 Y-32.136
G1 X135.286 Y-31.852
G1 X135.196 Y-31.768
G1 X135.103 Y-31.688
G1 X129.492 Y-27.05
G1 X129.387 Y-26.967
G1 X126.436 Y-24.73
G3 X126.22 Y-24.579 I-1.918 J-2.53
G1 X122.688 Y-22.337
G1 X122.612 Y-22.29
G1 X115.893 Y-18.283
G3 X115.668 Y-18.161 I-1.626 J-2.727
G1 X115.644 Y-18.149
G1 X115.608 Y-18.132
G1 X115.574 Y-18.116
G1 X108.385 Y-14.666
G1 X108.324 Y-14.638
G1 X103.646 Y-12.515
G1 X103.477 Y-12.444
G1 X101.004 Y-11.49
G1 X100.961 Y-11.474
G1 X98.102 Y-10.418
G1 X93.851 Y-8.839
G1 X93.802 Y-8.822
G1 X90.175 Y-7.541
G1 X90.023 Y-7.492
G1 X86.736 Y-6.515
G1 X86.703 Y-6.505
G1 X83.924 Y-5.712
G1 X81.398 Y-4.984
G1 X81.369 Y-4.976
G1 X77.957 Y-4.027
G1 X77.317 Y-3.845
G1 X77.286 Y-3.836
G1 X75.773 Y-3.424
G1 X75.619 Y-3.386
G1 X73.206 Y-2.856
G1 X73.184 Y-2.852
G1 X72.454 Y-2.697
G1 X69.474 Y-2.053
G1 X69.45 Y-2.047
G1 X67.694 Y-1.682
G1 X65.997 Y-1.321
G1 X65.971 Y-1.315
G1 X63.376 Y-0.785
G1 X62.757 Y-0.656
G1 X62.729 Y-0.65
G1 X60.673 Y-0.238
G1 X60.517 Y-0.211
G1 X59.53 Y-0.064
G1 X59.512 Y-0.062
G1 X59.318 Y-0.034
G1 X56.624 Y0.359
G1 X56.604 Y0.361
G1 X55.878 Y0.463
G1 X53.914 Y0.742
G1 X53.894 Y0.744
G1 X52.729 Y0.902
G1 X51.377 Y1.088
G1 X51.357 Y1.091
G1 X49.83 Y1.291
G1 X48.993 Y1.402
G1 X48.973 Y1.405
G1 X47.141 Y1.636
G1 X46.742 Y1.687
G1 X46.724 Y1.689
G1 X44.631 Y1.942
G1 X44.628
G1 X44.606 Y1.945
G1 X44.592 Y1.947
G1 X44.46 Y1.962
G1 X44.339 Y1.974
G1 X42.401 Y2.122
G1 X42.393 Y2.123
G1 X42.204 Y2.136
G1 X42.2 Y2.137
G1 X40.406 Y2.267
G1 X40.399 Y2.268
G1 X40.035 Y2.293
G1 X40.029 Y2.294
G1 X38.488 Y2.399
G1 X38.482
G1 X37.964 Y2.434
G1 X37.957
G1 X36.639 Y2.519
G1 X36.635
G1 X35.981 Y2.56
G1 X35.972 Y2.561
G1 X34.854 Y2.628
G1 X34.85
G1 X34.078 Y2.673
G1 X34.067 Y2.674
G1 X33.125 Y2.726
G1 X33.122
G1 X32.244 Y2.774
G1 X32.232 Y2.775
G1 X31.445 Y2.814
G1 X31.443
G1 X30.472 Y2.863
G1 X30.458 Y2.864
G1 X29.807 Y2.893
G1 X29.805
G1 X28.75 Y2.941
G1 X28.735 Y2.942
G1 X28.201 Y2.963
G1 X28.2
G1 X27.069 Y3.009
G1 X27.053
G1 X26.621 Y3.024
G1 X26.619 Y3.025
G1 X25.419 Y3.066
G1 X25.403 Y3.067
G1 X25.056 Y3.077
G1 X25.055
G1 X23.79 Y3.114
G1 X23.776 Y3.115
G1 X23.5 Y3.122
G1 X22.179 Y3.154
G1 X22.165
G1 X21.949 Y3.159
G1 X20.579 Y3.186
G1 X20.568
G1 X20.401 Y3.189
G1 X18.99 Y3.212
G1 X18.975
G1 X18.723 Y3.215
G1 X15.839 Y3.248
G1 X15.822
G1 X15.681 Y3.249
G1 X12.716 Y3.267
G1 X12.703
G1 X12.622 Y3.268
G1 X9.636 Y3.274
G1 Z-12.7
G1 X9.62
G1 X9.559
G1 X6.574 Y3.265
G1 X6.554
G1 X6.464 Y3.264
G1 X3.489 Y3.237
G1 X3.465
G1 X3.278 Y3.234
G1 X0.33 Y3.184
G1 X0.303
G1 X-0.08 Y3.174
G1 X-2.968 Y3.102
G1 X-2.992 Y3.101
G1 X-3.702 Y3.078
G1 X-6.439 Y2.988
G1 X-6.461 Y2.987
G1 X-7.649 Y2.94
G1 X-10.113 Y2.842
G1 X-10.133
G1 X-11.97 Y2.757
G1 X-14.017 Y2.664
G1 X-14.036 Y2.663
G1 X-16.718 Y2.524
G1 X-18.185 Y2.448
G1 X-18.205 Y2.446
G1 X-22.036 Y2.224
G1 X-22.721 Y2.184
G1 X-22.742 Y2.182
G1 X-25.918 Y1.976
G1 X-26.027 Y1.967
G1 X-27.88 Y1.782
G1 X-27.913 Y1.779
G1 X-28.787 Y1.683
G1 X-33.68 Y1.143
G1 X-33.711 Y1.139
G1 X-38.385 Y0.577
G1 X-40.619 Y0.308
G1 X-40.646 Y0.305
G1 X-44.583 Y-0.203
G1 X-44.724 Y-0.224
G1 X-49.307 Y-1.026
G1 X-49.335 Y-1.031
G1 X-57.623 Y-2.558
G1 X-60.271 Y-3.046
G1 X-60.281 Y-3.048
G1 X-61.667 Y-3.308
G1 X-61.831 Y-3.343
G1 X-67.651 Y-4.757
G1 X-67.734 Y-4.779
G1 X-75.032 Y-6.763
G1 X-79.554 Y-7.85
G1 Z-10.16
G1 X-84.965 Y-9.152
G1 X-85.116 Y-9.192
G1 X-90.6 Y-10.802
G1 Z-12.7
G1 X-95.871 Y-12.349
G1 X-95.985 Y-12.385
G1 X-96.241 Y-12.47
G1 X-96.276 Y-12.482
G1 X-112.173 Y-18.011
G1 X-112.317 Y-18.065
G1 X-127.04 Y-24.002
G1 X-127.816 Y-24.315
G1 X-127.975 Y-24.384
G1 X-129.023 Y-24.875
G1 X-129.047 Y-24.886
G1 X-142.395 Y-31.271
G1 X-142.565 Y-31.359
G1 X-147.664 Y-34.186
G1 X-156.217 Y-38.929
G1 X-156.389 Y-39.032
G1 X-165.172 Y-44.656
G1 X-169.416 Y-47.373
G1 X-169.584 Y-47.489
G1 X-180.897 Y-55.803
G1 X-182.084 Y-56.676
G1 X-182.242 Y-56.799
G1 X-188.241 Y-61.822
G1 X-188.26 Y-61.837
G1 X-188.748 Y-62.252
G3 X-189.195 Y-66.623 I2.057 J-2.419
G1 X-188.7 Y-67.258
G3 X-186.196 Y-68.481 I2.504 J1.952
G1 X-26.58
G3 X-23.466 Y-65.926 I0 J3.175
G1 X-23.405 Y-65.619
G1 Y-77.439
G1 X-23.466 Y-77.133
G3 X-26.58 Y-74.577 I-3.114 J-0.619
G1 X-200.985
G3 X-203.178 Y-75.456 I0 J-3.175
G1 X-203.843 Y-76.091
G1 X-205.838 Y-77.998
G1 X-205.971 Y-78.132
G1 X-209.128 Y-81.531
G1 X-221.31 Y-94.644
G1 X-221.434 Y-94.786
G1 X-226.542 Y-100.984
G1 X-235.865 Y-112.295
G1 X-235.963 Y-112.42
G1 X-242.311 Y-120.963
G1 X-249.414 Y-130.522
G1 X-249.494 Y-130.634
G1 X-256.524 Y-141.002
G1 X-261.895 Y-148.925
G1 X-261.961 Y-149.026
G1 X-269.22 Y-160.659
G1 X-273.24 Y-167.101
G1 X-273.295 Y-167.193
G1 X-280.414 Y-179.512
G1 X-283.382 Y-184.65
G1 X-283.432 Y-184.74
G1 X-290.141 Y-197.277
G1 X-292.307 Y-201.324
G1 X-292.356 Y-201.42
G1 X-295.83 Y-208.476
G3 X-295.486 Y-211.83 I2.848 J-1.402
G1 X-294.991 Y-212.465
G3 X-292.487 Y-213.688 I2.504 J1.952
G1 X-82.901
G3 X-79.787 Y-211.132 I0 J3.175
G1 X-79.726 Y-210.826
G1 Y-222.646
G1 X-79.787 Y-222.34
G3 X-82.901 Y-219.784 I-3.114 J-0.619
G1 X-298.976
G3 X-301.48 Y-221.007 I0 J-3.175
G1 X-301.975 Y-221.642
G3 X-302.377 Y-222.315 I2.504 J-1.952
G1 X-307.911 Y-234.89
G1 X-309.41 Y-238.297
G1 X-309.473 Y-238.452
G1 X-315.897 Y-255.427
G1 X-316.834 Y-257.903
G1 X-316.89 Y-258.064
G1 X-322.019 Y-274.204
G1 X-322.601 Y-276.035
G1 X-322.648 Y-276.199
G1 X-325.162 Y-285.878
G1 Z-10.16
G1 X-326.598 Y-291.41
G1 X-326.958 Y-292.796
G1 X-326.995 Y-292.954
G1 X-327.827 Y-296.995
G1 Z-12.7
G1 X-329.928 Y-307.2
G1 X-330.151 Y-308.281
G1 X-330.177 Y-308.424
G1 X-332.288 Y-321.717
G1 X-332.426 Y-322.586
G1 X-332.442 Y-322.701
G1 X-333.945 Y-335.083
G1 Y-335.086
G1 X-334.032 Y-335.807
G1 X-334.04 Y-335.88
G1 X-335.16 Y-347.415
G1 Y-347.417
G1 X-335.219 Y-348.029
G1 X-335.222 Y-348.063
G1 X-335.8 Y-354.813
G3 X-335.141 Y-357.036 I3.163 J-0.271
G1 X-334.646 Y-357.671
G3 X-332.142 Y-358.894 I2.504 J1.952
G1 X-125.256
G3 X-122.142 Y-356.339 I0 J3.175
G1 X-122.081 Y-356.032
G1 Y-367.852
G1 X-122.142 Y-367.545
G3 X-125.256 Y-364.99 I-3.114 J-0.62
G1 X-333.246
G3 X-335.75 Y-366.213 I0 J-3.175
G1 X-336.245 Y-366.848
G3 X-336.907 Y-368.561 I2.504 J-1.952
G1 X-337.273 Y-373.411
G1 X-337.313 Y-373.935
G1 X-337.315 Y-373.972
G1 X-338.024 Y-384.984
G1 X-338.025 Y-384.986
G1 X-338.054 Y-385.44
G1 X-338.056 Y-385.476
G1 X-338.596 Y-395.775
G1 X-338.617 Y-396.176
G1 X-338.619 Y-396.235
G1 X-339.26 Y-415.256
G1 X-339.284 Y-415.946
G1 X-339.286 Y-416.024
G1 X-339.466 Y-433.878
G1 X-339.473 Y-434.51
G1 Y-434.577
G1 X-339.343 Y-447.425
G1 Z-10.16
G1 X-339.292 Y-452.421
G1 X-339.286 Y-453.064
G1 X-339.284 Y-453.141
G1 X-339.091 Y-458.853
G1 Z-12.7
G1 X-338.643 Y-472.122
G1 X-338.619 Y-472.853
G1 X-338.617 Y-472.915
G1 X-338.078 Y-483.195
G1 X-338.056 Y-483.615
G1 X-338.053 Y-483.653
G1 X-337.346 Y-494.638
G1 X-337.315 Y-495.119
G1 X-337.313 Y-495.154
G1 X-336.907 Y-500.53
G3 X-336.245 Y-502.243 I3.166 J0.239
G1 X-335.75 Y-502.878
G3 X-333.246 Y-504.101 I2.504 J1.952
G1 X-125.267
G3 X-122.153 Y-501.544 I0 J3.175
G1 X-122.092 Y-501.238
G1 Y-513.059
G1 X-122.153 Y-512.754
G3 X-125.267 Y-510.197 I-3.114 J-0.618
G1 X-332.142
G3 X-334.646 Y-511.42 I0 J-3.175
G1 X-335.141 Y-512.055
G3 X-335.8 Y-514.277 I2.504 J-1.952
G1 X-335.28 Y-520.36
G1 Y-520.365
G1 X-335.222 Y-521.032
G1 X-335.217 Y-521.089
G1 X-333.112 Y-541.081
G1 X-333.111 Y-541.083
G1 X-332.982 Y-542.303
G1 X-332.968 Y-542.419
G1 X-331.4 Y-553.359
G1 X-331.293 Y-554.107
G1 X-331.275 Y-554.22
G1 X-329.188 Y-565.814
G1 X-329.026 Y-566.715
G1 X-329 Y-566.844
G1 X-326.272 Y-579.102
G1 Y-579.104
G1 X-326.024 Y-580.215
G1 X-325.991 Y-580.349
G1 X-322.512 Y-593.261
G1 X-322.137 Y-594.653
G1 X-322.096 Y-594.792
G1 X-317.776 Y-608.329
G1 X-317.212 Y-610.097
G1 X-317.164 Y-610.235
G1 X-313.924 Y-618.977
G1 Z-10.16
G1 X-311.938 Y-624.335
G1 X-311.097 Y-626.604
G1 X-311.044 Y-626.738
G1 X-309.815 Y-629.643
G1 Z-12.7
G1 X-304.883 Y-641.304
G1 X-303.643 Y-644.236
G1 X-303.586 Y-644.363
G1 X-302.398 Y-646.861
G3 X-302.035 Y-647.449 I2.867 J1.364
G1 X-301.54 Y-648.084
G3 X-299.036 Y-649.307 I2.504 J1.952
G1 X-82.861
G3 X-79.747 Y-646.751 I0 J3.175
G1 X-79.686 Y-646.445
G1 Y-658.265
G1 X-79.747 Y-657.959
G3 X-82.861 Y-655.403 I-3.114 J-0.619
G1 X-292.514
G3 X-295.016 Y-656.624 I0 J-3.175
G1 X-295.512 Y-657.259
G3 X-295.877 Y-660.576 I2.502 J-1.954
G1 X-294.699 Y-663.054
G1 X-294.64 Y-663.173
G1 X-286.725 Y-678.173
G1 X-284.114 Y-683.121
G1 X-284.053 Y-683.231
G1 X-275.48 Y-698.024
G1 X-271.753 Y-704.455
G1 X-271.684 Y-704.568
G1 X-262.845 Y-718.448
G1 X-257.641 Y-726.618
G1 X-257.556 Y-726.744
G1 X-252.29 Y-734.195
G1 Z-10.16
G1 X-248.992 Y-738.862
G1 X-245.693 Y-743.529
G1 Z-12.7
G1 X-241.897 Y-748.9
G1 X-241.788 Y-749.045
G1 X-234.138 Y-758.652
G1 X-224.639 Y-770.582
G1 X-224.495 Y-770.749
G1 X-218.53 Y-777.256
G1 X-205.986 Y-790.942
G1 X-205.901 Y-791.031
G1 X-205.813 Y-791.117
G1 X-203.773 Y-793.023
G1 X-203.092 Y-793.659
G3 X-200.925 Y-794.513 I2.167 J2.32
G1 X-26.536
G3 X-23.422 Y-791.957 I0 J3.175
G1 X-23.361 Y-791.651
G1 Y-803.471
G1 X-23.422 Y-803.165
G3 X-26.536 Y-800.609 I-3.114 J-0.619
G1 X-186.325
G3 X-188.829 Y-801.832 I0 J-3.175
G1 X-189.324 Y-802.467
G3 X-188.784 Y-806.913 I2.504 J-1.952
G1 X-188.163 Y-807.402
G1 X-188.144 Y-807.417
G1 X-174.887 Y-817.694
G1 X-172.188 Y-819.786
G3 X-171.955 Y-819.95 I1.945 J2.51
G1 X-160.259 Y-827.44
G1 X-153.712 Y-831.632
G3 X-153.472 Y-831.771 I1.712 J2.674
G1 X-145.796 Y-835.786
G1 X-133.964 Y-841.973
G3 X-133.733 Y-842.082 I1.471 J2.814
G1 X-131.962 Y-842.834
G1 X-128.865 Y-844.148
G1 X-128.843 Y-844.158
G1 X-117.809 Y-848.744
G1 X-112.348 Y-851.012
G1 X-112.146 Y-851.088
G1 X-104.334 Y-853.727
G1 X-101.591 Y-854.654
G1 Z-10.16
G1 X-96.189 Y-856.478
G1 X-96.176 Y-856.482
G1 X-90.754 Y-858.288
G1 Z-12.7
G1 X-90.147 Y-858.49
G1 X-89.938 Y-858.552
G1 X-81.428 Y-860.752
G1 X-81.393 Y-860.761
G1 X-75.031 Y-862.328
G1 X-63.922 Y-865.283
G3 X-63.667 Y-865.34 I0.816 J3.068
G1 X-60.237 Y-865.957
G1 X-53.584 Y-867.182
G1 X-49.308 Y-867.97
G1 X-49.28 Y-867.976
G1 X-46.746 Y-868.419
G1 X-41.271 Y-869.376
G1 X-41.087 Y-869.403
G1 X-40.724 Y-869.445
G1 X-40.622 Y-869.457
G1 X-40.594 Y-869.46
G1 X-35.098 Y-870.05
G1 X-33.664 Y-870.205
G1 X-33.634 Y-870.208
G1 X-30.179 Y-870.548
G1 X-27.849 Y-870.777
G1 X-27.819 Y-870.78
G1 X-25.784 Y-870.96
G1 X-22.807 Y-871.226
G1 X-22.775 Y-871.229
G1 X-21.778 Y-871.308
G1 X-18.289 Y-871.587
G1 X-18.258 Y-871.589
G1 X-18.059 Y-871.603
G1 X-16.982 Y-871.68
G1 X-16.881 Y-871.686
G1 X-14.248 Y-871.79
G1 X-14.242
G1 X-14.004 Y-871.799
G1 X-13.995
G1 X-10.62 Y-871.917
G1 X-10.619
G1 X-10.098 Y-871.935
G1 X-10.085 Y-871.936
G1 X-7.169 Y-872.025
G1 X-7.166
G1 X-6.419 Y-872.047
G1 X-6.406
G1 X-3.868 Y-872.111
G1 X-2.951 Y-872.134
G1 X-2.932
G1 X-0.69 Y-872.177
G1 X-0.687
G1 X0.348 Y-872.196
G1 X0.365 Y-872.197
G1 X2.395 Y-872.223
G1 X3.502 Y-872.238
G1 X3.524
G1 X5.435 Y-872.251
G1 X6.59 Y-872.259
G1 X6.605
G1 X8.469 Y-872.263
G1 X9.651 Y-872.266
G1 X9.664
G1 X11.539 Y-872.263
G1 X12.731 Y-872.261
G1 X12.74
G1 X14.665 Y-872.252
G1 X14.666
G1 X15.847 Y-872.246
G1 X15.858
G1 X17.856 Y-872.229
G1 X18.992 Y-872.219
G1 X19.004
G1 X20.039 Y-872.206
G1 X20.041
G1 X20.582 Y-872.199
G1 X20.591
G1 X21.656 Y-872.182
G1 X22.168 Y-872.175
G1 X22.184 Y-872.174
G1 X23.295 Y-872.153
G1 X23.778 Y-872.144
G1 X23.792
G1 X24.955 Y-872.117
G1 X25.399 Y-872.107
G1 X25.412
G1 X26.643 Y-872.074
G1 X26.645
G1 X27.044 Y-872.063
G1 X27.053
G1 X28.366 Y-872.023
G1 X28.37 Y-872.022
G1 X28.717 Y-872.011
G1 X28.726
G1 X30.138 Y-871.962
G1 X30.426 Y-871.952
G1 X30.437
G1 X31.966 Y-871.893
G1 X32.18 Y-871.885
G1 X32.197 Y-871.884
G1 X33.858 Y-871.814
G1 X33.985 Y-871.809
G1 X34.014 Y-871.808
G1 X35.844 Y-871.724
G1 X35.848
G1 X35.89 Y-871.721
G1 X35.892
G1 X36.669 Y-871.684
G1 X36.792 Y-871.676
G1 X37.994 Y-871.572
G1 X38.027 Y-871.569
G1 X38.163 Y-871.556
G1 X40.103 Y-871.378
G1 X40.129 Y-871.375
G1 X40.544 Y-871.334
G1 X42.318 Y-871.161
G1 X42.351 Y-871.158
G1 X43.085 Y-871.079
G1 X44.657 Y-870.917
G1 X44.686 Y-870.914
G1 X45.806 Y-870.789
G1 X47.143 Y-870.645
G1 X47.172 Y-870.641
G1 X48.753 Y-870.456
G1 X49.801 Y-870.339
G1 X49.832 Y-870.336
G1 X51.978 Y-870.075
G1 X52.673 Y-869.994
G1 X52.698 Y-869.99
G1 X55.539 Y-869.635
G1 X55.789 Y-869.605
G1 X55.811 Y-869.602
G1 X57.401 Y-869.398
G1 X57.608 Y-869.365
G1 X59.5 Y-868.994
G1 X59.541 Y-868.985
G1 X60.038 Y-868.881
G1 X63.425 Y-868.201
G1 X63.46 Y-868.193
G1 X65.135 Y-867.837
G1 X67.741 Y-867.302
G1 X67.772 Y-867.296
G1 X70.924 Y-866.616
G1 X72.494 Y-866.288
G1 X72.525 Y-866.281
G1 X77.538 Y-865.183
G1 X77.744 Y-865.139
G1 X77.777 Y-865.132
G1 X78.535 Y-864.963
G1 X78.655 Y-864.934
G1 X78.774 Y-864.9
G1 X84.002 Y-863.299
G1 X84.042 Y-863.286
G1 X93.045 Y-860.398
G1 Z-10.16
G1 X97.427 Y-858.993
G1 X97.948 Y-858.827
G1 X97.99 Y-858.814
G1 X98.215 Y-858.739
G3 X98.512 Y-858.623 I-1.002 J3.013
G1 X103.727 Y-856.286
G1 Z-12.7
G1 X115.504 Y-851.006
G1 X115.55 Y-850.985
G1 X115.612 Y-850.956
G3 X115.99 Y-850.747 I-1.345 J2.876
G1 X116.117 Y-850.665
G1 X129.856 Y-841.829
G3 X130.312 Y-841.474 I-1.717 J2.67
G1 X136.088 Y-836.054
G1 X136.138 Y-836.006
G1 X141.015 Y-831.225
G3 X141.446 Y-830.7 I-2.223 J2.267
G1 X144.599 Y-825.898
G1 X149.344 Y-819.092
G3 X149.653 Y-818.539 I-2.604 J1.816
G1 X153.907 Y-808.722
G1 X153.937 Y-808.652
G1 X155.376 Y-805.1
G3 X155.513 Y-804.679 I-2.943 J1.192
G1 X158.531 Y-792.619
G1 X159.314 Y-789.592
G3 X159.386 Y-789.224 I-3.074 J0.795
G1 X159.532 Y-788.149
G1 X159.541 Y-788.077
G1 X161.694 Y-768.959
G3 X161.714 Y-768.641 I-3.155 J0.355
G1 X161.8 Y-761.228
G1 Y-761.19
G1 X161.798 Y-752.551
G1 Z-10.16
G1 X161.797 Y-747.066
G1 X161.795 Y-746.943
G1 X161.787 Y-746.819
G1 X161.341 Y-741.122
G1 Z-12.7
G1 X160.128 Y-725.631
G1 X160.064 Y-724.695
G1 X160.043 Y-724.489
G1 X159.937 Y-723.703
G1 X157.122 Y-702.446
G1 X157.096 Y-702.284
G1 X154.607 Y-688.853
G1 X153.251 Y-681.092
G1 X153.222 Y-680.947
G1 X149.444 Y-664.022
G1 X148.794 Y-661.019
G1 X148.765 Y-660.896
G1 X148.554 Y-660.08
G1 X144.084 Y-642.228
G1 X144.052 Y-642.111
G1 X142.691 Y-637.44
G1 X139.079 Y-624.639
G1 X139.046 Y-624.532
G1 X136.812 Y-617.56
G1 X133.895 Y-608.188
G1 X133.863 Y-608.094
G1 X131.007 Y-599.839
G1 X128.644 Y-592.815
G1 X128.616 Y-592.734
G1 X127.337 Y-589.246
G1 Z-10.16
G1 X125.365 Y-583.868
G1 X123.447 Y-578.498
G1 Z-12.7
G1 X123.432 Y-578.455
G1 X123.408 Y-578.391
G1 X119.959 Y-569.354
G1 X118.359 Y-565.048
G1 X118.342 Y-565.002
G1 X114.868 Y-556.077
G1 X113.522 Y-552.532
G1 X113.514 Y-552.51
G1 X110.161 Y-543.865
G1 X109.026 Y-540.864
G1 X103.138 Y-524.683
G1 X101.389 Y-519.76
G1 X98.202 Y-509.35
G1 X97.339 Y-506.462
G1 X94.927 Y-496.769
G1 X94.314 Y-494.242
G1 X92.582 Y-485.189
G1 X92.163 Y-482.943
G1 X91.777 Y-480.107
G1 Z-10.16
G1 X91.006 Y-474.439
G1 X90.74 Y-472.435
G1 X90.496 Y-468.747
G1 Z-12.7
G1 X89.693 Y-456.601
G1 X89.456 Y-452.918
G1 X89.322 Y-438.004
G1 X89.292 Y-434.545
G1 X89.426 Y-419.587
G1 X89.456 Y-416.175
G1 X90.5 Y-400.387
G1 Y-400.382
G1 X90.74 Y-396.659
G1 X91.89 Y-388.211
G1 X91.891 Y-388.201
G1 X92.163 Y-386.15
G1 X93.887 Y-377.143
G1 X93.889 Y-377.128
G1 X94.314 Y-374.851
G1 X96.71 Y-365.222
G1 X96.715 Y-365.204
G1 X97.339 Y-362.631
G1 X100.503 Y-352.299
G1 X100.51 Y-352.278
G1 X101.393 Y-349.319
G1 X104.646 Y-340.127
G1 X104.654 Y-340.104
G1 X105.632 Y-337.269
G1 X109.333 Y-327.535
G1 X109.342 Y-327.51
G1 X110.564 Y-324.212
G1 X114.532 Y-314.033
G1 X114.542 Y-314.006
G1 X116.041 Y-310.057
G1 X120.063 Y-299.629
G1 X120.074 Y-299.601
G1 X121.909 Y-294.709
G1 X121.913 Y-294.698
G1 X125.748 Y-284.356
G1 X125.759 Y-284.327
G1 X128.009 Y-278.072
G1 X128.02 Y-278.039
G1 X131.413 Y-268.273
G1 X131.424 Y-268.242
G1 X134.18 Y-260.037
G1 X134.196 Y-259.987
G1 X136.899 Y-251.476
G1 X136.909 Y-251.443
G1 X140.251 Y-240.504
G1 X140.27 Y-240.44
G1 X140.518 Y-239.564
G1 Z-10.16
G1 X142.063 Y-234.1
G1 X142.073 Y-234.064
G1 X143.564 Y-228.547
G1 Z-12.7
G1 X146.042 Y-219.371
G1 X146.057 Y-219.313
G1 X146.599 Y-217.144
G1 X146.608 Y-217.108
G1 X149.47 Y-205.056
G1 X149.779 Y-203.827
G1 X149.792 Y-203.772
G1 X149.846 Y-203.539
G1 X149.853 Y-203.51
G1 X152.809 Y-190.19
G1 X152.821 Y-190.131
G1 X153.481 Y-186.867
G1 X153.487 Y-186.835
G1 X155.474 Y-176.461
G1 X155.486 Y-176.397
G1 X156.692 Y-169.315
G1 X156.698 Y-169.278
G1 X157.719 Y-162.819
G1 X157.729 Y-162.748
G1 X159.298 Y-151.132
G1 X159.305 Y-151.082
G1 X159.502 Y-149.424
G1 X159.51 Y-149.347
G1 X159.886 Y-145.36
G1 X160.88 Y-136.484
G1 X160.89 Y-136.379
G1 X161.181 Y-132.664
G1 X161.185 Y-132.615
G1 X161.729 Y-123.932
G1 X161.734 Y-123.817
G1 X161.983 Y-114.398
G1 X161.984 Y-114.322
G1 X161.99 Y-111.963
G1 X161.988 Y-111.84
G1 X161.841 Y-107.783
G1 X161.738 Y-100.797
G1 X161.732 Y-100.646
G1 X161.479 Y-96.607
G1 X161.471 Y-96.506
G1 X160.87 Y-90.147
G1 X160.851 Y-89.991
G1 X159.541 Y-80.949
G1 X159.471 Y-80.358
G1 X159.444 Y-80.178
G1 X159.366 Y-79.739
G1 X159.346 Y-79.637
G1 X158.146 Y-73.955
G1 Z-10.16
G1 X157.883 Y-72.715
G1 X157.846 Y-72.559
G1 X156.778 Y-68.522
G1 X156.746 Y-68.407
G1 X155.885 Y-65.585
G1 X155.836 Y-65.439
G1 X154.954 Y-62.979
G1 Z-12.7
G1 X154.079 Y-60.541
G1 X153.484 Y-58.762
G3 X153.383 Y-58.5 I-3.011 J-1.007
G1 X153.15 Y-57.965
G1 X153.124 Y-57.906
G1 X150.082 Y-51.297
G3 X149.967 Y-51.071 I-2.884 J-1.327
G1 X148.521 Y-48.494
G1 X148.439 Y-48.356
G1 X145.906 Y-44.33
G1 X145.786 Y-44.153
G1 X142.648 Y-39.838
G1 X142.574 Y-39.742
G1 X142.498 Y-39.648
G1 X141 Y-37.888
G1 X140.889 Y-37.764
G1 X136.392 Y-33.01
G1 X135.709 Y-32.268
G1 X135.58 Y-32.136
G1 X135.286 Y-31.852
G1 X135.196 Y-31.768
G1 X135.103 Y-31.688
G1 X129.492 Y-27.05
G1 X129.387 Y-26.967
G1 X126.436 Y-24.73
G3 X126.22 Y-24.579 I-1.918 J-2.53
G1 X122.688 Y-22.337
G1 X122.612 Y-22.29
G1 X115.893 Y-18.283
G3 X115.668 Y-18.161 I-1.626 J-2.727
G1 X115.644 Y-18.149
G1 X115.608 Y-18.132
G1 X115.574 Y-18.116
G1 X108.385 Y-14.666
G1 X108.324 Y-14.638
G1 X103.646 Y-12.515
G1 X103.477 Y-12.444
G1 X101.004 Y-11.49
G1 X100.961 Y-11.474
G1 X98.102 Y-10.418
G1 X93.851 Y-8.839
G1 X93.802 Y-8.822
G1 X90.175 Y-7.541
G1 X90.023 Y-7.492
G1 X86.736 Y-6.515
G1 X86.703 Y-6.505
G1 X83.924 Y-5.712
G1 X81.398 Y-4.984
G1 X81.369 Y-4.976
G1 X77.957 Y-4.027
G1 X77.317 Y-3.845
G1 X77.286 Y-3.836
G1 X75.773 Y-3.424
G1 X75.619 Y-3.386
G1 X73.206 Y-2.856
G1 X73.184 Y-2.852
G1 X72.454 Y-2.697
G1 X69.474 Y-2.053
G1 X69.45 Y-2.047
G1 X67.694 Y-1.682
G1 X65.997 Y-1.321
G1 X65.971 Y-1.315
G1 X64.942 Y-1.105
G1 Z-10.16
G1 X63.376 Y-0.785
G1 X62.757 Y-0.656
G1 X62.729 Y-0.65
G1 X60.673 Y-0.238
G1 X60.517 Y-0.211
G1 X59.53 Y-0.064
G1 X59.512 Y-0.062
G1 X59.318 Y-0.034
G1 X56.624 Y0.359
G1 X56.604 Y0.361
G1 X55.878 Y0.463
G1 X53.914 Y0.742
G1 X53.894 Y0.744
G1 X53.665 Y0.775
G1 Z-12.7
G1 X52.729 Y0.902
G1 X51.377 Y1.088
G1 X51.357 Y1.091
G1 X49.83 Y1.291
G1 X48.993 Y1.402
G1 X48.973 Y1.405
G1 X47.141 Y1.636
G1 X46.742 Y1.687
G1 X46.724 Y1.689
G1 X44.631 Y1.942
G1 X44.628
G1 X44.606 Y1.945
G1 X44.592 Y1.947
G1 X44.46 Y1.962
G1 X44.339 Y1.974
G1 X42.401 Y2.122
G1 X42.393 Y2.123
G1 X42.204 Y2.136
G1 X42.2 Y2.137
G1 X40.406 Y2.267
G1 X40.399 Y2.268
G1 X40.035 Y2.293
G1 X40.029 Y2.294
G1 X38.488 Y2.399
G1 X38.482
G1 X37.964 Y2.434
G1 X37.957
G1 X36.639 Y2.519
G1 X36.635
G1 X35.981 Y2.56
G1 X35.972 Y2.561
G1 X34.854 Y2.628
G1 X34.85
G1 X34.078 Y2.673
G1 X34.067 Y2.674
G1 X33.125 Y2.726
G1 X33.122
G1 X32.244 Y2.774
G1 X32.232 Y2.775
G1 X31.445 Y2.814
G1 X31.443
G1 X30.472 Y2.863
G1 X30.458 Y2.864
G1 X29.807 Y2.893
G1 X29.805
G1 X28.75 Y2.941
G1 X28.735 Y2.942
G1 X28.201 Y2.963
G1 X28.2
G1 X27.069 Y3.009
G1 X27.053
G1 X26.621 Y3.024
G1 X26.619 Y3.025
G1 X25.419 Y3.066
G1 X25.403 Y3.067
G1 X25.056 Y3.077
G1 X25.055
G1 X23.79 Y3.114
G1 X23.776 Y3.115
G1 X23.5 Y3.122
G1 X22.179 Y3.154
G1 X22.165
G1 X21.949 Y3.159
G1 X20.579 Y3.186
G1 X20.568
G1 X20.401 Y3.189
G1 X18.99 Y3.212
G1 X18.975
G1 X18.723 Y3.215
G1 X15.839 Y3.248
G1 X15.822
G1 X15.681 Y3.249
G1 X12.716 Y3.267
G1 X12.703
G1 X12.622 Y3.268
G1 X9.636 Y3.274
G0 Z6.096

G0 Z6.096
M5
M30
