(1001)
(T1  D=6.35 CR=0 - ZMIN=-7.366 - FLAT END MILL)
G0 G40 G90 G17
G21

(2D CONTOUR2)
T1 M6
M3 S5000
G0 X157.918 Y-245.992
G0 Z18.796
G1 Z16.891 F508.
G1 Z6.096
G3 X157.432 Y-245.955 I-0.486 J-3.138
G1 X-0.403
G3 X-2.167 Y-246.49 I0 J-3.175
G1 X-2.427 Y-246.664
G1 X-2.253 Y-246.404
G3 X-1.718 Y-244.64 I-2.64 J1.764
G1 Y-241.174
G3 X-2.253 Y-239.41 I-3.175 J0
G1 X-2.427 Y-239.15
G1 X-2.167 Y-239.324
G3 X-0.403 Y-239.859 I1.763 J2.64
G1 X152.496
G3 X155 Y-238.636 I0 J3.175
G1 X155.495 Y-238.001
G3 X156.013 Y-235.076 I-2.504 J1.952
G1 X155.912 Y-234.761
G1 X155.376 Y-233.052
G1 X154.59 Y-230.428
G1 X154.088 Y-228.692
G1 X153.345 Y-226.033
G1 X152.874 Y-224.275
G1 X152.168 Y-221.585
G1 X151.725 Y-219.806
G1 X151.052 Y-217.092
G1 X150.634 Y-215.3
G1 X150.632 Y-215.29
G1 X149.985 Y-212.559
G1 X149.589 Y-210.759
G1 X149.584 Y-210.741
G1 X148.962 Y-207.997
G1 X148.582 Y-206.191
G1 X148.576 Y-206.161
G1 X147.971 Y-203.413
G1 X147.605 Y-201.604
G1 X147.596 Y-201.563
G1 X147.003 Y-198.814
G1 X146.647 Y-197.006
G1 X146.637 Y-196.954
G1 X146.049 Y-194.207
G1 X145.7 Y-192.403
G1 X145.688 Y-192.342
G1 X145.101 Y-189.602
G1 X144.755 Y-187.804
G1 X144.74 Y-187.734
G1 X144.15 Y-185.005
G1 X143.801 Y-183.215
G1 X143.783 Y-183.127
G1 X142.56 Y-177.686
G1 X141.836 Y-174.114
G1 X141.808 Y-173.991
G1 X140.502 Y-168.648
G1 X139.724 Y-165.147
G1 X139.688 Y-165.001
G1 X138.266 Y-159.777
G1 X137.41 Y-156.36
G1 X137.371 Y-156.218
G1 X135.83 Y-151.092
G1 X134.896 Y-147.745
G1 X134.857 Y-147.614
G1 X133.205 Y-142.55
G1 X132.197 Y-139.245
G1 X132.159 Y-139.128
G1 X130.406 Y-134.09
G1 X129.328 Y-130.802
G1 X129.293 Y-130.7
G1 X127.446 Y-125.654
G1 X126.304 Y-122.357
G1 X126.275 Y-122.277
G1 X125.325 Y-119.753
G1 X124.736 Y-118.106
G1 X124.711 Y-118.04
G1 X123.74 Y-115.501
G1 X123.137 Y-113.843
G1 X123.114 Y-113.781
G1 X122.123 Y-111.222
G1 X121.506 Y-109.547
G1 X121.484 Y-109.49
G1 X121.377 Y-109.216
G3 X120.922 Y-108.417 I-2.957 J-1.155
G1 X120.426 Y-107.782
G3 X117.924 Y-106.561 I-2.502 J-1.954
G1 X-4.266
G3 X-6.03 Y-107.096 I0 J-3.175
G1 X-6.29 Y-107.27
G1 X-6.117 Y-107.01
G3 X-5.581 Y-105.246 I-2.64 J1.764
G1 Y-101.78
G3 X-6.117 Y-100.016 I-3.175 J0
G1 X-6.29 Y-99.757
G1 X-6.03 Y-99.93
G3 X-4.266 Y-100.465 I1.764 J2.64
G1 X112.631
G3 X115.135 Y-99.242 I0 J3.175
G1 X115.63 Y-98.607
G3 X116.079 Y-95.489 I-2.504 J1.952
G1 X115.363 Y-93.676
G1 X114.696 Y-91.911
G1 X114.675 Y-91.857
G1 X113.596 Y-89.149
G1 X112.913 Y-87.362
G1 X112.889 Y-87.301
G1 X111.781 Y-84.575
G1 X111.081 Y-82.775
G1 X111.052 Y-82.704
G1 X109.912 Y-79.969
G1 X109.187 Y-78.16
G1 X109.155 Y-78.082
G1 X107.975 Y-75.348
G1 X107.224 Y-73.538
G1 X107.186 Y-73.452
G1 X105.96 Y-70.727
G1 X105.177 Y-68.921
G1 X105.135 Y-68.829
G1 X103.858 Y-66.124
G1 X103.04 Y-64.329
G1 X102.992 Y-64.228
G1 X101.656 Y-61.552
G1 X100.8 Y-59.776
G1 X100.745 Y-59.667
G1 X99.345 Y-57.03
G1 X98.446 Y-55.277
G1 X98.383 Y-55.161
G1 X96.914 Y-52.571
G1 X95.967 Y-50.85
G1 X95.895 Y-50.726
G1 X94.35 Y-48.194
G1 X93.352 Y-46.51
G1 X93.27 Y-46.379
G1 X91.642 Y-43.913
G1 X90.589 Y-42.273
G1 X90.497 Y-42.136
G1 X88.78 Y-39.746
G1 X87.668 Y-38.155
G1 X87.563 Y-38.014
G1 X85.752 Y-35.708
G1 X84.577 Y-34.174
G1 X84.458 Y-34.029
G1 X82.546 Y-31.818
G1 X81.303 Y-30.347
G1 X81.171 Y-30.199
G1 X79.151 Y-28.092
G1 X77.837 Y-26.69
G1 X77.691 Y-26.545
G1 X75.56 Y-24.548
G1 X74.172 Y-23.221
G1 X74.022 Y-23.087
G1 X71.784 Y-21.205
G1 X70.324 Y-19.955
G1 X70.173 Y-19.833
G1 X67.837 Y-18.067
G1 X66.311 Y-16.894
G1 X66.16 Y-16.784
G1 X63.732 Y-15.136
G1 X62.145 Y-14.042
G1 X61.994 Y-13.943
G1 X59.483 Y-12.414
G1 X57.84 Y-11.399
G1 X57.689 Y-11.312
G1 X55.102 Y-9.903
G1 X53.408 Y-8.969
G1 X53.258 Y-8.891
G1 X50.603 Y-7.605
G1 X48.863 Y-6.752
G1 X48.714 Y-6.684
G1 X45.998 Y-5.522
G1 X44.217 Y-4.752
G1 X44.069 Y-4.693
G1 X41.301 Y-3.656
G1 X39.483 Y-2.97
G1 X39.337 Y-2.918
G1 X36.523 Y-2.01
G1 X34.675 Y-1.407
G1 X34.529 Y-1.364
G1 X31.677 Y-0.584
G1 X29.804 Y-0.068
G1 X29.658 Y-0.031
G1 X26.777 Y0.618
G1 X24.883 Y1.048
G1 X24.737 Y1.077
G1 X21.834 Y1.594
G1 X19.925 Y1.936
G1 X19.778 Y1.959
G1 X16.862 Y2.342
G1 X14.942 Y2.596
G1 X14.795 Y2.612
G1 X11.872 Y2.86
G1 X9.947 Y3.024
G1 X9.798 Y3.033
G1 X6.877 Y3.144
G1 X4.953 Y3.217
G1 X4.803 Y3.219
G1 X1.89 Y3.192
G1 X-0.029 Y3.175
G1 X-0.177 Y3.17
G1 X-3.077 Y3.008
G1 X-4.99 Y2.901
G1 X-5.135 Y2.889
G1 X-8.02 Y2.595
G1 X-9.924 Y2.4
G1 X-10.065 Y2.383
G1 X-12.933 Y1.959
G1 X-14.826 Y1.679
G1 X-14.963 Y1.655
G1 X-17.811 Y1.105
G1 X-19.691 Y0.742
G1 X-19.824 Y0.713
G1 X-22.65 Y0.04
G1 X-24.516 Y-0.406
G1 X-24.645 Y-0.439
G1 X-27.445 Y-1.233
G1 X-29.295 Y-1.757
G1 X-29.419 Y-1.795
G1 X-32.192 Y-2.706
G1 X-34.024 Y-3.308
G1 X-34.144 Y-3.35
G1 X-36.887 Y-4.375
G1 X-38.699 Y-5.053
G1 X-38.814 Y-5.099
G1 X-41.525 Y-6.235
G1 X-43.315 Y-6.986
G1 X-43.426 Y-7.035
G1 X-46.101 Y-8.279
G1 X-47.869 Y-9.101
G1 X-47.976 Y-9.153
G1 X-50.613 Y-10.503
G1 X-52.356 Y-11.394
G1 X-52.458 Y-11.449
G1 X-55.055 Y-12.9
G1 X-56.771 Y-13.86
G1 X-56.869 Y-13.917
G1 X-59.423 Y-15.467
G1 X-61.111 Y-16.492
G1 X-61.205 Y-16.551
G1 X-63.714 Y-18.198
G1 X-65.371 Y-19.286
G1 X-65.462 Y-19.347
G1 X-67.922 Y-21.086
G1 X-69.548 Y-22.236
G1 X-69.675 Y-22.33
G1 X-74.443 Y-26.07
G1 X-77.595 Y-28.541
G1 X-77.742 Y-28.664
G1 X-82.301 Y-32.706
G1 X-85.314 Y-35.378
G1 X-85.439 Y-35.494
G1 X-89.783 Y-39.783
G1 X-92.653 Y-42.617
G1 X-92.759 Y-42.726
G1 X-96.88 Y-47.205
G1 X-99.604 Y-50.164
G1 X-99.694 Y-50.266
G1 X-103.586 Y-54.877
G1 X-106.159 Y-57.925
G1 X-106.237 Y-58.02
G1 X-109.892 Y-62.707
G1 X-112.309 Y-65.805
G1 X-112.376 Y-65.893
G1 X-115.791 Y-70.6
G1 X-118.047 Y-73.711
G1 X-118.105 Y-73.794
G1 X-121.271 Y-78.463
G1 X-123.363 Y-81.549
G1 X-123.416 Y-81.63
G1 X-126.33 Y-86.223
G1 X-128.256 Y-89.258
G1 X-128.31 Y-89.347
G1 X-130.989 Y-93.891
G1 X-132.76 Y-96.894
G1 X-132.816 Y-96.993
G1 X-135.279 Y-101.535
G1 X-136.907 Y-104.536
G1 X-136.962 Y-104.643
G1 X-139.229 Y-109.227
G1 X-140.728 Y-112.257
G1 X-140.78 Y-112.368
G1 X-142.871 Y-117.042
G1 X-144.254 Y-120.131
G1 X-144.301 Y-120.243
G1 X-146.236 Y-125.05
G1 X-147.515 Y-128.227
G1 X-147.556 Y-128.335
G1 X-149.356 Y-133.323
G1 X-150.546 Y-136.619
G1 X-150.581 Y-136.722
G1 X-152.264 Y-141.935
G1 X-153.377 Y-145.38
G1 X-153.406 Y-145.474
G1 X-154.988 Y-150.945
G1 X-156.034 Y-154.56
G1 X-156.058 Y-154.647
G1 X-157.532 Y-160.346
G1 X-158.506 Y-164.113
G1 X-158.526 Y-164.196
G1 X-159.88 Y-170.083
G1 X-160.775 Y-173.974
G1 X-160.793 Y-174.056
G1 X-162.015 Y-180.089
G1 X-162.822 Y-184.076
G1 X-162.837 Y-184.157
G1 X-163.915 Y-190.293
G1 X-164.627 Y-194.349
G1 X-164.64 Y-194.431
G1 X-165.562 Y-200.63
G1 X-166.171 Y-204.727
G1 X-166.183 Y-204.812
G1 X-166.937 Y-211.031
G1 X-167.435 Y-215.141
G1 X-167.444 Y-215.23
G1 X-168.018 Y-221.427
G1 X-168.397 Y-225.523
G1 X-168.405 Y-225.618
G1 X-168.789 Y-231.759
G1 X-169.042 Y-235.818
G1 X-169.046 Y-235.917
G1 X-169.236 Y-241.996
G1 X-169.362 Y-246.013
G1 X-169.364 Y-246.116
G1 X-169.359 Y-252.134
G1 X-169.356 Y-256.11
G1 X-169.354 Y-256.216
G1 X-169.152 Y-262.174
G1 X-169.019 Y-266.111
G1 X-169.014 Y-266.219
G1 X-168.614 Y-272.119
G1 X-168.35 Y-276.017
G1 X-168.34 Y-276.127
G1 X-167.741 Y-281.97
G1 X-167.344 Y-285.833
G1 X-167.331 Y-285.943
G1 X-166.531 Y-291.73
G1 X-166.002 Y-295.554
G1 X-165.984 Y-295.667
G1 X-164.98 Y-301.399
G1 X-164.317 Y-305.186
G1 X-164.296 Y-305.299
G1 X-163.089 Y-310.978
G1 X-162.292 Y-314.73
G1 X-162.266 Y-314.84
G1 X-160.861 Y-320.464
G1 X-159.932 Y-324.181
G1 X-159.904 Y-324.287
G1 X-158.306 Y-329.856
G1 X-157.25 Y-333.537
G1 X-157.218 Y-333.639
G1 X-155.433 Y-339.152
G1 X-154.253 Y-342.796
G1 X-154.219 Y-342.895
G1 X-152.252 Y-348.351
G1 X-150.953 Y-351.957
G1 X-150.917 Y-352.052
G1 X-148.774 Y-357.452
G1 X-147.357 Y-361.021
G1 X-147.32 Y-361.111
G1 X-145.007 Y-366.452
G1 X-143.479 Y-369.982
G1 X-143.431 Y-370.087
G1 X-142.101 Y-372.877
G1 X-142.084 Y-372.911
G1 X-139.185 Y-378.812
G1 X-136.311 Y-384.769
G1 X-136.293 Y-384.804
G1 X-134.911 Y-387.581
G1 X-134.859 Y-387.682
G1 X-132.063 Y-392.826
G1 X-132.062 Y-392.827
G1 X-130.213 Y-396.226
G1 X-130.164 Y-396.313
G1 X-127.208 Y-401.362
G1 X-125.254 Y-404.699
G1 X-125.199 Y-404.79
G1 X-122.082 Y-409.727
G1 X-120.022 Y-412.99
G1 X-119.96 Y-413.084
G1 X-116.682 Y-417.891
G1 X-114.516 Y-421.068
G1 X-114.448 Y-421.164
G1 X-111.009 Y-425.824
G1 X-108.736 Y-428.904
G1 X-108.659 Y-429.004
G1 X-105.058 Y-433.499
G1 X-102.678 Y-436.47
G1 X-102.592 Y-436.573
G1 X-98.829 Y-440.885
G1 X-96.342 Y-443.736
G1 X-96.247 Y-443.84
G1 X-92.321 Y-447.958
G1 X-89.726 Y-450.679
G1 X-89.628 Y-450.778
G1 X-85.54 Y-454.705
G1 X-82.838 Y-457.3
G1 X-82.738 Y-457.392
G1 X-78.49 Y-461.137
G1 X-75.682 Y-463.612
G1 X-75.581 Y-463.697
G1 X-71.173 Y-467.269
G1 X-68.259 Y-469.63
G1 X-68.159 Y-469.708
G1 X-63.592 Y-473.115
G1 X-60.574 Y-475.367
G1 X-60.475 Y-475.438
G1 X-55.751 Y-478.69
G1 X-52.629 Y-480.84
G1 X-52.532 Y-480.904
G1 X-47.651 Y-484.01
G1 X-44.425 Y-486.063
G1 X-44.333 Y-486.119
G1 X-39.296 Y-489.088
G1 X-35.967 Y-491.05
G1 X-35.878 Y-491.101
G1 X-30.69 Y-493.937
G1 X-27.261 Y-495.811
G1 X-27.17 Y-495.859
G1 X-21.848 Y-498.548
G1 X-18.33 Y-500.326
G1 X-18.235 Y-500.372
G1 X-12.798 Y-502.896
G1 X-9.205 Y-504.564
G1 X-9.106 Y-504.608
G1 X-3.574 Y-506.95
G1 X0.082 Y-508.497
G1 X0.187 Y-508.539
G1 X5.793 Y-510.679
G1 X9.497 Y-512.093
G1 X9.609 Y-512.134
G1 X15.27 Y-514.055
G1 X19.01 Y-515.324
G1 X19.131 Y-515.362
G1 X24.825 Y-517.045
G1 X28.589 Y-518.157
G1 X28.718 Y-518.192
G1 X34.427 Y-519.62
G1 X38.2 Y-520.563
G1 X38.338 Y-520.594
G1 X44.044 Y-521.753
G1 X47.815 Y-522.52
G1 X47.95 Y-522.545
G1 X53.651 Y-523.45
G1 X57.418 Y-524.049
G1 X57.545 Y-524.066
G1 X63.24 Y-524.737
G1 X67.003 Y-525.181
G1 X67.121 Y-525.193
G1 X72.81 Y-525.65
G1 X76.57 Y-525.952
G1 X76.678 Y-525.959
G1 X82.361 Y-526.222
G1 X86.117 Y-526.396
G1 X86.214 Y-526.399
G1 X91.892 Y-526.488
G1 X95.644 Y-526.547
G1 X95.731
G1 X98.671 Y-526.513
G3 X101.81 Y-523.338 I-0.037 J3.175
G1 Y-519.962
G3 X101.275 Y-518.198 I-3.175 J0
G1 X101.101 Y-517.938
G1 X101.361 Y-518.112
G3 X103.125 Y-518.647 I1.764 J2.64
G1 X166.089
G3 X166.954 Y-518.527 I0 J3.175
G1 X167.353 Y-518.414
G1 X167.356 Y-518.413
G1 X169.193 Y-517.891
G1 X170.948 Y-517.392
G1 X171.091 Y-517.347
G1 X173.798 Y-516.438
G1 X173.805 Y-516.435
G1 X175.579 Y-515.834
G1 X175.677 Y-515.799
G1 X178.365 Y-514.789
G1 X178.371 Y-514.787
G1 X180.13 Y-514.122
G1 X180.232 Y-514.081
G1 X182.9 Y-512.965
G1 X182.906 Y-512.963
G1 X184.647 Y-512.231
G1 X184.751 Y-512.185
G1 X187.399 Y-510.958
G1 X187.405 Y-510.955
G1 X189.128 Y-510.152
G1 X189.234 Y-510.1
G1 X191.858 Y-508.757
G1 X191.863 Y-508.754
G1 X193.564 Y-507.879
G1 X193.668 Y-507.823
G1 X196.259 Y-506.366
G1 X196.266 Y-506.363
G1 X197.939 Y-505.417
G1 X198.041 Y-505.356
G1 X200.587 Y-503.788
G1 X200.592 Y-503.785
G1 X202.228 Y-502.773
G1 X202.331 Y-502.707
G1 X204.82 Y-501.032
G1 X204.826 Y-501.028
G1 X206.417 Y-499.952
G1 X206.518 Y-499.881
G1 X208.938 Y-498.103
G1 X208.945 Y-498.097
G1 X210.485 Y-496.959
G1 X210.586 Y-496.881
G1 X212.924 Y-495.003
G1 X212.931 Y-494.998
G1 X214.41 Y-493.803
G1 X214.512 Y-493.717
G1 X216.757 Y-491.743
G1 X216.765 Y-491.736
G1 X218.177 Y-490.486
G1 X218.278 Y-490.392
G1 X220.416 Y-488.326
G1 X220.424 Y-488.318
G1 X221.762 Y-487.016
G1 X221.865 Y-486.912
G1 X223.884 Y-484.757
G1 X223.891 Y-484.749
G1 X225.148 Y-483.398
G1 X225.252 Y-483.281
G1 X227.139 Y-481.041
G1 X227.147 Y-481.032
G1 X228.315 Y-479.635
G1 X228.418 Y-479.504
G1 X230.16 Y-477.184
G1 X230.169 Y-477.172
G1 X231.241 Y-475.73
G1 X231.341 Y-475.588
G1 X232.927 Y-473.191
G1 X232.936 Y-473.177
G1 X233.906 Y-471.694
G1 X234.004 Y-471.534
G1 X235.418 Y-469.066
G1 X235.427 Y-469.051
G1 X236.288 Y-467.528
G1 X236.38 Y-467.351
G1 X237.611 Y-464.815
G1 X237.62 Y-464.797
G1 X238.365 Y-463.236
G1 X238.45 Y-463.043
G1 X239.485 Y-460.445
G1 X239.494 Y-460.422
G1 X240.116 Y-458.825
G1 X240.188 Y-458.617
G1 X241.015 Y-455.961
G1 X241.024 Y-455.932
G1 X241.515 Y-454.301
G1 X241.572 Y-454.084
G1 X242.182 Y-451.376
G1 X242.189 Y-451.344
G1 X242.546 Y-449.681
G1 X242.583 Y-449.476
G1 X242.986 Y-446.727
G1 X242.991 Y-446.693
G1 X243.22 Y-445.004
G1 X243.24 Y-444.817
G1 X243.451 Y-442.038
G1 X243.453 Y-442.002
G1 X243.563 Y-440.292
G1 X243.57 Y-440.127
G1 X243.604 Y-437.33
G1 Y-437.289
G1 X243.603 Y-435.564
G1 X243.6 Y-435.422
G1 X243.473 Y-432.62
G1 X243.471 Y-432.578
G1 X243.369 Y-430.844
G1 X243.359 Y-430.719
G1 X243.084 Y-427.922
G1 X243.079 Y-427.879
G1 X242.884 Y-426.143
G1 X242.871 Y-426.038
G1 X242.465 Y-423.257
G1 X242.458 Y-423.211
G1 X242.179 Y-421.479
G1 X242.163 Y-421.392
G1 X241.641 Y-418.64
G1 X241.632 Y-418.591
G1 X241.277 Y-416.869
G1 X241.261 Y-416.799
G1 X240.637 Y-414.085
G1 X240.625 Y-414.034
G1 X240.204 Y-412.33
G1 X240.19 Y-412.274
G1 X239.48 Y-409.611
G1 X239.465 Y-409.559
G1 X238.986 Y-407.878
G1 X238.973 Y-407.833
G1 X238.19 Y-405.231
G1 X238.174 Y-405.179
G1 X237.647 Y-403.53
G1 X237.637 Y-403.498
G1 X236.798 Y-400.967
G1 X236.779 Y-400.912
G1 X236.212 Y-399.301
G1 X236.204 Y-399.279
G1 X235.322 Y-396.83
G1 X235.301 Y-396.772
G1 X234.703 Y-395.208
G1 X234.699 Y-395.2
G1 X233.79 Y-392.842
G1 X233.766 Y-392.78
G1 X233.147 Y-391.271
G1 X232.226 Y-389.017
G1 X232.198 Y-388.951
G1 X231.737 Y-387.892
G3 X231.33 Y-387.207 I-2.911 J-1.267
G1 X230.835 Y-386.572
G3 X228.331 Y-385.349 I-2.504 J-1.952
G1 X50.397
G3 X48.634 Y-385.884 I0 J-3.175
G1 X48.374 Y-386.058
G1 X48.547 Y-385.798
G3 X49.082 Y-384.034 I-2.64 J1.764
G1 Y-380.568
G3 X48.547 Y-378.804 I-3.175 J0
G1 X48.374 Y-378.544
G1 X48.634 Y-378.718
G3 X50.397 Y-379.253 I1.763 J2.64
G1 X221.891
G3 X224.395 Y-378.03 I0 J3.175
G1 X224.89 Y-377.395
G3 X225.221 Y-374.013 I-2.504 J1.952
G1 X224.531 Y-372.645
G1 X224.484 Y-372.556
G1 X223.894 Y-371.473
G1 X223.054 Y-369.86
G1 X223 Y-369.761
G1 X222.42 Y-368.738
G1 X221.595 Y-367.202
G1 X221.539 Y-367.101
G1 X220.965 Y-366.121
G1 X219.33 Y-363.187
G1 X219.268 Y-363.08
G1 X218.128 Y-361.21
G1 X216.537 Y-358.447
G1 X216.468 Y-358.334
G1 X215.364 Y-356.588
G1 X213.817 Y-353.926
G1 X213.746 Y-353.81
G1 X212.676 Y-352.139
G1 X211.17 Y-349.501
G1 X211.1 Y-349.385
G1 X210.06 Y-347.732
G1 X208.587 Y-345.038
G1 X208.522 Y-344.925
G1 X207.502 Y-343.23
G1 X206.048 Y-340.407
G1 X205.991 Y-340.302
G1 X204.976 Y-338.501
G1 X203.514 Y-335.519
G1 X203.464 Y-335.421
G1 X202.441 Y-333.504
G1 X200.948 Y-330.359
G1 X200.905 Y-330.272
G1 X199.862 Y-328.238
G1 X198.319 Y-324.933
G1 X198.28 Y-324.852
G1 X197.204 Y-322.707
G1 X195.591 Y-319.244
G1 X195.556 Y-319.171
G1 X194.433 Y-316.911
G1 X192.728 Y-313.294
G1 X192.697 Y-313.23
G1 X191.517 Y-310.863
G1 X190.629 Y-309.008
G1 X190.601 Y-308.951
G1 X189.99 Y-307.739
G1 X189.073 Y-305.847
G1 X189.046 Y-305.792
G1 X188.415 Y-304.553
G1 X187.464 Y-302.622
G1 X187.438 Y-302.571
G1 X186.785 Y-301.303
G1 X185.798 Y-299.335
G1 X185.774 Y-299.287
G1 X185.097 Y-297.992
G1 X184.073 Y-295.987
G1 X184.05 Y-295.943
G1 X183.351 Y-294.625
G1 X182.295 Y-292.584
G1 X182.274 Y-292.544
G1 X181.555 Y-291.202
G1 X180.473 Y-289.126
G1 X180.455 Y-289.091
G1 X179.721 Y-287.725
G1 X178.621 Y-285.617
G1 X178.604 Y-285.584
G1 X177.858 Y-284.193
G1 X176.743 Y-282.049
G1 X176.729 Y-282.021
G1 X175.976 Y-280.607
G1 X174.853 Y-278.426
G1 X174.84 Y-278.403
G1 X174.084 Y-276.963
G1 X172.958 Y-274.747
G1 X172.948 Y-274.728
G1 X172.191 Y-273.263
G1 X171.069 Y-271.011
G1 X171.061 Y-270.995
G1 X170.309 Y-269.507
G1 X169.195 Y-267.217
G1 X169.189 Y-267.205
G1 X168.445 Y-265.692
G1 X167.347 Y-263.366
G1 X167.343 Y-263.356
G1 X166.611 Y-261.819
G1 X165.533 Y-259.455
G1 X165.53 Y-259.45
G1 X164.815 Y-257.889
G1 X163.764 Y-255.488
G1 X163.763 Y-255.486
G1 X163.067 Y-253.898
G1 X162.047 Y-251.461
G1 X161.376 Y-249.851
G1 X160.878 Y-248.595
G3 X160.431 Y-247.813 I-2.951 J-1.17
G1 X159.936 Y-247.178
G3 X157.918 Y-245.992 I-2.504 J-1.952
G1 Z-1.524
G3 X157.432 Y-245.955 I-0.486 J-3.138
G1 X-0.403
G3 X-2.167 Y-246.49 I0 J-3.175
G1 X-2.427 Y-246.664
G1 X-2.253 Y-246.404
G3 X-1.718 Y-244.64 I-2.64 J1.764
G1 Y-241.174
G3 X-2.253 Y-239.41 I-3.175 J0
G1 X-2.427 Y-239.15
G1 X-2.167 Y-239.324
G3 X-0.403 Y-239.859 I1.763 J2.64
G1 X152.496
G3 X155 Y-238.636 I0 J3.175
G1 X155.495 Y-238.001
G3 X156.013 Y-235.076 I-2.504 J1.952
G1 X155.912 Y-234.761
G1 X155.376 Y-233.052
G1 X154.59 Y-230.428
G1 X154.088 Y-228.692
G1 X153.345 Y-226.033
G1 X152.874 Y-224.275
G1 X152.168 Y-221.585
G1 X151.725 Y-219.806
G1 X151.052 Y-217.092
G1 X150.634 Y-215.3
G1 X150.632 Y-215.29
G1 X149.985 Y-212.559
G1 X149.589 Y-210.759
G1 X149.584 Y-210.741
G1 X148.962 Y-207.997
G1 X148.582 Y-206.191
G1 X148.576 Y-206.161
G1 X147.971 Y-203.413
G1 X147.605 Y-201.604
G1 X147.596 Y-201.563
G1 X147.003 Y-198.814
G1 X146.647 Y-197.006
G1 X146.637 Y-196.954
G1 X146.049 Y-194.207
G1 X145.7 Y-192.403
G1 X145.688 Y-192.342
G1 X145.101 Y-189.602
G1 X144.755 Y-187.804
G1 X144.74 Y-187.734
G1 X144.15 Y-185.005
G1 X143.801 Y-183.215
G1 X143.783 Y-183.127
G1 X142.56 Y-177.686
G1 X141.836 Y-174.114
G1 X141.808 Y-173.991
G1 X140.502 Y-168.648
G1 X139.724 Y-165.147
G1 X139.688 Y-165.001
G1 X138.266 Y-159.777
G1 X137.41 Y-156.36
G1 X137.371 Y-156.218
G1 X135.83 Y-151.092
G1 X134.896 Y-147.745
G1 X134.857 Y-147.614
G1 X133.205 Y-142.55
G1 X132.197 Y-139.245
G1 X132.159 Y-139.128
G1 X130.406 Y-134.09
G1 X129.328 Y-130.802
G1 X129.293 Y-130.7
G1 X127.446 Y-125.654
G1 X126.304 Y-122.357
G1 X126.275 Y-122.277
G1 X125.325 Y-119.753
G1 X124.736 Y-118.106
G1 X124.711 Y-118.04
G1 X123.74 Y-115.501
G1 X123.137 Y-113.843
G1 X123.114 Y-113.781
G1 X122.123 Y-111.222
G1 X121.506 Y-109.547
G1 X121.484 Y-109.49
G1 X121.377 Y-109.216
G3 X120.922 Y-108.417 I-2.957 J-1.155
G1 X120.426 Y-107.782
G3 X117.924 Y-106.561 I-2.502 J-1.954
G1 X-4.266
G3 X-6.03 Y-107.096 I0 J-3.175
G1 X-6.29 Y-107.27
G1 X-6.117 Y-107.01
G3 X-5.581 Y-105.246 I-2.64 J1.764
G1 Y-101.78
G3 X-6.117 Y-100.016 I-3.175 J0
G1 X-6.29 Y-99.757
G1 X-6.03 Y-99.93
G3 X-4.266 Y-100.465 I1.764 J2.64
G1 X112.631
G3 X115.135 Y-99.242 I0 J3.175
G1 X115.63 Y-98.607
G3 X116.079 Y-95.489 I-2.504 J1.952
G1 X115.363 Y-93.676
G1 X114.696 Y-91.911
G1 X114.675 Y-91.857
G1 X113.596 Y-89.149
G1 X112.913 Y-87.362
G1 X112.889 Y-87.301
G1 X111.781 Y-84.575
G1 X111.081 Y-82.775
G1 X111.052 Y-82.704
G1 X109.912 Y-79.969
G1 X109.187 Y-78.16
G1 X109.155 Y-78.082
G1 X107.975 Y-75.348
G1 X107.224 Y-73.538
G1 X107.186 Y-73.452
G1 X105.96 Y-70.727
G1 X105.177 Y-68.921
G1 X105.135 Y-68.829
G1 X103.858 Y-66.124
G1 X103.04 Y-64.329
G1 X102.992 Y-64.228
G1 X101.656 Y-61.552
G1 X100.8 Y-59.776
G1 X100.745 Y-59.667
G1 X99.345 Y-57.03
G1 X98.446 Y-55.277
G1 X98.383 Y-55.161
G1 X96.914 Y-52.571
G1 X95.967 Y-50.85
G1 X95.895 Y-50.726
G1 X94.35 Y-48.194
G1 X93.352 Y-46.51
G1 X93.27 Y-46.379
G1 X91.642 Y-43.913
G1 X90.589 Y-42.273
G1 X90.497 Y-42.136
G1 X88.78 Y-39.746
G1 X87.668 Y-38.155
G1 X87.563 Y-38.014
G1 X85.752 Y-35.708
G1 X84.577 Y-34.174
G1 X84.458 Y-34.029
G1 X82.546 Y-31.818
G1 X81.303 Y-30.347
G1 X81.171 Y-30.199
G1 X79.151 Y-28.092
G1 X77.837 Y-26.69
G1 X77.691 Y-26.545
G1 X75.56 Y-24.548
G1 X74.172 Y-23.221
G1 X74.022 Y-23.087
G1 X71.784 Y-21.205
G1 X70.324 Y-19.955
G1 X70.173 Y-19.833
G1 X67.837 Y-18.067
G1 X66.311 Y-16.894
G1 X66.16 Y-16.784
G1 X63.732 Y-15.136
G1 X62.145 Y-14.042
G1 X61.994 Y-13.943
G1 X59.483 Y-12.414
G1 X57.84 Y-11.399
G1 X57.689 Y-11.312
G1 X55.102 Y-9.903
G1 X53.408 Y-8.969
G1 X53.258 Y-8.891
G1 X50.603 Y-7.605
G1 X48.863 Y-6.752
G1 X48.714 Y-6.684
G1 X45.998 Y-5.522
G1 X44.217 Y-4.752
G1 X44.069 Y-4.693
G1 X41.301 Y-3.656
G1 X39.483 Y-2.97
G1 X39.337 Y-2.918
G1 X36.523 Y-2.01
G1 X34.675 Y-1.407
G1 X34.529 Y-1.364
G1 X31.677 Y-0.584
G1 X29.804 Y-0.068
G1 X29.658 Y-0.031
G1 X26.777 Y0.618
G1 X24.883 Y1.048
G1 X24.737 Y1.077
G1 X21.834 Y1.594
G1 X19.925 Y1.936
G1 X19.778 Y1.959
G1 X16.862 Y2.342
G1 X14.942 Y2.596
G1 X14.795 Y2.612
G1 X11.872 Y2.86
G1 X9.947 Y3.024
G1 X9.798 Y3.033
G1 X6.877 Y3.144
G1 X4.953 Y3.217
G1 X4.803 Y3.219
G1 X1.89 Y3.192
G1 X-0.029 Y3.175
G1 X-0.177 Y3.17
G1 X-3.077 Y3.008
G1 X-4.99 Y2.901
G1 X-5.135 Y2.889
G1 X-8.02 Y2.595
G1 X-9.924 Y2.4
G1 X-10.065 Y2.383
G1 X-12.933 Y1.959
G1 X-14.826 Y1.679
G1 X-14.963 Y1.655
G1 X-17.811 Y1.105
G1 X-19.691 Y0.742
G1 X-19.824 Y0.713
G1 X-22.65 Y0.04
G1 X-24.516 Y-0.406
G1 X-24.645 Y-0.439
G1 X-27.445 Y-1.233
G1 X-29.295 Y-1.757
G1 X-29.419 Y-1.795
G1 X-32.192 Y-2.706
G1 X-34.024 Y-3.308
G1 X-34.144 Y-3.35
G1 X-36.887 Y-4.375
G1 X-38.699 Y-5.053
G1 X-38.814 Y-5.099
G1 X-41.525 Y-6.235
G1 X-43.315 Y-6.986
G1 X-43.426 Y-7.035
G1 X-46.101 Y-8.279
G1 X-47.869 Y-9.101
G1 X-47.976 Y-9.153
G1 X-50.613 Y-10.503
G1 X-52.356 Y-11.394
G1 X-52.458 Y-11.449
G1 X-55.055 Y-12.9
G1 X-56.771 Y-13.86
G1 X-56.869 Y-13.917
G1 X-59.423 Y-15.467
G1 X-61.111 Y-16.492
G1 X-61.205 Y-16.551
G1 X-63.714 Y-18.198
G1 X-65.371 Y-19.286
G1 X-65.462 Y-19.347
G1 X-67.922 Y-21.086
G1 X-69.548 Y-22.236
G1 X-69.675 Y-22.33
G1 X-74.443 Y-26.07
G1 X-77.595 Y-28.541
G1 X-77.742 Y-28.664
G1 X-82.301 Y-32.706
G1 X-85.314 Y-35.378
G1 X-85.439 Y-35.494
G1 X-89.783 Y-39.783
G1 X-92.653 Y-42.617
G1 X-92.759 Y-42.726
G1 X-96.88 Y-47.205
G1 X-99.604 Y-50.164
G1 X-99.694 Y-50.266
G1 X-103.586 Y-54.877
G1 X-106.159 Y-57.925
G1 X-106.237 Y-58.02
G1 X-109.892 Y-62.707
G1 X-112.309 Y-65.805
G1 X-112.376 Y-65.893
G1 X-115.791 Y-70.6
G1 X-118.047 Y-73.711
G1 X-118.105 Y-73.794
G1 X-121.271 Y-78.463
G1 X-123.363 Y-81.549
G1 X-123.416 Y-81.63
G1 X-126.33 Y-86.223
G1 X-128.256 Y-89.258
G1 X-128.31 Y-89.347
G1 X-130.989 Y-93.891
G1 X-132.76 Y-96.894
G1 X-132.816 Y-96.993
G1 X-135.279 Y-101.535
G1 X-136.907 Y-104.536
G1 X-136.962 Y-104.643
G1 X-139.229 Y-109.227
G1 X-140.728 Y-112.257
G1 X-140.78 Y-112.368
G1 X-142.871 Y-117.042
G1 X-144.254 Y-120.131
G1 X-144.301 Y-120.243
G1 X-146.236 Y-125.05
G1 X-147.515 Y-128.227
G1 X-147.556 Y-128.335
G1 X-149.356 Y-133.323
G1 X-150.546 Y-136.619
G1 X-150.581 Y-136.722
G1 X-152.264 Y-141.935
G1 X-153.377 Y-145.38
G1 X-153.406 Y-145.474
G1 X-154.988 Y-150.945
G1 X-156.034 Y-154.56
G1 X-156.058 Y-154.647
G1 X-157.532 Y-160.346
G1 X-158.506 Y-164.113
G1 X-158.526 Y-164.196
G1 X-159.88 Y-170.083
G1 X-160.775 Y-173.974
G1 X-160.793 Y-174.056
G1 X-162.015 Y-180.089
G1 X-162.822 Y-184.076
G1 X-162.837 Y-184.157
G1 X-163.915 Y-190.293
G1 X-164.627 Y-194.349
G1 X-164.64 Y-194.431
G1 X-165.562 Y-200.63
G1 X-166.171 Y-204.727
G1 X-166.183 Y-204.812
G1 X-166.937 Y-211.031
G1 X-167.435 Y-215.141
G1 X-167.444 Y-215.23
G1 X-168.018 Y-221.427
G1 X-168.397 Y-225.523
G1 X-168.405 Y-225.618
G1 X-168.789 Y-231.759
G1 X-169.042 Y-235.818
G1 X-169.046 Y-235.917
G1 X-169.236 Y-241.996
G1 X-169.362 Y-246.013
G1 X-169.364 Y-246.116
G1 X-169.359 Y-252.134
G1 X-169.356 Y-256.11
G1 X-169.354 Y-256.216
G1 X-169.152 Y-262.174
G1 X-169.019 Y-266.111
G1 X-169.014 Y-266.219
G1 X-168.614 Y-272.119
G1 X-168.35 Y-276.017
G1 X-168.34 Y-276.127
G1 X-167.741 Y-281.97
G1 X-167.344 Y-285.833
G1 X-167.331 Y-285.943
G1 X-166.531 Y-291.73
G1 X-166.002 Y-295.554
G1 X-165.984 Y-295.667
G1 X-164.98 Y-301.399
G1 X-164.317 Y-305.186
G1 X-164.296 Y-305.299
G1 X-163.089 Y-310.978
G1 X-162.292 Y-314.73
G1 X-162.266 Y-314.84
G1 X-160.861 Y-320.464
G1 X-159.932 Y-324.181
G1 X-159.904 Y-324.287
G1 X-158.306 Y-329.856
G1 X-157.25 Y-333.537
G1 X-157.218 Y-333.639
G1 X-155.433 Y-339.152
G1 X-154.253 Y-342.796
G1 X-154.219 Y-342.895
G1 X-152.252 Y-348.351
G1 X-150.953 Y-351.957
G1 X-150.917 Y-352.052
G1 X-148.774 Y-357.452
G1 X-147.357 Y-361.021
G1 X-147.32 Y-361.111
G1 X-145.007 Y-366.452
G1 X-143.479 Y-369.982
G1 X-143.431 Y-370.087
G1 X-142.101 Y-372.877
G1 X-142.084 Y-372.911
G1 X-139.185 Y-378.812
G1 X-136.311 Y-384.769
G1 X-136.293 Y-384.804
G1 X-134.911 Y-387.581
G1 X-134.859 Y-387.682
G1 X-132.063 Y-392.826
G1 X-132.062 Y-392.827
G1 X-130.213 Y-396.226
G1 X-130.164 Y-396.313
G1 X-127.208 Y-401.362
G1 X-125.254 Y-404.699
G1 X-125.199 Y-404.79
G1 X-122.082 Y-409.727
G1 X-120.022 Y-412.99
G1 X-119.96 Y-413.084
G1 X-116.682 Y-417.891
G1 X-114.516 Y-421.068
G1 X-114.448 Y-421.164
G1 X-111.009 Y-425.824
G1 X-108.736 Y-428.904
G1 X-108.659 Y-429.004
G1 X-105.058 Y-433.499
G1 X-102.678 Y-436.47
G1 X-102.592 Y-436.573
G1 X-98.829 Y-440.885
G1 X-96.342 Y-443.736
G1 X-96.247 Y-443.84
G1 X-92.321 Y-447.958
G1 X-89.726 Y-450.679
G1 X-89.628 Y-450.778
G1 X-85.54 Y-454.705
G1 X-82.838 Y-457.3
G1 X-82.738 Y-457.392
G1 X-78.49 Y-461.137
G1 X-75.682 Y-463.612
G1 X-75.581 Y-463.697
G1 X-71.173 Y-467.269
G1 X-68.259 Y-469.63
G1 X-68.159 Y-469.708
G1 X-63.592 Y-473.115
G1 X-60.574 Y-475.367
G1 X-60.475 Y-475.438
G1 X-55.751 Y-478.69
G1 X-52.629 Y-480.84
G1 X-52.532 Y-480.904
G1 X-47.651 Y-484.01
G1 X-44.425 Y-486.063
G1 X-44.333 Y-486.119
G1 X-39.296 Y-489.088
G1 X-35.967 Y-491.05
G1 X-35.878 Y-491.101
G1 X-30.69 Y-493.937
G1 X-27.261 Y-495.811
G1 X-27.17 Y-495.859
G1 X-21.848 Y-498.548
G1 X-18.33 Y-500.326
G1 X-18.235 Y-500.372
G1 X-12.798 Y-502.896
G1 X-9.205 Y-504.564
G1 X-9.106 Y-504.608
G1 X-3.574 Y-506.95
G1 X0.082 Y-508.497
G1 X0.187 Y-508.539
G1 X5.793 Y-510.679
G1 X9.497 Y-512.093
G1 X9.609 Y-512.134
G1 X15.27 Y-514.055
G1 X19.01 Y-515.324
G1 X19.131 Y-515.362
G1 X24.825 Y-517.045
G1 X28.589 Y-518.157
G1 X28.718 Y-518.192
G1 X34.427 Y-519.62
G1 X38.2 Y-520.563
G1 X38.338 Y-520.594
G1 X44.044 Y-521.753
G1 X47.815 Y-522.52
G1 X47.95 Y-522.545
G1 X53.651 Y-523.45
G1 X57.418 Y-524.049
G1 X57.545 Y-524.066
G1 X63.24 Y-524.737
G1 X67.003 Y-525.181
G1 X67.121 Y-525.193
G1 X72.81 Y-525.65
G1 X76.57 Y-525.952
G1 X76.678 Y-525.959
G1 X82.361 Y-526.222
G1 X86.117 Y-526.396
G1 X86.214 Y-526.399
G1 X91.892 Y-526.488
G1 X95.644 Y-526.547
G1 X95.731
G1 X98.671 Y-526.513
G3 X101.81 Y-523.338 I-0.037 J3.175
G1 Y-519.962
G3 X101.275 Y-518.198 I-3.175 J0
G1 X101.101 Y-517.938
G1 X101.361 Y-518.112
G3 X103.125 Y-518.647 I1.764 J2.64
G1 X166.089
G3 X166.954 Y-518.527 I0 J3.175
G1 X167.353 Y-518.414
G1 X167.356 Y-518.413
G1 X169.193 Y-517.891
G1 X170.948 Y-517.392
G1 X171.091 Y-517.347
G1 X173.798 Y-516.438
G1 X173.805 Y-516.435
G1 X175.579 Y-515.834
G1 X175.677 Y-515.799
G1 X178.365 Y-514.789
G1 X178.371 Y-514.787
G1 X180.13 Y-514.122
G1 X180.232 Y-514.081
G1 X182.9 Y-512.965
G1 X182.906 Y-512.963
G1 X184.647 Y-512.231
G1 X184.751 Y-512.185
G1 X187.399 Y-510.958
G1 X187.405 Y-510.955
G1 X189.128 Y-510.152
G1 X189.234 Y-510.1
G1 X191.858 Y-508.757
G1 X191.863 Y-508.754
G1 X193.564 Y-507.879
G1 X193.668 Y-507.823
G1 X196.259 Y-506.366
G1 X196.266 Y-506.363
G1 X197.939 Y-505.417
G1 X198.041 Y-505.356
G1 X200.587 Y-503.788
G1 X200.592 Y-503.785
G1 X202.228 Y-502.773
G1 X202.331 Y-502.707
G1 X204.82 Y-501.032
G1 X204.826 Y-501.028
G1 X206.417 Y-499.952
G1 X206.518 Y-499.881
G1 X208.938 Y-498.103
G1 X208.945 Y-498.097
G1 X210.485 Y-496.959
G1 X210.586 Y-496.881
G1 X212.924 Y-495.003
G1 X212.931 Y-494.998
G1 X214.41 Y-493.803
G1 X214.512 Y-493.717
G1 X216.757 Y-491.743
G1 X216.765 Y-491.736
G1 X218.177 Y-490.486
G1 X218.278 Y-490.392
G1 X220.416 Y-488.326
G1 X220.424 Y-488.318
G1 X221.762 Y-487.016
G1 X221.865 Y-486.912
G1 X223.884 Y-484.757
G1 X223.891 Y-484.749
G1 X225.148 Y-483.398
G1 X225.252 Y-483.281
G1 X227.139 Y-481.041
G1 X227.147 Y-481.032
G1 X228.315 Y-479.635
G1 X228.418 Y-479.504
G1 X230.16 Y-477.184
G1 X230.169 Y-477.172
G1 X231.241 Y-475.73
G1 X231.341 Y-475.588
G1 X232.927 Y-473.191
G1 X232.936 Y-473.177
G1 X233.906 Y-471.694
G1 X234.004 Y-471.534
G1 X235.418 Y-469.066
G1 X235.427 Y-469.051
G1 X236.288 Y-467.528
G1 X236.38 Y-467.351
G1 X237.611 Y-464.815
G1 X237.62 Y-464.797
G1 X238.365 Y-463.236
G1 X238.45 Y-463.043
G1 X239.485 Y-460.445
G1 X239.494 Y-460.422
G1 X240.116 Y-458.825
G1 X240.188 Y-458.617
G1 X241.015 Y-455.961
G1 X241.024 Y-455.932
G1 X241.515 Y-454.301
G1 X241.572 Y-454.084
G1 X242.182 Y-451.376
G1 X242.189 Y-451.344
G1 X242.546 Y-449.681
G1 X242.583 Y-449.476
G1 X242.986 Y-446.727
G1 X242.991 Y-446.693
G1 X243.22 Y-445.004
G1 X243.24 Y-444.817
G1 X243.451 Y-442.038
G1 X243.453 Y-442.002
G1 X243.563 Y-440.292
G1 X243.57 Y-440.127
G1 X243.604 Y-437.33
G1 Y-437.289
G1 X243.603 Y-435.564
G1 X243.6 Y-435.422
G1 X243.473 Y-432.62
G1 X243.471 Y-432.578
G1 X243.369 Y-430.844
G1 X243.359 Y-430.719
G1 X243.084 Y-427.922
G1 X243.079 Y-427.879
G1 X242.884 Y-426.143
G1 X242.871 Y-426.038
G1 X242.465 Y-423.257
G1 X242.458 Y-423.211
G1 X242.179 Y-421.479
G1 X242.163 Y-421.392
G1 X241.641 Y-418.64
G1 X241.632 Y-418.591
G1 X241.277 Y-416.869
G1 X241.261 Y-416.799
G1 X240.637 Y-414.085
G1 X240.625 Y-414.034
G1 X240.204 Y-412.33
G1 X240.19 Y-412.274
G1 X239.48 Y-409.611
G1 X239.465 Y-409.559
G1 X238.986 Y-407.878
G1 X238.973 Y-407.833
G1 X238.19 Y-405.231
G1 X238.174 Y-405.179
G1 X237.647 Y-403.53
G1 X237.637 Y-403.498
G1 X236.798 Y-400.967
G1 X236.779 Y-400.912
G1 X236.212 Y-399.301
G1 X236.204 Y-399.279
G1 X235.322 Y-396.83
G1 X235.301 Y-396.772
G1 X234.703 Y-395.208
G1 X234.699 Y-395.2
G1 X233.79 Y-392.842
G1 X233.766 Y-392.78
G1 X233.147 Y-391.271
G1 X232.226 Y-389.017
G1 X232.198 Y-388.951
G1 X231.737 Y-387.892
G3 X231.33 Y-387.207 I-2.911 J-1.267
G1 X230.835 Y-386.572
G3 X228.331 Y-385.349 I-2.504 J-1.952
G1 X50.397
G3 X48.634 Y-385.884 I0 J-3.175
G1 X48.374 Y-386.058
G1 X48.547 Y-385.798
G3 X49.082 Y-384.034 I-2.64 J1.764
G1 Y-380.568
G3 X48.547 Y-378.804 I-3.175 J0
G1 X48.374 Y-378.544
G1 X48.634 Y-378.718
G3 X50.397 Y-379.253 I1.763 J2.64
G1 X221.891
G3 X224.395 Y-378.03 I0 J3.175
G1 X224.89 Y-377.395
G3 X225.221 Y-374.013 I-2.504 J1.952
G1 X224.531 Y-372.645
G1 X224.484 Y-372.556
G1 X223.894 Y-371.473
G1 X223.054 Y-369.86
G1 X223 Y-369.761
G1 X222.42 Y-368.738
G1 X221.595 Y-367.202
G1 X221.539 Y-367.101
G1 X220.965 Y-366.121
G1 X219.33 Y-363.187
G1 X219.268 Y-363.08
G1 X218.128 Y-361.21
G1 X216.537 Y-358.447
G1 X216.468 Y-358.334
G1 X215.364 Y-356.588
G1 X213.817 Y-353.926
G1 X213.746 Y-353.81
G1 X212.676 Y-352.139
G1 X211.17 Y-349.501
G1 X211.1 Y-349.385
G1 X210.06 Y-347.732
G1 X208.587 Y-345.038
G1 X208.522 Y-344.925
G1 X207.502 Y-343.23
G1 X206.048 Y-340.407
G1 X205.991 Y-340.302
G1 X204.976 Y-338.501
G1 X203.514 Y-335.519
G1 X203.464 Y-335.421
G1 X202.441 Y-333.504
G1 X200.948 Y-330.359
G1 X200.905 Y-330.272
G1 X199.862 Y-328.238
G1 X198.319 Y-324.933
G1 X198.28 Y-324.852
G1 X197.204 Y-322.707
G1 X195.591 Y-319.244
G1 X195.556 Y-319.171
G1 X194.433 Y-316.911
G1 X192.728 Y-313.294
G1 X192.697 Y-313.23
G1 X191.517 Y-310.863
G1 X190.629 Y-309.008
G1 X190.601 Y-308.951
G1 X189.99 Y-307.739
G1 X189.073 Y-305.847
G1 X189.046 Y-305.792
G1 X188.415 Y-304.553
G1 X187.464 Y-302.622
G1 X187.438 Y-302.571
G1 X186.785 Y-301.303
G1 X185.798 Y-299.335
G1 X185.774 Y-299.287
G1 X185.097 Y-297.992
G1 X184.073 Y-295.987
G1 X184.05 Y-295.943
G1 X183.351 Y-294.625
G1 X182.295 Y-292.584
G1 X182.274 Y-292.544
G1 X181.555 Y-291.202
G1 X180.473 Y-289.126
G1 X180.455 Y-289.091
G1 X179.721 Y-287.725
G1 X178.621 Y-285.617
G1 X178.604 Y-285.584
G1 X177.858 Y-284.193
G1 X176.743 Y-282.049
G1 X176.729 Y-282.021
G1 X175.976 Y-280.607
G1 X174.853 Y-278.426
G1 X174.84 Y-278.403
G1 X174.084 Y-276.963
G1 X172.958 Y-274.747
G1 X172.948 Y-274.728
G1 X172.191 Y-273.263
G1 X171.069 Y-271.011
G1 X171.061 Y-270.995
G1 X170.309 Y-269.507
G1 X169.195 Y-267.217
G1 X169.189 Y-267.205
G1 X168.445 Y-265.692
G1 X167.347 Y-263.366
G1 X167.343 Y-263.356
G1 X166.611 Y-261.819
G1 X165.533 Y-259.455
G1 X165.53 Y-259.45
G1 X164.815 Y-257.889
G1 X163.764 Y-255.488
G1 X163.763 Y-255.486
G1 X163.067 Y-253.898
G1 X162.047 Y-251.461
G1 X161.376 Y-249.851
G1 X160.878 Y-248.595
G3 X160.431 Y-247.813 I-2.951 J-1.17
G1 X159.936 Y-247.178
G3 X157.918 Y-245.992 I-2.504 J-1.952
G1 Z-7.366
G3 X157.432 Y-245.955 I-0.486 J-3.138
G1 X-0.403
G3 X-2.167 Y-246.49 I0 J-3.175
G1 X-2.427 Y-246.664
G1 X-2.253 Y-246.404
G3 X-1.718 Y-244.64 I-2.64 J1.764
G1 Y-241.174
G3 X-2.253 Y-239.41 I-3.175 J0
G1 X-2.427 Y-239.15
G1 X-2.167 Y-239.324
G3 X-0.403 Y-239.859 I1.763 J2.64
G1 X152.496
G3 X155 Y-238.636 I0 J3.175
G1 X155.495 Y-238.001
G3 X156.013 Y-235.076 I-2.504 J1.952
G1 X155.912 Y-234.761
G1 X155.376 Y-233.052
G1 X154.59 Y-230.428
G1 X154.088 Y-228.692
G1 X153.345 Y-226.033
G1 X152.874 Y-224.275
G1 X152.168 Y-221.585
G1 X151.725 Y-219.806
G1 X151.052 Y-217.092
G1 X150.634 Y-215.3
G1 X150.632 Y-215.29
G1 X149.985 Y-212.559
G1 X149.589 Y-210.759
G1 X149.584 Y-210.741
G1 X148.962 Y-207.997
G1 X148.582 Y-206.191
G1 X148.576 Y-206.161
G1 X147.971 Y-203.413
G1 X147.605 Y-201.604
G1 X147.596 Y-201.563
G1 X147.003 Y-198.814
G1 X146.647 Y-197.006
G1 X146.637 Y-196.954
G1 X146.049 Y-194.207
G1 X145.7 Y-192.403
G1 X145.688 Y-192.342
G1 X145.101 Y-189.602
G1 X144.755 Y-187.804
G1 X144.74 Y-187.734
G1 X144.15 Y-185.005
G1 X143.801 Y-183.215
G1 X143.783 Y-183.127
G1 X142.56 Y-177.686
G1 X141.836 Y-174.114
G1 X141.808 Y-173.991
G1 X140.502 Y-168.648
G1 X139.724 Y-165.147
G1 X139.688 Y-165.001
G1 X138.266 Y-159.777
G1 X137.41 Y-156.36
G1 X137.371 Y-156.218
G1 X135.83 Y-151.092
G1 X134.896 Y-147.745
G1 X134.857 Y-147.614
G1 X133.205 Y-142.55
G1 X132.197 Y-139.245
G1 X132.159 Y-139.128
G1 X130.406 Y-134.09
G1 X129.328 Y-130.802
G1 X129.293 Y-130.7
G1 X127.446 Y-125.654
G1 X126.304 Y-122.357
G1 X126.275 Y-122.277
G1 X125.325 Y-119.753
G1 X124.736 Y-118.106
G1 X124.711 Y-118.04
G1 X123.74 Y-115.501
G1 X123.137 Y-113.843
G1 X123.114 Y-113.781
G1 X122.123 Y-111.222
G1 X121.506 Y-109.547
G1 X121.484 Y-109.49
G1 X121.377 Y-109.216
G3 X120.922 Y-108.417 I-2.957 J-1.155
G1 X120.426 Y-107.782
G3 X117.924 Y-106.561 I-2.502 J-1.954
G1 X-4.266
G3 X-6.03 Y-107.096 I0 J-3.175
G1 X-6.29 Y-107.27
G1 X-6.117 Y-107.01
G3 X-5.581 Y-105.246 I-2.64 J1.764
G1 Y-101.78
G3 X-6.117 Y-100.016 I-3.175 J0
G1 X-6.29 Y-99.757
G1 X-6.03 Y-99.93
G3 X-4.266 Y-100.465 I1.764 J2.64
G1 X112.631
G3 X115.135 Y-99.242 I0 J3.175
G1 X115.63 Y-98.607
G3 X116.079 Y-95.489 I-2.504 J1.952
G1 X115.363 Y-93.676
G1 X114.696 Y-91.911
G1 X114.675 Y-91.857
G1 X113.596 Y-89.149
G1 X112.913 Y-87.362
G1 X112.889 Y-87.301
G1 X111.781 Y-84.575
G1 X111.081 Y-82.775
G1 X111.052 Y-82.704
G1 X109.912 Y-79.969
G1 X109.187 Y-78.16
G1 X109.155 Y-78.082
G1 X107.975 Y-75.348
G1 X107.224 Y-73.538
G1 X107.186 Y-73.452
G1 X105.96 Y-70.727
G1 X105.177 Y-68.921
G1 X105.135 Y-68.829
G1 X103.858 Y-66.124
G1 X103.04 Y-64.329
G1 X102.992 Y-64.228
G1 X101.656 Y-61.552
G1 X100.8 Y-59.776
G1 X100.745 Y-59.667
G1 X99.345 Y-57.03
G1 X98.446 Y-55.277
G1 X98.383 Y-55.161
G1 X96.914 Y-52.571
G1 X95.967 Y-50.85
G1 X95.895 Y-50.726
G1 X94.35 Y-48.194
G1 X93.352 Y-46.51
G1 X93.27 Y-46.379
G1 X91.642 Y-43.913
G1 X90.589 Y-42.273
G1 X90.497 Y-42.136
G1 X88.78 Y-39.746
G1 X87.668 Y-38.155
G1 X87.563 Y-38.014
G1 X85.752 Y-35.708
G1 X84.577 Y-34.174
G1 X84.458 Y-34.029
G1 X82.546 Y-31.818
G1 X81.303 Y-30.347
G1 X81.171 Y-30.199
G1 X79.151 Y-28.092
G1 X77.837 Y-26.69
G1 X77.691 Y-26.545
G1 X75.56 Y-24.548
G1 X74.172 Y-23.221
G1 X74.022 Y-23.087
G1 X71.784 Y-21.205
G1 X70.324 Y-19.955
G1 X70.173 Y-19.833
G1 X67.837 Y-18.067
G1 X66.311 Y-16.894
G1 X66.16 Y-16.784
G1 X63.732 Y-15.136
G1 X62.145 Y-14.042
G1 X61.994 Y-13.943
G1 X59.483 Y-12.414
G1 X57.84 Y-11.399
G1 X57.689 Y-11.312
G1 X55.102 Y-9.903
G1 X53.408 Y-8.969
G1 X53.258 Y-8.891
G1 X50.603 Y-7.605
G1 X48.863 Y-6.752
G1 X48.714 Y-6.684
G1 X45.998 Y-5.522
G1 X44.217 Y-4.752
G1 X44.069 Y-4.693
G1 X41.301 Y-3.656
G1 X39.483 Y-2.97
G1 X39.337 Y-2.918
G1 X36.523 Y-2.01
G1 X34.675 Y-1.407
G1 X34.529 Y-1.364
G1 X31.677 Y-0.584
G1 X29.804 Y-0.068
G1 X29.658 Y-0.031
G1 X26.777 Y0.618
G1 X24.883 Y1.048
G1 X24.737 Y1.077
G1 X21.834 Y1.594
G1 X19.925 Y1.936
G1 X19.778 Y1.959
G1 X16.862 Y2.342
G1 X14.942 Y2.596
G1 X14.795 Y2.612
G1 X11.872 Y2.86
G1 X9.947 Y3.024
G1 X9.798 Y3.033
G1 X6.877 Y3.144
G1 X4.953 Y3.217
G1 X4.803 Y3.219
G1 X1.89 Y3.192
G1 X-0.029 Y3.175
G1 X-0.177 Y3.17
G1 X-3.077 Y3.008
G1 X-4.99 Y2.901
G1 X-5.135 Y2.889
G1 X-8.02 Y2.595
G1 X-9.924 Y2.4
G1 X-10.065 Y2.383
G1 X-12.933 Y1.959
G1 X-14.826 Y1.679
G1 X-14.963 Y1.655
G1 X-17.811 Y1.105
G1 X-19.691 Y0.742
G1 X-19.824 Y0.713
G1 X-22.65 Y0.04
G1 X-24.516 Y-0.406
G1 X-24.645 Y-0.439
G1 X-27.445 Y-1.233
G1 X-29.295 Y-1.757
G1 X-29.419 Y-1.795
G1 X-32.192 Y-2.706
G1 X-34.024 Y-3.308
G1 X-34.144 Y-3.35
G1 X-36.887 Y-4.375
G1 X-38.699 Y-5.053
G1 X-38.814 Y-5.099
G1 X-41.525 Y-6.235
G1 X-43.315 Y-6.986
G1 X-43.426 Y-7.035
G1 X-46.101 Y-8.279
G1 X-47.869 Y-9.101
G1 X-47.976 Y-9.153
G1 X-50.613 Y-10.503
G1 X-52.356 Y-11.394
G1 X-52.458 Y-11.449
G1 X-55.055 Y-12.9
G1 X-56.771 Y-13.86
G1 X-56.869 Y-13.917
G1 X-59.423 Y-15.467
G1 X-61.111 Y-16.492
G1 X-61.205 Y-16.551
G1 X-63.714 Y-18.198
G1 X-65.371 Y-19.286
G1 X-65.462 Y-19.347
G1 X-67.922 Y-21.086
G1 X-69.548 Y-22.236
G1 X-69.675 Y-22.33
G1 X-74.443 Y-26.07
G1 X-77.595 Y-28.541
G1 X-77.742 Y-28.664
G1 X-82.301 Y-32.706
G1 X-85.314 Y-35.378
G1 X-85.439 Y-35.494
G1 X-89.783 Y-39.783
G1 X-92.653 Y-42.617
G1 X-92.759 Y-42.726
G1 X-96.88 Y-47.205
G1 X-99.604 Y-50.164
G1 X-99.694 Y-50.266
G1 X-103.586 Y-54.877
G1 X-106.159 Y-57.925
G1 X-106.237 Y-58.02
G1 X-109.892 Y-62.707
G1 X-112.309 Y-65.805
G1 X-112.376 Y-65.893
G1 X-115.791 Y-70.6
G1 X-118.047 Y-73.711
G1 X-118.105 Y-73.794
G1 X-121.271 Y-78.463
G1 X-123.363 Y-81.549
G1 X-123.416 Y-81.63
G1 X-126.33 Y-86.223
G1 X-128.256 Y-89.258
G1 X-128.31 Y-89.347
G1 X-130.989 Y-93.891
G1 X-132.76 Y-96.894
G1 X-132.816 Y-96.993
G1 X-135.279 Y-101.535
G1 X-136.907 Y-104.536
G1 X-136.962 Y-104.643
G1 X-139.229 Y-109.227
G1 X-140.728 Y-112.257
G1 X-140.78 Y-112.368
G1 X-142.871 Y-117.042
G1 X-144.254 Y-120.131
G1 X-144.301 Y-120.243
G1 X-146.236 Y-125.05
G1 X-147.515 Y-128.227
G1 X-147.556 Y-128.335
G1 X-149.356 Y-133.323
G1 X-150.546 Y-136.619
G1 X-150.581 Y-136.722
G1 X-152.264 Y-141.935
G1 X-153.377 Y-145.38
G1 X-153.406 Y-145.474
G1 X-154.988 Y-150.945
G1 X-156.034 Y-154.56
G1 X-156.058 Y-154.647
G1 X-157.532 Y-160.346
G1 X-158.506 Y-164.113
G1 X-158.526 Y-164.196
G1 X-159.88 Y-170.083
G1 X-160.775 Y-173.974
G1 X-160.793 Y-174.056
G1 X-162.015 Y-180.089
G1 X-162.822 Y-184.076
G1 X-162.837 Y-184.157
G1 X-163.915 Y-190.293
G1 X-164.627 Y-194.349
G1 X-164.64 Y-194.431
G1 X-165.562 Y-200.63
G1 X-166.171 Y-204.727
G1 X-166.183 Y-204.812
G1 X-166.937 Y-211.031
G1 X-167.435 Y-215.141
G1 X-167.444 Y-215.23
G1 X-168.018 Y-221.427
G1 X-168.397 Y-225.523
G1 X-168.405 Y-225.618
G1 X-168.789 Y-231.759
G1 X-169.042 Y-235.818
G1 X-169.046 Y-235.917
G1 X-169.236 Y-241.996
G1 X-169.362 Y-246.013
G1 X-169.364 Y-246.116
G1 X-169.359 Y-252.134
G1 X-169.356 Y-256.11
G1 X-169.354 Y-256.216
G1 X-169.152 Y-262.174
G1 X-169.019 Y-266.111
G1 X-169.014 Y-266.219
G1 X-168.614 Y-272.119
G1 X-168.35 Y-276.017
G1 X-168.34 Y-276.127
G1 X-167.741 Y-281.97
G1 X-167.344 Y-285.833
G1 X-167.331 Y-285.943
G1 X-166.531 Y-291.73
G1 X-166.002 Y-295.554
G1 X-165.984 Y-295.667
G1 X-164.98 Y-301.399
G1 X-164.317 Y-305.186
G1 X-164.296 Y-305.299
G1 X-163.089 Y-310.978
G1 X-162.292 Y-314.73
G1 X-162.266 Y-314.84
G1 X-160.861 Y-320.464
G1 X-159.932 Y-324.181
G1 X-159.904 Y-324.287
G1 X-158.306 Y-329.856
G1 X-157.25 Y-333.537
G1 X-157.218 Y-333.639
G1 X-155.433 Y-339.152
G1 X-154.253 Y-342.796
G1 X-154.219 Y-342.895
G1 X-152.252 Y-348.351
G1 X-150.953 Y-351.957
G1 X-150.917 Y-352.052
G1 X-148.774 Y-357.452
G1 X-147.357 Y-361.021
G1 X-147.32 Y-361.111
G1 X-145.007 Y-366.452
G1 X-143.479 Y-369.982
G1 X-143.431 Y-370.087
G1 X-142.101 Y-372.877
G1 X-142.084 Y-372.911
G1 X-139.185 Y-378.812
G1 X-136.311 Y-384.769
G1 X-136.293 Y-384.804
G1 X-134.911 Y-387.581
G1 X-134.859 Y-387.682
G1 X-132.063 Y-392.826
G1 X-132.062 Y-392.827
G1 X-130.213 Y-396.226
G1 X-130.164 Y-396.313
G1 X-127.208 Y-401.362
G1 X-125.254 Y-404.699
G1 X-125.199 Y-404.79
G1 X-122.082 Y-409.727
G1 X-120.022 Y-412.99
G1 X-119.96 Y-413.084
G1 X-116.682 Y-417.891
G1 X-114.516 Y-421.068
G1 X-114.448 Y-421.164
G1 X-111.009 Y-425.824
G1 X-108.736 Y-428.904
G1 X-108.659 Y-429.004
G1 X-105.058 Y-433.499
G1 X-102.678 Y-436.47
G1 X-102.592 Y-436.573
G1 X-98.829 Y-440.885
G1 X-96.342 Y-443.736
G1 X-96.247 Y-443.84
G1 X-92.321 Y-447.958
G1 X-89.726 Y-450.679
G1 X-89.628 Y-450.778
G1 X-85.54 Y-454.705
G1 X-82.838 Y-457.3
G1 X-82.738 Y-457.392
G1 X-78.49 Y-461.137
G1 X-75.682 Y-463.612
G1 X-75.581 Y-463.697
G1 X-71.173 Y-467.269
G1 X-68.259 Y-469.63
G1 X-68.159 Y-469.708
G1 X-63.592 Y-473.115
G1 X-60.574 Y-475.367
G1 X-60.475 Y-475.438
G1 X-55.751 Y-478.69
G1 X-52.629 Y-480.84
G1 X-52.532 Y-480.904
G1 X-47.651 Y-484.01
G1 X-44.425 Y-486.063
G1 X-44.333 Y-486.119
G1 X-39.296 Y-489.088
G1 X-35.967 Y-491.05
G1 X-35.878 Y-491.101
G1 X-30.69 Y-493.937
G1 X-27.261 Y-495.811
G1 X-27.17 Y-495.859
G1 X-21.848 Y-498.548
G1 X-18.33 Y-500.326
G1 X-18.235 Y-500.372
G1 X-12.798 Y-502.896
G1 X-9.205 Y-504.564
G1 X-9.106 Y-504.608
G1 X-3.574 Y-506.95
G1 X0.082 Y-508.497
G1 X0.187 Y-508.539
G1 X5.793 Y-510.679
G1 X9.497 Y-512.093
G1 X9.609 Y-512.134
G1 X15.27 Y-514.055
G1 X19.01 Y-515.324
G1 X19.131 Y-515.362
G1 X24.825 Y-517.045
G1 X28.589 Y-518.157
G1 X28.718 Y-518.192
G1 X34.427 Y-519.62
G1 X38.2 Y-520.563
G1 X38.338 Y-520.594
G1 X44.044 Y-521.753
G1 X47.815 Y-522.52
G1 X47.95 Y-522.545
G1 X53.651 Y-523.45
G1 X57.418 Y-524.049
G1 X57.545 Y-524.066
G1 X63.24 Y-524.737
G1 X67.003 Y-525.181
G1 X67.121 Y-525.193
G1 X72.81 Y-525.65
G1 X76.57 Y-525.952
G1 X76.678 Y-525.959
G1 X82.361 Y-526.222
G1 X86.117 Y-526.396
G1 X86.214 Y-526.399
G1 X91.892 Y-526.488
G1 X95.644 Y-526.547
G1 X95.731
G1 X98.671 Y-526.513
G3 X101.81 Y-523.338 I-0.037 J3.175
G1 Y-519.962
G3 X101.275 Y-518.198 I-3.175 J0
G1 X101.101 Y-517.938
G1 X101.361 Y-518.112
G3 X103.125 Y-518.647 I1.764 J2.64
G1 X166.089
G3 X166.954 Y-518.527 I0 J3.175
G1 X167.353 Y-518.414
G1 X167.356 Y-518.413
G1 X169.193 Y-517.891
G1 X170.948 Y-517.392
G1 X171.091 Y-517.347
G1 X173.798 Y-516.438
G1 X173.805 Y-516.435
G1 X175.579 Y-515.834
G1 X175.677 Y-515.799
G1 X178.365 Y-514.789
G1 X178.371 Y-514.787
G1 X180.13 Y-514.122
G1 X180.232 Y-514.081
G1 X182.9 Y-512.965
G1 X182.906 Y-512.963
G1 X184.647 Y-512.231
G1 X184.751 Y-512.185
G1 X187.399 Y-510.958
G1 X187.405 Y-510.955
G1 X189.128 Y-510.152
G1 X189.234 Y-510.1
G1 X191.858 Y-508.757
G1 X191.863 Y-508.754
G1 X193.564 Y-507.879
G1 X193.668 Y-507.823
G1 X196.259 Y-506.366
G1 X196.266 Y-506.363
G1 X197.939 Y-505.417
G1 X198.041 Y-505.356
G1 X200.587 Y-503.788
G1 X200.592 Y-503.785
G1 X202.228 Y-502.773
G1 X202.331 Y-502.707
G1 X204.82 Y-501.032
G1 X204.826 Y-501.028
G1 X206.417 Y-499.952
G1 X206.518 Y-499.881
G1 X208.938 Y-498.103
G1 X208.945 Y-498.097
G1 X210.485 Y-496.959
G1 X210.586 Y-496.881
G1 X212.924 Y-495.003
G1 X212.931 Y-494.998
G1 X214.41 Y-493.803
G1 X214.512 Y-493.717
G1 X216.757 Y-491.743
G1 X216.765 Y-491.736
G1 X218.177 Y-490.486
G1 X218.278 Y-490.392
G1 X220.416 Y-488.326
G1 X220.424 Y-488.318
G1 X221.762 Y-487.016
G1 X221.865 Y-486.912
G1 X223.884 Y-484.757
G1 X223.891 Y-484.749
G1 X225.148 Y-483.398
G1 X225.252 Y-483.281
G1 X227.139 Y-481.041
G1 X227.147 Y-481.032
G1 X228.315 Y-479.635
G1 X228.418 Y-479.504
G1 X230.16 Y-477.184
G1 X230.169 Y-477.172
G1 X231.241 Y-475.73
G1 X231.341 Y-475.588
G1 X232.927 Y-473.191
G1 X232.936 Y-473.177
G1 X233.906 Y-471.694
G1 X234.004 Y-471.534
G1 X235.418 Y-469.066
G1 X235.427 Y-469.051
G1 X236.288 Y-467.528
G1 X236.38 Y-467.351
G1 X237.611 Y-464.815
G1 X237.62 Y-464.797
G1 X238.365 Y-463.236
G1 X238.45 Y-463.043
G1 X239.485 Y-460.445
G1 X239.494 Y-460.422
G1 X240.116 Y-458.825
G1 X240.188 Y-458.617
G1 X241.015 Y-455.961
G1 X241.024 Y-455.932
G1 X241.515 Y-454.301
G1 X241.572 Y-454.084
G1 X242.182 Y-451.376
G1 X242.189 Y-451.344
G1 X242.546 Y-449.681
G1 X242.583 Y-449.476
G1 X242.986 Y-446.727
G1 X242.991 Y-446.693
G1 X243.22 Y-445.004
G1 X243.24 Y-444.817
G1 X243.451 Y-442.038
G1 X243.453 Y-442.002
G1 X243.563 Y-440.292
G1 X243.57 Y-440.127
G1 X243.604 Y-437.33
G1 Y-437.289
G1 X243.603 Y-435.564
G1 X243.6 Y-435.422
G1 X243.473 Y-432.62
G1 X243.471 Y-432.578
G1 X243.369 Y-430.844
G1 X243.359 Y-430.719
G1 X243.084 Y-427.922
G1 X243.079 Y-427.879
G1 X242.884 Y-426.143
G1 X242.871 Y-426.038
G1 X242.465 Y-423.257
G1 X242.458 Y-423.211
G1 X242.179 Y-421.479
G1 X242.163 Y-421.392
G1 X241.641 Y-418.64
G1 X241.632 Y-418.591
G1 X241.277 Y-416.869
G1 X241.261 Y-416.799
G1 X240.637 Y-414.085
G1 X240.625 Y-414.034
G1 X240.204 Y-412.33
G1 X240.19 Y-412.274
G1 X239.48 Y-409.611
G1 X239.465 Y-409.559
G1 X238.986 Y-407.878
G1 X238.973 Y-407.833
G1 X238.19 Y-405.231
G1 X238.174 Y-405.179
G1 X237.647 Y-403.53
G1 X237.637 Y-403.498
G1 X236.798 Y-400.967
G1 X236.779 Y-400.912
G1 X236.212 Y-399.301
G1 X236.204 Y-399.279
G1 X235.322 Y-396.83
G1 X235.301 Y-396.772
G1 X234.703 Y-395.208
G1 X234.699 Y-395.2
G1 X233.79 Y-392.842
G1 X233.766 Y-392.78
G1 X233.147 Y-391.271
G1 X232.226 Y-389.017
G1 X232.198 Y-388.951
G1 X231.737 Y-387.892
G3 X231.33 Y-387.207 I-2.911 J-1.267
G1 X230.835 Y-386.572
G3 X228.331 Y-385.349 I-2.504 J-1.952
G1 X50.397
G3 X48.634 Y-385.884 I0 J-3.175
G1 X48.374 Y-386.058
G1 X48.547 Y-385.798
G3 X49.082 Y-384.034 I-2.64 J1.764
G1 Y-380.568
G3 X48.547 Y-378.804 I-3.175 J0
G1 X48.374 Y-378.544
G1 X48.634 Y-378.718
G3 X50.397 Y-379.253 I1.763 J2.64
G1 X221.891
G3 X224.395 Y-378.03 I0 J3.175
G1 X224.89 Y-377.395
G3 X225.221 Y-374.013 I-2.504 J1.952
G1 X224.531 Y-372.645
G1 X224.484 Y-372.556
G1 X223.894 Y-371.473
G1 X223.054 Y-369.86
G1 X223 Y-369.761
G1 X222.42 Y-368.738
G1 X221.595 Y-367.202
G1 X221.539 Y-367.101
G1 X220.965 Y-366.121
G1 X219.33 Y-363.187
G1 X219.268 Y-363.08
G1 X218.128 Y-361.21
G1 X216.537 Y-358.447
G1 X216.468 Y-358.334
G1 X215.364 Y-356.588
G1 X213.817 Y-353.926
G1 X213.746 Y-353.81
G1 X212.676 Y-352.139
G1 X211.17 Y-349.501
G1 X211.1 Y-349.385
G1 X210.06 Y-347.732
G1 X208.587 Y-345.038
G1 X208.522 Y-344.925
G1 X207.502 Y-343.23
G1 X206.048 Y-340.407
G1 X205.991 Y-340.302
G1 X204.976 Y-338.501
G1 X203.514 Y-335.519
G1 X203.464 Y-335.421
G1 X202.441 Y-333.504
G1 X200.948 Y-330.359
G1 X200.905 Y-330.272
G1 X199.862 Y-328.238
G1 X198.319 Y-324.933
G1 X198.28 Y-324.852
G1 X197.204 Y-322.707
G1 X195.591 Y-319.244
G1 X195.556 Y-319.171
G1 X194.433 Y-316.911
G1 X192.728 Y-313.294
G1 X192.697 Y-313.23
G1 X191.517 Y-310.863
G1 X190.629 Y-309.008
G1 X190.601 Y-308.951
G1 X189.99 Y-307.739
G1 X189.073 Y-305.847
G1 X189.046 Y-305.792
G1 X188.415 Y-304.553
G1 X187.464 Y-302.622
G1 X187.438 Y-302.571
G1 X186.785 Y-301.303
G1 X185.798 Y-299.335
G1 X185.774 Y-299.287
G1 X185.097 Y-297.992
G1 X184.073 Y-295.987
G1 X184.05 Y-295.943
G1 X183.351 Y-294.625
G1 X182.295 Y-292.584
G1 X182.274 Y-292.544
G1 X181.555 Y-291.202
G1 X180.473 Y-289.126
G1 X180.455 Y-289.091
G1 X179.721 Y-287.725
G1 X178.621 Y-285.617
G1 X178.604 Y-285.584
G1 X177.858 Y-284.193
G1 X176.743 Y-282.049
G1 X176.729 Y-282.021
G1 X175.976 Y-280.607
G1 X174.853 Y-278.426
G1 X174.84 Y-278.403
G1 X174.084 Y-276.963
G1 X172.958 Y-274.747
G1 X172.948 Y-274.728
G1 X172.191 Y-273.263
G1 X171.069 Y-271.011
G1 X171.061 Y-270.995
G1 X170.309 Y-269.507
G1 X169.195 Y-267.217
G1 X169.189 Y-267.205
G1 X168.445 Y-265.692
G1 X167.347 Y-263.366
G1 X167.343 Y-263.356
G1 X166.611 Y-261.819
G1 X165.533 Y-259.455
G1 X165.53 Y-259.45
G1 X164.815 Y-257.889
G1 X163.764 Y-255.488
G1 X163.763 Y-255.486
G1 X163.067 Y-253.898
G1 X162.047 Y-251.461
G1 X161.376 Y-249.851
G1 X160.878 Y-248.595
G3 X160.431 Y-247.813 I-2.951 J-1.17
G1 X159.936 Y-247.178
G3 X157.918 Y-245.992 I-2.504 J-1.952
G0 Z18.796

G0 Z18.796
M5
M30
