(1001)
(T1  D=6.35 CR=0 - ZMIN=-7.366 - FLAT END MILL)
G0 G40 G90 G17
G21

(2D CONTOUR2)
T1 M6
M3 S5000
G0 X1107.609 Y285.319
G0 Z18.796
G1 Z16.891 F508.
G1 Z5.216
G3 X1107.14 Y285.354 I-0.469 J-3.14
G1 X949.305
G3 X947.541 Y284.819 I0 J-3.175
G1 X947.28 Y284.645
G1 X947.455 Y284.906
G3 X947.99 Y286.67 I-2.64 J1.764
G1 Y290.135
G3 X947.455 Y291.899 I-3.175 J0
G1 X947.281 Y292.159
G1 X947.54 Y291.986
G3 X949.305 Y291.45 I1.765 J2.639
G1 X1102.2
G3 X1104.694 Y292.661 I0 J3.175
G1 X1105.194 Y293.296
G3 X1105.708 Y296.275 I-2.495 J1.964
G1 X1105.611 Y296.564
G1 X1105.086 Y298.255
G1 X1104.295 Y300.883
G1 X1103.794 Y302.616
G1 X1103.052 Y305.277
G1 X1102.579 Y307.036
G1 X1101.876 Y309.725
G1 X1101.431 Y311.505
G1 X1100.757 Y314.216
G1 X1100.343 Y316.005
G1 X1100.34 Y316.017
G1 X1099.696 Y318.748
G1 X1099.301 Y320.547
G1 X1099.296 Y320.572
G1 X1098.671 Y323.317
G1 X1098.285 Y325.127
G1 X1098.281 Y325.148
G1 X1097.677 Y327.896
G1 X1097.312 Y329.704
G1 X1097.303 Y329.746
G1 X1096.71 Y332.496
G1 X1096.356 Y334.302
G1 X1096.346 Y334.351
G1 X1095.761 Y337.105
G1 X1095.406 Y338.915
G1 X1095.395 Y338.964
G1 X1094.812 Y341.704
G1 X1094.468 Y343.501
G1 X1094.453 Y343.578
G1 X1093.859 Y346.311
G1 X1093.505 Y348.102
G1 X1093.488 Y348.182
G1 X1092.265 Y353.623
G1 X1091.542 Y357.194
G1 X1091.515 Y357.316
G1 X1090.212 Y362.663
G1 X1089.428 Y366.168
G1 X1089.394 Y366.309
G1 X1087.972 Y371.531
G1 X1087.121 Y374.946
G1 X1087.081 Y375.091
G1 X1085.54 Y380.217
G1 X1084.609 Y383.563
G1 X1084.569 Y383.696
G1 X1082.918 Y388.761
G1 X1081.906 Y392.068
G1 X1081.869 Y392.181
G1 X1080.118 Y397.221
G1 X1079.036 Y400.511
G1 X1079.001 Y400.612
G1 X1077.151 Y405.657
G1 X1076.01 Y408.952
G1 X1075.981 Y409.032
G1 X1075.03 Y411.559
G1 X1074.438 Y413.207
G1 X1074.416 Y413.269
G1 X1073.446 Y415.807
G1 X1072.845 Y417.464
G1 X1072.821 Y417.529
G1 X1071.832 Y420.084
G1 X1071.222 Y421.753
G1 X1071.186 Y421.847
G1 X1071.076 Y422.121
G3 X1070.625 Y422.902 I-2.946 J-1.183
G1 X1070.125 Y423.537
G3 X1067.63 Y424.748 I-2.495 J-1.964
G1 X945.442
G3 X943.678 Y424.213 I0 J-3.175
G1 X943.419 Y424.04
G1 X943.592 Y424.299
G3 X944.127 Y426.063 I-2.64 J1.764
G1 Y429.529
G3 X943.592 Y431.293 I-3.175 J0
G1 X943.418 Y431.553
G1 X943.677 Y431.38
G3 X945.442 Y430.844 I1.765 J2.639
G1 X1062.34
G3 X1064.854 Y432.079 I0 J3.175
G1 X1065.344 Y432.714
G3 X1065.786 Y435.813 I-2.514 J1.94
G1 X1065.072 Y437.634
G1 X1064.397 Y439.406
G1 X1064.382 Y439.445
G1 X1063.309 Y442.156
G1 X1062.626 Y443.946
G1 X1062.6 Y444.013
G1 X1061.489 Y446.737
G1 X1060.788 Y448.536
G1 X1060.76 Y448.606
G1 X1059.62 Y451.339
G1 X1058.899 Y453.145
G1 X1058.865 Y453.228
G1 X1057.684 Y455.962
G1 X1056.932 Y457.772
G1 X1056.893 Y457.862
G1 X1055.664 Y460.583
G1 X1054.884 Y462.386
G1 X1054.844 Y462.475
G1 X1053.571 Y465.184
G1 X1052.747 Y466.984
G1 X1052.699 Y467.086
G1 X1051.361 Y469.756
G1 X1050.514 Y471.526
G1 X1050.454 Y471.644
G1 X1049.054 Y474.281
G1 X1048.154 Y476.033
G1 X1048.091 Y476.149
G1 X1046.621 Y478.741
G1 X1045.67 Y480.463
G1 X1045.603 Y480.578
G1 X1044.062 Y483.115
G1 X1043.06 Y484.802
G1 X1042.979 Y484.931
G1 X1041.352 Y487.394
G1 X1040.305 Y489.032
G1 X1040.208 Y489.176
G1 X1038.488 Y491.568
G1 X1037.367 Y493.161
G1 X1037.268 Y493.295
G1 X1035.462 Y495.597
G1 X1034.296 Y497.128
G1 X1034.168 Y497.284
G1 X1032.254 Y499.492
G1 X1031.019 Y500.959
G1 X1030.883 Y501.11
G1 X1028.863 Y503.22
G1 X1027.543 Y504.623
G1 X1027.402 Y504.764
G1 X1025.273 Y506.761
G1 X1023.884 Y508.088
G1 X1023.733 Y508.224
G1 X1021.495 Y510.105
G1 X1020.036 Y511.355
G1 X1019.882 Y511.479
G1 X1017.542 Y513.244
G1 X1016.012 Y514.417
G1 X1015.867 Y514.522
G1 X1013.444 Y516.173
G1 X1011.85 Y517.27
G1 X1011.702 Y517.366
G1 X1009.191 Y518.895
G1 X1007.549 Y519.91
G1 X1007.401 Y519.996
G1 X1004.814 Y521.407
G1 X1003.108 Y522.344
G1 X1002.965 Y522.418
G1 X1000.312 Y523.704
G1 X998.571 Y524.557
G1 X998.423 Y524.625
G1 X995.706 Y525.788
G1 X993.924 Y526.558
G1 X993.778 Y526.617
G1 X991.01 Y527.653
G1 X989.191 Y528.34
G1 X989.045 Y528.391
G1 X986.232 Y529.3
G1 X984.383 Y529.902
G1 X984.238 Y529.945
G1 X981.385 Y530.726
G1 X979.511 Y531.242
G1 X979.366 Y531.278
G1 X976.485 Y531.928
G1 X974.591 Y532.357
G1 X974.445 Y532.387
G1 X971.544 Y532.904
G1 X969.634 Y533.246
G1 X969.486 Y533.269
G1 X966.571 Y533.652
G1 X964.651 Y533.906
G1 X964.503 Y533.922
G1 X961.581 Y534.17
G1 X959.655 Y534.334
G1 X959.507 Y534.343
G1 X956.586 Y534.454
G1 X954.66 Y534.527
G1 X954.511 Y534.529
G1 X951.599 Y534.502
G1 X949.68 Y534.485
G1 X949.53 Y534.48
G1 X946.63 Y534.317
G1 X944.719 Y534.21
G1 X944.574 Y534.199
G1 X941.689 Y533.905
G1 X941.687 Y533.904
G1 X939.784 Y533.709
G1 X939.645 Y533.692
G1 X936.777 Y533.269
G1 X936.775
G1 X934.883 Y532.989
G1 X934.746 Y532.965
G1 X931.898 Y532.415
G1 X931.896
G1 X930.016 Y532.051
G1 X929.884 Y532.023
G1 X927.058 Y531.35
G1 X927.057 Y531.349
G1 X925.193 Y530.904
G1 X925.064 Y530.871
G1 X922.263 Y530.077
G1 X920.414 Y529.553
G1 X920.289 Y529.514
G1 X917.516 Y528.603
G1 X915.684 Y528.001
G1 X915.565 Y527.959
G1 X912.822 Y526.934
G1 X911.01 Y526.257
G1 X910.894 Y526.211
G1 X908.184 Y525.075
G1 X906.393 Y524.324
G1 X906.282 Y524.275
G1 X903.607 Y523.031
G1 X901.84 Y522.209
G1 X901.732 Y522.156
G1 X899.096 Y520.807
G1 X897.354 Y519.916
G1 X897.25 Y519.86
G1 X894.654 Y518.409
G1 X892.938 Y517.451
G1 X892.839 Y517.393
G1 X890.286 Y515.842
G1 X888.598 Y514.819
G1 X888.503 Y514.758
G1 X885.995 Y513.112
G1 X884.337 Y512.024
G1 X884.246 Y511.962
G1 X881.786 Y510.223
G1 X880.161 Y509.074
G1 X880.034 Y508.98
G1 X875.265 Y505.241
G1 X872.113 Y502.768
G1 X871.967 Y502.646
G1 X867.408 Y498.604
G1 X864.394 Y495.932
G1 X864.269 Y495.815
G1 X859.926 Y491.526
G1 X857.056 Y488.693
G1 X856.95 Y488.583
G1 X852.828 Y484.105
G1 X850.104 Y481.145
G1 X850.015 Y481.043
G1 X846.122 Y476.432
G1 X843.55 Y473.385
G1 X843.473 Y473.29
G1 X839.816 Y468.602
G1 X837.399 Y465.505
G1 X837.332 Y465.416
G1 X833.918 Y460.709
G1 X831.661 Y457.598
G1 X831.603 Y457.516
G1 X828.438 Y452.847
G1 X826.346 Y449.761
G1 X826.293 Y449.68
G1 X823.378 Y445.087
G1 X821.452 Y442.052
G1 X821.398 Y441.963
G1 X818.719 Y437.418
G1 X816.949 Y434.415
G1 X816.893 Y434.316
G1 X814.43 Y429.775
G1 X812.802 Y426.773
G1 X812.747 Y426.667
G1 X810.479 Y422.082
G1 X808.981 Y419.051
G1 X808.929 Y418.941
G1 X806.837 Y414.267
G1 X805.455 Y411.179
G1 X805.408 Y411.068
G1 X803.472 Y406.26
G1 X802.193 Y403.081
G1 X802.152 Y402.974
G1 X800.352 Y397.987
G1 X799.162 Y394.689
G1 X799.128 Y394.588
G1 X797.444 Y389.375
G1 X796.331 Y385.928
G1 X796.303 Y385.836
G1 X794.72 Y380.366
G1 X793.675 Y376.75
G1 X793.651 Y376.663
G1 X792.177 Y370.963
G1 X791.203 Y367.197
G1 X791.183 Y367.114
G1 X789.829 Y361.226
G1 X788.934 Y357.336
G1 X788.916 Y357.254
G1 X787.694 Y351.221
G1 X786.886 Y347.235
G1 X786.871 Y347.153
G1 X785.794 Y341.016
G1 X785.081 Y336.962
G1 X785.068 Y336.879
G1 X784.146 Y330.68
G1 X783.536 Y326.583
G1 X783.525 Y326.498
G1 X782.771 Y320.279
G1 X782.273 Y316.169
G1 X782.264 Y316.08
G1 X781.69 Y309.882
G1 X781.31 Y305.787
G1 X781.303 Y305.692
G1 X780.92 Y299.55
G1 X780.666 Y295.492
G1 X780.662 Y295.393
G1 X780.472 Y289.313
G1 X780.346 Y285.297
G1 X780.344 Y285.194
G1 X780.349 Y279.176
G1 X780.353 Y275.199
G1 X780.355 Y275.095
G1 X780.556 Y269.136
G1 X780.69 Y265.197
G1 X780.695 Y265.091
G1 X781.094 Y259.191
G1 Y259.19
G1 X781.359 Y255.291
G1 X781.369 Y255.182
G1 X781.968 Y249.339
G1 X782.364 Y245.478
G1 X782.377 Y245.367
G1 X783.178 Y239.58
G1 X783.707 Y235.756
G1 X783.725 Y235.644
G1 X784.728 Y229.912
G1 X785.392 Y226.122
G1 X785.413 Y226.01
G1 X786.619 Y220.332
G1 X787.417 Y216.579
G1 X787.443 Y216.469
G1 X788.848 Y210.846
G1 X789.776 Y207.129
G1 X789.804 Y207.022
G1 X791.403 Y201.453
G1 X792.459 Y197.773
G1 X792.49 Y197.671
G1 X794.275 Y192.157
G1 X795.456 Y188.514
G1 X795.489 Y188.415
G1 X797.456 Y182.958
G1 X798.756 Y179.351
G1 X798.792 Y179.257
G1 X800.935 Y173.858
G1 X802.351 Y170.289
G1 X802.388 Y170.198
G1 X804.701 Y164.856
G1 X806.231 Y161.326
G1 X806.278 Y161.223
G1 X807.607 Y158.433
G1 X807.624 Y158.397
G1 X810.525 Y152.497
G1 X813.399 Y146.541
G1 X813.415 Y146.508
G1 X814.796 Y143.73
G1 X814.85 Y143.626
G1 X817.647 Y138.482
G1 X819.495 Y135.083
G1 X819.544 Y134.995
G1 X822.501 Y129.947
G1 X824.455 Y126.61
G1 X824.51 Y126.519
G1 X827.627 Y121.582
G1 X829.688 Y118.32
G1 X829.749 Y118.226
G1 X833.027 Y113.419
G1 X835.193 Y110.242
G1 X835.261 Y110.146
G1 X838.7 Y105.485
G1 X840.974 Y102.405
G1 X841.05 Y102.306
G1 X844.651 Y97.81
G1 X847.031 Y94.839
G1 X847.117 Y94.737
G1 X850.88 Y90.424
G1 X853.367 Y87.573
G1 X853.461 Y87.47
G1 X857.387 Y83.352
G1 X859.982 Y80.63
G1 X860.081 Y80.532
G1 X864.169 Y76.605
G1 X866.871 Y74.01
G1 X866.97 Y73.918
G1 X871.218 Y70.173
G1 X874.027 Y67.698
G1 X874.127 Y67.613
G1 X878.536 Y64.041
G1 X881.449 Y61.68
G1 X881.549 Y61.602
G1 X886.116 Y58.194
G1 X889.134 Y55.942
G1 X889.233 Y55.872
G1 X893.958 Y52.619
G1 X897.081 Y50.469
G1 X897.176 Y50.406
G1 X902.057 Y47.3
G1 X905.283 Y45.247
G1 X905.376 Y45.19
G1 X910.413 Y42.222
G1 X913.74 Y40.26
G1 X913.83 Y40.209
G1 X919.019 Y37.373
G1 X922.447 Y35.499
G1 X922.538 Y35.451
G1 X927.861 Y32.761
G1 X931.378 Y30.984
G1 X931.473 Y30.938
G1 X936.91 Y28.414
G1 X940.504 Y26.746
G1 X940.603 Y26.702
G1 X946.134 Y24.36
G1 X949.791 Y22.813
G1 X949.895 Y22.771
G1 X955.5 Y20.631
G1 X959.206 Y19.216
G1 X959.318 Y19.176
G1 X964.978 Y17.255
G1 X968.719 Y15.986
G1 X968.839 Y15.948
G1 X974.534 Y14.265
G1 X978.297 Y13.152
G1 X978.427 Y13.117
G1 X984.136 Y11.69
G1 X987.909 Y10.747
G1 X988.047 Y10.715
G1 X993.753 Y9.556
G1 X997.524 Y8.789
G1 X997.658 Y8.765
G1 X1003.362 Y7.86
G1 X1007.121 Y7.261
G1 X1007.249 Y7.244
G1 X1012.948 Y6.572
G1 X1016.708 Y6.129
G1 X1016.826 Y6.117
G1 X1022.516 Y5.66
G1 X1026.276 Y5.358
G1 X1026.383 Y5.351
G1 X1032.073 Y5.088
G1 X1035.823 Y4.914
G1 X1035.92 Y4.911
G1 X1041.6 Y4.822
G1 X1045.35 Y4.763
G1 X1045.437
G1 X1048.377 Y4.797
G3 X1051.515 Y7.971 I-0.037 J3.175
G1 Y11.348
G3 X1050.978 Y13.115 I-3.175 J0
G1 X1050.806 Y13.372
G1 X1051.066 Y13.198
G3 X1052.83 Y12.663 I1.764 J2.64
G1 X1115.8
G3 X1116.661 Y12.782 I0 J3.175
G1 X1117.061 Y12.894
G1 X1117.071 Y12.897
G1 X1118.898 Y13.419
G1 X1120.655 Y13.916
G1 X1120.805 Y13.963
G1 X1123.505 Y14.873
G1 X1125.285 Y15.474
G1 X1125.386 Y15.51
G1 X1128.076 Y16.52
G1 X1128.082 Y16.522
G1 X1129.842 Y17.187
G1 X1129.948 Y17.229
G1 X1132.608 Y18.345
G1 X1132.611 Y18.347
G1 X1134.351 Y19.079
G1 X1134.454 Y19.124
G1 X1137.104 Y20.352
G1 X1137.106 Y20.353
G1 X1138.836 Y21.155
G1 X1138.948 Y21.21
G1 X1141.568 Y22.553
G1 X1141.573 Y22.556
G1 X1143.273 Y23.431
G1 X1143.377 Y23.487
G1 X1145.967 Y24.944
G1 X1145.974 Y24.948
G1 X1147.644 Y25.894
G1 X1147.743 Y25.952
G1 X1150.293 Y27.519
G1 X1150.298 Y27.523
G1 X1151.938 Y28.535
G1 X1152.042 Y28.602
G1 X1154.532 Y30.277
G1 X1154.54 Y30.282
G1 X1156.13 Y31.359
G1 X1156.23 Y31.429
G1 X1158.65 Y33.207
G1 X1158.656 Y33.212
G1 X1160.196 Y34.349
G1 X1160.302 Y34.431
G1 X1162.632 Y36.309
G1 X1162.635 Y36.311
G1 X1164.115 Y37.506
G1 X1164.214 Y37.59
G1 X1166.464 Y39.564
G1 X1166.476 Y39.574
G1 X1167.886 Y40.824
G1 X1167.986 Y40.916
G1 X1170.126 Y42.983
G1 X1170.132 Y42.989
G1 X1171.472 Y44.291
G1 X1171.577 Y44.397
G1 X1173.597 Y46.552
G1 X1173.61 Y46.567
G1 X1174.86 Y47.918
G1 X1174.957 Y48.027
G1 X1176.847 Y50.267
G1 X1176.854 Y50.276
G1 X1178.024 Y51.674
G1 X1178.13 Y51.807
G1 X1179.87 Y54.127
G1 X1179.88 Y54.14
G1 X1180.949 Y55.581
G1 X1181.046 Y55.718
G1 X1182.636 Y58.115
G1 X1182.647 Y58.132
G1 X1183.617 Y59.616
G1 X1183.717 Y59.779
G1 X1185.127 Y62.247
G1 X1185.135 Y62.261
G1 X1185.995 Y63.784
G1 X1186.087 Y63.959
G1 X1187.317 Y66.495
G1 X1187.322 Y66.505
G1 X1188.072 Y68.066
G1 X1188.162 Y68.271
G1 X1189.192 Y70.87
G1 X1189.193 Y70.874
G1 X1189.823 Y72.471
G1 X1189.866 Y72.585
G1 X1189.904 Y72.7
G1 X1190.724 Y75.356
G1 X1190.731 Y75.379
G1 X1191.221 Y77.01
G1 X1191.277 Y77.226
G1 X1191.887 Y79.934
G1 X1191.893 Y79.96
G1 X1192.253 Y81.622
G1 X1192.292 Y81.837
G1 X1192.692 Y84.586
G1 X1192.696 Y84.615
G1 X1192.926 Y86.305
G1 X1192.946 Y86.494
G1 X1193.156 Y89.272
G1 X1193.158 Y89.308
G1 X1193.268 Y91.018
G1 X1193.275 Y91.176
G1 X1193.315 Y93.973
G1 Y94.018
G1 Y95.743
G1 X1193.312 Y95.891
G1 X1193.182 Y98.693
G1 X1193.18 Y98.729
G1 X1193.08 Y100.463
G1 X1193.069 Y100.596
G1 X1192.789 Y103.393
G1 X1192.786 Y103.422
G1 X1192.596 Y105.158
G1 X1192.581 Y105.276
G1 X1192.171 Y108.056
G1 X1192.164 Y108.099
G1 X1191.884 Y109.832
G1 X1191.87 Y109.915
G1 X1191.35 Y112.667
G1 X1191.341 Y112.71
G1 X1190.991 Y114.432
G1 X1190.973 Y114.518
G1 X1190.343 Y117.231
G1 X1190.333 Y117.272
G1 X1189.913 Y118.977
G1 X1189.898 Y119.036
G1 X1189.188 Y121.699
G1 X1189.173 Y121.753
G1 X1188.693 Y123.433
G1 X1188.681 Y123.472
G1 X1187.901 Y126.075
G1 X1187.883 Y126.136
G1 X1187.353 Y127.785
G1 X1187.343 Y127.813
G1 X1186.503 Y130.344
G1 X1186.489 Y130.387
G1 X1185.929 Y131.997
G1 X1185.914 Y132.038
G1 X1185.024 Y134.488
G1 X1185.011 Y134.525
G1 X1184.421 Y136.089
G1 X1184.412 Y136.111
G1 X1183.502 Y138.469
G1 X1183.477 Y138.532
G1 X1182.858 Y140.039
G1 X1181.94 Y142.29
G1 X1181.902 Y142.378
G1 X1181.432 Y143.438
G3 X1181.044 Y144.091 I-2.902 J-1.287
G1 X1180.554 Y144.726
G3 X1178.04 Y145.961 I-2.514 J-1.94
G1 X1000.11
G3 X998.349 Y145.428 I0 J-3.175
G1 X998.079 Y145.248
G1 X998.255 Y145.511
G3 X998.791 Y147.276 I-2.639 J1.765
G1 Y150.741
G3 X998.256 Y152.505 I-3.175 J0
G1 X998.079 Y152.77
G1 X998.351 Y152.589
G3 X1000.11 Y152.057 I1.759 J2.643
G1 X1171.6
G3 X1174.114 Y153.292 I0 J3.175
G1 X1174.604 Y153.927
G3 X1174.925 Y157.297 I-2.514 J1.94
G1 X1174.235 Y158.665
G1 X1174.193 Y158.746
G1 X1173.606 Y159.831
G1 X1172.768 Y161.444
G1 X1172.711 Y161.55
G1 X1172.13 Y162.572
G1 X1171.308 Y164.105
G1 X1171.251 Y164.206
G1 X1170.678 Y165.188
G1 X1169.044 Y168.122
G1 X1168.975 Y168.239
G1 X1167.829 Y170.104
G1 X1166.242 Y172.863
G1 X1166.177 Y172.97
G1 X1165.076 Y174.719
G1 X1163.524 Y177.385
G1 X1163.456 Y177.495
G1 X1162.387 Y179.17
G1 X1160.875 Y181.811
G1 X1160.809 Y181.921
G1 X1159.77 Y183.576
G1 X1158.296 Y186.272
G1 X1158.233 Y186.38
G1 X1157.214 Y188.081
G1 X1155.749 Y190.909
G1 X1155.696 Y191.008
G1 X1154.681 Y192.808
G1 X1153.222 Y195.79
G1 X1153.17 Y195.891
G1 X1152.147 Y197.804
G1 X1150.66 Y200.947
G1 X1150.615 Y201.039
G1 X1149.572 Y203.071
G1 X1148.026 Y206.378
G1 X1147.986 Y206.461
G1 X1146.908 Y208.604
G1 X1145.299 Y212.064
G1 X1145.262 Y212.14
G1 X1144.137 Y214.399
G1 X1142.432 Y218.017
G1 X1142.402 Y218.078
G1 X1141.223 Y220.447
G1 X1140.333 Y222.303
G1 X1140.307 Y222.357
G1 X1139.696 Y223.571
G1 X1138.776 Y225.465
G1 X1138.75 Y225.517
G1 X1138.119 Y226.756
G1 X1137.168 Y228.687
G1 X1137.143 Y228.736
G1 X1136.492 Y230.002
G1 X1135.511 Y231.969
G1 X1135.479 Y232.032
G1 X1134.799 Y233.322
G1 X1133.778 Y235.322
G1 X1133.761 Y235.355
G1 X1133.064 Y236.683
G1 X1131.996 Y238.733
G1 X1131.985 Y238.754
G1 X1131.27 Y240.103
G1 X1130.185 Y242.183
G1 X1130.161 Y242.228
G1 X1129.423 Y243.59
G1 X1128.324 Y245.694
G1 X1128.312 Y245.718
G1 X1127.568 Y247.114
G1 X1126.444 Y249.266
G1 X1126.435 Y249.283
G1 X1125.685 Y250.699
G1 X1124.564 Y252.88
G1 X1124.548 Y252.911
G1 X1123.791 Y254.345
G1 X1122.674 Y256.557
G1 X1122.658 Y256.587
G1 X1121.901 Y258.047
G1 X1120.783 Y260.296
G1 X1120.768 Y260.325
G1 X1120.013 Y261.807
G1 X1118.907 Y264.089
G1 X1118.895 Y264.113
G1 X1118.148 Y265.622
G1 X1117.051 Y267.944
G1 X1117.049 Y267.948
G1 X1116.319 Y269.488
G1 X1115.24 Y271.852
G1 X1114.528 Y273.42
G1 X1113.469 Y275.822
G1 X1112.781 Y277.405
G1 X1111.76 Y279.85
G1 X1111.756 Y279.859
G1 X1111.082 Y281.458
G1 X1110.597 Y282.699
G3 X1110.135 Y283.508 I-2.957 J-1.155
G1 X1109.635 Y284.143
G3 X1107.609 Y285.319 I-2.495 J-1.964
G1 Z-3.284
G3 X1107.14 Y285.354 I-0.469 J-3.14
G1 X949.305
G3 X947.541 Y284.819 I0 J-3.175
G1 X947.28 Y284.645
G1 X947.455 Y284.906
G3 X947.99 Y286.67 I-2.64 J1.764
G1 Y290.135
G3 X947.455 Y291.899 I-3.175 J0
G1 X947.281 Y292.159
G1 X947.54 Y291.986
G3 X949.305 Y291.45 I1.765 J2.639
G1 X1102.2
G3 X1104.694 Y292.661 I0 J3.175
G1 X1105.194 Y293.296
G3 X1105.708 Y296.275 I-2.495 J1.964
G1 X1105.611 Y296.564
G1 X1105.086 Y298.255
G1 X1104.295 Y300.883
G1 X1103.794 Y302.616
G1 X1103.052 Y305.277
G1 X1102.579 Y307.036
G1 X1101.876 Y309.725
G1 X1101.431 Y311.505
G1 X1100.757 Y314.216
G1 X1100.343 Y316.005
G1 X1100.34 Y316.017
G1 X1099.696 Y318.748
G1 X1099.301 Y320.547
G1 X1099.296 Y320.572
G1 X1098.671 Y323.317
G1 X1098.285 Y325.127
G1 X1098.281 Y325.148
G1 X1097.677 Y327.896
G1 X1097.312 Y329.704
G1 X1097.303 Y329.746
G1 X1096.71 Y332.496
G1 X1096.356 Y334.302
G1 X1096.346 Y334.351
G1 X1095.761 Y337.105
G1 X1095.406 Y338.915
G1 X1095.395 Y338.964
G1 X1094.812 Y341.704
G1 X1094.468 Y343.501
G1 X1094.453 Y343.578
G1 X1093.859 Y346.311
G1 X1093.505 Y348.102
G1 X1093.488 Y348.182
G1 X1092.265 Y353.623
G1 X1091.542 Y357.194
G1 X1091.515 Y357.316
G1 X1090.212 Y362.663
G1 X1089.428 Y366.168
G1 X1089.394 Y366.309
G1 X1087.972 Y371.531
G1 X1087.121 Y374.946
G1 X1087.081 Y375.091
G1 X1085.54 Y380.217
G1 X1084.609 Y383.563
G1 X1084.569 Y383.696
G1 X1082.918 Y388.761
G1 X1081.906 Y392.068
G1 X1081.869 Y392.181
G1 X1080.118 Y397.221
G1 X1079.036 Y400.511
G1 X1079.001 Y400.612
G1 X1077.151 Y405.657
G1 X1076.01 Y408.952
G1 X1075.981 Y409.032
G1 X1075.03 Y411.559
G1 X1074.438 Y413.207
G1 X1074.416 Y413.269
G1 X1073.446 Y415.807
G1 X1072.845 Y417.464
G1 X1072.821 Y417.529
G1 X1071.832 Y420.084
G1 X1071.222 Y421.753
G1 X1071.186 Y421.847
G1 X1071.076 Y422.121
G3 X1070.625 Y422.902 I-2.946 J-1.183
G1 X1070.125 Y423.537
G3 X1067.63 Y424.748 I-2.495 J-1.964
G1 X945.442
G3 X943.678 Y424.213 I0 J-3.175
G1 X943.419 Y424.04
G1 X943.592 Y424.299
G3 X944.127 Y426.063 I-2.64 J1.764
G1 Y429.529
G3 X943.592 Y431.293 I-3.175 J0
G1 X943.418 Y431.553
G1 X943.677 Y431.38
G3 X945.442 Y430.844 I1.765 J2.639
G1 X1062.34
G3 X1064.854 Y432.079 I0 J3.175
G1 X1065.344 Y432.714
G3 X1065.786 Y435.813 I-2.514 J1.94
G1 X1065.072 Y437.634
G1 X1064.397 Y439.406
G1 X1064.382 Y439.445
G1 X1063.309 Y442.156
G1 X1062.626 Y443.946
G1 X1062.6 Y444.013
G1 X1061.489 Y446.737
G1 X1060.788 Y448.536
G1 X1060.76 Y448.606
G1 X1059.62 Y451.339
G1 X1058.899 Y453.145
G1 X1058.865 Y453.228
G1 X1057.684 Y455.962
G1 X1056.932 Y457.772
G1 X1056.893 Y457.862
G1 X1055.664 Y460.583
G1 X1054.884 Y462.386
G1 X1054.844 Y462.475
G1 X1053.571 Y465.184
G1 X1052.747 Y466.984
G1 X1052.699 Y467.086
G1 X1051.361 Y469.756
G1 X1050.514 Y471.526
G1 X1050.454 Y471.644
G1 X1049.054 Y474.281
G1 X1048.154 Y476.033
G1 X1048.091 Y476.149
G1 X1046.621 Y478.741
G1 X1045.67 Y480.463
G1 X1045.603 Y480.578
G1 X1044.062 Y483.115
G1 X1043.06 Y484.802
G1 X1042.979 Y484.931
G1 X1041.352 Y487.394
G1 X1040.305 Y489.032
G1 X1040.208 Y489.176
G1 X1038.488 Y491.568
G1 X1037.367 Y493.161
G1 X1037.268 Y493.295
G1 X1035.462 Y495.597
G1 X1034.296 Y497.128
G1 X1034.168 Y497.284
G1 X1032.254 Y499.492
G1 X1031.019 Y500.959
G1 X1030.883 Y501.11
G1 X1028.863 Y503.22
G1 X1027.543 Y504.623
G1 X1027.402 Y504.764
G1 X1025.273 Y506.761
G1 X1023.884 Y508.088
G1 X1023.733 Y508.224
G1 X1021.495 Y510.105
G1 X1020.036 Y511.355
G1 X1019.882 Y511.479
G1 X1017.542 Y513.244
G1 X1016.012 Y514.417
G1 X1015.867 Y514.522
G1 X1013.444 Y516.173
G1 X1011.85 Y517.27
G1 X1011.702 Y517.366
G1 X1009.191 Y518.895
G1 X1007.549 Y519.91
G1 X1007.401 Y519.996
G1 X1004.814 Y521.407
G1 X1003.108 Y522.344
G1 X1002.965 Y522.418
G1 X1000.312 Y523.704
G1 X998.571 Y524.557
G1 X998.423 Y524.625
G1 X995.706 Y525.788
G1 X993.924 Y526.558
G1 X993.778 Y526.617
G1 X991.01 Y527.653
G1 X989.191 Y528.34
G1 X989.045 Y528.391
G1 X986.232 Y529.3
G1 X984.383 Y529.902
G1 X984.238 Y529.945
G1 X981.385 Y530.726
G1 X979.511 Y531.242
G1 X979.366 Y531.278
G1 X976.485 Y531.928
G1 X974.591 Y532.357
G1 X974.445 Y532.387
G1 X971.544 Y532.904
G1 X969.634 Y533.246
G1 X969.486 Y533.269
G1 X966.571 Y533.652
G1 X964.651 Y533.906
G1 X964.503 Y533.922
G1 X961.581 Y534.17
G1 X959.655 Y534.334
G1 X959.507 Y534.343
G1 X956.586 Y534.454
G1 X954.66 Y534.527
G1 X954.511 Y534.529
G1 X951.599 Y534.502
G1 X949.68 Y534.485
G1 X949.53 Y534.48
G1 X946.63 Y534.317
G1 X944.719 Y534.21
G1 X944.574 Y534.199
G1 X941.689 Y533.905
G1 X941.687 Y533.904
G1 X939.784 Y533.709
G1 X939.645 Y533.692
G1 X936.777 Y533.269
G1 X936.775
G1 X934.883 Y532.989
G1 X934.746 Y532.965
G1 X931.898 Y532.415
G1 X931.896
G1 X930.016 Y532.051
G1 X929.884 Y532.023
G1 X927.058 Y531.35
G1 X927.057 Y531.349
G1 X925.193 Y530.904
G1 X925.064 Y530.871
G1 X922.263 Y530.077
G1 X920.414 Y529.553
G1 X920.289 Y529.514
G1 X917.516 Y528.603
G1 X915.684 Y528.001
G1 X915.565 Y527.959
G1 X912.822 Y526.934
G1 X911.01 Y526.257
G1 X910.894 Y526.211
G1 X908.184 Y525.075
G1 X906.393 Y524.324
G1 X906.282 Y524.275
G1 X903.607 Y523.031
G1 X901.84 Y522.209
G1 X901.732 Y522.156
G1 X899.096 Y520.807
G1 X897.354 Y519.916
G1 X897.25 Y519.86
G1 X894.654 Y518.409
G1 X892.938 Y517.451
G1 X892.839 Y517.393
G1 X890.286 Y515.842
G1 X888.598 Y514.819
G1 X888.503 Y514.758
G1 X885.995 Y513.112
G1 X884.337 Y512.024
G1 X884.246 Y511.962
G1 X881.786 Y510.223
G1 X880.161 Y509.074
G1 X880.034 Y508.98
G1 X875.265 Y505.241
G1 X872.113 Y502.768
G1 X871.967 Y502.646
G1 X867.408 Y498.604
G1 X864.394 Y495.932
G1 X864.269 Y495.815
G1 X859.926 Y491.526
G1 X857.056 Y488.693
G1 X856.95 Y488.583
G1 X852.828 Y484.105
G1 X850.104 Y481.145
G1 X850.015 Y481.043
G1 X846.122 Y476.432
G1 X843.55 Y473.385
G1 X843.473 Y473.29
G1 X839.816 Y468.602
G1 X837.399 Y465.505
G1 X837.332 Y465.416
G1 X833.918 Y460.709
G1 X831.661 Y457.598
G1 X831.603 Y457.516
G1 X828.438 Y452.847
G1 X826.346 Y449.761
G1 X826.293 Y449.68
G1 X823.378 Y445.087
G1 X821.452 Y442.052
G1 X821.398 Y441.963
G1 X818.719 Y437.418
G1 X816.949 Y434.415
G1 X816.893 Y434.316
G1 X814.43 Y429.775
G1 X812.802 Y426.773
G1 X812.747 Y426.667
G1 X810.479 Y422.082
G1 X808.981 Y419.051
G1 X808.929 Y418.941
G1 X806.837 Y414.267
G1 X805.455 Y411.179
G1 X805.408 Y411.068
G1 X803.472 Y406.26
G1 X802.193 Y403.081
G1 X802.152 Y402.974
G1 X800.352 Y397.987
G1 X799.162 Y394.689
G1 X799.128 Y394.588
G1 X797.444 Y389.375
G1 X796.331 Y385.928
G1 X796.303 Y385.836
G1 X794.72 Y380.366
G1 X793.675 Y376.75
G1 X793.651 Y376.663
G1 X792.177 Y370.963
G1 X791.203 Y367.197
G1 X791.183 Y367.114
G1 X789.829 Y361.226
G1 X788.934 Y357.336
G1 X788.916 Y357.254
G1 X787.694 Y351.221
G1 X786.886 Y347.235
G1 X786.871 Y347.153
G1 X785.794 Y341.016
G1 X785.081 Y336.962
G1 X785.068 Y336.879
G1 X784.146 Y330.68
G1 X783.536 Y326.583
G1 X783.525 Y326.498
G1 X782.771 Y320.279
G1 X782.273 Y316.169
G1 X782.264 Y316.08
G1 X781.69 Y309.882
G1 X781.31 Y305.787
G1 X781.303 Y305.692
G1 X780.92 Y299.55
G1 X780.666 Y295.492
G1 X780.662 Y295.393
G1 X780.472 Y289.313
G1 X780.346 Y285.297
G1 X780.344 Y285.194
G1 X780.349 Y279.176
G1 X780.353 Y275.199
G1 X780.355 Y275.095
G1 X780.556 Y269.136
G1 X780.69 Y265.197
G1 X780.695 Y265.091
G1 X781.094 Y259.191
G1 Y259.19
G1 X781.359 Y255.291
G1 X781.369 Y255.182
G1 X781.968 Y249.339
G1 X782.364 Y245.478
G1 X782.377 Y245.367
G1 X783.178 Y239.58
G1 X783.707 Y235.756
G1 X783.725 Y235.644
G1 X784.728 Y229.912
G1 X785.392 Y226.122
G1 X785.413 Y226.01
G1 X786.619 Y220.332
G1 X787.417 Y216.579
G1 X787.443 Y216.469
G1 X788.848 Y210.846
G1 X789.776 Y207.129
G1 X789.804 Y207.022
G1 X791.403 Y201.453
G1 X792.459 Y197.773
G1 X792.49 Y197.671
G1 X794.275 Y192.157
G1 X795.456 Y188.514
G1 X795.489 Y188.415
G1 X797.456 Y182.958
G1 X798.756 Y179.351
G1 X798.792 Y179.257
G1 X800.935 Y173.858
G1 X802.351 Y170.289
G1 X802.388 Y170.198
G1 X804.701 Y164.856
G1 X806.231 Y161.326
G1 X806.278 Y161.223
G1 X807.607 Y158.433
G1 X807.624 Y158.397
G1 X810.525 Y152.497
G1 X813.399 Y146.541
G1 X813.415 Y146.508
G1 X814.796 Y143.73
G1 X814.85 Y143.626
G1 X817.647 Y138.482
G1 X819.495 Y135.083
G1 X819.544 Y134.995
G1 X822.501 Y129.947
G1 X824.455 Y126.61
G1 X824.51 Y126.519
G1 X827.627 Y121.582
G1 X829.688 Y118.32
G1 X829.749 Y118.226
G1 X833.027 Y113.419
G1 X835.193 Y110.242
G1 X835.261 Y110.146
G1 X838.7 Y105.485
G1 X840.974 Y102.405
G1 X841.05 Y102.306
G1 X844.651 Y97.81
G1 X847.031 Y94.839
G1 X847.117 Y94.737
G1 X850.88 Y90.424
G1 X853.367 Y87.573
G1 X853.461 Y87.47
G1 X857.387 Y83.352
G1 X859.982 Y80.63
G1 X860.081 Y80.532
G1 X864.169 Y76.605
G1 X866.871 Y74.01
G1 X866.97 Y73.918
G1 X871.218 Y70.173
G1 X874.027 Y67.698
G1 X874.127 Y67.613
G1 X878.536 Y64.041
G1 X881.449 Y61.68
G1 X881.549 Y61.602
G1 X886.116 Y58.194
G1 X889.134 Y55.942
G1 X889.233 Y55.872
G1 X893.958 Y52.619
G1 X897.081 Y50.469
G1 X897.176 Y50.406
G1 X902.057 Y47.3
G1 X905.283 Y45.247
G1 X905.376 Y45.19
G1 X910.413 Y42.222
G1 X913.74 Y40.26
G1 X913.83 Y40.209
G1 X919.019 Y37.373
G1 X922.447 Y35.499
G1 X922.538 Y35.451
G1 X927.861 Y32.761
G1 X931.378 Y30.984
G1 X931.473 Y30.938
G1 X936.91 Y28.414
G1 X940.504 Y26.746
G1 X940.603 Y26.702
G1 X946.134 Y24.36
G1 X949.791 Y22.813
G1 X949.895 Y22.771
G1 X955.5 Y20.631
G1 X959.206 Y19.216
G1 X959.318 Y19.176
G1 X964.978 Y17.255
G1 X968.719 Y15.986
G1 X968.839 Y15.948
G1 X974.534 Y14.265
G1 X978.297 Y13.152
G1 X978.427 Y13.117
G1 X984.136 Y11.69
G1 X987.909 Y10.747
G1 X988.047 Y10.715
G1 X993.753 Y9.556
G1 X997.524 Y8.789
G1 X997.658 Y8.765
G1 X1003.362 Y7.86
G1 X1007.121 Y7.261
G1 X1007.249 Y7.244
G1 X1012.948 Y6.572
G1 X1016.708 Y6.129
G1 X1016.826 Y6.117
G1 X1022.516 Y5.66
G1 X1026.276 Y5.358
G1 X1026.383 Y5.351
G1 X1032.073 Y5.088
G1 X1035.823 Y4.914
G1 X1035.92 Y4.911
G1 X1041.6 Y4.822
G1 X1045.35 Y4.763
G1 X1045.437
G1 X1048.377 Y4.797
G3 X1051.515 Y7.971 I-0.037 J3.175
G1 Y11.348
G3 X1050.978 Y13.115 I-3.175 J0
G1 X1050.806 Y13.372
G1 X1051.066 Y13.198
G3 X1052.83 Y12.663 I1.764 J2.64
G1 X1115.8
G3 X1116.661 Y12.782 I0 J3.175
G1 X1117.061 Y12.894
G1 X1117.071 Y12.897
G1 X1118.898 Y13.419
G1 X1120.655 Y13.916
G1 X1120.805 Y13.963
G1 X1123.505 Y14.873
G1 X1125.285 Y15.474
G1 X1125.386 Y15.51
G1 X1128.076 Y16.52
G1 X1128.082 Y16.522
G1 X1129.842 Y17.187
G1 X1129.948 Y17.229
G1 X1132.608 Y18.345
G1 X1132.611 Y18.347
G1 X1134.351 Y19.079
G1 X1134.454 Y19.124
G1 X1137.104 Y20.352
G1 X1137.106 Y20.353
G1 X1138.836 Y21.155
G1 X1138.948 Y21.21
G1 X1141.568 Y22.553
G1 X1141.573 Y22.556
G1 X1143.273 Y23.431
G1 X1143.377 Y23.487
G1 X1145.967 Y24.944
G1 X1145.974 Y24.948
G1 X1147.644 Y25.894
G1 X1147.743 Y25.952
G1 X1150.293 Y27.519
G1 X1150.298 Y27.523
G1 X1151.938 Y28.535
G1 X1152.042 Y28.602
G1 X1154.532 Y30.277
G1 X1154.54 Y30.282
G1 X1156.13 Y31.359
G1 X1156.23 Y31.429
G1 X1158.65 Y33.207
G1 X1158.656 Y33.212
G1 X1160.196 Y34.349
G1 X1160.302 Y34.431
G1 X1162.632 Y36.309
G1 X1162.635 Y36.311
G1 X1164.115 Y37.506
G1 X1164.214 Y37.59
G1 X1166.464 Y39.564
G1 X1166.476 Y39.574
G1 X1167.886 Y40.824
G1 X1167.986 Y40.916
G1 X1170.126 Y42.983
G1 X1170.132 Y42.989
G1 X1171.472 Y44.291
G1 X1171.577 Y44.397
G1 X1173.597 Y46.552
G1 X1173.61 Y46.567
G1 X1174.86 Y47.918
G1 X1174.957 Y48.027
G1 X1176.847 Y50.267
G1 X1176.854 Y50.276
G1 X1178.024 Y51.674
G1 X1178.13 Y51.807
G1 X1179.87 Y54.127
G1 X1179.88 Y54.14
G1 X1180.949 Y55.581
G1 X1181.046 Y55.718
G1 X1182.636 Y58.115
G1 X1182.647 Y58.132
G1 X1183.617 Y59.616
G1 X1183.717 Y59.779
G1 X1185.127 Y62.247
G1 X1185.135 Y62.261
G1 X1185.995 Y63.784
G1 X1186.087 Y63.959
G1 X1187.317 Y66.495
G1 X1187.322 Y66.505
G1 X1188.072 Y68.066
G1 X1188.162 Y68.271
G1 X1189.192 Y70.87
G1 X1189.193 Y70.874
G1 X1189.823 Y72.471
G1 X1189.866 Y72.585
G1 X1189.904 Y72.7
G1 X1190.724 Y75.356
G1 X1190.731 Y75.379
G1 X1191.221 Y77.01
G1 X1191.277 Y77.226
G1 X1191.887 Y79.934
G1 X1191.893 Y79.96
G1 X1192.253 Y81.622
G1 X1192.292 Y81.837
G1 X1192.692 Y84.586
G1 X1192.696 Y84.615
G1 X1192.926 Y86.305
G1 X1192.946 Y86.494
G1 X1193.156 Y89.272
G1 X1193.158 Y89.308
G1 X1193.268 Y91.018
G1 X1193.275 Y91.176
G1 X1193.315 Y93.973
G1 Y94.018
G1 Y95.743
G1 X1193.312 Y95.891
G1 X1193.182 Y98.693
G1 X1193.18 Y98.729
G1 X1193.08 Y100.463
G1 X1193.069 Y100.596
G1 X1192.789 Y103.393
G1 X1192.786 Y103.422
G1 X1192.596 Y105.158
G1 X1192.581 Y105.276
G1 X1192.171 Y108.056
G1 X1192.164 Y108.099
G1 X1191.884 Y109.832
G1 X1191.87 Y109.915
G1 X1191.35 Y112.667
G1 X1191.341 Y112.71
G1 X1190.991 Y114.432
G1 X1190.973 Y114.518
G1 X1190.343 Y117.231
G1 X1190.333 Y117.272
G1 X1189.913 Y118.977
G1 X1189.898 Y119.036
G1 X1189.188 Y121.699
G1 X1189.173 Y121.753
G1 X1188.693 Y123.433
G1 X1188.681 Y123.472
G1 X1187.901 Y126.075
G1 X1187.883 Y126.136
G1 X1187.353 Y127.785
G1 X1187.343 Y127.813
G1 X1186.503 Y130.344
G1 X1186.489 Y130.387
G1 X1185.929 Y131.997
G1 X1185.914 Y132.038
G1 X1185.024 Y134.488
G1 X1185.011 Y134.525
G1 X1184.421 Y136.089
G1 X1184.412 Y136.111
G1 X1183.502 Y138.469
G1 X1183.477 Y138.532
G1 X1182.858 Y140.039
G1 X1181.94 Y142.29
G1 X1181.902 Y142.378
G1 X1181.432 Y143.438
G3 X1181.044 Y144.091 I-2.902 J-1.287
G1 X1180.554 Y144.726
G3 X1178.04 Y145.961 I-2.514 J-1.94
G1 X1000.11
G3 X998.349 Y145.428 I0 J-3.175
G1 X998.079 Y145.248
G1 X998.255 Y145.511
G3 X998.791 Y147.276 I-2.639 J1.765
G1 Y150.741
G3 X998.256 Y152.505 I-3.175 J0
G1 X998.079 Y152.77
G1 X998.351 Y152.589
G3 X1000.11 Y152.057 I1.759 J2.643
G1 X1171.6
G3 X1174.114 Y153.292 I0 J3.175
G1 X1174.604 Y153.927
G3 X1174.925 Y157.297 I-2.514 J1.94
G1 X1174.235 Y158.665
G1 X1174.193 Y158.746
G1 X1173.606 Y159.831
G1 X1172.768 Y161.444
G1 X1172.711 Y161.55
G1 X1172.13 Y162.572
G1 X1171.308 Y164.105
G1 X1171.251 Y164.206
G1 X1170.678 Y165.188
G1 X1169.044 Y168.122
G1 X1168.975 Y168.239
G1 X1167.829 Y170.104
G1 X1166.242 Y172.863
G1 X1166.177 Y172.97
G1 X1165.076 Y174.719
G1 X1163.524 Y177.385
G1 X1163.456 Y177.495
G1 X1162.387 Y179.17
G1 X1160.875 Y181.811
G1 X1160.809 Y181.921
G1 X1159.77 Y183.576
G1 X1158.296 Y186.272
G1 X1158.233 Y186.38
G1 X1157.214 Y188.081
G1 X1155.749 Y190.909
G1 X1155.696 Y191.008
G1 X1154.681 Y192.808
G1 X1153.222 Y195.79
G1 X1153.17 Y195.891
G1 X1152.147 Y197.804
G1 X1150.66 Y200.947
G1 X1150.615 Y201.039
G1 X1149.572 Y203.071
G1 X1148.026 Y206.378
G1 X1147.986 Y206.461
G1 X1146.908 Y208.604
G1 X1145.299 Y212.064
G1 X1145.262 Y212.14
G1 X1144.137 Y214.399
G1 X1142.432 Y218.017
G1 X1142.402 Y218.078
G1 X1141.223 Y220.447
G1 X1140.333 Y222.303
G1 X1140.307 Y222.357
G1 X1139.696 Y223.571
G1 X1138.776 Y225.465
G1 X1138.75 Y225.517
G1 X1138.119 Y226.756
G1 X1137.168 Y228.687
G1 X1137.143 Y228.736
G1 X1136.492 Y230.002
G1 X1135.511 Y231.969
G1 X1135.479 Y232.032
G1 X1134.799 Y233.322
G1 X1133.778 Y235.322
G1 X1133.761 Y235.355
G1 X1133.064 Y236.683
G1 X1131.996 Y238.733
G1 X1131.985 Y238.754
G1 X1131.27 Y240.103
G1 X1130.185 Y242.183
G1 X1130.161 Y242.228
G1 X1129.423 Y243.59
G1 X1128.324 Y245.694
G1 X1128.312 Y245.718
G1 X1127.568 Y247.114
G1 X1126.444 Y249.266
G1 X1126.435 Y249.283
G1 X1125.685 Y250.699
G1 X1124.564 Y252.88
G1 X1124.548 Y252.911
G1 X1123.791 Y254.345
G1 X1122.674 Y256.557
G1 X1122.658 Y256.587
G1 X1121.901 Y258.047
G1 X1120.783 Y260.296
G1 X1120.768 Y260.325
G1 X1120.013 Y261.807
G1 X1118.907 Y264.089
G1 X1118.895 Y264.113
G1 X1118.148 Y265.622
G1 X1117.051 Y267.944
G1 X1117.049 Y267.948
G1 X1116.319 Y269.488
G1 X1115.24 Y271.852
G1 X1114.528 Y273.42
G1 X1113.469 Y275.822
G1 X1112.781 Y277.405
G1 X1111.76 Y279.85
G1 X1111.756 Y279.859
G1 X1111.082 Y281.458
G1 X1110.597 Y282.699
G3 X1110.135 Y283.508 I-2.957 J-1.155
G1 X1109.635 Y284.143
G3 X1107.609 Y285.319 I-2.495 J-1.964
G1 Z-7.366
G3 X1107.14 Y285.354 I-0.469 J-3.14
G1 X949.305
G3 X947.541 Y284.819 I0 J-3.175
G1 X947.28 Y284.645
G1 X947.455 Y284.906
G3 X947.99 Y286.67 I-2.64 J1.764
G1 Y290.135
G3 X947.455 Y291.899 I-3.175 J0
G1 X947.281 Y292.159
G1 X947.54 Y291.986
G3 X949.305 Y291.45 I1.765 J2.639
G1 X1102.2
G3 X1104.694 Y292.661 I0 J3.175
G1 X1105.194 Y293.296
G3 X1105.708 Y296.275 I-2.495 J1.964
G1 X1105.611 Y296.564
G1 X1105.086 Y298.255
G1 X1104.295 Y300.883
G1 X1103.794 Y302.616
G1 X1103.052 Y305.277
G1 X1102.579 Y307.036
G1 X1101.876 Y309.725
G1 X1101.431 Y311.505
G1 X1100.757 Y314.216
G1 X1100.343 Y316.005
G1 X1100.34 Y316.017
G1 X1099.696 Y318.748
G1 X1099.301 Y320.547
G1 X1099.296 Y320.572
G1 X1098.671 Y323.317
G1 X1098.285 Y325.127
G1 X1098.281 Y325.148
G1 X1097.677 Y327.896
G1 X1097.312 Y329.704
G1 X1097.303 Y329.746
G1 X1096.71 Y332.496
G1 X1096.356 Y334.302
G1 X1096.346 Y334.351
G1 X1095.761 Y337.105
G1 X1095.406 Y338.915
G1 X1095.395 Y338.964
G1 X1094.812 Y341.704
G1 X1094.468 Y343.501
G1 X1094.453 Y343.578
G1 X1093.859 Y346.311
G1 X1093.505 Y348.102
G1 X1093.488 Y348.182
G1 X1092.265 Y353.623
G1 X1091.542 Y357.194
G1 X1091.515 Y357.316
G1 X1090.212 Y362.663
G1 X1089.428 Y366.168
G1 X1089.394 Y366.309
G1 X1087.972 Y371.531
G1 X1087.121 Y374.946
G1 X1087.081 Y375.091
G1 X1086.146 Y378.199
G1 Z-4.826
G1 X1085.54 Y380.217
G1 X1084.609 Y383.563
G1 X1084.569 Y383.696
G1 X1082.918 Y388.761
G1 X1082.804 Y389.132
G1 Z-7.366
G1 X1081.906 Y392.068
G1 X1081.869 Y392.181
G1 X1080.118 Y397.221
G1 X1079.036 Y400.511
G1 X1079.001 Y400.612
G1 X1077.151 Y405.657
G1 X1076.01 Y408.952
G1 X1075.981 Y409.032
G1 X1075.03 Y411.559
G1 X1074.438 Y413.207
G1 X1074.416 Y413.269
G1 X1073.446 Y415.807
G1 X1072.845 Y417.464
G1 X1072.821 Y417.529
G1 X1071.832 Y420.084
G1 X1071.222 Y421.753
G1 X1071.186 Y421.847
G1 X1071.076 Y422.121
G3 X1070.625 Y422.902 I-2.946 J-1.183
G1 X1070.125 Y423.537
G3 X1067.63 Y424.748 I-2.495 J-1.964
G1 X945.442
G3 X943.678 Y424.213 I0 J-3.175
G1 X943.419 Y424.04
G1 X943.592 Y424.299
G3 X944.127 Y426.063 I-2.64 J1.764
G1 Y429.529
G3 X943.592 Y431.293 I-3.175 J0
G1 X943.418 Y431.553
G1 X943.677 Y431.38
G3 X945.442 Y430.844 I1.765 J2.639
G1 X1062.34
G3 X1064.854 Y432.079 I0 J3.175
G1 X1065.344 Y432.714
G3 X1065.786 Y435.813 I-2.514 J1.94
G1 X1065.072 Y437.634
G1 X1064.397 Y439.406
G1 X1064.382 Y439.445
G1 X1063.309 Y442.156
G1 X1062.626 Y443.946
G1 X1062.6 Y444.013
G1 X1061.489 Y446.737
G1 X1060.788 Y448.536
G1 X1060.76 Y448.606
G1 X1059.62 Y451.339
G1 X1058.899 Y453.145
G1 X1058.865 Y453.228
G1 X1057.684 Y455.962
G1 X1056.932 Y457.772
G1 X1056.893 Y457.862
G1 X1055.664 Y460.583
G1 X1054.884 Y462.386
G1 X1054.844 Y462.475
G1 X1053.571 Y465.184
G1 X1052.747 Y466.984
G1 X1052.699 Y467.086
G1 X1051.361 Y469.756
G1 X1050.514 Y471.526
G1 X1050.454 Y471.644
G1 X1049.054 Y474.281
G1 X1048.154 Y476.033
G1 X1048.091 Y476.149
G1 X1046.621 Y478.741
G1 X1045.67 Y480.463
G1 X1045.603 Y480.578
G1 X1044.062 Y483.115
G1 X1043.06 Y484.802
G1 X1042.979 Y484.931
G1 X1041.352 Y487.394
G1 X1040.305 Y489.032
G1 X1040.208 Y489.176
G1 X1038.488 Y491.568
G1 X1037.367 Y493.161
G1 X1037.268 Y493.295
G1 X1035.462 Y495.597
G1 X1034.296 Y497.128
G1 X1034.168 Y497.284
G1 X1032.254 Y499.492
G1 X1031.019 Y500.959
G1 X1030.883 Y501.11
G1 X1028.863 Y503.22
G1 X1027.543 Y504.623
G1 X1027.402 Y504.764
G1 X1025.273 Y506.761
G1 X1023.884 Y508.088
G1 X1023.733 Y508.224
G1 X1021.495 Y510.105
G1 X1020.036 Y511.355
G1 X1019.882 Y511.479
G1 X1017.542 Y513.244
G1 X1016.012 Y514.417
G1 X1015.867 Y514.522
G1 X1013.444 Y516.173
G1 X1011.85 Y517.27
G1 X1011.702 Y517.366
G1 X1009.191 Y518.895
G1 X1007.549 Y519.91
G1 X1007.401 Y519.996
G1 X1004.814 Y521.407
G1 X1003.108 Y522.344
G1 X1002.965 Y522.418
G1 X1000.312 Y523.704
G1 X998.571 Y524.557
G1 X998.423 Y524.625
G1 X995.706 Y525.788
G1 X994.393 Y526.355
G1 Z-4.826
G1 X993.924 Y526.558
G1 X993.778 Y526.617
G1 X991.01 Y527.653
G1 X989.191 Y528.34
G1 X989.045 Y528.391
G1 X986.232 Y529.3
G1 X984.383 Y529.902
G1 X984.238 Y529.945
G1 X983.598 Y530.121
G1 Z-7.366
G1 X981.385 Y530.726
G1 X979.511 Y531.242
G1 X979.366 Y531.278
G1 X976.485 Y531.928
G1 X974.591 Y532.357
G1 X974.445 Y532.387
G1 X971.544 Y532.904
G1 X969.634 Y533.246
G1 X969.486 Y533.269
G1 X966.571 Y533.652
G1 X964.651 Y533.906
G1 X964.503 Y533.922
G1 X961.581 Y534.17
G1 X959.655 Y534.334
G1 X959.507 Y534.343
G1 X956.586 Y534.454
G1 X954.66 Y534.527
G1 X954.511 Y534.529
G1 X951.599 Y534.502
G1 X949.68 Y534.485
G1 X949.53 Y534.48
G1 X946.63 Y534.317
G1 X944.719 Y534.21
G1 X944.574 Y534.199
G1 X941.689 Y533.905
G1 X941.687 Y533.904
G1 X939.784 Y533.709
G1 X939.645 Y533.692
G1 X936.777 Y533.269
G1 X936.775
G1 X934.883 Y532.989
G1 X934.746 Y532.965
G1 X931.898 Y532.415
G1 X931.896
G1 X930.016 Y532.051
G1 X929.884 Y532.023
G1 X927.058 Y531.35
G1 X927.057 Y531.349
G1 X925.193 Y530.904
G1 X925.064 Y530.871
G1 X922.263 Y530.077
G1 X920.414 Y529.553
G1 X920.289 Y529.514
G1 X917.516 Y528.603
G1 X915.684 Y528.001
G1 X915.565 Y527.959
G1 X912.822 Y526.934
G1 X911.01 Y526.257
G1 X910.894 Y526.211
G1 X908.184 Y525.075
G1 X906.393 Y524.324
G1 X906.282 Y524.275
G1 X903.607 Y523.031
G1 X901.84 Y522.209
G1 X901.732 Y522.156
G1 X899.096 Y520.807
G1 X897.354 Y519.916
G1 X897.25 Y519.86
G1 X894.654 Y518.409
G1 X892.938 Y517.451
G1 X892.839 Y517.393
G1 X890.286 Y515.842
G1 X888.598 Y514.819
G1 X888.503 Y514.758
G1 X885.995 Y513.112
G1 X884.337 Y512.024
G1 X884.246 Y511.962
G1 X881.786 Y510.223
G1 X880.161 Y509.074
G1 X880.034 Y508.98
G1 X875.265 Y505.241
G1 X872.113 Y502.768
G1 X871.967 Y502.646
G1 X867.408 Y498.604
G1 X864.394 Y495.932
G1 X864.269 Y495.815
G1 X859.926 Y491.526
G1 X857.056 Y488.693
G1 X856.95 Y488.583
G1 X852.828 Y484.105
G1 X850.104 Y481.145
G1 X850.015 Y481.043
G1 X846.122 Y476.432
G1 X843.55 Y473.385
G1 X843.473 Y473.29
G1 X839.816 Y468.602
G1 X837.399 Y465.505
G1 X837.332 Y465.416
G1 X833.918 Y460.709
G1 X831.661 Y457.598
G1 X831.603 Y457.516
G1 X828.438 Y452.847
G1 X826.346 Y449.761
G1 X826.293 Y449.68
G1 X823.378 Y445.087
G1 X821.452 Y442.052
G1 X821.398 Y441.963
G1 X818.719 Y437.418
G1 X816.949 Y434.415
G1 X816.893 Y434.316
G1 X814.43 Y429.775
G1 X812.802 Y426.773
G1 X812.747 Y426.667
G1 X810.479 Y422.082
G1 X808.981 Y419.051
G1 X808.929 Y418.941
G1 X806.837 Y414.267
G1 X805.455 Y411.179
G1 X805.408 Y411.068
G1 X803.472 Y406.26
G1 X802.304 Y403.358
G1 Z-4.826
G1 X802.193 Y403.081
G1 X802.152 Y402.974
G1 X800.352 Y397.987
G1 X799.162 Y394.689
G1 X799.128 Y394.588
G1 X798.481 Y392.586
G1 Z-7.366
G1 X797.444 Y389.375
G1 X796.331 Y385.928
G1 X796.303 Y385.836
G1 X794.72 Y380.366
G1 X793.675 Y376.75
G1 X793.651 Y376.663
G1 X792.177 Y370.963
G1 X791.203 Y367.197
G1 X791.183 Y367.114
G1 X789.829 Y361.226
G1 X788.934 Y357.336
G1 X788.916 Y357.254
G1 X787.694 Y351.221
G1 X786.886 Y347.235
G1 X786.871 Y347.153
G1 X785.794 Y341.016
G1 X785.081 Y336.962
G1 X785.068 Y336.879
G1 X784.146 Y330.68
G1 X783.536 Y326.583
G1 X783.525 Y326.498
G1 X782.771 Y320.279
G1 X782.273 Y316.169
G1 X782.264 Y316.08
G1 X781.69 Y309.882
G1 X781.31 Y305.787
G1 X781.303 Y305.692
G1 X780.92 Y299.55
G1 X780.666 Y295.492
G1 X780.662 Y295.393
G1 X780.472 Y289.313
G1 X780.346 Y285.297
G1 X780.344 Y285.194
G1 X780.349 Y279.176
G1 X780.353 Y275.199
G1 X780.355 Y275.095
G1 X780.556 Y269.136
G1 X780.69 Y265.197
G1 X780.695 Y265.091
G1 X781.094 Y259.191
G1 Y259.19
G1 X781.359 Y255.291
G1 X781.369 Y255.182
G1 X781.968 Y249.339
G1 X782.364 Y245.478
G1 X782.377 Y245.367
G1 X783.178 Y239.58
G1 X783.707 Y235.756
G1 X783.725 Y235.644
G1 X783.742 Y235.541
G1 Z-4.826
G1 X784.728 Y229.912
G1 X785.392 Y226.122
G1 X785.413 Y226.01
G1 X785.778 Y224.293
G1 Z-7.366
G1 X786.619 Y220.332
G1 X787.417 Y216.579
G1 X787.443 Y216.469
G1 X788.848 Y210.846
G1 X789.776 Y207.129
G1 X789.804 Y207.022
G1 X791.403 Y201.453
G1 X792.459 Y197.773
G1 X792.49 Y197.671
G1 X794.275 Y192.157
G1 X795.456 Y188.514
G1 X795.489 Y188.415
G1 X797.456 Y182.958
G1 X798.756 Y179.351
G1 X798.792 Y179.257
G1 X800.935 Y173.858
G1 X802.351 Y170.289
G1 X802.388 Y170.198
G1 X804.701 Y164.856
G1 X806.231 Y161.326
G1 X806.278 Y161.223
G1 X807.607 Y158.433
G1 X807.624 Y158.397
G1 X810.525 Y152.497
G1 X813.399 Y146.541
G1 X813.415 Y146.508
G1 X814.796 Y143.73
G1 X814.85 Y143.626
G1 X814.917 Y143.503
G1 Z-4.826
G1 X817.647 Y138.482
G1 X819.495 Y135.083
G1 X819.544 Y134.995
G1 X820.427 Y133.489
G1 Z-7.366
G1 X822.501 Y129.947
G1 X824.455 Y126.61
G1 X824.51 Y126.519
G1 X827.627 Y121.582
G1 X829.688 Y118.32
G1 X829.749 Y118.226
G1 X833.027 Y113.419
G1 X835.193 Y110.242
G1 X835.261 Y110.146
G1 X838.7 Y105.485
G1 X840.974 Y102.405
G1 X841.05 Y102.306
G1 X844.651 Y97.81
G1 X847.031 Y94.839
G1 X847.117 Y94.737
G1 X850.88 Y90.424
G1 X853.367 Y87.573
G1 X853.461 Y87.47
G1 X857.387 Y83.352
G1 X859.982 Y80.63
G1 X860.081 Y80.532
G1 X864.169 Y76.605
G1 X866.871 Y74.01
G1 X866.97 Y73.918
G1 X871.218 Y70.173
G1 X874.027 Y67.698
G1 X874.127 Y67.613
G1 X878.536 Y64.041
G1 X881.449 Y61.68
G1 X881.549 Y61.602
G1 X886.116 Y58.194
G1 X889.134 Y55.942
G1 X889.233 Y55.872
G1 X893.958 Y52.619
G1 X897.081 Y50.469
G1 X897.176 Y50.406
G1 X902.057 Y47.3
G1 X905.283 Y45.247
G1 X905.376 Y45.19
G1 X905.489 Y45.123
G1 Z-4.826
G1 X910.413 Y42.222
G1 X913.74 Y40.26
G1 X913.83 Y40.209
G1 X915.366 Y39.369
G1 Z-7.366
G1 X919.019 Y37.373
G1 X922.447 Y35.499
G1 X922.538 Y35.451
G1 X927.861 Y32.761
G1 X931.378 Y30.984
G1 X931.473 Y30.938
G1 X936.91 Y28.414
G1 X940.504 Y26.746
G1 X940.603 Y26.702
G1 X946.134 Y24.36
G1 X949.791 Y22.813
G1 X949.895 Y22.771
G1 X955.5 Y20.631
G1 X959.206 Y19.216
G1 X959.318 Y19.176
G1 X964.978 Y17.255
G1 X968.719 Y15.986
G1 X968.839 Y15.948
G1 X974.534 Y14.265
G1 X978.297 Y13.152
G1 X978.427 Y13.117
G1 X984.136 Y11.69
G1 X987.909 Y10.747
G1 X988.047 Y10.715
G1 X993.753 Y9.556
G1 X997.524 Y8.789
G1 X997.658 Y8.765
G1 X1003.362 Y7.86
G1 X1007.121 Y7.261
G1 X1007.249 Y7.244
G1 X1012.948 Y6.572
G1 X1016.708 Y6.129
G1 X1016.819 Y6.118
G1 Z-4.826
G1 X1016.826 Y6.117
G1 X1022.516 Y5.66
G1 X1026.276 Y5.358
G1 X1026.383 Y5.351
G1 X1028.217 Y5.266
G1 Z-7.366
G1 X1032.073 Y5.088
G1 X1035.823 Y4.914
G1 X1035.92 Y4.911
G1 X1041.6 Y4.822
G1 X1045.35 Y4.763
G1 X1045.437
G1 X1048.377 Y4.797
G3 X1051.515 Y7.971 I-0.037 J3.175
G1 Y11.348
G3 X1050.978 Y13.115 I-3.175 J0
G1 X1050.806 Y13.372
G1 X1051.066 Y13.198
G3 X1052.83 Y12.663 I1.764 J2.64
G1 X1115.8
G3 X1116.661 Y12.782 I0 J3.175
G1 X1117.061 Y12.894
G1 X1117.071 Y12.897
G1 X1118.898 Y13.419
G1 X1120.655 Y13.916
G1 X1120.805 Y13.963
G1 X1123.505 Y14.873
G1 X1125.285 Y15.474
G1 X1125.386 Y15.51
G1 X1128.076 Y16.52
G1 X1128.082 Y16.522
G1 X1129.842 Y17.187
G1 X1129.948 Y17.229
G1 X1132.608 Y18.345
G1 X1132.611 Y18.347
G1 X1134.351 Y19.079
G1 X1134.454 Y19.124
G1 X1137.104 Y20.352
G1 X1137.106 Y20.353
G1 X1138.836 Y21.155
G1 X1138.948 Y21.21
G1 X1141.568 Y22.553
G1 X1141.573 Y22.556
G1 X1143.273 Y23.431
G1 X1143.377 Y23.487
G1 X1145.967 Y24.944
G1 X1145.974 Y24.948
G1 X1147.644 Y25.894
G1 X1147.743 Y25.952
G1 X1150.293 Y27.519
G1 X1150.298 Y27.523
G1 X1151.938 Y28.535
G1 X1152.042 Y28.602
G1 X1154.532 Y30.277
G1 X1154.54 Y30.282
G1 X1156.13 Y31.359
G1 X1156.23 Y31.429
G1 X1158.65 Y33.207
G1 X1158.656 Y33.212
G1 X1160.196 Y34.349
G1 X1160.302 Y34.431
G1 X1162.632 Y36.309
G1 X1162.635 Y36.311
G1 X1164.115 Y37.506
G1 X1164.214 Y37.59
G1 X1166.464 Y39.564
G1 X1166.476 Y39.574
G1 X1167.886 Y40.824
G1 X1167.986 Y40.916
G1 X1170.126 Y42.983
G1 X1170.132 Y42.989
G1 X1171.472 Y44.291
G1 X1171.577 Y44.397
G1 X1173.597 Y46.552
G1 X1173.61 Y46.567
G1 X1174.86 Y47.918
G1 X1174.957 Y48.027
G1 X1176.847 Y50.267
G1 X1176.854 Y50.276
G1 X1178.024 Y51.674
G1 X1178.13 Y51.807
G1 X1179.87 Y54.127
G1 X1179.88 Y54.14
G1 X1180.949 Y55.581
G1 X1181.046 Y55.718
G1 X1182.636 Y58.115
G1 X1182.647 Y58.132
G1 X1183.617 Y59.616
G1 X1183.717 Y59.779
G1 X1185.127 Y62.247
G1 X1185.135 Y62.261
G1 X1185.995 Y63.784
G1 X1186.087 Y63.959
G1 X1187.317 Y66.495
G1 X1187.322 Y66.505
G1 X1188.072 Y68.066
G1 X1188.162 Y68.271
G1 X1189.192 Y70.87
G1 X1189.193 Y70.874
G1 X1189.542 Y71.758
G1 Z-4.826
G1 X1189.823 Y72.471
G1 X1189.866 Y72.585
G1 X1189.904 Y72.7
G1 X1190.724 Y75.356
G1 X1190.731 Y75.379
G1 X1191.221 Y77.01
G1 X1191.277 Y77.226
G1 X1191.887 Y79.934
G1 X1191.893 Y79.96
G1 X1192.253 Y81.622
G1 X1192.292 Y81.837
G1 X1192.435 Y82.823
G1 Z-7.366
G1 X1192.692 Y84.586
G1 X1192.696 Y84.615
G1 X1192.926 Y86.305
G1 X1192.946 Y86.494
G1 X1193.156 Y89.272
G1 X1193.158 Y89.308
G1 X1193.268 Y91.018
G1 X1193.275 Y91.176
G1 X1193.315 Y93.973
G1 Y94.018
G1 Y95.743
G1 X1193.312 Y95.891
G1 X1193.182 Y98.693
G1 X1193.18 Y98.729
G1 X1193.08 Y100.463
G1 X1193.069 Y100.596
G1 X1192.789 Y103.393
G1 X1192.786 Y103.422
G1 X1192.596 Y105.158
G1 X1192.581 Y105.276
G1 X1192.171 Y108.056
G1 X1192.164 Y108.099
G1 X1191.884 Y109.832
G1 X1191.87 Y109.915
G1 X1191.35 Y112.667
G1 X1191.341 Y112.71
G1 X1190.991 Y114.432
G1 X1190.973 Y114.518
G1 X1190.343 Y117.231
G1 X1190.333 Y117.272
G1 X1189.913 Y118.977
G1 X1189.898 Y119.036
G1 X1189.188 Y121.699
G1 X1189.173 Y121.753
G1 X1188.693 Y123.433
G1 X1188.681 Y123.472
G1 X1187.901 Y126.075
G1 X1187.883 Y126.136
G1 X1187.353 Y127.785
G1 X1187.343 Y127.813
G1 X1186.503 Y130.344
G1 X1186.489 Y130.387
G1 X1185.929 Y131.997
G1 X1185.914 Y132.038
G1 X1185.024 Y134.488
G1 X1185.011 Y134.525
G1 X1184.421 Y136.089
G1 X1184.412 Y136.111
G1 X1183.502 Y138.469
G1 X1183.477 Y138.532
G1 X1182.858 Y140.039
G1 X1181.94 Y142.29
G1 X1181.902 Y142.378
G1 X1181.432 Y143.438
G3 X1181.044 Y144.091 I-2.902 J-1.287
G1 X1180.554 Y144.726
G3 X1178.04 Y145.961 I-2.514 J-1.94
G1 X1000.11
G3 X998.349 Y145.428 I0 J-3.175
G1 X998.079 Y145.248
G1 X998.255 Y145.511
G3 X998.791 Y147.276 I-2.639 J1.765
G1 Y150.741
G3 X998.256 Y152.505 I-3.175 J0
G1 X998.079 Y152.77
G1 X998.351 Y152.589
G3 X1000.11 Y152.057 I1.759 J2.643
G1 X1171.6
G3 X1174.114 Y153.292 I0 J3.175
G1 X1174.604 Y153.927
G3 X1174.925 Y157.297 I-2.514 J1.94
G1 X1174.235 Y158.665
G1 X1174.193 Y158.746
G1 X1173.606 Y159.831
G1 X1172.768 Y161.444
G1 X1172.711 Y161.55
G1 X1172.13 Y162.572
G1 X1171.308 Y164.105
G1 X1171.251 Y164.206
G1 X1170.678 Y165.188
G1 X1169.044 Y168.122
G1 X1168.975 Y168.239
G1 X1167.829 Y170.104
G1 X1166.242 Y172.863
G1 X1166.177 Y172.97
G1 X1165.076 Y174.719
G1 X1163.524 Y177.385
G1 X1163.456 Y177.495
G1 X1162.387 Y179.17
G1 X1160.875 Y181.811
G1 X1160.809 Y181.921
G1 X1159.77 Y183.576
G1 X1158.296 Y186.272
G1 X1158.233 Y186.38
G1 X1157.214 Y188.081
G1 X1155.749 Y190.909
G1 X1155.696 Y191.008
G1 X1154.681 Y192.808
G1 X1153.222 Y195.79
G1 X1153.17 Y195.891
G1 X1152.147 Y197.804
G1 X1150.66 Y200.947
G1 X1150.615 Y201.039
G1 X1149.572 Y203.071
G1 X1148.026 Y206.378
G1 X1147.986 Y206.461
G1 X1146.908 Y208.604
G1 X1145.299 Y212.064
G1 X1145.262 Y212.14
G1 X1144.137 Y214.399
G1 X1142.432 Y218.017
G1 X1142.402 Y218.078
G1 X1141.223 Y220.447
G1 X1140.333 Y222.303
G1 X1140.307 Y222.357
G1 X1139.696 Y223.571
G1 X1138.776 Y225.465
G1 X1138.75 Y225.517
G1 X1138.119 Y226.756
G1 X1137.402 Y228.212
G1 Z-4.826
G1 X1137.168 Y228.687
G1 X1137.143 Y228.736
G1 X1136.492 Y230.002
G1 X1135.511 Y231.969
G1 X1135.479 Y232.032
G1 X1134.799 Y233.322
G1 X1133.778 Y235.322
G1 X1133.761 Y235.355
G1 X1133.064 Y236.683
G1 X1132.18 Y238.38
G1 Z-7.366
G1 X1131.996 Y238.733
G1 X1131.985 Y238.754
G1 X1131.27 Y240.103
G1 X1130.185 Y242.183
G1 X1130.161 Y242.228
G1 X1129.423 Y243.59
G1 X1128.324 Y245.694
G1 X1128.312 Y245.718
G1 X1127.568 Y247.114
G1 X1126.444 Y249.266
G1 X1126.435 Y249.283
G1 X1125.685 Y250.699
G1 X1124.564 Y252.88
G1 X1124.548 Y252.911
G1 X1123.791 Y254.345
G1 X1122.674 Y256.557
G1 X1122.658 Y256.587
G1 X1121.901 Y258.047
G1 X1120.783 Y260.296
G1 X1120.768 Y260.325
G1 X1120.013 Y261.807
G1 X1118.907 Y264.089
G1 X1118.895 Y264.113
G1 X1118.148 Y265.622
G1 X1117.051 Y267.944
G1 X1117.049 Y267.948
G1 X1116.319 Y269.488
G1 X1115.24 Y271.852
G1 X1114.528 Y273.42
G1 X1113.469 Y275.822
G1 X1112.781 Y277.405
G1 X1111.76 Y279.85
G1 X1111.756 Y279.859
G1 X1111.082 Y281.458
G1 X1110.597 Y282.699
G3 X1110.135 Y283.508 I-2.957 J-1.155
G1 X1109.635 Y284.143
G3 X1107.609 Y285.319 I-2.495 J-1.964
G0 Z18.796

G0 Z18.796
M5
M30
