(1001)
(T1  D=6.35 CR=0 - ZMIN=-12.7 - FLAT END MILL)
G0 G40 G90 G17
G21

(2D CONTOUR2)
T1 M6
M3 S5000
G0 X-0.136 Y3.172
G0 Z6.096
G1 Z4.191 F508.
G1 Z-7.484
G1 X-17.522 Y2.429
G1 X-27.296 Y2.012
G3 X-27.597 Y1.985 I0.136 J-3.172
G1 X-50.368 Y-1.176
G1 X-54.672 Y-1.773
G3 X-55.024 Y-1.842 I0.436 J-3.145
G1 X-63.78 Y-4.088
G1 X-63.837 Y-4.104
G1 X-82.485 Y-9.26
G3 X-82.867 Y-9.392 I0.846 J-3.06
G1 X-110.121 Y-20.82
G1 X-110.208 Y-20.858
G1 X-111.193 Y-21.306
G3 X-111.513 Y-21.474 I1.315 J-2.89
G1 X-122.512 Y-28.082
G3 X-123.998 Y-30.223 I1.635 J-2.722
G3 X-123.381 Y-32.756 I3.121 J-0.58
G1 X-122.886 Y-33.391
G3 X-120.382 Y-34.614 I2.504 J1.952
G1 X2.316
G3 X5.43 Y-32.058 I0 J3.175
G1 X5.491 Y-31.751
G1 Y-43.572
G1 X5.43 Y-43.265
G3 X2.316 Y-40.71 I-3.114 J-0.619
G1 X-141.413
G3 X-143.425 Y-41.429 I0 J-3.175
G1 X-163.708 Y-58.046
G1 X-163.797 Y-58.121
G1 X-163.883 Y-58.2
G1 X-172.27 Y-66.168
G1 X-172.358 Y-66.255
G1 X-172.443 Y-66.346
G1 X-182.779 Y-77.828
G3 X-182.949 Y-78.033 I2.36 J-2.124
G1 X-190.621 Y-88.147
G1 X-196.581 Y-96.004
G3 X-196.746 Y-96.245 I2.53 J-1.919
G1 X-205.086 Y-109.639
G1 X-205.179 Y-109.798
G1 X-206.924 Y-113.001
G3 X-207.048 Y-113.256 I2.788 J-1.519
G1 X-207.493 Y-114.28
G1 X-213.705 Y-128.583
G3 X-213.801 Y-128.832 I2.912 J-1.265
G1 X-215.232 Y-133.07
G1 X-218.581 Y-142.995
G1 X-218.616 Y-143.102
G1 X-218.646 Y-143.211
G1 X-220.167 Y-149.061
G1 X-222.054 Y-156.314
G1 X-222.089 Y-156.463
G1 X-223.475 Y-163.084
G1 X-224.632 Y-168.609
G1 X-224.646 Y-168.683
G1 X-225.894 Y-175.433
G3 X-225.274 Y-177.964 I3.122 J-0.577
G1 X-224.778 Y-178.599
G3 X-222.276 Y-179.82 I2.502 J1.954
G1 X4.724
G3 X7.838 Y-177.264 I0 J3.175
G1 X7.899 Y-176.958
G1 Y-188.778
G1 X7.838 Y-188.472
G3 X4.724 Y-185.916 I-3.114 J-0.619
G1 X-224.656
G3 X-227.16 Y-187.139 I0 J-3.175
G1 X-227.655 Y-187.774
G3 X-228.285 Y-189.215 I2.504 J-1.952
G1 X-228.547 Y-190.822
G1 Y-190.823
G1 X-229.16 Y-194.592
G1 X-229.171 Y-194.666
G1 X-230.36 Y-203.252
G1 X-230.758 Y-206.133
G1 X-230.768 Y-206.214
G1 X-231.715 Y-214.647
G1 X-231.97 Y-216.913
G1 X-231.982 Y-217.04
G1 X-233.161 Y-233.399
G1 X-233.402 Y-236.755
G1 X-233.409 Y-236.914
G1 X-233.745 Y-252.567
G1 X-233.806 Y-255.403
G1 Y-255.539
G1 X-233.473 Y-271.051
G1 X-233.409 Y-274.028
G1 X-233.402 Y-274.188
G1 X-232.26 Y-290.046
G1 X-231.982 Y-293.903
G1 X-231.97 Y-294.03
G1 X-231.045 Y-302.261
G1 X-230.768 Y-304.729
G1 X-230.758 Y-304.81
G1 X-229.603 Y-313.152
G1 X-229.171 Y-316.276
G1 X-229.16 Y-316.351
G1 X-228.285 Y-321.726
G3 X-227.655 Y-323.168 I3.134 J0.51
G1 X-227.16 Y-323.803
G3 X-224.656 Y-325.026 I2.504 J1.952
G1 X4.723
G3 X7.837 Y-322.47 I0 J3.175
G1 X7.898 Y-322.164
G1 Y-333.985
G1 X7.837 Y-333.678
G3 X4.723 Y-331.122 I-3.114 J-0.619
G1 X-222.276
G3 X-224.778 Y-332.343 I0 J-3.175
G1 X-225.274 Y-332.978
G3 X-225.894 Y-335.509 I2.502 J-1.954
G1 X-225.615 Y-337.019
G1 X-224.646 Y-342.26
G1 X-224.62 Y-342.385
G1 X-222.173 Y-353.188
G1 X-219.812 Y-363.597
G1 X-219.785 Y-363.71
G1 X-219.752 Y-363.823
G1 X-218.342 Y-368.441
G1 X-216.183 Y-375.511
G1 X-216.113 Y-375.714
G1 X-214.739 Y-379.32
G1 X-211.351 Y-388.211
G1 X-211.307 Y-388.32
G1 X-211.259 Y-388.427
G1 X-210.285 Y-390.506
G1 X-205.269 Y-401.209
G1 X-205.191 Y-401.365
G1 X-204.933 Y-401.845
G1 X-204.88 Y-401.945
G3 X-204.747 Y-402.171 I2.801 J1.496
G1 X-197.57 Y-413.29
G1 X-195.514 Y-416.475
G1 X-195.445 Y-416.577
G1 X-195.372 Y-416.677
G1 X-189.216 Y-424.759
G1 X-183.714 Y-431.982
G1 X-183.643 Y-432.071
G1 X-183.569 Y-432.158
G1 X-180.029 Y-436.171
G1 X-172.466 Y-444.746
G1 X-172.382 Y-444.837
G1 X-172.295 Y-444.925
G1 X-169.731 Y-447.411
G1 X-168.395 Y-448.707
G1 X-168.244 Y-448.844
G1 X-157.294 Y-458.172
G1 X-147.702 Y-466.342
G1 X-147.563 Y-466.454
G1 X-144.646 Y-468.669
G1 X-144.275 Y-468.951
G1 X-144.273 Y-468.952
G1 X-143.436 Y-469.587
G3 X-141.517 Y-470.233 I1.919 J2.529
G1 X2.305
G3 X5.419 Y-467.677 I0 J3.175
G1 X5.48 Y-467.371
G1 Y-479.191
G1 X5.419 Y-478.885
G3 X2.305 Y-476.329 I-3.114 J-0.619
G1 X-120.474
G3 X-122.976 Y-477.55 I0 J-3.175
G1 X-123.472 Y-478.185
G3 X-124.096 Y-480.694 I2.502 J-1.954
G3 X-122.646 Y-482.835 I3.126 J0.555
G1 X-118.66 Y-485.313
G1 X-118.538 Y-485.386
G1 X-114.545 Y-487.627
G1 X-111.43 Y-489.375
G3 X-111.118 Y-489.528 I1.554 J2.769
G1 X-96.754 Y-495.635
G1 X-82.881 Y-501.533
G3 X-82.496 Y-501.668 I1.242 J2.922
G1 X-78.45 Y-502.803
G1 X-68.395 Y-505.622
G1 X-68.325 Y-505.641
G1 X-58.196 Y-508.231
G1 X-55.022 Y-509.043
G3 X-54.67 Y-509.112 I0.787 J3.076
G1 X-35.099 Y-511.82
G1 X-27.595 Y-512.859
G3 X-27.294 Y-512.886 I0.435 J3.145
G1 X-9.93 Y-513.625
G1 X-0.134 Y-514.042
G1 X-0.017 Y-514.045
G1 X0.101 Y-514.043
G1 X17.862 Y-513.483
G1 X27.637 Y-513.174
G1 X27.838 Y-513.162
G1 X49.017 Y-511.143
G1 X56.001 Y-510.477
G3 X56.289 Y-510.436 I-0.301 J3.161
G1 X81.606 Y-505.653
G1 X81.66 Y-505.642
G1 X85.718 Y-504.802
G3 X86.004 Y-504.729 I-0.644 J3.109
G1 X86.879 Y-504.461
G1 X101.446 Y-500.001
G1 X101.649 Y-499.931
G1 X108.255 Y-497.408
G1 X117.809 Y-493.757
G1 X118.009 Y-493.673
G1 X134.463 Y-486.063
G1 X134.464 Y-486.062
G1 X135.099 Y-485.768
G1 X135.286 Y-485.674
G1 X136.151 Y-485.202
G1 X136.267 Y-485.135
G1 X153.706 Y-474.637
G1 X153.877 Y-474.527
G1 X165.91 Y-466.188
G1 X166.043 Y-466.091
G1 X173.792 Y-460.107
G1 X173.935 Y-459.989
G1 X187.243 Y-448.406
G1 X187.384 Y-448.276
G1 X195.403 Y-440.401
G1 X195.52 Y-440.28
G1 X203.283 Y-431.798
G1 X203.42 Y-431.637
G1 X212.305 Y-420.53
G1 X212.307 Y-420.528
G1 X215.594 Y-416.41
G1 X215.664 Y-416.319
G1 X215.731 Y-416.225
G1 X218.729 Y-411.855
G1 X218.809 Y-411.733
G1 X224.892 Y-401.93
G1 X224.951 Y-401.831
G1 X225.006 Y-401.729
G1 X227.434 Y-397.094
G1 X227.437 Y-397.09
G1 X231.91 Y-388.519
G1 X231.961 Y-388.416
G1 X232.009 Y-388.311
G1 X235.614 Y-379.979
G1 X235.616 Y-379.974
G1 X237.333 Y-375.986
G1 X237.412 Y-375.785
G1 X240.999 Y-365.6
G1 X241 Y-365.596
G1 X241.466 Y-364.267
G1 X241.505 Y-364.148
G1 X241.539 Y-364.028
G1 X244.068 Y-354.474
G1 X244.086 Y-354.404
G1 X246.82 Y-343.034
G1 X246.851 Y-342.891
G1 X247.149 Y-341.339
G1 X249.41 Y-329.55
G1 X249.426 Y-329.461
G1 X249.871 Y-326.721
G1 X251.436 Y-317.121
G1 X251.45 Y-317.024
G1 X251.909 Y-313.54
G1 X252.973 Y-305.54
G1 X252.985 Y-305.44
G1 X253.382 Y-301.514
G1 X254.086 Y-294.666
G1 X254.098 Y-294.527
G1 X254.587 Y-286.178
G1 X255.292 Y-274.532
G1 X255.298 Y-274.386
G1 X255.423 Y-265.757
G1 X255.581 Y-255.52
G1 Y-255.425
G1 X255.455 Y-246.765
G1 Y-246.762
G1 X255.298 Y-236.554
G1 X255.293 Y-236.417
G1 X254.791 Y-227.87
G1 X254.79 Y-227.864
G1 X254.097 Y-216.409
G1 X254.087 Y-216.281
G1 X253.675 Y-212.212
G1 X253.674 Y-212.207
G1 X252.984 Y-205.497
G1 X252.974 Y-205.407
G1 X252.478 Y-201.643
G1 X252.477 Y-201.639
G1 X251.449 Y-193.914
G1 X251.436 Y-193.824
G1 X250.906 Y-190.562
G1 Y-190.56
G1 X249.426 Y-181.479
G1 X249.41 Y-181.391
G1 X248.932 Y-178.902
G1 X246.851 Y-168.052
G1 X246.832 Y-167.958
G1 X246.576 Y-166.814
G1 X244.166 Y-155.969
G1 X244.128 Y-155.814
G1 X244.121 Y-155.788
G1 X244.063 Y-155.579
G1 X244.039 Y-155.496
G1 X240.699 Y-144.478
G1 X240.205 Y-142.836
G1 X240.168 Y-142.719
G1 X240.126 Y-142.604
G1 X236.318 Y-132.765
G1 X234.741 Y-128.658
G3 X234.629 Y-128.401 I-2.964 J-1.138
G1 X230.956 Y-120.889
G1 X227.262 Y-113.28
G3 X227.125 Y-113.027 I-2.856 J-1.387
G1 X224.683 Y-108.98
G1 X218.834 Y-99.213
G1 X218.754 Y-99.086
G1 X217.563 Y-97.296
G1 X217.03 Y-96.487
G3 X216.86 Y-96.253 I-2.651 J-1.747
G1 X208.618 Y-85.932
G1 X202.629 Y-78.385
G3 X202.461 Y-78.189 I-2.487 J-1.974
G1 X199.3 Y-74.811
G1 X195.505 Y-70.733
G1 X195.381 Y-70.607
G1 X188.873 Y-64.352
G1 X182.948 Y-58.626
G1 X182.866 Y-58.549
G1 X182.781 Y-58.475
G1 X177.86 Y-54.354
G1 X173.896 Y-51.021
G1 X173.747 Y-50.903
G1 X166.049 Y-45.182
G1 X155.371 Y-37.219
G1 X155.241 Y-37.127
G1 X154.458 Y-36.601
G1 X153.834 Y-36.182
G1 X153.661 Y-36.074
G1 X143.249 Y-30.014
G1 X135.366 Y-25.417
G1 X135.172 Y-25.313
G1 X132.114 Y-23.804
G1 X126.569 Y-21.063
G1 X126.48 Y-21.021
G1 X120.618 Y-18.346
G1 X117.993 Y-17.147
G1 X117.794 Y-17.064
G1 X108.563 Y-13.586
G1 X101.636 Y-10.974
G1 X101.434 Y-10.906
G1 X96.443 Y-9.399
G1 X85.993 Y-6.242
G3 X85.71 Y-6.17 I-0.918 J-3.039
G1 X82.92 Y-5.601
G1 X75.459 Y-4.078
G1 X75.415 Y-4.07
G1 X60.752 Y-1.291
G1 X56.29 Y-0.446
G3 X56.001 Y-0.405 I-0.591 J-3.12
G1 X36.413 Y1.469
G1 X27.838 Y2.289
G1 X27.636 Y2.302
G1 X10.622 Y2.84
G1 X0.1 Y3.173
G1 X-0.018 Y3.175
G1 X-0.136 Y3.172
G1 Z-12.7
G1 X-11.812 Y2.673
G1 Z-10.16
G1 X-17.522 Y2.429
G1 X-23.232 Y2.185
G1 Z-12.7
G1 X-27.296 Y2.012
G3 X-27.597 Y1.985 I0.136 J-3.172
G1 X-50.368 Y-1.176
G1 X-54.672 Y-1.773
G3 X-55.024 Y-1.842 I0.436 J-3.145
G1 X-63.78 Y-4.088
G1 X-63.837 Y-4.104
G1 X-82.485 Y-9.26
G3 X-82.867 Y-9.392 I0.846 J-3.06
G1 X-110.121 Y-20.82
G1 X-110.208 Y-20.858
G1 X-111.193 Y-21.306
G3 X-111.513 Y-21.474 I1.315 J-2.89
G1 X-122.512 Y-28.082
G3 X-123.998 Y-30.223 I1.635 J-2.722
G3 X-123.381 Y-32.756 I3.121 J-0.58
G1 X-122.886 Y-33.391
G3 X-120.382 Y-34.614 I2.504 J1.952
G1 X2.316
G3 X5.43 Y-32.058 I0 J3.175
G1 X5.491 Y-31.751
G1 Y-43.572
G1 X5.43 Y-43.265
G3 X2.316 Y-40.71 I-3.114 J-0.619
G1 X-141.413
G3 X-143.425 Y-41.429 I0 J-3.175
G1 X-163.708 Y-58.046
G1 X-163.797 Y-58.121
G1 X-163.883 Y-58.2
G1 X-172.27 Y-66.168
G1 X-172.358 Y-66.255
G1 X-172.443 Y-66.346
G1 X-182.779 Y-77.828
G3 X-182.949 Y-78.033 I2.36 J-2.124
G1 X-190.621 Y-88.147
G1 X-196.581 Y-96.004
G3 X-196.746 Y-96.245 I2.53 J-1.919
G1 X-204.222 Y-108.252
G1 Z-10.16
G1 X-205.086 Y-109.639
G1 X-205.179 Y-109.798
G1 X-206.924 Y-113.001
G3 X-207.048 Y-113.256 I2.788 J-1.519
G1 X-207.493 Y-114.28
G1 X-209.325 Y-118.497
G1 Z-12.7
G1 X-213.705 Y-128.583
G3 X-213.801 Y-128.832 I2.912 J-1.265
G1 X-215.232 Y-133.07
G1 X-218.581 Y-142.995
G1 X-218.616 Y-143.102
G1 X-218.646 Y-143.211
G1 X-220.167 Y-149.061
G1 X-222.054 Y-156.314
G1 X-222.089 Y-156.463
G1 X-223.475 Y-163.084
G1 X-224.632 Y-168.609
G1 X-224.646 Y-168.683
G1 X-225.894 Y-175.433
G3 X-225.274 Y-177.964 I3.122 J-0.577
G1 X-224.778 Y-178.599
G3 X-222.276 Y-179.82 I2.502 J1.954
G1 X4.724
G3 X7.838 Y-177.264 I0 J3.175
G1 X7.899 Y-176.958
G1 Y-188.778
G1 X7.838 Y-188.472
G3 X4.724 Y-185.916 I-3.114 J-0.619
G1 X-224.656
G3 X-227.16 Y-187.139 I0 J-3.175
G1 X-227.655 Y-187.774
G3 X-228.285 Y-189.215 I2.504 J-1.952
G1 X-228.547 Y-190.822
G1 Y-190.823
G1 X-229.16 Y-194.592
G1 X-229.171 Y-194.666
G1 X-230.36 Y-203.252
G1 X-230.758 Y-206.133
G1 X-230.768 Y-206.214
G1 X-231.715 Y-214.647
G1 X-231.97 Y-216.913
G1 X-231.982 Y-217.04
G1 X-233.161 Y-233.399
G1 X-233.402 Y-236.755
G1 X-233.409 Y-236.914
G1 X-233.745 Y-252.567
G1 X-233.806 Y-255.403
G1 Y-255.539
G1 X-233.473 Y-271.051
G1 X-233.409 Y-274.028
G1 X-233.402 Y-274.188
G1 X-232.384 Y-288.325
G1 Z-10.16
G1 X-232.26 Y-290.046
G1 X-231.982 Y-293.903
G1 X-231.97 Y-294.03
G1 X-231.332 Y-299.709
G1 Z-12.7
G1 X-231.045 Y-302.261
G1 X-230.768 Y-304.729
G1 X-230.758 Y-304.81
G1 X-229.603 Y-313.152
G1 X-229.171 Y-316.276
G1 X-229.16 Y-316.351
G1 X-228.285 Y-321.726
G3 X-227.655 Y-323.168 I3.134 J0.51
G1 X-227.16 Y-323.803
G3 X-224.656 Y-325.026 I2.504 J1.952
G1 X4.723
G3 X7.837 Y-322.47 I0 J3.175
G1 X7.898 Y-322.164
G1 Y-333.985
G1 X7.837 Y-333.678
G3 X4.723 Y-331.122 I-3.114 J-0.619
G1 X-222.276
G3 X-224.778 Y-332.343 I0 J-3.175
G1 X-225.274 Y-332.978
G3 X-225.894 Y-335.509 I2.502 J-1.954
G1 X-225.615 Y-337.019
G1 X-224.646 Y-342.26
G1 X-224.62 Y-342.385
G1 X-222.173 Y-353.188
G1 X-219.812 Y-363.597
G1 X-219.785 Y-363.71
G1 X-219.752 Y-363.823
G1 X-218.342 Y-368.441
G1 X-216.183 Y-375.511
G1 X-216.113 Y-375.714
G1 X-214.739 Y-379.32
G1 X-211.351 Y-388.211
G1 X-211.307 Y-388.32
G1 X-211.259 Y-388.427
G1 X-210.285 Y-390.506
G1 X-205.269 Y-401.209
G1 X-205.191 Y-401.365
G1 X-204.933 Y-401.845
G1 X-204.88 Y-401.945
G3 X-204.747 Y-402.171 I2.801 J1.496
G1 X-200.669 Y-408.488
G1 Z-10.16
G1 X-197.57 Y-413.29
G1 X-195.514 Y-416.475
G1 X-195.445 Y-416.577
G1 X-195.372 Y-416.677
G1 X-194.352 Y-418.015
G1 Z-12.7
G1 X-189.216 Y-424.759
G1 X-183.714 Y-431.982
G1 X-183.643 Y-432.071
G1 X-183.569 Y-432.158
G1 X-180.029 Y-436.171
G1 X-172.466 Y-444.746
G1 X-172.382 Y-444.837
G1 X-172.295 Y-444.925
G1 X-169.731 Y-447.411
G1 X-168.395 Y-448.707
G1 X-168.244 Y-448.844
G1 X-157.294 Y-458.172
G1 X-147.702 Y-466.342
G1 X-147.563 Y-466.454
G1 X-144.646 Y-468.669
G1 X-144.275 Y-468.951
G1 X-144.273 Y-468.952
G1 X-143.436 Y-469.587
G3 X-141.517 Y-470.233 I1.919 J2.529
G1 X2.305
G3 X5.419 Y-467.677 I0 J3.175
G1 X5.48 Y-467.371
G1 Y-479.191
G1 X5.419 Y-478.885
G3 X2.305 Y-476.329 I-3.114 J-0.619
G1 X-120.474
G3 X-122.976 Y-477.55 I0 J-3.175
G1 X-123.472 Y-478.185
G3 X-124.096 Y-480.694 I2.502 J-1.954
G3 X-122.646 Y-482.835 I3.126 J0.555
G1 X-118.66 Y-485.313
G1 X-118.538 Y-485.386
G1 X-114.545 Y-487.627
G1 X-111.43 Y-489.375
G3 X-111.118 Y-489.528 I1.554 J2.769
G1 X-96.754 Y-495.635
G1 X-82.881 Y-501.533
G3 X-82.496 Y-501.668 I1.242 J2.922
G1 X-78.45 Y-502.803
G1 X-68.395 Y-505.622
G1 X-68.325 Y-505.641
G1 X-58.196 Y-508.231
G1 X-55.022 Y-509.043
G3 X-54.67 Y-509.112 I0.787 J3.076
G1 X-35.099 Y-511.82
G1 X-27.595 Y-512.859
G3 X-27.294 Y-512.886 I0.435 J3.145
G1 X-9.93 Y-513.625
G1 X-0.134 Y-514.042
G1 X-0.017 Y-514.045
G1 X0.101 Y-514.043
G1 X17.862 Y-513.483
G1 X27.637 Y-513.174
G1 X27.838 Y-513.162
G1 X49.017 Y-511.143
G1 X56.001 Y-510.477
G3 X56.289 Y-510.436 I-0.301 J3.161
G1 X81.286 Y-505.713
G1 Z-10.16
G1 X81.606 Y-505.653
G1 X81.66 Y-505.642
G1 X85.718 Y-504.802
G3 X86.004 Y-504.729 I-0.644 J3.109
G1 X86.879 Y-504.461
G1 X92.344 Y-502.788
G1 Z-12.7
G1 X101.446 Y-500.001
G1 X101.649 Y-499.931
G1 X108.255 Y-497.408
G1 X117.809 Y-493.757
G1 X118.009 Y-493.673
G1 X134.463 Y-486.063
G1 X134.464 Y-486.062
G1 X135.099 Y-485.768
G1 X135.286 Y-485.674
G1 X136.151 Y-485.202
G1 X136.267 Y-485.135
G1 X153.706 Y-474.637
G1 X153.877 Y-474.527
G1 X165.91 Y-466.188
G1 X166.043 Y-466.091
G1 X173.792 Y-460.107
G1 X173.935 Y-459.989
G1 X187.243 Y-448.406
G1 X187.384 Y-448.276
G1 X195.403 Y-440.401
G1 X195.52 Y-440.28
G1 X203.283 Y-431.798
G1 X203.42 Y-431.637
G1 X212.305 Y-420.53
G1 X212.307 Y-420.528
G1 X215.594 Y-416.41
G1 X215.664 Y-416.319
G1 X215.731 Y-416.225
G1 X218.729 Y-411.855
G1 X218.809 Y-411.733
G1 X224.761 Y-402.14
G1 Z-10.16
G1 X224.892 Y-401.93
G1 X224.951 Y-401.831
G1 X225.006 Y-401.729
G1 X227.434 Y-397.094
G1 X227.437 Y-397.09
G1 X230.081 Y-392.023
G1 Z-12.7
G1 X231.91 Y-388.519
G1 X231.961 Y-388.416
G1 X232.009 Y-388.311
G1 X235.614 Y-379.979
G1 X235.616 Y-379.974
G1 X237.333 Y-375.986
G1 X237.412 Y-375.785
G1 X240.999 Y-365.6
G1 X241 Y-365.596
G1 X241.466 Y-364.267
G1 X241.505 Y-364.148
G1 X241.539 Y-364.028
G1 X244.068 Y-354.474
G1 X244.086 Y-354.404
G1 X246.82 Y-343.034
G1 X246.851 Y-342.891
G1 X247.149 Y-341.339
G1 X249.41 Y-329.55
G1 X249.426 Y-329.461
G1 X249.871 Y-326.721
G1 X251.436 Y-317.121
G1 X251.45 Y-317.024
G1 X251.909 Y-313.54
G1 X252.973 Y-305.54
G1 X252.985 Y-305.44
G1 X253.382 Y-301.514
G1 X254.086 Y-294.666
G1 X254.098 Y-294.527
G1 X254.587 Y-286.178
G1 X255.292 Y-274.532
G1 X255.298 Y-274.386
G1 X255.423 Y-265.757
G1 X255.581 Y-255.52
G1 Y-255.425
G1 X255.455 Y-246.765
G1 Y-246.762
G1 X255.298 Y-236.554
G1 X255.293 Y-236.417
G1 X254.791 Y-227.87
G1 X254.79 Y-227.864
G1 X254.187 Y-217.899
G1 Z-10.16
G1 X254.097 Y-216.409
G1 X254.087 Y-216.281
G1 X253.675 Y-212.212
G1 X253.674 Y-212.207
G1 X253.09 Y-206.522
G1 Z-12.7
G1 X252.984 Y-205.497
G1 X252.974 Y-205.407
G1 X252.478 Y-201.643
G1 X252.477 Y-201.639
G1 X251.449 Y-193.914
G1 X251.436 Y-193.824
G1 X250.906 Y-190.562
G1 Y-190.56
G1 X249.426 Y-181.479
G1 X249.41 Y-181.391
G1 X248.932 Y-178.902
G1 X246.851 Y-168.052
G1 X246.832 Y-167.958
G1 X246.576 Y-166.814
G1 X244.166 Y-155.969
G1 X244.128 Y-155.814
G1 X244.121 Y-155.788
G1 X244.063 Y-155.579
G1 X244.039 Y-155.496
G1 X240.699 Y-144.478
G1 X240.205 Y-142.836
G1 X240.168 Y-142.719
G1 X240.126 Y-142.604
G1 X236.318 Y-132.765
G1 X234.741 Y-128.658
G3 X234.629 Y-128.401 I-2.964 J-1.138
G1 X230.956 Y-120.889
G1 X227.262 Y-113.28
G3 X227.125 Y-113.027 I-2.856 J-1.387
G1 X224.683 Y-108.98
G1 X218.834 Y-99.213
G1 X218.754 Y-99.086
G1 X217.563 Y-97.296
G1 X217.03 Y-96.487
G3 X216.86 Y-96.253 I-2.651 J-1.747
G1 X208.618 Y-85.932
G1 X202.629 Y-78.385
G3 X202.461 Y-78.189 I-2.487 J-1.974
G1 X199.3 Y-74.811
G1 X195.505 Y-70.733
G1 X195.381 Y-70.607
G1 X188.873 Y-64.352
G1 X182.948 Y-58.626
G1 X182.866 Y-58.549
G1 X182.781 Y-58.475
G1 X177.86 Y-54.354
G1 X173.896 Y-51.021
G1 X173.747 Y-50.903
G1 X166.049 Y-45.182
G1 X155.371 Y-37.219
G1 X155.241 Y-37.127
G1 X154.458 Y-36.601
G1 X153.834 Y-36.182
G1 X153.661 Y-36.074
G1 X143.249 Y-30.014
G1 X135.366 Y-25.417
G1 X135.172 Y-25.313
G1 X132.114 Y-23.804
G1 X126.569 Y-21.063
G1 X126.48 Y-21.021
G1 X123.007 Y-19.436
G1 Z-10.16
G1 X120.618 Y-18.346
G1 X117.993 Y-17.147
G1 X117.794 Y-17.064
G1 X112.446 Y-15.049
G1 Z-12.7
G1 X108.563 Y-13.586
G1 X101.636 Y-10.974
G1 X101.434 Y-10.906
G1 X96.443 Y-9.399
G1 X85.993 Y-6.242
G3 X85.71 Y-6.17 I-0.918 J-3.039
G1 X82.92 Y-5.601
G1 X75.459 Y-4.078
G1 X75.415 Y-4.07
G1 X60.752 Y-1.291
G1 X56.29 Y-0.446
G3 X56.001 Y-0.405 I-0.591 J-3.12
G1 X36.413 Y1.469
G1 X27.838 Y2.289
G1 X27.636 Y2.302
G1 X10.622 Y2.84
G1 X0.1 Y3.173
G1 X-0.018 Y3.175
G1 X-0.136 Y3.172
G0 Z6.096

G0 Z6.096
M5
M30
