(1001)
(T1  D=6.35 CR=0 - ZMIN=-7.366 - FLAT END MILL)
G0 G40 G90 G17
G21

(2D CONTOUR2)
T1 M6
M3 S5000
G0 X227.904 Y-385.273
G0 Z18.796
G1 Z16.891 F508.
G1 Z6.096
G1 X50.371
G3 X48.605 Y-385.809 I0 J-3.175
G1 X48.347 Y-385.982
G1 X48.521 Y-385.722
G3 X49.056 Y-383.958 I-2.64 J1.764
G1 Y-380.493
G3 X48.521 Y-378.73 I-3.175 J0
G1 X48.346 Y-378.468
G1 X48.607 Y-378.642
G3 X50.371 Y-379.177 I1.764 J2.64
G1 X221.833
G3 X224.335 Y-377.956 I0 J3.175
G1 X224.831 Y-377.321
G3 X225.107 Y-373.83 I-2.502 J1.954
G1 X224.671 Y-373.041
G1 X223.893 Y-371.472
G1 X223.801 Y-371.301
G1 X223.187 Y-370.232
G1 X222.424 Y-368.742
G1 X222.327 Y-368.567
G1 X221.724 Y-367.551
G1 X220.974 Y-366.131
G1 X220.865 Y-365.939
G1 X219.643 Y-363.969
G1 X218.142 Y-361.223
G1 X218.085 Y-361.124
G1 X218.025 Y-361.028
G1 X216.835 Y-359.181
G1 X215.375 Y-356.593
G1 X215.27 Y-356.421
G1 X214.108 Y-354.637
G1 X212.681 Y-352.131
G1 X212.595 Y-351.989
G1 X211.454 Y-350.209
G1 X210.056 Y-347.709
G1 X209.992 Y-347.6
G1 X208.868 Y-345.765
G1 X207.489 Y-343.194
G1 X207.445 Y-343.115
G1 X206.331 Y-341.173
G1 X204.962 Y-338.467
G1 X204.92 Y-338.386
G1 X203.802 Y-336.326
G1 X202.43 Y-333.475
G1 X202.384 Y-333.384
G1 X201.248 Y-331.207
G1 X199.851 Y-328.212
G1 X199.804 Y-328.115
G1 X198.636 Y-325.821
G1 X197.194 Y-322.683
G1 X197.145 Y-322.581
G1 X195.931 Y-320.171
G1 X194.424 Y-316.89
G1 X194.373 Y-316.785
G1 X193.098 Y-314.259
G1 X191.505 Y-310.838
G1 X191.457 Y-310.739
G1 X190.802 Y-309.452
G1 X189.978 Y-307.71
G1 X189.932 Y-307.616
G1 X189.256 Y-306.301
G1 X188.402 Y-304.523
G1 X188.357 Y-304.433
G1 X187.658 Y-303.087
G1 X186.772 Y-301.272
G1 X186.728 Y-301.186
G1 X186.003 Y-299.809
G1 X185.084 Y-297.96
G1 X185.042 Y-297.878
G1 X184.291 Y-296.472
G1 X183.335 Y-294.587
G1 X183.299 Y-294.517
G1 X182.525 Y-293.08
G1 X181.538 Y-291.159
G1 X181.507 Y-291.1
G1 X180.715 Y-289.634
G1 X179.702 Y-287.677
G1 X179.677 Y-287.632
G1 X178.871 Y-286.134
G1 X177.836 Y-284.14
G1 X177.818 Y-284.105
G1 X177.001 Y-282.579
G1 X175.951 Y-280.549
G1 X175.939 Y-280.525
G1 X175.118 Y-278.969
G1 X174.057 Y-276.9
G1 X174.05 Y-276.887
G1 X173.228 Y-275.302
G1 X172.163 Y-273.196
G1 X172.162 Y-273.194
G1 X171.343 Y-271.577
G1 X170.281 Y-269.439
G1 X169.471 Y-267.797
G1 X168.418 Y-265.625
G1 X167.623 Y-263.958
G1 X166.585 Y-261.754
G1 X165.809 Y-260.061
G1 X164.79 Y-257.824
G1 X164.037 Y-256.106
G1 X163.043 Y-253.835
G1 X162.318 Y-252.094
G1 X162.316 Y-252.091
G1 X161.354 Y-249.787
G1 X160.859 Y-248.529
G3 X160.408 Y-247.738 I-2.955 J-1.161
G1 X159.913 Y-247.103
G3 X157.409 Y-245.88 I-2.504 J-1.952
G1 X-0.385
G3 X-2.149 Y-246.415 I0 J-3.175
G1 X-2.41 Y-246.589
G1 X-2.236 Y-246.328
G3 X-1.7 Y-244.564 I-2.64 J1.764
G1 Y-241.099
G3 X-2.236 Y-239.335 I-3.175 J0
G1 X-2.409 Y-239.075
G1 X-2.151 Y-239.248
G3 X-0.385 Y-239.784 I1.765 J2.639
G1 X152.488
G3 X154.99 Y-238.563 I0 J3.175
G1 X155.486 Y-237.928
G3 X156.004 Y-234.994 I-2.502 J1.954
G1 X155.355 Y-232.993
G1 X154.824 Y-231.144
G1 X154.812 Y-231.103
G1 X154.067 Y-228.635
G1 X153.572 Y-226.765
G1 X153.559 Y-226.716
G1 X152.854 Y-224.217
G1 X152.389 Y-222.328
G1 X152.375 Y-222.274
G1 X151.705 Y-219.751
G1 X151.267 Y-217.847
G1 X151.252 Y-217.784
G1 X150.612 Y-215.24
G1 X150.197 Y-213.326
G1 X150.181 Y-213.257
G1 X149.566 Y-210.695
G1 X149.17 Y-208.772
G1 X149.154 Y-208.699
G1 X148.559 Y-206.122
G1 X148.175 Y-204.192
G1 X148.159 Y-204.118
G1 X147.581 Y-201.531
G1 X147.207 Y-199.599
G1 X147.191 Y-199.52
G1 X146.622 Y-196.928
G1 X146.254 Y-194.995
G1 X146.237 Y-194.914
G1 X145.674 Y-192.321
G1 X145.309 Y-190.393
G1 X145.291 Y-190.308
G1 X144.727 Y-187.718
G1 X144.359 Y-185.797
G1 X144.341 Y-185.709
G1 X143.771 Y-183.122
G1 X143.006 Y-179.273
G1 X142.987 Y-179.183
G1 X141.801 Y-174.005
G1 X140.976 Y-170.218
G1 X140.955 Y-170.126
G1 X139.686 Y-165.025
G1 X138.774 Y-161.319
G1 X138.751 Y-161.231
G1 X137.37 Y-156.243
G1 X136.373 Y-152.612
G1 X136.348 Y-152.527
G1 X134.856 Y-147.633
G1 X133.78 Y-144.054
G1 X133.754 Y-143.973
G1 X132.159 Y-139.141
G1 X131.008 Y-135.583
G1 X130.982 Y-135.507
G1 X129.292 Y-130.707
G1 X128.073 Y-127.145
G1 X128.047 Y-127.073
G1 X126.273 Y-122.274
G1 X125.643 Y-120.496
G1 X125.618 Y-120.427
G1 X124.707 Y-118.031
G1 X124.063 Y-116.246
G1 X124.038 Y-116.179
G1 X123.109 Y-113.771
G1 X122.452 Y-111.971
G1 X122.426 Y-111.904
G1 X121.478 Y-109.476
G1 X121.373 Y-109.192
G3 X120.9 Y-108.344 I-2.977 J-1.104
G1 X120.405 Y-107.709
G3 X117.901 Y-106.486 I-2.504 J-1.952
G1 X-4.242
G3 X-6.006 Y-107.021 I0 J-3.175
G1 X-6.266 Y-107.195
G1 X-6.092 Y-106.935
G3 X-5.557 Y-105.171 I-2.64 J1.764
G1 Y-101.705
G3 X-6.092 Y-99.941 I-3.175 J0
G1 X-6.266 Y-99.681
G1 X-6.006 Y-99.855
G3 X-4.242 Y-100.39 I1.764 J2.64
G1 X112.619
G3 X115.123 Y-99.167 I0 J3.175
G1 X115.618 Y-98.532
G3 X116.087 Y-95.466 I-2.504 J1.952
G1 X115.705 Y-94.446
G1 X115.681 Y-94.385
G1 X114.671 Y-91.848
G1 X113.942 Y-89.925
G1 X113.919 Y-89.865
G1 X112.887 Y-87.298
G1 X112.136 Y-85.353
G1 X112.112 Y-85.293
G1 X111.051 Y-82.706
G1 X110.274 Y-80.749
G1 X110.25 Y-80.69
G1 X109.156 Y-78.09
G1 X108.347 Y-76.125
G1 X108.322 Y-76.068
G1 X107.19 Y-73.465
G1 X106.344 Y-71.501
G1 X106.32 Y-71.445
G1 X105.142 Y-68.847
G1 X104.257 Y-66.891
G1 X104.231 Y-66.835
G1 X103.003 Y-64.256
G1 X102.999 Y-64.249
G1 X102.071 Y-62.311
G1 X102.045 Y-62.257
G1 X100.762 Y-59.706
G1 X100.753 Y-59.688
G1 X99.778 Y-57.777
G1 X99.75 Y-57.724
G1 X98.407 Y-55.21
G1 X98.392 Y-55.182
G1 X97.365 Y-53.305
G1 X97.337 Y-53.254
G1 X95.927 Y-50.786
G1 X95.906 Y-50.748
G1 X94.823 Y-48.911
G1 X94.794 Y-48.862
G1 X93.312 Y-46.449
G1 X93.282 Y-46.401
G1 X92.139 Y-44.612
G1 X92.109 Y-44.565
G1 X90.548 Y-42.215
G1 X90.509 Y-42.158
G1 X89.302 Y-40.424
G1 X89.271 Y-40.379
G1 X87.626 Y-38.102
G1 X87.577 Y-38.035
G1 X86.301 Y-36.363
G1 X86.269 Y-36.321
G1 X84.534 Y-34.125
G1 X84.472 Y-34.048
G1 X83.124 Y-32.446
G1 X83.091 Y-32.407
G1 X81.261 Y-30.302
G1 X81.185 Y-30.217
G1 X79.759 Y-28.691
G1 X79.726 Y-28.656
G1 X77.795 Y-26.65
G1 X77.705 Y-26.56
G1 X76.2 Y-25.116
G1 X76.167 Y-25.086
G1 X74.131 Y-23.186
G1 X74.035 Y-23.1
G1 X72.453 Y-21.741
G1 X72.422 Y-21.715
G1 X70.285 Y-19.924
G1 X70.185 Y-19.844
G1 X68.533 Y-18.57
G1 X68.504 Y-18.548
G1 X66.274 Y-16.868
G1 X66.17 Y-16.793
G1 X64.453 Y-15.605
G1 X64.426 Y-15.587
G1 X62.111 Y-14.02
G1 X62.003 Y-13.95
G1 X60.226 Y-12.85
G1 X60.202 Y-12.835
G1 X57.808 Y-11.382
G1 X57.697 Y-11.317
G1 X55.865 Y-10.304
G1 X55.844 Y-10.293
G1 X53.379 Y-8.955
G1 X53.264 Y-8.895
G1 X51.384 Y-7.972
G1 X51.365 Y-7.963
G1 X48.837 Y-6.741
G1 X48.718 Y-6.687
G1 X46.795 Y-5.854
G1 X46.779 Y-5.847
G1 X44.194 Y-4.744
G1 X44.072 Y-4.694
G1 X42.111 Y-3.952
G1 X42.097 Y-3.947
G1 X39.464 Y-2.963
G1 X39.338 Y-2.92
G1 X37.344 Y-2.269
G1 X37.334 Y-2.265
G1 X34.658 Y-1.403
G1 X34.529 Y-1.364
G1 X32.508 Y-0.807
G1 X32.5 Y-0.804
G1 X29.79 Y-0.065
G1 X29.657 Y-0.031
G1 X27.615 Y0.432
G1 X27.609 Y0.434
G1 X24.872 Y1.05
G1 X24.736 Y1.077
G1 X22.678 Y1.446
G1 X22.674 Y1.447
G1 X19.917 Y1.937
G1 X19.777 Y1.959
G1 X17.709 Y2.232
G1 X17.706 Y2.233
G1 X14.936 Y2.596
G1 X14.793 Y2.612
G1 X12.72 Y2.788
G1 X12.718 Y2.789
G1 X9.944 Y3.024
G1 X9.797 Y3.033
G1 X7.724 Y3.112
G1 X4.951 Y3.217
G1 X4.802 Y3.219
G1 X2.735 Y3.2
G1 X-0.029 Y3.175
G1 X-0.178 Y3.17
G1 X-2.236 Y3.055
G1 X-4.988 Y2.901
G1 X-5.134 Y2.889
G1 X-7.183 Y2.68
G1 X-9.921 Y2.401
G1 X-10.063 Y2.383
G1 X-12.101 Y2.081
G1 X-14.821 Y1.679
G1 X-14.961 Y1.656
G1 X-16.984 Y1.264
G1 X-19.686 Y0.742
G1 X-19.821 Y0.713
G1 X-21.829 Y0.234
G1 X-24.509 Y-0.404
G1 X-24.64 Y-0.438
G1 X-26.631 Y-1.003
G1 X-29.287 Y-1.756
G1 X-29.413 Y-1.794
G1 X-31.385 Y-2.443
G1 X-34.015 Y-3.306
G1 X-34.137 Y-3.349
G1 X-36.088 Y-4.078
G1 X-38.689 Y-5.05
G1 X-38.806 Y-5.097
G1 X-40.734 Y-5.905
G1 X-43.304 Y-6.983
G1 X-43.417 Y-7.032
G1 X-45.32 Y-7.918
G1 X-47.857 Y-9.098
G1 X-47.965 Y-9.15
G1 X-49.841 Y-10.111
G1 X-52.343 Y-11.39
G1 X-52.446 Y-11.445
G1 X-54.294 Y-12.479
G1 X-56.757 Y-13.855
G1 X-56.856 Y-13.913
G1 X-58.674 Y-15.016
G1 X-61.096 Y-16.487
G1 X-61.19 Y-16.546
G1 X-62.976 Y-17.718
G1 X-65.355 Y-19.28
G1 X-65.446 Y-19.341
G1 X-67.198 Y-20.58
G1 X-69.531 Y-22.229
G1 X-69.658 Y-22.323
G1 X-73.053 Y-24.986
G1 X-77.575 Y-28.533
G1 X-77.723 Y-28.655
G1 X-80.969 Y-31.534
G1 X-85.293 Y-35.368
G1 X-85.418 Y-35.484
G1 X-88.51 Y-38.538
G1 X-92.63 Y-42.605
G1 X-92.736 Y-42.714
G1 X-95.67 Y-45.903
G1 X-99.579 Y-50.15
G1 X-99.669 Y-50.252
G1 X-102.44 Y-53.536
G1 X-106.132 Y-57.909
G1 X-106.21 Y-58.004
G1 X-108.812 Y-61.341
G1 X-112.281 Y-65.787
G1 X-112.348 Y-65.876
G1 X-114.779 Y-69.227
G1 X-118.017 Y-73.691
G1 X-118.075 Y-73.774
G1 X-120.329 Y-77.098
G1 X-123.332 Y-81.527
G1 X-123.385 Y-81.608
G1 X-125.46 Y-84.878
G1 X-128.224 Y-89.234
G1 X-128.278 Y-89.323
G1 X-130.185 Y-92.558
G1 X-132.726 Y-96.868
G1 X-132.782 Y-96.967
G1 X-134.536 Y-100.2
G1 X-136.872 Y-104.509
G1 X-136.927 Y-104.615
G1 X-138.541 Y-107.88
G1 X-140.692 Y-112.227
G1 X-140.744 Y-112.338
G1 X-142.233 Y-115.666
G1 X-144.217 Y-120.098
G1 X-144.264 Y-120.21
G1 X-145.642 Y-123.633
G1 X-147.478 Y-128.193
G1 X-147.52 Y-128.302
G1 X-148.801 Y-131.853
G1 X-150.508 Y-136.583
G1 X-150.542 Y-136.685
G1 X-151.741 Y-140.397
G1 X-153.338 Y-145.341
G1 X-153.367 Y-145.435
G1 X-154.493 Y-149.33
G1 X-155.994 Y-154.518
G1 X-156.018 Y-154.605
G1 X-157.067 Y-158.663
G1 X-158.465 Y-164.069
G1 X-158.485 Y-164.152
G1 X-159.449 Y-168.344
G1 X-160.734 Y-173.927
G1 X-160.752 Y-174.009
G1 X-161.622 Y-178.305
G1 X-162.78 Y-184.026
G1 X-162.795 Y-184.106
G1 X-163.563 Y-188.476
G1 X-164.585 Y-194.297
G1 X-164.599 Y-194.379
G1 X-165.254 Y-198.793
G1 X-166.129 Y-204.672
G1 X-166.141 Y-204.757
G1 X-166.677 Y-209.185
G1 X-167.392 Y-215.083
G1 X-167.401 Y-215.172
G1 X-167.81 Y-219.585
G1 X-168.354 Y-225.463
G1 X-168.362 Y-225.558
G1 X-168.635 Y-229.931
G1 X-168.999 Y-235.755
G1 X-169.003 Y-235.854
G1 X-169.138 Y-240.182
G1 X-169.319 Y-245.947
G1 X-169.321 Y-246.05
G1 X-169.317 Y-250.335
G1 X-169.312 Y-256.043
G1 X-169.31 Y-256.147
G1 X-169.167 Y-260.389
G1 X-168.976 Y-266.04
G1 X-168.971 Y-266.148
G1 X-168.686 Y-270.349
G1 X-168.307 Y-275.945
G1 X-168.297 Y-276.054
G1 X-167.87 Y-280.214
G1 X-167.302 Y-285.755
G1 X-167.289 Y-285.867
G1 X-166.718 Y-289.987
G1 X-165.959 Y-295.475
G1 X-165.942 Y-295.587
G1 X-165.228 Y-299.669
G1 X-164.275 Y-305.106
G1 X-164.254 Y-305.218
G1 X-163.395 Y-309.261
G1 X-162.25 Y-314.647
G1 X-162.224 Y-314.756
G1 X-161.224 Y-318.76
G1 X-159.891 Y-324.095
G1 X-159.863 Y-324.201
G1 X-158.725 Y-328.166
G1 X-157.21 Y-333.447
G1 X-157.178 Y-333.551
G1 X-155.907 Y-337.476
G1 X-154.214 Y-342.705
G1 X-154.18 Y-342.803
G1 X-152.78 Y-346.688
G1 X-150.914 Y-351.865
G1 X-150.878 Y-351.959
G1 X-149.352 Y-355.803
G1 X-147.32 Y-360.925
G1 X-147.283 Y-361.016
G1 X-145.636 Y-364.819
G1 X-143.441 Y-369.885
G1 X-143.401 Y-369.975
G1 X-141.692 Y-373.606
G1 X-141.673 Y-373.646
G1 X-139.19 Y-378.737
G1 X-136.699 Y-383.858
G1 X-136.68 Y-383.897
G1 X-134.871 Y-387.491
G1 X-134.824 Y-387.581
G1 X-132.833 Y-391.243
G1 X-130.18 Y-396.121
G1 X-130.131 Y-396.208
G1 X-128.026 Y-399.803
G1 X-125.222 Y-404.592
G1 X-125.167 Y-404.683
G1 X-122.948 Y-408.198
G1 X-119.99 Y-412.88
G1 X-119.93 Y-412.973
G1 X-117.597 Y-416.396
G1 X-114.487 Y-420.956
G1 X-114.419 Y-421.052
G1 X-111.97 Y-424.37
G1 X-108.708 Y-428.79
G1 X-108.631 Y-428.89
G1 X-106.067 Y-432.091
G1 X-102.652 Y-436.354
G1 X-102.566 Y-436.456
G1 X-99.887 Y-439.527
G1 X-96.317 Y-443.618
G1 X-96.223 Y-443.722
G1 X-93.428 Y-446.654
G1 X-89.704 Y-450.559
G1 X-89.606 Y-450.658
G1 X-86.695 Y-453.454
G1 X-82.818 Y-457.178
G1 X-82.718 Y-457.271
G1 X-79.693 Y-459.937
G1 X-75.663 Y-463.489
G1 X-75.562 Y-463.574
G1 X-72.424 Y-466.117
G1 X-68.243 Y-469.505
G1 X-68.143 Y-469.582
G1 X-64.891 Y-472.009
G1 X-60.559 Y-475.242
G1 X-60.46 Y-475.313
G1 X-57.097 Y-477.627
G1 X-52.616 Y-480.712
G1 X-52.52 Y-480.776
G1 X-49.045 Y-482.988
G1 X-44.415 Y-485.934
G1 X-44.323 Y-485.99
G1 X-40.736 Y-488.104
G1 X-35.959 Y-490.92
G1 X-35.87 Y-490.971
G1 X-32.176 Y-492.99
G1 X-27.255 Y-495.68
G1 X-27.164 Y-495.728
G1 X-23.374 Y-497.642
G1 X-18.327 Y-500.193
G1 X-18.231 Y-500.239
G1 X-14.36 Y-502.036
G1 X-9.204 Y-504.43
G1 X-9.105 Y-504.474
G1 X-5.167 Y-506.142
G1 X0.08 Y-508.362
G1 X0.185 Y-508.404
G1 X4.177 Y-509.928
G1 X9.493 Y-511.958
G1 X9.606 Y-511.999
G1 X13.636 Y-513.366
G1 X19.004 Y-515.188
G1 X19.125 Y-515.226
G1 X23.179 Y-516.424
G1 X28.58 Y-518.02
G1 X28.71 Y-518.055
G1 X32.774 Y-519.071
G1 X38.189 Y-520.425
G1 X38.327 Y-520.456
G1 X42.39 Y-521.281
G1 X47.802 Y-522.381
G1 X47.936 Y-522.406
G1 X51.995 Y-523.051
G1 X57.402 Y-523.91
G1 X57.528 Y-523.927
G1 X61.583 Y-524.405
G1 X66.984 Y-525.042
G1 X67.102 Y-525.054
G1 X71.153 Y-525.379
G1 X76.548 Y-525.813
G1 X76.656 Y-525.82
G1 X80.703 Y-526.007
G1 X86.093 Y-526.257
G1 X86.19 Y-526.26
G1 X90.233 Y-526.323
G1 X95.617 Y-526.408
G1 X95.704
G1 X98.647 Y-526.374
G3 X101.785 Y-523.199 I-0.037 J3.175
G1 Y-519.886
G3 X101.25 Y-518.122 I-3.175 J0
G1 X101.076 Y-517.863
G1 X101.336 Y-518.036
G3 X103.1 Y-518.571 I1.764 J2.64
G1 X165.802
G3 X166.665 Y-518.452 I0 J3.175
G1 X168.913 Y-517.817
G1 X170.894 Y-517.258
G1 X171.051 Y-517.209
G1 X172.963 Y-516.561
G1 X175.524 Y-515.701
G1 X175.636 Y-515.66
G1 X177.532 Y-514.943
G1 X180.072 Y-513.99
G1 X180.189 Y-513.943
G1 X182.068 Y-513.152
G1 X184.589 Y-512.099
G1 X184.707 Y-512.047
G1 X186.567 Y-511.179
G1 X189.068 Y-510.021
G1 X189.188 Y-509.963
G1 X191.027 Y-509.016
G1 X193.504 Y-507.749
G1 X193.621 Y-507.686
G1 X195.431 Y-506.662
G1 X197.875 Y-505.289
G1 X197.993 Y-505.22
G1 X199.764 Y-504.122
G1 X202.164 Y-502.646
G1 X202.28 Y-502.571
G1 X204.005 Y-501.403
G1 X206.352 Y-499.826
G1 X206.468 Y-499.744
G1 X208.137 Y-498.509
G1 X210.416 Y-496.837
G1 X210.535 Y-496.746
G1 X212.141 Y-495.447
G1 X214.341 Y-493.682
G1 X214.459 Y-493.582
G1 X215.994 Y-492.222
G1 X218.105 Y-490.369
G1 X218.226 Y-490.257
G1 X219.679 Y-488.84
G1 X221.689 Y-486.901
G1 X221.813 Y-486.775
G1 X223.177 Y-485.304
G1 X225.074 Y-483.284
G1 X225.197 Y-483.145
G1 X226.467 Y-481.622
G1 X228.239 Y-479.523
G1 X228.362 Y-479.367
G1 X229.528 Y-477.797
G1 X231.164 Y-475.625
G1 X231.286 Y-475.449
G1 X232.341 Y-473.832
G1 X233.827 Y-471.59
G1 X233.889 Y-471.494
G1 X233.947 Y-471.395
G1 X234.882 Y-469.736
G1 X236.208 Y-467.43
G1 X236.268 Y-467.322
G1 X236.323 Y-467.211
G1 X237.132 Y-465.512
G1 X238.286 Y-463.143
G3 X238.393 Y-462.899 I-2.854 J1.391
G1 X239.065 Y-461.163
G1 X240.036 Y-458.74
G3 X240.131 Y-458.469 I-2.947 J1.181
G1 X240.661 Y-456.698
G1 X241.437 Y-454.223
G3 X241.513 Y-453.933 I-3.03 J0.95
G1 X241.896 Y-452.13
G1 X242.47 Y-449.609
G3 X242.521 Y-449.323 I-3.096 J0.705
G1 X242.765 Y-447.494
G1 X243.146 Y-444.936
G3 X243.175 Y-444.664 I-3.14 J0.468
G1 X243.289 Y-442.814
G1 X243.493 Y-440.23
G3 X243.503 Y-439.972 I-3.165 J0.25
G1 X243.498 Y-438.108
G1 X243.537 Y-435.508
G1 X243.536 Y-435.388
G1 X243.531 Y-435.268
G1 X243.417 Y-433.397
G1 X243.306 Y-430.791
G1 X243.299 Y-430.677
G1 X243.288 Y-430.564
G1 X243.074 Y-428.695
G1 X242.827 Y-426.095
G1 X242.799 Y-425.882
G1 X242.495 Y-424.019
G1 X242.125 Y-421.435
G1 X242.09 Y-421.236
G1 X241.705 Y-419.388
G1 X241.228 Y-416.83
G1 X241.187 Y-416.64
G1 X240.73 Y-414.816
G1 X240.16 Y-412.296
G1 X240.114 Y-412.116
G1 X239.596 Y-410.321
G1 X238.946 Y-407.847
G1 X238.896 Y-407.678
G1 X238.328 Y-405.919
G1 X237.611 Y-403.501
G1 X237.558 Y-403.339
G1 X236.949 Y-401.628
G1 X236.18 Y-399.277
G1 X236.124 Y-399.12
G1 X235.483 Y-397.462
G1 X234.676 Y-395.189
G1 X234.618 Y-395.038
G1 X233.957 Y-393.442
G1 X233.126 Y-391.256
G1 X233.064 Y-391.105
G1 X232.393 Y-389.582
G1 X231.713 Y-387.895
G3 X231.272 Y-387.131 I-2.945 J-1.188
G1 X230.777 Y-386.496
G3 X228.273 Y-385.273 I-2.504 J-1.952
G1 X227.904
G1 Z-1.524
G1 X50.371
G3 X48.605 Y-385.809 I0 J-3.175
G1 X48.347 Y-385.982
G1 X48.521 Y-385.722
G3 X49.056 Y-383.958 I-2.64 J1.764
G1 Y-380.493
G3 X48.521 Y-378.73 I-3.175 J0
G1 X48.346 Y-378.468
G1 X48.607 Y-378.642
G3 X50.371 Y-379.177 I1.764 J2.64
G1 X221.833
G3 X224.335 Y-377.956 I0 J3.175
G1 X224.831 Y-377.321
G3 X225.107 Y-373.83 I-2.502 J1.954
G1 X224.671 Y-373.041
G1 X223.893 Y-371.472
G1 X223.801 Y-371.301
G1 X223.187 Y-370.232
G1 X222.424 Y-368.742
G1 X222.327 Y-368.567
G1 X221.724 Y-367.551
G1 X220.974 Y-366.131
G1 X220.865 Y-365.939
G1 X219.643 Y-363.969
G1 X218.142 Y-361.223
G1 X218.085 Y-361.124
G1 X218.025 Y-361.028
G1 X216.835 Y-359.181
G1 X215.375 Y-356.593
G1 X215.27 Y-356.421
G1 X214.108 Y-354.637
G1 X212.681 Y-352.131
G1 X212.595 Y-351.989
G1 X211.454 Y-350.209
G1 X210.056 Y-347.709
G1 X209.992 Y-347.6
G1 X208.868 Y-345.765
G1 X207.489 Y-343.194
G1 X207.445 Y-343.115
G1 X206.331 Y-341.173
G1 X204.962 Y-338.467
G1 X204.92 Y-338.386
G1 X203.802 Y-336.326
G1 X202.43 Y-333.475
G1 X202.384 Y-333.384
G1 X201.248 Y-331.207
G1 X199.851 Y-328.212
G1 X199.804 Y-328.115
G1 X198.636 Y-325.821
G1 X197.194 Y-322.683
G1 X197.145 Y-322.581
G1 X195.931 Y-320.171
G1 X194.424 Y-316.89
G1 X194.373 Y-316.785
G1 X193.098 Y-314.259
G1 X191.505 Y-310.838
G1 X191.457 Y-310.739
G1 X190.802 Y-309.452
G1 X189.978 Y-307.71
G1 X189.932 Y-307.616
G1 X189.256 Y-306.301
G1 X188.402 Y-304.523
G1 X188.357 Y-304.433
G1 X187.658 Y-303.087
G1 X186.772 Y-301.272
G1 X186.728 Y-301.186
G1 X186.003 Y-299.809
G1 X185.084 Y-297.96
G1 X185.042 Y-297.878
G1 X184.291 Y-296.472
G1 X183.335 Y-294.587
G1 X183.299 Y-294.517
G1 X182.525 Y-293.08
G1 X181.538 Y-291.159
G1 X181.507 Y-291.1
G1 X180.715 Y-289.634
G1 X179.702 Y-287.677
G1 X179.677 Y-287.632
G1 X178.871 Y-286.134
G1 X177.836 Y-284.14
G1 X177.818 Y-284.105
G1 X177.001 Y-282.579
G1 X175.951 Y-280.549
G1 X175.939 Y-280.525
G1 X175.118 Y-278.969
G1 X174.057 Y-276.9
G1 X174.05 Y-276.887
G1 X173.228 Y-275.302
G1 X172.163 Y-273.196
G1 X172.162 Y-273.194
G1 X171.343 Y-271.577
G1 X170.281 Y-269.439
G1 X169.471 Y-267.797
G1 X168.418 Y-265.625
G1 X167.623 Y-263.958
G1 X166.585 Y-261.754
G1 X165.809 Y-260.061
G1 X164.79 Y-257.824
G1 X164.037 Y-256.106
G1 X163.043 Y-253.835
G1 X162.318 Y-252.094
G1 X162.316 Y-252.091
G1 X161.354 Y-249.787
G1 X160.859 Y-248.529
G3 X160.408 Y-247.738 I-2.955 J-1.161
G1 X159.913 Y-247.103
G3 X157.409 Y-245.88 I-2.504 J-1.952
G1 X-0.385
G3 X-2.149 Y-246.415 I0 J-3.175
G1 X-2.41 Y-246.589
G1 X-2.236 Y-246.328
G3 X-1.7 Y-244.564 I-2.64 J1.764
G1 Y-241.099
G3 X-2.236 Y-239.335 I-3.175 J0
G1 X-2.409 Y-239.075
G1 X-2.151 Y-239.248
G3 X-0.385 Y-239.784 I1.765 J2.639
G1 X152.488
G3 X154.99 Y-238.563 I0 J3.175
G1 X155.486 Y-237.928
G3 X156.004 Y-234.994 I-2.502 J1.954
G1 X155.355 Y-232.993
G1 X154.824 Y-231.144
G1 X154.812 Y-231.103
G1 X154.067 Y-228.635
G1 X153.572 Y-226.765
G1 X153.559 Y-226.716
G1 X152.854 Y-224.217
G1 X152.389 Y-222.328
G1 X152.375 Y-222.274
G1 X151.705 Y-219.751
G1 X151.267 Y-217.847
G1 X151.252 Y-217.784
G1 X150.612 Y-215.24
G1 X150.197 Y-213.326
G1 X150.181 Y-213.257
G1 X149.566 Y-210.695
G1 X149.17 Y-208.772
G1 X149.154 Y-208.699
G1 X148.559 Y-206.122
G1 X148.175 Y-204.192
G1 X148.159 Y-204.118
G1 X147.581 Y-201.531
G1 X147.207 Y-199.599
G1 X147.191 Y-199.52
G1 X146.622 Y-196.928
G1 X146.254 Y-194.995
G1 X146.237 Y-194.914
G1 X145.674 Y-192.321
G1 X145.309 Y-190.393
G1 X145.291 Y-190.308
G1 X144.727 Y-187.718
G1 X144.359 Y-185.797
G1 X144.341 Y-185.709
G1 X143.771 Y-183.122
G1 X143.006 Y-179.273
G1 X142.987 Y-179.183
G1 X141.801 Y-174.005
G1 X140.976 Y-170.218
G1 X140.955 Y-170.126
G1 X139.686 Y-165.025
G1 X138.774 Y-161.319
G1 X138.751 Y-161.231
G1 X137.37 Y-156.243
G1 X136.373 Y-152.612
G1 X136.348 Y-152.527
G1 X134.856 Y-147.633
G1 X133.78 Y-144.054
G1 X133.754 Y-143.973
G1 X132.159 Y-139.141
G1 X131.008 Y-135.583
G1 X130.982 Y-135.507
G1 X129.292 Y-130.707
G1 X128.073 Y-127.145
G1 X128.047 Y-127.073
G1 X126.273 Y-122.274
G1 X125.643 Y-120.496
G1 X125.618 Y-120.427
G1 X124.707 Y-118.031
G1 X124.063 Y-116.246
G1 X124.038 Y-116.179
G1 X123.109 Y-113.771
G1 X122.452 Y-111.971
G1 X122.426 Y-111.904
G1 X121.478 Y-109.476
G1 X121.373 Y-109.192
G3 X120.9 Y-108.344 I-2.977 J-1.104
G1 X120.405 Y-107.709
G3 X117.901 Y-106.486 I-2.504 J-1.952
G1 X-4.242
G3 X-6.006 Y-107.021 I0 J-3.175
G1 X-6.266 Y-107.195
G1 X-6.092 Y-106.935
G3 X-5.557 Y-105.171 I-2.64 J1.764
G1 Y-101.705
G3 X-6.092 Y-99.941 I-3.175 J0
G1 X-6.266 Y-99.681
G1 X-6.006 Y-99.855
G3 X-4.242 Y-100.39 I1.764 J2.64
G1 X112.619
G3 X115.123 Y-99.167 I0 J3.175
G1 X115.618 Y-98.532
G3 X116.087 Y-95.466 I-2.504 J1.952
G1 X115.705 Y-94.446
G1 X115.681 Y-94.385
G1 X114.671 Y-91.848
G1 X113.942 Y-89.925
G1 X113.919 Y-89.865
G1 X112.887 Y-87.298
G1 X112.136 Y-85.353
G1 X112.112 Y-85.293
G1 X111.051 Y-82.706
G1 X110.274 Y-80.749
G1 X110.25 Y-80.69
G1 X109.156 Y-78.09
G1 X108.347 Y-76.125
G1 X108.322 Y-76.068
G1 X107.19 Y-73.465
G1 X106.344 Y-71.501
G1 X106.32 Y-71.445
G1 X105.142 Y-68.847
G1 X104.257 Y-66.891
G1 X104.231 Y-66.835
G1 X103.003 Y-64.256
G1 X102.999 Y-64.249
G1 X102.071 Y-62.311
G1 X102.045 Y-62.257
G1 X100.762 Y-59.706
G1 X100.753 Y-59.688
G1 X99.778 Y-57.777
G1 X99.75 Y-57.724
G1 X98.407 Y-55.21
G1 X98.392 Y-55.182
G1 X97.365 Y-53.305
G1 X97.337 Y-53.254
G1 X95.927 Y-50.786
G1 X95.906 Y-50.748
G1 X94.823 Y-48.911
G1 X94.794 Y-48.862
G1 X93.312 Y-46.449
G1 X93.282 Y-46.401
G1 X92.139 Y-44.612
G1 X92.109 Y-44.565
G1 X90.548 Y-42.215
G1 X90.509 Y-42.158
G1 X89.302 Y-40.424
G1 X89.271 Y-40.379
G1 X87.626 Y-38.102
G1 X87.577 Y-38.035
G1 X86.301 Y-36.363
G1 X86.269 Y-36.321
G1 X84.534 Y-34.125
G1 X84.472 Y-34.048
G1 X83.124 Y-32.446
G1 X83.091 Y-32.407
G1 X81.261 Y-30.302
G1 X81.185 Y-30.217
G1 X79.759 Y-28.691
G1 X79.726 Y-28.656
G1 X77.795 Y-26.65
G1 X77.705 Y-26.56
G1 X76.2 Y-25.116
G1 X76.167 Y-25.086
G1 X74.131 Y-23.186
G1 X74.035 Y-23.1
G1 X72.453 Y-21.741
G1 X72.422 Y-21.715
G1 X70.285 Y-19.924
G1 X70.185 Y-19.844
G1 X68.533 Y-18.57
G1 X68.504 Y-18.548
G1 X66.274 Y-16.868
G1 X66.17 Y-16.793
G1 X64.453 Y-15.605
G1 X64.426 Y-15.587
G1 X62.111 Y-14.02
G1 X62.003 Y-13.95
G1 X60.226 Y-12.85
G1 X60.202 Y-12.835
G1 X57.808 Y-11.382
G1 X57.697 Y-11.317
G1 X55.865 Y-10.304
G1 X55.844 Y-10.293
G1 X53.379 Y-8.955
G1 X53.264 Y-8.895
G1 X51.384 Y-7.972
G1 X51.365 Y-7.963
G1 X48.837 Y-6.741
G1 X48.718 Y-6.687
G1 X46.795 Y-5.854
G1 X46.779 Y-5.847
G1 X44.194 Y-4.744
G1 X44.072 Y-4.694
G1 X42.111 Y-3.952
G1 X42.097 Y-3.947
G1 X39.464 Y-2.963
G1 X39.338 Y-2.92
G1 X37.344 Y-2.269
G1 X37.334 Y-2.265
G1 X34.658 Y-1.403
G1 X34.529 Y-1.364
G1 X32.508 Y-0.807
G1 X32.5 Y-0.804
G1 X29.79 Y-0.065
G1 X29.657 Y-0.031
G1 X27.615 Y0.432
G1 X27.609 Y0.434
G1 X24.872 Y1.05
G1 X24.736 Y1.077
G1 X22.678 Y1.446
G1 X22.674 Y1.447
G1 X19.917 Y1.937
G1 X19.777 Y1.959
G1 X17.709 Y2.232
G1 X17.706 Y2.233
G1 X14.936 Y2.596
G1 X14.793 Y2.612
G1 X12.72 Y2.788
G1 X12.718 Y2.789
G1 X9.944 Y3.024
G1 X9.797 Y3.033
G1 X7.724 Y3.112
G1 X4.951 Y3.217
G1 X4.802 Y3.219
G1 X2.735 Y3.2
G1 X-0.029 Y3.175
G1 X-0.178 Y3.17
G1 X-2.236 Y3.055
G1 X-4.988 Y2.901
G1 X-5.134 Y2.889
G1 X-7.183 Y2.68
G1 X-9.921 Y2.401
G1 X-10.063 Y2.383
G1 X-12.101 Y2.081
G1 X-14.821 Y1.679
G1 X-14.961 Y1.656
G1 X-16.984 Y1.264
G1 X-19.686 Y0.742
G1 X-19.821 Y0.713
G1 X-21.829 Y0.234
G1 X-24.509 Y-0.404
G1 X-24.64 Y-0.438
G1 X-26.631 Y-1.003
G1 X-29.287 Y-1.756
G1 X-29.413 Y-1.794
G1 X-31.385 Y-2.443
G1 X-34.015 Y-3.306
G1 X-34.137 Y-3.349
G1 X-36.088 Y-4.078
G1 X-38.689 Y-5.05
G1 X-38.806 Y-5.097
G1 X-40.734 Y-5.905
G1 X-43.304 Y-6.983
G1 X-43.417 Y-7.032
G1 X-45.32 Y-7.918
G1 X-47.857 Y-9.098
G1 X-47.965 Y-9.15
G1 X-49.841 Y-10.111
G1 X-52.343 Y-11.39
G1 X-52.446 Y-11.445
G1 X-54.294 Y-12.479
G1 X-56.757 Y-13.855
G1 X-56.856 Y-13.913
G1 X-58.674 Y-15.016
G1 X-61.096 Y-16.487
G1 X-61.19 Y-16.546
G1 X-62.976 Y-17.718
G1 X-65.355 Y-19.28
G1 X-65.446 Y-19.341
G1 X-67.198 Y-20.58
G1 X-69.531 Y-22.229
G1 X-69.658 Y-22.323
G1 X-73.053 Y-24.986
G1 X-77.575 Y-28.533
G1 X-77.723 Y-28.655
G1 X-80.969 Y-31.534
G1 X-85.293 Y-35.368
G1 X-85.418 Y-35.484
G1 X-88.51 Y-38.538
G1 X-92.63 Y-42.605
G1 X-92.736 Y-42.714
G1 X-95.67 Y-45.903
G1 X-99.579 Y-50.15
G1 X-99.669 Y-50.252
G1 X-102.44 Y-53.536
G1 X-106.132 Y-57.909
G1 X-106.21 Y-58.004
G1 X-108.812 Y-61.341
G1 X-112.281 Y-65.787
G1 X-112.348 Y-65.876
G1 X-114.779 Y-69.227
G1 X-118.017 Y-73.691
G1 X-118.075 Y-73.774
G1 X-120.329 Y-77.098
G1 X-123.332 Y-81.527
G1 X-123.385 Y-81.608
G1 X-125.46 Y-84.878
G1 X-128.224 Y-89.234
G1 X-128.278 Y-89.323
G1 X-130.185 Y-92.558
G1 X-132.726 Y-96.868
G1 X-132.782 Y-96.967
G1 X-134.536 Y-100.2
G1 X-136.872 Y-104.509
G1 X-136.927 Y-104.615
G1 X-138.541 Y-107.88
G1 X-140.692 Y-112.227
G1 X-140.744 Y-112.338
G1 X-142.233 Y-115.666
G1 X-144.217 Y-120.098
G1 X-144.264 Y-120.21
G1 X-145.642 Y-123.633
G1 X-147.478 Y-128.193
G1 X-147.52 Y-128.302
G1 X-148.801 Y-131.853
G1 X-150.508 Y-136.583
G1 X-150.542 Y-136.685
G1 X-151.741 Y-140.397
G1 X-153.338 Y-145.341
G1 X-153.367 Y-145.435
G1 X-154.493 Y-149.33
G1 X-155.994 Y-154.518
G1 X-156.018 Y-154.605
G1 X-157.067 Y-158.663
G1 X-158.465 Y-164.069
G1 X-158.485 Y-164.152
G1 X-159.449 Y-168.344
G1 X-160.734 Y-173.927
G1 X-160.752 Y-174.009
G1 X-161.622 Y-178.305
G1 X-162.78 Y-184.026
G1 X-162.795 Y-184.106
G1 X-163.563 Y-188.476
G1 X-164.585 Y-194.297
G1 X-164.599 Y-194.379
G1 X-165.254 Y-198.793
G1 X-166.129 Y-204.672
G1 X-166.141 Y-204.757
G1 X-166.677 Y-209.185
G1 X-167.392 Y-215.083
G1 X-167.401 Y-215.172
G1 X-167.81 Y-219.585
G1 X-168.354 Y-225.463
G1 X-168.362 Y-225.558
G1 X-168.635 Y-229.931
G1 X-168.999 Y-235.755
G1 X-169.003 Y-235.854
G1 X-169.138 Y-240.182
G1 X-169.319 Y-245.947
G1 X-169.321 Y-246.05
G1 X-169.317 Y-250.335
G1 X-169.312 Y-256.043
G1 X-169.31 Y-256.147
G1 X-169.167 Y-260.389
G1 X-168.976 Y-266.04
G1 X-168.971 Y-266.148
G1 X-168.686 Y-270.349
G1 X-168.307 Y-275.945
G1 X-168.297 Y-276.054
G1 X-167.87 Y-280.214
G1 X-167.302 Y-285.755
G1 X-167.289 Y-285.867
G1 X-166.718 Y-289.987
G1 X-165.959 Y-295.475
G1 X-165.942 Y-295.587
G1 X-165.228 Y-299.669
G1 X-164.275 Y-305.106
G1 X-164.254 Y-305.218
G1 X-163.395 Y-309.261
G1 X-162.25 Y-314.647
G1 X-162.224 Y-314.756
G1 X-161.224 Y-318.76
G1 X-159.891 Y-324.095
G1 X-159.863 Y-324.201
G1 X-158.725 Y-328.166
G1 X-157.21 Y-333.447
G1 X-157.178 Y-333.551
G1 X-155.907 Y-337.476
G1 X-154.214 Y-342.705
G1 X-154.18 Y-342.803
G1 X-152.78 Y-346.688
G1 X-150.914 Y-351.865
G1 X-150.878 Y-351.959
G1 X-149.352 Y-355.803
G1 X-147.32 Y-360.925
G1 X-147.283 Y-361.016
G1 X-145.636 Y-364.819
G1 X-143.441 Y-369.885
G1 X-143.401 Y-369.975
G1 X-141.692 Y-373.606
G1 X-141.673 Y-373.646
G1 X-139.19 Y-378.737
G1 X-136.699 Y-383.858
G1 X-136.68 Y-383.897
G1 X-134.871 Y-387.491
G1 X-134.824 Y-387.581
G1 X-132.833 Y-391.243
G1 X-130.18 Y-396.121
G1 X-130.131 Y-396.208
G1 X-128.026 Y-399.803
G1 X-125.222 Y-404.592
G1 X-125.167 Y-404.683
G1 X-122.948 Y-408.198
G1 X-119.99 Y-412.88
G1 X-119.93 Y-412.973
G1 X-117.597 Y-416.396
G1 X-114.487 Y-420.956
G1 X-114.419 Y-421.052
G1 X-111.97 Y-424.37
G1 X-108.708 Y-428.79
G1 X-108.631 Y-428.89
G1 X-106.067 Y-432.091
G1 X-102.652 Y-436.354
G1 X-102.566 Y-436.456
G1 X-99.887 Y-439.527
G1 X-96.317 Y-443.618
G1 X-96.223 Y-443.722
G1 X-93.428 Y-446.654
G1 X-89.704 Y-450.559
G1 X-89.606 Y-450.658
G1 X-86.695 Y-453.454
G1 X-82.818 Y-457.178
G1 X-82.718 Y-457.271
G1 X-79.693 Y-459.937
G1 X-75.663 Y-463.489
G1 X-75.562 Y-463.574
G1 X-72.424 Y-466.117
G1 X-68.243 Y-469.505
G1 X-68.143 Y-469.582
G1 X-64.891 Y-472.009
G1 X-60.559 Y-475.242
G1 X-60.46 Y-475.313
G1 X-57.097 Y-477.627
G1 X-52.616 Y-480.712
G1 X-52.52 Y-480.776
G1 X-49.045 Y-482.988
G1 X-44.415 Y-485.934
G1 X-44.323 Y-485.99
G1 X-40.736 Y-488.104
G1 X-35.959 Y-490.92
G1 X-35.87 Y-490.971
G1 X-32.176 Y-492.99
G1 X-27.255 Y-495.68
G1 X-27.164 Y-495.728
G1 X-23.374 Y-497.642
G1 X-18.327 Y-500.193
G1 X-18.231 Y-500.239
G1 X-14.36 Y-502.036
G1 X-9.204 Y-504.43
G1 X-9.105 Y-504.474
G1 X-5.167 Y-506.142
G1 X0.08 Y-508.362
G1 X0.185 Y-508.404
G1 X4.177 Y-509.928
G1 X9.493 Y-511.958
G1 X9.606 Y-511.999
G1 X13.636 Y-513.366
G1 X19.004 Y-515.188
G1 X19.125 Y-515.226
G1 X23.179 Y-516.424
G1 X28.58 Y-518.02
G1 X28.71 Y-518.055
G1 X32.774 Y-519.071
G1 X38.189 Y-520.425
G1 X38.327 Y-520.456
G1 X42.39 Y-521.281
G1 X47.802 Y-522.381
G1 X47.936 Y-522.406
G1 X51.995 Y-523.051
G1 X57.402 Y-523.91
G1 X57.528 Y-523.927
G1 X61.583 Y-524.405
G1 X66.984 Y-525.042
G1 X67.102 Y-525.054
G1 X71.153 Y-525.379
G1 X76.548 Y-525.813
G1 X76.656 Y-525.82
G1 X80.703 Y-526.007
G1 X86.093 Y-526.257
G1 X86.19 Y-526.26
G1 X90.233 Y-526.323
G1 X95.617 Y-526.408
G1 X95.704
G1 X98.647 Y-526.374
G3 X101.785 Y-523.199 I-0.037 J3.175
G1 Y-519.886
G3 X101.25 Y-518.122 I-3.175 J0
G1 X101.076 Y-517.863
G1 X101.336 Y-518.036
G3 X103.1 Y-518.571 I1.764 J2.64
G1 X165.802
G3 X166.665 Y-518.452 I0 J3.175
G1 X168.913 Y-517.817
G1 X170.894 Y-517.258
G1 X171.051 Y-517.209
G1 X172.963 Y-516.561
G1 X175.524 Y-515.701
G1 X175.636 Y-515.66
G1 X177.532 Y-514.943
G1 X180.072 Y-513.99
G1 X180.189 Y-513.943
G1 X182.068 Y-513.152
G1 X184.589 Y-512.099
G1 X184.707 Y-512.047
G1 X186.567 Y-511.179
G1 X189.068 Y-510.021
G1 X189.188 Y-509.963
G1 X191.027 Y-509.016
G1 X193.504 Y-507.749
G1 X193.621 Y-507.686
G1 X195.431 Y-506.662
G1 X197.875 Y-505.289
G1 X197.993 Y-505.22
G1 X199.764 Y-504.122
G1 X202.164 Y-502.646
G1 X202.28 Y-502.571
G1 X204.005 Y-501.403
G1 X206.352 Y-499.826
G1 X206.468 Y-499.744
G1 X208.137 Y-498.509
G1 X210.416 Y-496.837
G1 X210.535 Y-496.746
G1 X212.141 Y-495.447
G1 X214.341 Y-493.682
G1 X214.459 Y-493.582
G1 X215.994 Y-492.222
G1 X218.105 Y-490.369
G1 X218.226 Y-490.257
G1 X219.679 Y-488.84
G1 X221.689 Y-486.901
G1 X221.813 Y-486.775
G1 X223.177 Y-485.304
G1 X225.074 Y-483.284
G1 X225.197 Y-483.145
G1 X226.467 Y-481.622
G1 X228.239 Y-479.523
G1 X228.362 Y-479.367
G1 X229.528 Y-477.797
G1 X231.164 Y-475.625
G1 X231.286 Y-475.449
G1 X232.341 Y-473.832
G1 X233.827 Y-471.59
G1 X233.889 Y-471.494
G1 X233.947 Y-471.395
G1 X234.882 Y-469.736
G1 X236.208 Y-467.43
G1 X236.268 Y-467.322
G1 X236.323 Y-467.211
G1 X237.132 Y-465.512
G1 X238.286 Y-463.143
G3 X238.393 Y-462.899 I-2.854 J1.391
G1 X239.065 Y-461.163
G1 X240.036 Y-458.74
G3 X240.131 Y-458.469 I-2.947 J1.181
G1 X240.661 Y-456.698
G1 X241.437 Y-454.223
G3 X241.513 Y-453.933 I-3.03 J0.95
G1 X241.896 Y-452.13
G1 X242.47 Y-449.609
G3 X242.521 Y-449.323 I-3.096 J0.705
G1 X242.765 Y-447.494
G1 X243.146 Y-444.936
G3 X243.175 Y-444.664 I-3.14 J0.468
G1 X243.289 Y-442.814
G1 X243.493 Y-440.23
G3 X243.503 Y-439.972 I-3.165 J0.25
G1 X243.498 Y-438.108
G1 X243.537 Y-435.508
G1 X243.536 Y-435.388
G1 X243.531 Y-435.268
G1 X243.417 Y-433.397
G1 X243.306 Y-430.791
G1 X243.299 Y-430.677
G1 X243.288 Y-430.564
G1 X243.074 Y-428.695
G1 X242.827 Y-426.095
G1 X242.799 Y-425.882
G1 X242.495 Y-424.019
G1 X242.125 Y-421.435
G1 X242.09 Y-421.236
G1 X241.705 Y-419.388
G1 X241.228 Y-416.83
G1 X241.187 Y-416.64
G1 X240.73 Y-414.816
G1 X240.16 Y-412.296
G1 X240.114 Y-412.116
G1 X239.596 Y-410.321
G1 X238.946 Y-407.847
G1 X238.896 Y-407.678
G1 X238.328 Y-405.919
G1 X237.611 Y-403.501
G1 X237.558 Y-403.339
G1 X236.949 Y-401.628
G1 X236.18 Y-399.277
G1 X236.124 Y-399.12
G1 X235.483 Y-397.462
G1 X234.676 Y-395.189
G1 X234.618 Y-395.038
G1 X233.957 Y-393.442
G1 X233.126 Y-391.256
G1 X233.064 Y-391.105
G1 X232.393 Y-389.582
G1 X231.713 Y-387.895
G3 X231.272 Y-387.131 I-2.945 J-1.188
G1 X230.777 Y-386.496
G3 X228.273 Y-385.273 I-2.504 J-1.952
G1 X227.904
G1 Z-7.366
G1 X50.371
G3 X48.605 Y-385.809 I0 J-3.175
G1 X48.347 Y-385.982
G1 X48.521 Y-385.722
G3 X49.056 Y-383.958 I-2.64 J1.764
G1 Y-380.493
G3 X48.521 Y-378.73 I-3.175 J0
G1 X48.346 Y-378.468
G1 X48.607 Y-378.642
G3 X50.371 Y-379.177 I1.764 J2.64
G1 X221.833
G3 X224.335 Y-377.956 I0 J3.175
G1 X224.831 Y-377.321
G3 X225.107 Y-373.83 I-2.502 J1.954
G1 X224.671 Y-373.041
G1 X223.893 Y-371.472
G1 X223.801 Y-371.301
G1 X223.187 Y-370.232
G1 X222.424 Y-368.742
G1 X222.327 Y-368.567
G1 X221.724 Y-367.551
G1 X220.974 Y-366.131
G1 X220.865 Y-365.939
G1 X219.643 Y-363.969
G1 X218.142 Y-361.223
G1 X218.085 Y-361.124
G1 X218.025 Y-361.028
G1 X216.835 Y-359.181
G1 X215.375 Y-356.593
G1 X215.27 Y-356.421
G1 X214.108 Y-354.637
G1 X212.681 Y-352.131
G1 X212.595 Y-351.989
G1 X211.454 Y-350.209
G1 X210.056 Y-347.709
G1 X209.992 Y-347.6
G1 X208.868 Y-345.765
G1 X207.489 Y-343.194
G1 X207.445 Y-343.115
G1 X206.331 Y-341.173
G1 X204.962 Y-338.467
G1 X204.92 Y-338.386
G1 X203.802 Y-336.326
G1 X202.43 Y-333.475
G1 X202.384 Y-333.384
G1 X201.248 Y-331.207
G1 X199.851 Y-328.212
G1 X199.804 Y-328.115
G1 X198.636 Y-325.821
G1 X197.194 Y-322.683
G1 X197.145 Y-322.581
G1 X195.931 Y-320.171
G1 X194.424 Y-316.89
G1 X194.373 Y-316.785
G1 X193.098 Y-314.259
G1 X191.505 Y-310.838
G1 X191.457 Y-310.739
G1 X190.802 Y-309.452
G1 X189.978 Y-307.71
G1 X189.932 Y-307.616
G1 X189.256 Y-306.301
G1 X188.402 Y-304.523
G1 X188.357 Y-304.433
G1 X187.658 Y-303.087
G1 X186.772 Y-301.272
G1 X186.728 Y-301.186
G1 X186.003 Y-299.809
G1 X185.084 Y-297.96
G1 X185.042 Y-297.878
G1 X184.291 Y-296.472
G1 X183.335 Y-294.587
G1 X183.299 Y-294.517
G1 X182.525 Y-293.08
G1 X181.538 Y-291.159
G1 X181.507 Y-291.1
G1 X180.715 Y-289.634
G1 X179.702 Y-287.677
G1 X179.677 Y-287.632
G1 X178.871 Y-286.134
G1 X177.836 Y-284.14
G1 X177.818 Y-284.105
G1 X177.001 Y-282.579
G1 X175.951 Y-280.549
G1 X175.939 Y-280.525
G1 X175.118 Y-278.969
G1 X174.057 Y-276.9
G1 X174.05 Y-276.887
G1 X173.228 Y-275.302
G1 X172.163 Y-273.196
G1 X172.162 Y-273.194
G1 X171.343 Y-271.577
G1 X170.281 Y-269.439
G1 X169.471 Y-267.797
G1 X168.418 Y-265.625
G1 X167.623 Y-263.958
G1 X166.585 Y-261.754
G1 X165.809 Y-260.061
G1 X164.79 Y-257.824
G1 X164.037 Y-256.106
G1 X163.043 Y-253.835
G1 X162.318 Y-252.094
G1 X162.316 Y-252.091
G1 X161.354 Y-249.787
G1 X160.859 Y-248.529
G3 X160.408 Y-247.738 I-2.955 J-1.161
G1 X159.913 Y-247.103
G3 X157.409 Y-245.88 I-2.504 J-1.952
G1 X-0.385
G3 X-2.149 Y-246.415 I0 J-3.175
G1 X-2.41 Y-246.589
G1 X-2.236 Y-246.328
G3 X-1.7 Y-244.564 I-2.64 J1.764
G1 Y-241.099
G3 X-2.236 Y-239.335 I-3.175 J0
G1 X-2.409 Y-239.075
G1 X-2.151 Y-239.248
G3 X-0.385 Y-239.784 I1.765 J2.639
G1 X152.488
G3 X154.99 Y-238.563 I0 J3.175
G1 X155.486 Y-237.928
G3 X156.004 Y-234.994 I-2.502 J1.954
G1 X155.355 Y-232.993
G1 X154.824 Y-231.144
G1 X154.812 Y-231.103
G1 X154.067 Y-228.635
G1 X153.572 Y-226.765
G1 X153.559 Y-226.716
G1 X152.854 Y-224.217
G1 X152.389 Y-222.328
G1 X152.375 Y-222.274
G1 X151.705 Y-219.751
G1 X151.267 Y-217.847
G1 X151.252 Y-217.784
G1 X150.612 Y-215.24
G1 X150.197 Y-213.326
G1 X150.181 Y-213.257
G1 X149.566 Y-210.695
G1 X149.17 Y-208.772
G1 X149.154 Y-208.699
G1 X148.559 Y-206.122
G1 X148.175 Y-204.192
G1 X148.159 Y-204.118
G1 X147.581 Y-201.531
G1 X147.207 Y-199.599
G1 X147.191 Y-199.52
G1 X146.622 Y-196.928
G1 X146.254 Y-194.995
G1 X146.237 Y-194.914
G1 X145.674 Y-192.321
G1 X145.309 Y-190.393
G1 X145.291 Y-190.308
G1 X144.727 Y-187.718
G1 X144.359 Y-185.797
G1 X144.341 Y-185.709
G1 X143.771 Y-183.122
G1 X143.006 Y-179.273
G1 X142.987 Y-179.183
G1 X141.801 Y-174.005
G1 X140.976 Y-170.218
G1 X140.955 Y-170.126
G1 X139.686 Y-165.025
G1 X138.774 Y-161.319
G1 X138.751 Y-161.231
G1 X137.37 Y-156.243
G1 X136.373 Y-152.612
G1 X136.348 Y-152.527
G1 X134.856 Y-147.633
G1 X133.78 Y-144.054
G1 X133.754 Y-143.973
G1 X132.159 Y-139.141
G1 X131.008 Y-135.583
G1 X130.982 Y-135.507
G1 X129.292 Y-130.707
G1 X128.073 Y-127.145
G1 X128.047 Y-127.073
G1 X126.273 Y-122.274
G1 X125.643 Y-120.496
G1 X125.618 Y-120.427
G1 X124.707 Y-118.031
G1 X124.063 Y-116.246
G1 X124.038 Y-116.179
G1 X123.109 Y-113.771
G1 X122.452 Y-111.971
G1 X122.426 Y-111.904
G1 X121.478 Y-109.476
G1 X121.373 Y-109.192
G3 X120.9 Y-108.344 I-2.977 J-1.104
G1 X120.405 Y-107.709
G3 X117.901 Y-106.486 I-2.504 J-1.952
G1 X-4.242
G3 X-6.006 Y-107.021 I0 J-3.175
G1 X-6.266 Y-107.195
G1 X-6.092 Y-106.935
G3 X-5.557 Y-105.171 I-2.64 J1.764
G1 Y-101.705
G3 X-6.092 Y-99.941 I-3.175 J0
G1 X-6.266 Y-99.681
G1 X-6.006 Y-99.855
G3 X-4.242 Y-100.39 I1.764 J2.64
G1 X112.619
G3 X115.123 Y-99.167 I0 J3.175
G1 X115.618 Y-98.532
G3 X116.087 Y-95.466 I-2.504 J1.952
G1 X115.705 Y-94.446
G1 X115.681 Y-94.385
G1 X114.671 Y-91.848
G1 X113.942 Y-89.925
G1 X113.919 Y-89.865
G1 X112.887 Y-87.298
G1 X112.136 Y-85.353
G1 X112.112 Y-85.293
G1 X111.051 Y-82.706
G1 X110.274 Y-80.749
G1 X110.25 Y-80.69
G1 X109.156 Y-78.09
G1 X108.347 Y-76.125
G1 X108.322 Y-76.068
G1 X107.19 Y-73.465
G1 X106.344 Y-71.501
G1 X106.32 Y-71.445
G1 X105.142 Y-68.847
G1 X104.257 Y-66.891
G1 X104.231 Y-66.835
G1 X103.003 Y-64.256
G1 X102.999 Y-64.249
G1 X102.071 Y-62.311
G1 X102.045 Y-62.257
G1 X100.762 Y-59.706
G1 X100.753 Y-59.688
G1 X99.778 Y-57.777
G1 X99.75 Y-57.724
G1 X98.407 Y-55.21
G1 X98.392 Y-55.182
G1 X97.365 Y-53.305
G1 X97.337 Y-53.254
G1 X95.927 Y-50.786
G1 X95.906 Y-50.748
G1 X94.823 Y-48.911
G1 X94.794 Y-48.862
G1 X93.312 Y-46.449
G1 X93.282 Y-46.401
G1 X92.139 Y-44.612
G1 X92.109 Y-44.565
G1 X90.548 Y-42.215
G1 X90.509 Y-42.158
G1 X89.302 Y-40.424
G1 X89.271 Y-40.379
G1 X87.626 Y-38.102
G1 X87.577 Y-38.035
G1 X86.301 Y-36.363
G1 X86.269 Y-36.321
G1 X84.534 Y-34.125
G1 X84.472 Y-34.048
G1 X83.124 Y-32.446
G1 X83.091 Y-32.407
G1 X81.261 Y-30.302
G1 X81.185 Y-30.217
G1 X79.759 Y-28.691
G1 X79.726 Y-28.656
G1 X77.795 Y-26.65
G1 X77.705 Y-26.56
G1 X76.2 Y-25.116
G1 X76.167 Y-25.086
G1 X74.131 Y-23.186
G1 X74.035 Y-23.1
G1 X72.453 Y-21.741
G1 X72.422 Y-21.715
G1 X70.285 Y-19.924
G1 X70.185 Y-19.844
G1 X68.533 Y-18.57
G1 X68.504 Y-18.548
G1 X66.274 Y-16.868
G1 X66.17 Y-16.793
G1 X64.453 Y-15.605
G1 X64.426 Y-15.587
G1 X62.111 Y-14.02
G1 X62.003 Y-13.95
G1 X60.226 Y-12.85
G1 X60.202 Y-12.835
G1 X57.808 Y-11.382
G1 X57.697 Y-11.317
G1 X55.865 Y-10.304
G1 X55.844 Y-10.293
G1 X53.379 Y-8.955
G1 X53.264 Y-8.895
G1 X51.384 Y-7.972
G1 X51.365 Y-7.963
G1 X48.837 Y-6.741
G1 X48.718 Y-6.687
G1 X46.795 Y-5.854
G1 X46.779 Y-5.847
G1 X44.194 Y-4.744
G1 X44.072 Y-4.694
G1 X42.111 Y-3.952
G1 X42.097 Y-3.947
G1 X39.464 Y-2.963
G1 X39.338 Y-2.92
G1 X37.344 Y-2.269
G1 X37.334 Y-2.265
G1 X34.658 Y-1.403
G1 X34.529 Y-1.364
G1 X32.508 Y-0.807
G1 X32.5 Y-0.804
G1 X29.79 Y-0.065
G1 X29.657 Y-0.031
G1 X27.615 Y0.432
G1 X27.609 Y0.434
G1 X24.872 Y1.05
G1 X24.736 Y1.077
G1 X22.678 Y1.446
G1 X22.674 Y1.447
G1 X19.917 Y1.937
G1 X19.777 Y1.959
G1 X17.709 Y2.232
G1 X17.706 Y2.233
G1 X14.936 Y2.596
G1 X14.793 Y2.612
G1 X12.72 Y2.788
G1 X12.718 Y2.789
G1 X9.944 Y3.024
G1 X9.797 Y3.033
G1 X7.724 Y3.112
G1 X4.951 Y3.217
G1 X4.802 Y3.219
G1 X2.735 Y3.2
G1 X-0.029 Y3.175
G1 X-0.178 Y3.17
G1 X-2.236 Y3.055
G1 X-4.988 Y2.901
G1 X-5.134 Y2.889
G1 X-7.183 Y2.68
G1 X-9.921 Y2.401
G1 X-10.063 Y2.383
G1 X-12.101 Y2.081
G1 X-14.821 Y1.679
G1 X-14.961 Y1.656
G1 X-16.984 Y1.264
G1 X-19.686 Y0.742
G1 X-19.821 Y0.713
G1 X-21.829 Y0.234
G1 X-24.509 Y-0.404
G1 X-24.64 Y-0.438
G1 X-26.631 Y-1.003
G1 X-29.287 Y-1.756
G1 X-29.413 Y-1.794
G1 X-31.385 Y-2.443
G1 X-34.015 Y-3.306
G1 X-34.137 Y-3.349
G1 X-36.088 Y-4.078
G1 X-38.689 Y-5.05
G1 X-38.806 Y-5.097
G1 X-40.734 Y-5.905
G1 X-43.304 Y-6.983
G1 X-43.417 Y-7.032
G1 X-45.32 Y-7.918
G1 X-47.857 Y-9.098
G1 X-47.965 Y-9.15
G1 X-49.841 Y-10.111
G1 X-52.343 Y-11.39
G1 X-52.446 Y-11.445
G1 X-54.294 Y-12.479
G1 X-56.757 Y-13.855
G1 X-56.856 Y-13.913
G1 X-58.674 Y-15.016
G1 X-61.096 Y-16.487
G1 X-61.19 Y-16.546
G1 X-62.976 Y-17.718
G1 X-65.355 Y-19.28
G1 X-65.446 Y-19.341
G1 X-67.198 Y-20.58
G1 X-69.531 Y-22.229
G1 X-69.658 Y-22.323
G1 X-73.053 Y-24.986
G1 X-77.575 Y-28.533
G1 X-77.723 Y-28.655
G1 X-80.969 Y-31.534
G1 X-85.293 Y-35.368
G1 X-85.418 Y-35.484
G1 X-88.51 Y-38.538
G1 X-92.63 Y-42.605
G1 X-92.736 Y-42.714
G1 X-95.67 Y-45.903
G1 X-99.579 Y-50.15
G1 X-99.669 Y-50.252
G1 X-102.44 Y-53.536
G1 X-106.132 Y-57.909
G1 X-106.21 Y-58.004
G1 X-108.812 Y-61.341
G1 X-112.281 Y-65.787
G1 X-112.348 Y-65.876
G1 X-114.779 Y-69.227
G1 X-118.017 Y-73.691
G1 X-118.075 Y-73.774
G1 X-120.329 Y-77.098
G1 X-123.332 Y-81.527
G1 X-123.385 Y-81.608
G1 X-125.46 Y-84.878
G1 X-128.224 Y-89.234
G1 X-128.278 Y-89.323
G1 X-130.185 Y-92.558
G1 X-132.726 Y-96.868
G1 X-132.782 Y-96.967
G1 X-134.536 Y-100.2
G1 X-136.872 Y-104.509
G1 X-136.927 Y-104.615
G1 X-138.541 Y-107.88
G1 X-140.692 Y-112.227
G1 X-140.744 Y-112.338
G1 X-142.233 Y-115.666
G1 X-144.217 Y-120.098
G1 X-144.264 Y-120.21
G1 X-145.642 Y-123.633
G1 X-147.478 Y-128.193
G1 X-147.52 Y-128.302
G1 X-148.801 Y-131.853
G1 X-150.508 Y-136.583
G1 X-150.542 Y-136.685
G1 X-151.741 Y-140.397
G1 X-153.338 Y-145.341
G1 X-153.367 Y-145.435
G1 X-154.493 Y-149.33
G1 X-155.994 Y-154.518
G1 X-156.018 Y-154.605
G1 X-157.067 Y-158.663
G1 X-158.465 Y-164.069
G1 X-158.485 Y-164.152
G1 X-159.449 Y-168.344
G1 X-160.734 Y-173.927
G1 X-160.752 Y-174.009
G1 X-161.622 Y-178.305
G1 X-162.78 Y-184.026
G1 X-162.795 Y-184.106
G1 X-163.563 Y-188.476
G1 X-164.585 Y-194.297
G1 X-164.599 Y-194.379
G1 X-165.254 Y-198.793
G1 X-166.129 Y-204.672
G1 X-166.141 Y-204.757
G1 X-166.677 Y-209.185
G1 X-167.392 Y-215.083
G1 X-167.401 Y-215.172
G1 X-167.81 Y-219.585
G1 X-168.354 Y-225.463
G1 X-168.362 Y-225.558
G1 X-168.635 Y-229.931
G1 X-168.999 Y-235.755
G1 X-169.003 Y-235.854
G1 X-169.138 Y-240.182
G1 X-169.319 Y-245.947
G1 X-169.321 Y-246.05
G1 X-169.317 Y-250.335
G1 X-169.312 Y-256.043
G1 X-169.31 Y-256.147
G1 X-169.167 Y-260.389
G1 X-168.976 Y-266.04
G1 X-168.971 Y-266.148
G1 X-168.686 Y-270.349
G1 X-168.307 Y-275.945
G1 X-168.297 Y-276.054
G1 X-167.87 Y-280.214
G1 X-167.302 Y-285.755
G1 X-167.289 Y-285.867
G1 X-166.718 Y-289.987
G1 X-165.959 Y-295.475
G1 X-165.942 Y-295.587
G1 X-165.228 Y-299.669
G1 X-164.275 Y-305.106
G1 X-164.254 Y-305.218
G1 X-163.395 Y-309.261
G1 X-162.25 Y-314.647
G1 X-162.224 Y-314.756
G1 X-161.224 Y-318.76
G1 X-159.891 Y-324.095
G1 X-159.863 Y-324.201
G1 X-158.725 Y-328.166
G1 X-157.21 Y-333.447
G1 X-157.178 Y-333.551
G1 X-155.907 Y-337.476
G1 X-154.214 Y-342.705
G1 X-154.18 Y-342.803
G1 X-152.78 Y-346.688
G1 X-150.914 Y-351.865
G1 X-150.878 Y-351.959
G1 X-149.352 Y-355.803
G1 X-147.32 Y-360.925
G1 X-147.283 Y-361.016
G1 X-145.636 Y-364.819
G1 X-143.441 Y-369.885
G1 X-143.401 Y-369.975
G1 X-141.692 Y-373.606
G1 X-141.673 Y-373.646
G1 X-139.19 Y-378.737
G1 X-136.699 Y-383.858
G1 X-136.68 Y-383.897
G1 X-134.871 Y-387.491
G1 X-134.824 Y-387.581
G1 X-132.833 Y-391.243
G1 X-130.18 Y-396.121
G1 X-130.131 Y-396.208
G1 X-128.026 Y-399.803
G1 X-125.222 Y-404.592
G1 X-125.167 Y-404.683
G1 X-122.948 Y-408.198
G1 X-119.99 Y-412.88
G1 X-119.93 Y-412.973
G1 X-117.597 Y-416.396
G1 X-114.487 Y-420.956
G1 X-114.419 Y-421.052
G1 X-111.97 Y-424.37
G1 X-108.708 Y-428.79
G1 X-108.631 Y-428.89
G1 X-106.067 Y-432.091
G1 X-102.652 Y-436.354
G1 X-102.566 Y-436.456
G1 X-99.887 Y-439.527
G1 X-96.317 Y-443.618
G1 X-96.223 Y-443.722
G1 X-93.428 Y-446.654
G1 X-89.704 Y-450.559
G1 X-89.606 Y-450.658
G1 X-86.695 Y-453.454
G1 X-82.818 Y-457.178
G1 X-82.718 Y-457.271
G1 X-79.693 Y-459.937
G1 X-75.663 Y-463.489
G1 X-75.562 Y-463.574
G1 X-72.424 Y-466.117
G1 X-68.243 Y-469.505
G1 X-68.143 Y-469.582
G1 X-64.891 Y-472.009
G1 X-60.559 Y-475.242
G1 X-60.46 Y-475.313
G1 X-57.097 Y-477.627
G1 X-52.616 Y-480.712
G1 X-52.52 Y-480.776
G1 X-49.045 Y-482.988
G1 X-44.415 Y-485.934
G1 X-44.323 Y-485.99
G1 X-40.736 Y-488.104
G1 X-35.959 Y-490.92
G1 X-35.87 Y-490.971
G1 X-32.176 Y-492.99
G1 X-27.255 Y-495.68
G1 X-27.164 Y-495.728
G1 X-23.374 Y-497.642
G1 X-18.327 Y-500.193
G1 X-18.231 Y-500.239
G1 X-14.36 Y-502.036
G1 X-9.204 Y-504.43
G1 X-9.105 Y-504.474
G1 X-5.167 Y-506.142
G1 X0.08 Y-508.362
G1 X0.185 Y-508.404
G1 X4.177 Y-509.928
G1 X9.493 Y-511.958
G1 X9.606 Y-511.999
G1 X13.636 Y-513.366
G1 X19.004 Y-515.188
G1 X19.125 Y-515.226
G1 X23.179 Y-516.424
G1 X28.58 Y-518.02
G1 X28.71 Y-518.055
G1 X32.774 Y-519.071
G1 X38.189 Y-520.425
G1 X38.327 Y-520.456
G1 X42.39 Y-521.281
G1 X47.802 Y-522.381
G1 X47.936 Y-522.406
G1 X51.995 Y-523.051
G1 X57.402 Y-523.91
G1 X57.528 Y-523.927
G1 X61.583 Y-524.405
G1 X66.984 Y-525.042
G1 X67.102 Y-525.054
G1 X71.153 Y-525.379
G1 X76.548 Y-525.813
G1 X76.656 Y-525.82
G1 X80.703 Y-526.007
G1 X86.093 Y-526.257
G1 X86.19 Y-526.26
G1 X90.233 Y-526.323
G1 X95.617 Y-526.408
G1 X95.704
G1 X98.647 Y-526.374
G3 X101.785 Y-523.199 I-0.037 J3.175
G1 Y-519.886
G3 X101.25 Y-518.122 I-3.175 J0
G1 X101.076 Y-517.863
G1 X101.336 Y-518.036
G3 X103.1 Y-518.571 I1.764 J2.64
G1 X165.802
G3 X166.665 Y-518.452 I0 J3.175
G1 X168.913 Y-517.817
G1 X170.894 Y-517.258
G1 X171.051 Y-517.209
G1 X172.963 Y-516.561
G1 X175.524 Y-515.701
G1 X175.636 Y-515.66
G1 X177.532 Y-514.943
G1 X180.072 Y-513.99
G1 X180.189 Y-513.943
G1 X182.068 Y-513.152
G1 X184.589 Y-512.099
G1 X184.707 Y-512.047
G1 X186.567 Y-511.179
G1 X189.068 Y-510.021
G1 X189.188 Y-509.963
G1 X191.027 Y-509.016
G1 X193.504 Y-507.749
G1 X193.621 Y-507.686
G1 X195.431 Y-506.662
G1 X197.875 Y-505.289
G1 X197.993 Y-505.22
G1 X199.764 Y-504.122
G1 X202.164 Y-502.646
G1 X202.28 Y-502.571
G1 X204.005 Y-501.403
G1 X206.352 Y-499.826
G1 X206.468 Y-499.744
G1 X208.137 Y-498.509
G1 X210.416 Y-496.837
G1 X210.535 Y-496.746
G1 X212.141 Y-495.447
G1 X214.341 Y-493.682
G1 X214.459 Y-493.582
G1 X215.994 Y-492.222
G1 X218.105 Y-490.369
G1 X218.226 Y-490.257
G1 X219.679 Y-488.84
G1 X221.689 Y-486.901
G1 X221.813 Y-486.775
G1 X223.177 Y-485.304
G1 X225.074 Y-483.284
G1 X225.197 Y-483.145
G1 X226.467 Y-481.622
G1 X228.239 Y-479.523
G1 X228.362 Y-479.367
G1 X229.528 Y-477.797
G1 X231.164 Y-475.625
G1 X231.286 Y-475.449
G1 X232.341 Y-473.832
G1 X233.827 Y-471.59
G1 X233.889 Y-471.494
G1 X233.947 Y-471.395
G1 X234.882 Y-469.736
G1 X236.208 Y-467.43
G1 X236.268 Y-467.322
G1 X236.323 Y-467.211
G1 X237.132 Y-465.512
G1 X238.286 Y-463.143
G3 X238.393 Y-462.899 I-2.854 J1.391
G1 X239.065 Y-461.163
G1 X240.036 Y-458.74
G3 X240.131 Y-458.469 I-2.947 J1.181
G1 X240.661 Y-456.698
G1 X241.437 Y-454.223
G3 X241.513 Y-453.933 I-3.03 J0.95
G1 X241.896 Y-452.13
G1 X242.47 Y-449.609
G3 X242.521 Y-449.323 I-3.096 J0.705
G1 X242.765 Y-447.494
G1 X243.146 Y-444.936
G3 X243.175 Y-444.664 I-3.14 J0.468
G1 X243.289 Y-442.814
G1 X243.493 Y-440.23
G3 X243.503 Y-439.972 I-3.165 J0.25
G1 X243.498 Y-438.108
G1 X243.537 Y-435.508
G1 X243.536 Y-435.388
G1 X243.531 Y-435.268
G1 X243.417 Y-433.397
G1 X243.306 Y-430.791
G1 X243.299 Y-430.677
G1 X243.288 Y-430.564
G1 X243.074 Y-428.695
G1 X242.827 Y-426.095
G1 X242.799 Y-425.882
G1 X242.495 Y-424.019
G1 X242.125 Y-421.435
G1 X242.09 Y-421.236
G1 X241.705 Y-419.388
G1 X241.228 Y-416.83
G1 X241.187 Y-416.64
G1 X240.73 Y-414.816
G1 X240.16 Y-412.296
G1 X240.114 Y-412.116
G1 X239.596 Y-410.321
G1 X238.946 Y-407.847
G1 X238.896 Y-407.678
G1 X238.328 Y-405.919
G1 X237.611 Y-403.501
G1 X237.558 Y-403.339
G1 X236.949 Y-401.628
G1 X236.18 Y-399.277
G1 X236.124 Y-399.12
G1 X235.483 Y-397.462
G1 X234.676 Y-395.189
G1 X234.618 Y-395.038
G1 X233.957 Y-393.442
G1 X233.126 Y-391.256
G1 X233.064 Y-391.105
G1 X232.393 Y-389.582
G1 X231.713 Y-387.895
G3 X231.272 Y-387.131 I-2.945 J-1.188
G1 X230.777 Y-386.496
G3 X228.273 Y-385.273 I-2.504 J-1.952
G1 X227.904
G0 Z18.796

G0 Z18.796
M5
M30
