(1001)
(T1  D=6.35 CR=0 - ZMIN=-12.7 - FLAT END MILL)
G0 G40 G90 G17
G21

(2D CONTOUR2)
T1 M6
M3 S5000
G0 X-15.845 Y0.302
G0 Z6.096
G1 Z4.191 F508.
G1 Z-7.484
G1 X-19.965 Y-0.961
G1 X-25.2 Y-2.564
G3 X-25.442 Y-2.649 I0.929 J-3.036
G1 X-29.478 Y-4.251
G1 X-34.602 Y-6.283
G1 X-34.715 Y-6.331
G1 X-34.825 Y-6.382
G1 X-38.76 Y-8.305
G1 X-43.754 Y-10.744
G1 X-43.858 Y-10.797
G1 X-43.96 Y-10.854
G1 X-47.778 Y-13.08
G1 X-52.621 Y-15.902
G1 X-52.81 Y-16.022
G1 X-56.494 Y-18.532
G1 X-61.167 Y-21.716
G1 X-61.339 Y-21.841
G1 X-64.875 Y-24.615
G1 X-69.36 Y-28.132
G1 X-69.507 Y-28.254
G1 X-72.888 Y-31.252
G1 X-77.176 Y-35.054
G1 X-77.266 Y-35.137
G1 X-77.354 Y-35.224
G1 X-83.631 Y-41.726
G1 X-91.592 Y-49.971
G3 X-91.773 Y-50.175 I2.284 J-2.205
G1 X-97.372 Y-57.07
G1 X-104.472 Y-65.815
G1 X-104.606 Y-65.993
G1 X-109.485 Y-72.946
G1 X-115.674 Y-81.764
G1 X-115.783 Y-81.931
G1 X-119.931 Y-88.707
G1 X-125.191 Y-97.3
G1 X-125.248 Y-97.397
G1 X-125.302 Y-97.497
G1 X-128.81 Y-104.265
G1 X-133.259 Y-112.848
G1 X-133.313 Y-112.957
G1 X-133.362 Y-113.068
G1 X-136.349 Y-120.1
G1 X-140.136 Y-129.017
G1 X-140.179 Y-129.124
G1 X-140.219 Y-129.232
G1 X-142.802 Y-136.797
G1 X-146.078 Y-146.391
G1 X-146.135 Y-146.579
G1 X-148.402 Y-154.862
G1 X-151.276 Y-165.367
G1 X-151.317 Y-165.534
G1 X-153.227 Y-174.374
G1 X-155.65 Y-185.584
G1 X-155.681 Y-185.747
G1 X-157.164 Y-194.895
G1 X-159.044 Y-206.497
G1 X-159.067 Y-206.667
G1 X-160.052 Y-215.874
G1 X-161.301 Y-227.552
G1 X-161.316 Y-227.741
G1 X-161.741 Y-236.803
G1 X-162.28 Y-248.296
G1 X-162.283 Y-248.5
G1 X-162.13 Y-257.382
G1 X-161.936 Y-268.646
G1 X-161.925 Y-268.86
G1 X-161.184 Y-277.568
G1 X-160.244 Y-288.612
G1 X-160.217 Y-288.834
G1 X-158.879 Y-297.376
G1 X-157.183 Y-308.209
G1 X-157.163 Y-308.321
G1 X-157.139 Y-308.433
G1 X-155.202 Y-316.815
G1 X-152.745 Y-327.445
G1 X-152.689 Y-327.657
G1 X-150.18 Y-335.875
G1 X-146.998 Y-346.298
G1 X-146.93 Y-346.495
G1 X-143.882 Y-354.546
G1 X-140.017 Y-364.756
G1 X-139.958 Y-364.901
G1 X-135.158 Y-375.907
G1 X-135.094 Y-376.045
G1 X-131.739 Y-382.83
G1 X-128.427 Y-389.731
G1 X-128.358 Y-389.866
G1 X-122.642 Y-400.446
G1 X-122.562 Y-400.587
G1 X-118.058 Y-407.992
G1 X-112.346 Y-417.384
G1 X-112.222 Y-417.571
G1 X-107.241 Y-424.591
G1 X-100.925 Y-433.495
G3 X-100.771 Y-433.695 I2.59 J1.837
G1 X-95.31 Y-440.226
G1 X-88.383 Y-448.511
G3 X-88.197 Y-448.716 I2.436 J2.036
G1 X-82.254 Y-454.681
G1 X-74.717 Y-462.247
G3 X-74.517 Y-462.431 I2.249 J2.241
G1 X-68.097 Y-467.857
G1 X-59.956 Y-474.739
G3 X-59.756 Y-474.895 I2.05 J2.425
G1 X-52.865 Y-479.834
G1 X-44.126 Y-486.098
G1 X-44.032 Y-486.163
G1 X-43.935 Y-486.224
G1 X-36.58 Y-490.729
G1 X-27.252 Y-496.443
G1 X-27.071 Y-496.546
G1 X-19.276 Y-500.643
G1 X-9.391 Y-505.839
G1 X-9.202 Y-505.931
G1 X-1.068 Y-509.54
G1 X9.248 Y-514.116
G1 X9.353 Y-514.16
G1 X9.459 Y-514.201
G1 X17.813 Y-517.212
G1 X28.409 Y-521.031
G3 X28.65 Y-521.107 I1.077 J2.987
G1 X37.106 Y-523.414
G1 X47.831 Y-526.339
G3 X48.101 Y-526.4 I0.835 J3.063
G1 X56.56 Y-527.931
G1 X67.289 Y-529.873
G3 X67.541 Y-529.909 I0.566 J3.124
G1 X75.983 Y-530.745
G1 X86.69 Y-531.807
G1 X86.905 Y-531.821
G1 X95.33 Y-532.082
G1 X106.015 Y-532.413
G1 X106.187 Y-532.414
G1 X114.595 Y-532.218
G1 X125.258 Y-531.969
G1 X125.411 Y-531.962
G1 X133.79 Y-531.362
G1 X144.417 Y-530.603
G1 X144.533 Y-530.593
G1 X144.648 Y-530.578
G1 X152.945 Y-529.37
G1 X163.468 Y-527.851
G1 X163.587 Y-527.832
G1 X163.705 Y-527.808
G1 X167.8 Y-526.895
G1 X172.995 Y-525.746
G1 X173.188 Y-525.697
G1 X177.234 Y-524.533
G1 X182.374 Y-523.071
G1 X182.588 Y-523.002
G1 X186.577 Y-521.555
G1 X191.651 Y-519.736
G1 X191.767 Y-519.692
G1 X191.88 Y-519.643
G1 X195.803 Y-517.883
G1 X200.803 Y-515.666
G3 X201.039 Y-515.549 I-1.287 J2.903
G1 X204.874 Y-513.452
G1 X209.778 Y-510.804
G3 X210.011 Y-510.665 I-1.508 J2.794
G1 X213.692 Y-508.252
G1 X218.422 Y-505.189
G3 X218.653 Y-505.024 I-1.726 J2.665
G1 X222.105 Y-502.321
G1 X226.568 Y-498.872
G3 X226.802 Y-498.672 I-1.942 J2.512
G1 X229.951 Y-495.707
G1 X234.051 Y-491.901
G3 X234.291 Y-491.653 I-2.16 J2.327
G1 X237.051 Y-488.467
G3 X237.153 Y-484.434 I-2.4 J2.079
G1 X236.657 Y-483.799
G3 X234.155 Y-482.578 I-2.502 J-1.954
G1 X100.357
G3 X97.243 Y-485.133 I0 J-3.175
G1 X97.182 Y-485.441
G1 Y-485.44
G1 Y-473.62
G1 Y-473.619
G1 X97.243 Y-473.927
G3 X100.357 Y-476.482 I3.114 J0.62
G1 X244.103
G3 X246.607 Y-475.259 I0 J3.175
G1 X247.102 Y-474.624
G3 X247.435 Y-474.098 I-2.504 J1.952
G1 X248.399 Y-472.18
G1 X250.833 Y-467.491
G3 X251.035 Y-467.008 I-2.818 J1.463
G1 X252.256 Y-463.244
G1 X253.943 Y-458.329
G3 X254.079 Y-457.773 I-3.003 J1.031
G1 X254.669 Y-453.872
G1 X255.55 Y-448.772
G3 X255.596 Y-448.249 I-3.129 J0.54
G1 X255.617 Y-444.264
G1 X255.769 Y-439.059
G3 X255.749 Y-438.602 I-3.174 J0.093
G1 X255.287 Y-434.594
G1 X254.826 Y-429.371
G3 X254.766 Y-428.976 I-3.163 J-0.279
G1 X253.904 Y-425.01
G1 X252.942 Y-419.853
G3 X252.858 Y-419.509 I-3.121 J-0.582
G1 X251.682 Y-415.654
G1 X250.335 Y-410.65
G3 X250.235 Y-410.342 I-3.066 J-0.825
G1 X248.831 Y-406.667
G1 X247.212 Y-401.901
G3 X247.101 Y-401.618 I-3.006 J-1.021
G1 X245.557 Y-398.192
G1 X243.779 Y-393.749
G3 X243.655 Y-393.478 I-2.948 J-1.18
G1 X242.062 Y-390.379
G1 X240.237 Y-386.341
G3 X240.096 Y-386.065 I-2.893 J-1.308
G1 X238.531 Y-383.346
G1 X236.753 Y-379.773
G3 X236.585 Y-379.476 I-2.843 J-1.414
G1 X235.064 Y-377.1
G1 X233.35 Y-373.938
G3 X233.156 Y-373.625 I-2.791 J-1.513
G1 X231.68 Y-371.525
G1 X230.026 Y-368.695
G3 X229.813 Y-368.377 I-2.741 J-1.602
G1 X228.378 Y-366.487
G1 X226.779 Y-363.909
G3 X226.55 Y-363.585 I-2.698 J-1.673
G1 X223.682 Y-360.039
G1 X220.528 Y-355.171
G3 X220.356 Y-354.932 I-2.665 J-1.727
G1 X217.578 Y-351.407
G1 X214.548 Y-346.57
G1 X214.467 Y-346.447
G1 X211.725 Y-342.488
G1 X208.748 Y-337.15
G1 X208.67 Y-337.017
G1 X205.869 Y-332.523
G1 X204.777 Y-330.401
G3 X204.458 Y-329.902 I-2.823 J-1.453
G1 X203.963 Y-329.267
G3 X201.459 Y-328.044 I-2.504 J-1.952
G1 X30.628
G3 X27.514 Y-330.6 I0 J-3.175
G1 X27.453 Y-330.906
G1 Y-319.086
G1 X27.514 Y-319.392
G3 X30.628 Y-321.948 I3.114 J0.619
G1 X194.071
G3 X196.575 Y-320.725 I0 J3.175
G1 X197.07 Y-320.09
G3 X197.401 Y-316.708 I-2.504 J1.952
G1 X196.452 Y-314.826
G1 X196.364 Y-314.664
G1 X194.805 Y-311.974
G1 X193.032 Y-308.507
G1 X192.952 Y-308.359
G1 X191.307 Y-305.524
G1 X189.411 Y-301.899
G1 X189.342 Y-301.773
G1 X187.607 Y-298.793
G1 X185.579 Y-295.012
G1 X185.534 Y-294.931
G1 X183.739 Y-291.809
G1 X181.614 Y-287.871
G1 X181.594 Y-287.834
G1 X179.779 Y-284.576
G1 X177.606 Y-280.486
G1 X175.814 Y-277.096
G1 X173.648 Y-272.871
G1 X171.926 Y-269.373
G1 X169.813 Y-265.014
G1 X168.201 Y-261.41
G1 X168.2 Y-261.407
G1 X166.187 Y-256.916
G1 X164.726 Y-253.218
G1 X164.717 Y-253.195
G1 X162.851 Y-248.581
G1 X161.58 Y-244.795
G1 X161.564 Y-244.748
G1 X159.888 Y-240.006
G1 X158.828 Y-236.137
G1 X158.808 Y-236.066
G1 X157.346 Y-231.183
G1 X156.466 Y-227.235
G1 X156.443 Y-227.139
G1 X155.165 Y-222.142
G1 X154.425 Y-218.137
G1 X154.401 Y-218.021
G1 X153.265 Y-212.941
G1 X152.628 Y-208.909
G1 X152.604 Y-208.775
G1 X151.565 Y-203.648
G1 X150.994 Y-199.618
G1 X150.968 Y-199.467
G1 X149.984 Y-194.327
G1 X149.438 Y-190.326
G1 X149.411 Y-190.163
G1 X148.438 Y-185.043
G1 X147.879 Y-181.099
G1 X147.849 Y-180.927
G1 X147.011 Y-176.703
G3 X146.399 Y-175.367 I-3.114 J-0.618
G1 X145.903 Y-174.732
G3 X143.401 Y-173.511 I-2.502 J-1.954
G1 X3.123
G3 X0.009 Y-176.067 I0 J-3.175
G1 X-0.052 Y-176.373
G1 Y-164.553
G1 X0.009 Y-164.859
G3 X3.123 Y-167.415 I3.114 J0.619
G1 X140.765
G3 X143.269 Y-166.192 I0 J3.175
G1 X143.764 Y-165.557
G3 X144.378 Y-163.008 I-2.504 J1.952
G1 X144.031 Y-161.197
G1 X143.991 Y-161.015
G1 X142.147 Y-153.734
G1 X140.868 Y-148.25
G1 X140.822 Y-148.074
G1 X138.734 Y-140.983
G1 X137.27 Y-135.551
G1 X137.22 Y-135.386
G1 X134.913 Y-128.36
G1 X133.27 Y-122.861
G1 X133.221 Y-122.712
G1 X130.718 Y-115.631
G1 X129.843 Y-112.85
G1 X129.796 Y-112.712
G1 X128.488 Y-109.138
G1 X127.571 Y-106.301
G1 X127.527 Y-106.172
G1 X126.178 Y-102.533
G1 X125.219 Y-99.617
G1 X125.177 Y-99.497
G1 X123.787 Y-95.775
G1 X122.782 Y-92.777
G1 X122.743 Y-92.665
G1 X121.303 Y-88.852
G1 X120.233 Y-85.79
G1 X120.195 Y-85.687
G1 X118.689 Y-81.813
G1 X117.541 Y-78.714
G1 X117.504 Y-78.618
G1 X115.911 Y-74.715
G1 X114.671 Y-71.608
G1 X114.633 Y-71.517
G1 X112.934 Y-67.619
G1 X112.933 Y-67.617
G1 X111.585 Y-64.53
G1 X111.546 Y-64.445
G1 X109.728 Y-60.595
G1 X109.715 Y-60.567
G1 X108.249 Y-57.539
G1 X108.209 Y-57.459
G1 X106.251 Y-53.688
G1 X106.224 Y-53.637
G1 X104.627 Y-50.693
G1 X104.584 Y-50.618
G1 X102.467 Y-46.958
G1 X102.422 Y-46.882
G1 X100.679 Y-44.052
G1 X100.634 Y-43.982
G1 X98.339 Y-40.464
G1 X98.272 Y-40.365
G1 X96.368 Y-37.675
G1 X96.322 Y-37.612
G1 X93.829 Y-34.268
G1 X93.734 Y-34.146
G1 X91.655 Y-31.623
G1 X91.608 Y-31.567
G1 X88.898 Y-28.429
G1 X88.771 Y-28.29
G1 X86.504 Y-25.96
G1 X86.458 Y-25.914
G1 X83.514 Y-23.012
G1 X83.366 Y-22.874
G1 X80.918 Y-20.75
G1 X80.875 Y-20.713
G1 X79.685 Y-19.717
G3 X77.647 Y-18.977 I-2.037 J-2.435
G1 X17.216
G3 X14.102 Y-21.533 I0 J-3.175
G1 X14.041 Y-21.839
G1 Y-10.019
G1 X14.102 Y-10.326
G3 X17.216 Y-12.881 I3.114 J0.619
G1 X56.509
G3 X59.012 Y-11.659 I0 J3.175
G1 X59.508 Y-11.024
G3 X58.957 Y-6.568 I-2.503 J1.953
G3 X58.438 Y-6.238 I-1.953 J-2.503
G1 X58.24 Y-6.138
G3 X57.952 Y-6.01 I-1.433 J-2.833
G1 X51.903 Y-3.672
G1 X51.883 Y-3.664
G1 X44.119 Y-0.723
G3 X43.707 Y-0.599 I-1.125 J-2.969
G1 X37.393 Y0.857
G1 X37.384 Y0.859
G1 X29.301 Y2.695
G3 X28.869 Y2.763 I-0.704 J-3.096
G1 X22.443 Y3.315
G1 X22.441
G1 X14.234 Y4.014
G3 X13.861 Y4.023 I-0.269 J-3.164
G1 X9.586 Y3.883
G1 X4.136 Y3.706
G3 X3.844 Y3.683 I0.103 J-3.173
G1 X-0.395 Y3.15
G1 X-5.793 Y2.475
G3 X-6.071 Y2.428 I0.394 J-3.15
G1 X-10.258 Y1.521
G1 X-15.584 Y0.37
G3 X-15.845 Y0.302 I0.67 J-3.103
G1 Z-12.7
G1 X-19.965 Y-0.961
G1 X-25.2 Y-2.564
G3 X-25.442 Y-2.649 I0.929 J-3.036
G1 X-29.478 Y-4.251
G1 X-34.602 Y-6.283
G1 X-34.715 Y-6.331
G1 X-34.825 Y-6.382
G1 X-38.76 Y-8.305
G1 X-43.754 Y-10.744
G1 X-43.858 Y-10.797
G1 X-43.96 Y-10.854
G1 X-47.778 Y-13.08
G1 X-52.621 Y-15.902
G1 X-52.81 Y-16.022
G1 X-56.494 Y-18.532
G1 X-61.167 Y-21.716
G1 X-61.339 Y-21.841
G1 X-64.875 Y-24.615
G1 X-69.36 Y-28.132
G1 X-69.507 Y-28.254
G1 X-72.888 Y-31.252
G1 X-77.176 Y-35.054
G1 X-77.266 Y-35.137
G1 X-77.354 Y-35.224
G1 X-79.661 Y-37.614
G1 Z-10.16
G1 X-83.631 Y-41.726
G1 X-87.601 Y-45.837
G1 Z-12.7
G1 X-91.592 Y-49.971
G3 X-91.773 Y-50.175 I2.284 J-2.205
G1 X-97.372 Y-57.07
G1 X-104.472 Y-65.815
G1 X-104.606 Y-65.993
G1 X-109.485 Y-72.946
G1 X-115.674 Y-81.764
G1 X-115.783 Y-81.931
G1 X-119.931 Y-88.707
G1 X-125.191 Y-97.3
G1 X-125.248 Y-97.397
G1 X-125.302 Y-97.497
G1 X-128.81 Y-104.265
G1 X-133.259 Y-112.848
G1 X-133.313 Y-112.957
G1 X-133.362 Y-113.068
G1 X-136.349 Y-120.1
G1 X-140.136 Y-129.017
G1 X-140.179 Y-129.124
G1 X-140.219 Y-129.232
G1 X-142.802 Y-136.797
G1 X-144.291 Y-141.159
G1 Z-10.16
G1 X-146.078 Y-146.391
G1 X-146.135 Y-146.579
G1 X-147.644 Y-152.091
G1 Z-12.7
G1 X-148.402 Y-154.862
G1 X-151.276 Y-165.367
G1 X-151.317 Y-165.534
G1 X-153.227 Y-174.374
G1 X-155.65 Y-185.584
G1 X-155.681 Y-185.747
G1 X-157.164 Y-194.895
G1 X-159.044 Y-206.497
G1 X-159.067 Y-206.667
G1 X-160.052 Y-215.874
G1 X-161.301 Y-227.552
G1 X-161.316 Y-227.741
G1 X-161.741 Y-236.803
G1 X-162.28 Y-248.296
G1 X-162.283 Y-248.5
G1 X-162.228 Y-251.668
G1 Z-10.16
G1 X-162.13 Y-257.382
G1 X-162.031 Y-263.096
G1 Z-12.7
G1 X-161.936 Y-268.646
G1 X-161.925 Y-268.86
G1 X-161.184 Y-277.568
G1 X-160.244 Y-288.612
G1 X-160.217 Y-288.834
G1 X-158.879 Y-297.376
G1 X-157.183 Y-308.209
G1 X-157.163 Y-308.321
G1 X-157.139 Y-308.433
G1 X-155.202 Y-316.815
G1 X-152.745 Y-327.445
G1 X-152.689 Y-327.657
G1 X-150.18 Y-335.875
G1 X-146.998 Y-346.298
G1 X-146.93 Y-346.495
G1 X-143.882 Y-354.546
G1 X-140.017 Y-364.756
G1 X-139.958 Y-364.901
G1 X-135.158 Y-375.907
G1 X-135.094 Y-376.045
G1 X-131.739 Y-382.83
G1 X-128.427 Y-389.731
G1 X-128.358 Y-389.866
G1 X-122.642 Y-400.446
G1 X-122.562 Y-400.587
G1 X-118.058 Y-407.992
G1 X-112.346 Y-417.384
G1 X-112.222 Y-417.571
G1 X-110.549 Y-419.93
G1 Z-10.16
G1 X-107.241 Y-424.591
G1 X-103.935 Y-429.252
G1 Z-12.7
G1 X-100.925 Y-433.495
G3 X-100.771 Y-433.695 I2.59 J1.837
G1 X-95.31 Y-440.226
G1 X-88.383 Y-448.511
G3 X-88.197 Y-448.716 I2.436 J2.036
G1 X-82.254 Y-454.681
G1 X-74.717 Y-462.247
G3 X-74.517 Y-462.431 I2.249 J2.241
G1 X-68.097 Y-467.857
G1 X-59.956 Y-474.739
G3 X-59.756 Y-474.895 I2.05 J2.425
G1 X-52.865 Y-479.834
G1 X-44.126 Y-486.098
G1 X-44.032 Y-486.163
G1 X-43.935 Y-486.224
G1 X-36.58 Y-490.729
G1 X-27.252 Y-496.443
G1 X-27.071 Y-496.546
G1 X-19.276 Y-500.643
G1 X-9.391 Y-505.839
G1 X-9.202 Y-505.931
G1 X-1.068 Y-509.54
G1 X9.248 Y-514.116
G1 X9.353 Y-514.16
G1 X9.459 Y-514.201
G1 X17.813 Y-517.212
G1 X28.409 Y-521.031
G3 X28.65 Y-521.107 I1.077 J2.987
G1 X37.106 Y-523.414
G1 X42.564 Y-524.903
G1 Z-10.16
G1 X47.831 Y-526.339
G3 X48.101 Y-526.4 I0.835 J3.063
G1 X53.725 Y-527.418
G1 Z-12.7
G1 X56.56 Y-527.931
G1 X67.289 Y-529.873
G3 X67.541 Y-529.909 I0.566 J3.124
G1 X75.983 Y-530.745
G1 X86.69 Y-531.807
G1 X86.905 Y-531.821
G1 X95.33 Y-532.082
G1 X106.015 Y-532.413
G1 X106.187 Y-532.414
G1 X114.595 Y-532.218
G1 X125.258 Y-531.969
G1 X125.411 Y-531.962
G1 X133.79 Y-531.362
G1 X144.417 Y-530.603
G1 X144.533 Y-530.593
G1 X144.648 Y-530.578
G1 X152.945 Y-529.37
G1 X163.468 Y-527.851
G1 X163.587 Y-527.832
G1 X163.705 Y-527.808
G1 X167.8 Y-526.895
G1 X172.995 Y-525.746
G1 X173.188 Y-525.697
G1 X177.234 Y-524.533
G1 X182.374 Y-523.071
G1 X182.588 Y-523.002
G1 X186.577 Y-521.555
G1 X191.651 Y-519.736
G1 X191.767 Y-519.692
G1 X191.88 Y-519.643
G1 X195.803 Y-517.883
G1 X200.803 Y-515.666
G3 X201.039 Y-515.549 I-1.287 J2.903
G1 X204.874 Y-513.452
G1 X209.778 Y-510.804
G3 X210.011 Y-510.665 I-1.508 J2.794
G1 X213.692 Y-508.252
G1 X217.532 Y-505.765
G1 Z-10.16
G1 X218.422 Y-505.189
G3 X218.653 Y-505.024 I-1.726 J2.665
G1 X222.105 Y-502.321
G1 X226.568 Y-498.872
G1 X226.619 Y-498.832
G1 Z-12.7
G1 X226.712 Y-498.753
G1 X226.802 Y-498.672
G1 X229.951 Y-495.707
G1 X234.051 Y-491.901
G3 X234.291 Y-491.653 I-2.16 J2.327
G1 X237.051 Y-488.467
G3 X237.153 Y-484.434 I-2.4 J2.079
G1 X236.657 Y-483.799
G3 X234.155 Y-482.578 I-2.502 J-1.954
G1 X100.357
G3 X97.243 Y-485.133 I0 J-3.175
G1 X97.182 Y-485.441
G1 Y-485.44
G1 Y-473.62
G1 Y-473.619
G1 X97.243 Y-473.927
G3 X100.357 Y-476.482 I3.114 J0.62
G1 X244.103
G3 X246.607 Y-475.259 I0 J3.175
G1 X247.102 Y-474.624
G3 X247.435 Y-474.098 I-2.504 J1.952
G1 X248.399 Y-472.18
G1 X250.833 Y-467.491
G3 X251.035 Y-467.008 I-2.818 J1.463
G1 X252.256 Y-463.244
G1 X253.943 Y-458.329
G3 X254.079 Y-457.773 I-3.003 J1.031
G1 X254.669 Y-453.872
G1 X255.55 Y-448.772
G3 X255.596 Y-448.249 I-3.129 J0.54
G1 X255.617 Y-444.264
G1 X255.769 Y-439.059
G3 X255.749 Y-438.602 I-3.174 J0.093
G1 X255.287 Y-434.594
G1 X254.826 Y-429.371
G3 X254.766 Y-428.976 I-3.163 J-0.279
G1 X253.904 Y-425.01
G1 X252.942 Y-419.853
G3 X252.858 Y-419.509 I-3.121 J-0.582
G1 X251.682 Y-415.654
G1 X250.335 Y-410.65
G3 X250.235 Y-410.342 I-3.066 J-0.825
G1 X248.831 Y-406.667
G1 X247.212 Y-401.901
G3 X247.101 Y-401.618 I-3.006 J-1.021
G1 X245.557 Y-398.192
G1 X244.529 Y-395.623
G1 Z-10.16
G1 X243.779 Y-393.749
G3 X243.655 Y-393.478 I-2.948 J-1.18
G1 X242.062 Y-390.379
G1 X240.237 Y-386.341
G3 X240.096 Y-386.065 I-2.893 J-1.308
G1 X239.647 Y-385.286
G1 Z-12.7
G1 X238.531 Y-383.346
G1 X236.753 Y-379.773
G3 X236.585 Y-379.476 I-2.843 J-1.414
G1 X235.064 Y-377.1
G1 X233.35 Y-373.938
G3 X233.156 Y-373.625 I-2.791 J-1.513
G1 X231.68 Y-371.525
G1 X230.026 Y-368.695
G3 X229.813 Y-368.377 I-2.741 J-1.602
G1 X228.378 Y-366.487
G1 X226.779 Y-363.909
G3 X226.55 Y-363.585 I-2.698 J-1.673
G1 X223.682 Y-360.039
G1 X220.528 Y-355.171
G3 X220.356 Y-354.932 I-2.665 J-1.727
G1 X217.578 Y-351.407
G1 X214.548 Y-346.57
G1 X214.467 Y-346.447
G1 X211.725 Y-342.488
G1 X208.748 Y-337.15
G1 X208.67 Y-337.017
G1 X205.869 Y-332.523
G1 X204.777 Y-330.401
G3 X204.458 Y-329.902 I-2.823 J-1.453
G1 X203.963 Y-329.267
G3 X201.459 Y-328.044 I-2.504 J-1.952
G1 X30.628
G3 X27.514 Y-330.6 I0 J-3.175
G1 X27.453 Y-330.906
G1 Y-319.086
G1 X27.514 Y-319.392
G3 X30.628 Y-321.948 I3.114 J0.619
G1 X194.071
G3 X196.575 Y-320.725 I0 J3.175
G1 X197.07 Y-320.09
G3 X197.401 Y-316.708 I-2.504 J1.952
G1 X196.452 Y-314.826
G1 X196.364 Y-314.664
G1 X194.805 Y-311.974
G1 X193.032 Y-308.507
G1 X192.952 Y-308.359
G1 X191.307 Y-305.524
G1 X189.411 Y-301.899
G1 X189.342 Y-301.773
G1 X187.607 Y-298.793
G1 X185.579 Y-295.012
G1 X185.534 Y-294.931
G1 X183.739 Y-291.809
G1 X181.614 Y-287.871
G1 X181.594 Y-287.834
G1 X179.779 Y-284.576
G1 X177.606 Y-280.486
G1 X175.814 Y-277.096
G1 X174.481 Y-274.495
G1 Z-10.16
G1 X173.648 Y-272.871
G1 X171.926 Y-269.373
G1 X169.813 Y-265.014
G1 X169.461 Y-264.227
G1 Z-12.7
G1 X168.201 Y-261.41
G1 X168.2 Y-261.407
G1 X166.187 Y-256.916
G1 X164.726 Y-253.218
G1 X164.717 Y-253.195
G1 X162.851 Y-248.581
G1 X161.58 Y-244.795
G1 X161.564 Y-244.748
G1 X159.888 Y-240.006
G1 X158.828 Y-236.137
G1 X158.808 Y-236.066
G1 X157.346 Y-231.183
G1 X156.466 Y-227.235
G1 X156.443 Y-227.139
G1 X155.165 Y-222.142
G1 X154.425 Y-218.137
G1 X154.401 Y-218.021
G1 X153.265 Y-212.941
G1 X152.628 Y-208.909
G1 X152.604 Y-208.775
G1 X151.565 Y-203.648
G1 X150.994 Y-199.618
G1 X150.968 Y-199.467
G1 X149.984 Y-194.327
G1 X149.438 Y-190.326
G1 X149.411 Y-190.163
G1 X148.438 Y-185.043
G1 X147.879 Y-181.099
G1 X147.849 Y-180.927
G1 X147.011 Y-176.703
G3 X146.399 Y-175.367 I-3.114 J-0.618
G1 X145.903 Y-174.732
G3 X143.401 Y-173.511 I-2.502 J-1.954
G1 X3.123
G3 X0.009 Y-176.067 I0 J-3.175
G1 X-0.052 Y-176.373
G1 Y-164.553
G1 X0.009 Y-164.859
G3 X3.123 Y-167.415 I3.114 J0.619
G1 X140.765
G3 X143.269 Y-166.192 I0 J3.175
G1 X143.764 Y-165.557
G3 X144.378 Y-163.008 I-2.504 J1.952
G1 X144.031 Y-161.197
G1 X143.991 Y-161.015
G1 X142.147 Y-153.734
G1 X140.868 Y-148.25
G1 X140.822 Y-148.074
G1 X138.734 Y-140.983
G1 X137.27 Y-135.551
G1 X137.22 Y-135.386
G1 X134.913 Y-128.36
G1 X133.27 Y-122.861
G1 X133.221 Y-122.712
G1 X130.718 Y-115.631
G1 X129.843 Y-112.85
G1 X129.796 Y-112.712
G1 X128.488 Y-109.138
G1 X127.571 Y-106.301
G1 X127.527 Y-106.172
G1 X126.178 Y-102.533
G1 X125.219 Y-99.617
G1 X125.177 Y-99.497
G1 X123.787 Y-95.775
G1 X122.782 Y-92.777
G1 X122.743 Y-92.665
G1 X121.303 Y-88.852
G1 X120.72 Y-87.182
G1 Z-10.16
G1 X120.233 Y-85.79
G1 X120.195 Y-85.687
G1 X118.689 Y-81.813
G1 X117.541 Y-78.714
G1 X117.504 Y-78.618
G1 X116.641 Y-76.504
G1 Z-12.7
G1 X115.911 Y-74.715
G1 X114.671 Y-71.608
G1 X114.633 Y-71.517
G1 X112.934 Y-67.619
G1 X112.933 Y-67.617
G1 X111.585 Y-64.53
G1 X111.546 Y-64.445
G1 X109.728 Y-60.595
G1 X109.715 Y-60.567
G1 X108.249 Y-57.539
G1 X108.209 Y-57.459
G1 X106.251 Y-53.688
G1 X106.224 Y-53.637
G1 X104.627 Y-50.693
G1 X104.584 Y-50.618
G1 X102.467 Y-46.958
G1 X102.422 Y-46.882
G1 X100.679 Y-44.052
G1 X100.634 Y-43.982
G1 X98.339 Y-40.464
G1 X98.272 Y-40.365
G1 X96.368 Y-37.675
G1 X96.322 Y-37.612
G1 X93.829 Y-34.268
G1 X93.734 Y-34.146
G1 X91.655 Y-31.623
G1 X91.608 Y-31.567
G1 X88.898 Y-28.429
G1 X88.771 Y-28.29
G1 X86.504 Y-25.96
G1 X86.458 Y-25.914
G1 X83.514 Y-23.012
G1 X83.366 Y-22.874
G1 X80.918 Y-20.75
G1 X80.875 Y-20.713
G1 X79.685 Y-19.717
G3 X77.647 Y-18.977 I-2.037 J-2.435
G1 X17.216
G3 X14.102 Y-21.533 I0 J-3.175
G1 X14.041 Y-21.839
G1 Y-10.019
G1 X14.102 Y-10.326
G3 X17.216 Y-12.881 I3.114 J0.619
G1 X56.509
G3 X59.012 Y-11.659 I0 J3.175
G1 X59.508 Y-11.024
G3 X58.957 Y-6.568 I-2.503 J1.953
G3 X58.438 Y-6.238 I-1.953 J-2.503
G1 X58.24 Y-6.138
G3 X57.952 Y-6.01 I-1.433 J-2.833
G1 X51.903 Y-3.672
G1 X51.883 Y-3.664
G1 X44.119 Y-0.723
G3 X43.707 Y-0.599 I-1.125 J-2.969
G1 X37.393 Y0.857
G1 X37.384 Y0.859
G1 X29.301 Y2.695
G3 X28.869 Y2.763 I-0.704 J-3.096
G1 X22.443 Y3.315
G1 X22.441
G1 X14.234 Y4.014
G3 X13.861 Y4.023 I-0.269 J-3.164
G1 X9.586 Y3.883
G1 X4.136 Y3.706
G3 X3.844 Y3.683 I0.103 J-3.173
G1 X-0.395 Y3.15
G1 X-5.793 Y2.475
G3 X-6.071 Y2.428 I0.394 J-3.15
G1 X-10.258 Y1.521
G1 X-15.584 Y0.37
G3 X-15.845 Y0.302 I0.67 J-3.103
G0 Z6.096

G0 Z6.096
M5
M30
