(1001)
(T1  D=6.35 CR=0 - ZMIN=-20.066 - FLAT END MILL)
G0 G40 G90 G17
G21

(2D CONTOUR2)
T1 M6
M3 S5000
G0 X155.998 Y-246.01
G0 Z6.096
G1 Z4.191 F508.
G1 Z-7.484
G3 X155.512 Y-245.973 I-0.486 J-3.138
G1 X-2.323
G3 X-4.086 Y-246.508 I0 J-3.175
G1 X-4.346 Y-246.682
G1 X-4.173 Y-246.422
G3 X-3.638 Y-244.658 I-2.64 J1.764
G1 Y-241.192
G3 X-4.173 Y-239.428 I-3.175 J0
G1 X-4.346 Y-239.168
G1 X-4.086 Y-239.342
G3 X-2.323 Y-239.877 I1.763 J2.64
G1 X150.577
G3 X153.081 Y-238.654 I0 J3.175
G1 X153.576 Y-238.019
G3 X154.094 Y-235.094 I-2.504 J1.952
G1 X153.993 Y-234.778
G1 X153.455 Y-233.069
G1 X152.67 Y-230.446
G1 X152.168 Y-228.71
G1 X151.426 Y-226.052
G1 X150.955 Y-224.293
G1 X150.249 Y-221.603
G1 X149.806 Y-219.824
G1 X149.132 Y-217.109
G1 X148.714 Y-215.318
G1 X148.712 Y-215.309
G1 X148.066 Y-212.577
G1 X147.67 Y-210.777
G1 X147.665 Y-210.756
G1 X147.042 Y-208.015
G1 X146.663 Y-206.21
G1 X146.657 Y-206.178
G1 X146.051 Y-203.43
G1 X145.685 Y-201.622
G1 X145.677 Y-201.582
G1 X145.084 Y-198.83
G1 X144.727 Y-197.022
G1 X144.717 Y-196.973
G1 X144.13 Y-194.225
G1 X143.781 Y-192.421
G1 X143.769 Y-192.36
G1 X143.182 Y-189.619
G1 X142.835 Y-187.821
G1 X142.821 Y-187.751
G1 X142.23 Y-185.022
G1 X141.881 Y-183.233
G1 X141.863 Y-183.145
G1 X140.64 Y-177.704
G1 X139.916 Y-174.132
G1 X139.888 Y-174.01
G1 X138.583 Y-168.665
G1 X137.805 Y-165.164
G1 X137.769 Y-165.017
G1 X136.346 Y-159.794
G1 X135.491 Y-156.379
G1 X135.452 Y-156.236
G1 X133.911 Y-151.109
G1 X132.976 Y-147.761
G1 X132.937 Y-147.631
G1 X131.286 Y-142.567
G1 X130.278 Y-139.262
G1 X130.239 Y-139.144
G1 X128.486 Y-134.108
G1 X127.409 Y-130.82
G1 X127.374 Y-130.717
G1 X125.527 Y-125.672
G1 X124.385 Y-122.375
G1 X124.356 Y-122.294
G1 X123.404 Y-119.769
G1 X122.816 Y-118.123
G1 X122.792 Y-118.058
G1 X121.821 Y-115.518
G1 X121.216 Y-113.858
G1 X121.194 Y-113.799
G1 X120.203 Y-111.239
G1 X119.586 Y-109.565
G1 X119.564 Y-109.508
G1 X119.457 Y-109.234
G3 X119.004 Y-108.437 I-2.957 J-1.155
G1 X118.509 Y-107.802
G3 X116.005 Y-106.579 I-2.504 J-1.952
G1 X-6.186
G3 X-7.949 Y-107.114 I0 J-3.175
G1 X-8.21 Y-107.288
G1 X-8.036 Y-107.028
G3 X-7.501 Y-105.264 I-2.64 J1.764
G1 Y-101.798
G3 X-8.036 Y-100.034 I-3.175 J0
G1 X-8.21 Y-99.774
G1 X-7.95 Y-99.948
G3 X-6.186 Y-100.483 I1.764 J2.64
G1 X110.712
G3 X113.216 Y-99.26 I0 J3.175
G1 X113.711 Y-98.625
G3 X114.16 Y-95.506 I-2.504 J1.952
G1 X113.444 Y-93.693
G1 X112.777 Y-91.929
G1 X112.756 Y-91.874
G1 X111.676 Y-89.167
G1 X110.994 Y-87.381
G1 X110.97 Y-87.318
G1 X109.862 Y-84.592
G1 X109.16 Y-82.791
G1 X109.132 Y-82.722
G1 X107.992 Y-79.987
G1 X107.267 Y-78.178
G1 X107.235 Y-78.1
G1 X106.055 Y-75.366
G1 X105.304 Y-73.555
G1 X105.266 Y-73.469
G1 X104.041 Y-70.746
G1 X103.258 Y-68.94
G1 X103.216 Y-68.846
G1 X101.938 Y-66.142
G1 X101.121 Y-64.347
G1 X101.072 Y-64.246
G1 X99.737 Y-61.57
G1 X98.88 Y-59.793
G1 X98.825 Y-59.685
G1 X97.426 Y-57.047
G1 X96.526 Y-55.295
G1 X96.463 Y-55.179
G1 X94.994 Y-52.589
G1 X94.047 Y-50.868
G1 X93.976 Y-50.744
G1 X92.43 Y-48.211
G1 X91.432 Y-46.527
G1 X91.351 Y-46.397
G1 X89.723 Y-43.931
G1 X88.67 Y-42.29
G1 X88.577 Y-42.154
G1 X86.861 Y-39.763
G1 X85.749 Y-38.173
G1 X85.644 Y-38.031
G1 X83.833 Y-35.726
G1 X82.657 Y-34.192
G1 X82.539 Y-34.047
G1 X80.627 Y-31.835
G1 X79.384 Y-30.364
G1 X79.251 Y-30.217
G1 X77.232 Y-28.109
G1 X75.917 Y-26.708
G1 X75.772 Y-26.562
G1 X73.641 Y-24.566
G1 X72.252 Y-23.239
G1 X72.102 Y-23.105
G1 X69.865 Y-21.223
G1 X68.405 Y-19.972
G1 X68.254 Y-19.851
G1 X65.918 Y-18.085
G1 X64.392 Y-16.912
G1 X64.24 Y-16.802
G1 X61.813 Y-15.154
G1 X60.226 Y-14.059
G1 X60.075 Y-13.961
G1 X57.564 Y-12.432
G1 X55.92 Y-11.417
G1 X55.77 Y-11.329
G1 X53.183 Y-9.921
G1 X51.489 Y-8.986
G1 X51.339 Y-8.909
G1 X48.684 Y-7.623
G1 X46.943 Y-6.77
G1 X46.795 Y-6.702
G1 X44.079 Y-5.54
G1 X42.297 Y-4.77
G1 X42.15 Y-4.71
G1 X39.381 Y-3.674
G1 X37.564 Y-2.987
G1 X37.417 Y-2.936
G1 X34.603 Y-2.027
G1 X32.755 Y-1.425
G1 X32.609 Y-1.381
G1 X29.758 Y-0.602
G1 X27.884 Y-0.085
G1 X27.738 Y-0.049
G1 X24.858 Y0.6
G1 X22.963 Y1.03
G1 X22.817 Y1.06
G1 X19.915 Y1.577
G1 X18.005 Y1.919
G1 X17.859 Y1.941
G1 X14.942 Y2.325
G1 X13.023 Y2.578
G1 X12.875 Y2.594
G1 X9.953 Y2.842
G1 X8.028 Y3.006
G1 X7.879 Y3.015
G1 X4.958 Y3.126
G1 X3.033 Y3.199
G1 X2.883 Y3.202
G1 X-0.029 Y3.175
G1 X-1.949 Y3.157
G1 X-2.097 Y3.152
G1 X-4.997 Y2.99
G1 X-6.909 Y2.883
G1 X-7.054 Y2.872
G1 X-9.94 Y2.577
G1 X-11.843 Y2.383
G1 X-11.984 Y2.365
G1 X-14.852 Y1.941
G1 X-16.745 Y1.661
G1 X-16.882 Y1.638
G1 X-19.73 Y1.088
G1 X-21.611 Y0.724
G1 X-21.744 Y0.695
G1 X-24.569 Y0.022
G1 X-26.435 Y-0.423
G1 X-26.564 Y-0.457
G1 X-29.365 Y-1.25
G1 X-31.214 Y-1.775
G1 X-31.339 Y-1.813
G1 X-34.112 Y-2.724
G1 X-35.944 Y-3.326
G1 X-36.063 Y-3.368
G1 X-38.806 Y-4.393
G1 X-40.619 Y-5.07
G1 X-40.734 Y-5.116
G1 X-43.444 Y-6.252
G1 X-45.235 Y-7.003
G1 X-45.346 Y-7.052
G1 X-48.021 Y-8.296
G1 X-49.788 Y-9.119
G1 X-49.895 Y-9.171
G1 X-52.532 Y-10.52
G1 X-54.275 Y-11.412
G1 X-54.377 Y-11.467
G1 X-56.974 Y-12.918
G1 X-58.69 Y-13.877
G1 X-58.789 Y-13.935
G1 X-61.343 Y-15.485
G1 X-63.03 Y-16.509
G1 X-63.125 Y-16.569
G1 X-65.633 Y-18.215
G1 X-67.291 Y-19.303
G1 X-67.381 Y-19.365
G1 X-69.842 Y-21.104
G1 X-71.468 Y-22.254
G1 X-71.594 Y-22.348
G1 X-76.363 Y-26.087
G1 X-79.514 Y-28.559
G1 X-79.661 Y-28.681
G1 X-84.221 Y-32.724
G1 X-87.234 Y-35.395
G1 X-87.358 Y-35.512
G1 X-91.702 Y-39.8
G1 X-94.573 Y-42.635
G1 X-94.678 Y-42.744
G1 X-98.8 Y-47.222
G1 X-101.523 Y-50.182
G1 X-101.613 Y-50.284
G1 X-105.506 Y-54.895
G1 X-108.078 Y-57.943
G1 X-108.155 Y-58.037
G1 X-111.812 Y-62.725
G1 X-114.229 Y-65.823
G1 X-114.295 Y-65.911
G1 X-117.71 Y-70.618
G1 X-119.967 Y-73.728
G1 X-120.025 Y-73.812
G1 X-123.19 Y-78.481
G1 X-125.282 Y-81.567
G1 X-125.335 Y-81.647
G1 X-128.25 Y-86.24
G1 X-130.176 Y-89.275
G1 X-130.23 Y-89.364
G1 X-132.909 Y-93.909
G1 X-134.679 Y-96.912
G1 X-134.735 Y-97.011
G1 X-137.198 Y-101.552
G1 X-138.826 Y-104.554
G1 X-138.881 Y-104.66
G1 X-141.149 Y-109.245
G1 X-142.647 Y-112.276
G1 X-142.699 Y-112.386
G1 X-144.791 Y-117.06
G1 X-146.173 Y-120.148
G1 X-146.22 Y-120.259
G1 X-148.156 Y-125.067
G1 X-149.435 Y-128.246
G1 X-149.476 Y-128.353
G1 X-151.276 Y-133.341
G1 X-152.466 Y-136.638
G1 X-152.5 Y-136.739
G1 X-154.184 Y-141.953
G1 X-155.296 Y-145.399
G1 X-155.325 Y-145.491
G1 X-156.908 Y-150.961
G1 X-157.953 Y-154.577
G1 X-157.977 Y-154.664
G1 X-159.451 Y-160.364
G1 X-160.425 Y-164.131
G1 X-160.445 Y-164.214
G1 X-161.799 Y-170.101
G1 X-162.694 Y-173.991
G1 X-162.712 Y-174.073
G1 X-163.934 Y-180.106
G1 X-164.742 Y-184.092
G1 X-164.757 Y-184.174
G1 X-165.834 Y-190.311
G1 X-166.547 Y-194.366
G1 X-166.56 Y-194.449
G1 X-167.482 Y-200.648
G1 X-168.091 Y-204.744
G1 X-168.103 Y-204.829
G1 X-168.857 Y-211.048
G1 X-169.355 Y-215.158
G1 X-169.364 Y-215.247
G1 X-169.938 Y-221.445
G1 X-170.317 Y-225.541
G1 X-170.325 Y-225.636
G1 X-170.708 Y-231.777
G1 X-170.962 Y-235.836
G1 X-170.966 Y-235.935
G1 X-171.156 Y-242.014
G1 X-171.281 Y-246.031
G1 X-171.283 Y-246.133
G1 X-171.278 Y-252.151
G1 X-171.275 Y-256.128
G1 X-171.273 Y-256.233
G1 X-171.072 Y-262.191
G1 X-170.938 Y-266.13
G1 X-170.933 Y-266.236
G1 X-170.534 Y-272.136
G1 Y-272.137
G1 X-170.269 Y-276.036
G1 X-170.259 Y-276.145
G1 X-169.66 Y-281.988
G1 X-169.264 Y-285.849
G1 X-169.251 Y-285.96
G1 X-168.45 Y-291.747
G1 X-167.921 Y-295.571
G1 X-167.904 Y-295.683
G1 X-166.9 Y-301.416
G1 Y-301.417
G1 X-166.236 Y-305.205
G1 X-166.215 Y-305.317
G1 X-165.009 Y-310.995
G1 X-164.211 Y-314.748
G1 X-164.185 Y-314.858
G1 X-162.78 Y-320.481
G1 X-161.852 Y-324.198
G1 X-161.824 Y-324.305
G1 X-160.225 Y-329.874
G1 X-159.169 Y-333.555
G1 X-159.138 Y-333.657
G1 X-157.353 Y-339.17
G1 X-156.173 Y-342.814
G1 X-156.139 Y-342.913
G1 X-154.172 Y-348.37
G1 X-152.872 Y-351.976
G1 X-152.836 Y-352.07
G1 X-150.693 Y-357.47
G1 X-149.277 Y-361.038
G1 X-149.24 Y-361.129
G1 X-146.927 Y-366.471
G1 X-145.397 Y-370.001
G1 X-145.35 Y-370.104
G1 X-144.021 Y-372.894
G1 X-144.004 Y-372.93
G1 X-141.103 Y-378.83
G1 X-138.23 Y-384.787
G1 X-138.213 Y-384.821
G1 X-136.832 Y-387.598
G1 X-136.778 Y-387.701
G1 X-133.981 Y-392.845
G1 X-132.133 Y-396.244
G1 X-132.084 Y-396.332
G1 X-129.127 Y-401.38
G1 X-127.173 Y-404.717
G1 X-127.118 Y-404.808
G1 X-124.001 Y-409.745
G1 X-121.941 Y-413.007
G1 X-121.879 Y-413.101
G1 X-118.601 Y-417.909
G1 X-116.435 Y-421.086
G1 X-116.367 Y-421.182
G1 X-112.928 Y-425.842
G1 X-110.655 Y-428.922
G1 X-110.578 Y-429.022
G1 X-106.977 Y-433.517
G1 X-104.597 Y-436.488
G1 X-104.511 Y-436.59
G1 X-100.748 Y-440.903
G1 X-98.261 Y-443.754
G1 X-98.167 Y-443.857
G1 X-94.241 Y-447.975
G1 X-91.646 Y-450.697
G1 X-91.547 Y-450.796
G1 X-87.46 Y-454.723
G1 X-84.758 Y-457.318
G1 X-84.658 Y-457.41
G1 X-80.409 Y-461.155
G1 X-77.601 Y-463.63
G1 X-77.501 Y-463.715
G1 X-73.092 Y-467.287
G1 X-70.178 Y-469.647
G1 X-70.079 Y-469.725
G1 X-65.512 Y-473.133
G1 X-62.493 Y-475.385
G1 X-62.395 Y-475.455
G1 X-57.67 Y-478.708
G1 X-54.547 Y-480.857
G1 X-54.452 Y-480.92
G1 X-49.571 Y-484.027
G1 X-46.345 Y-486.081
G1 X-46.252 Y-486.137
G1 X-41.216 Y-489.106
G1 X-37.887 Y-491.068
G1 X-37.797 Y-491.119
G1 X-32.609 Y-493.955
G1 X-29.181 Y-495.829
G1 X-29.089 Y-495.877
G1 X-23.767 Y-498.566
G1 X-20.249 Y-500.343
G1 X-20.155 Y-500.389
G1 X-14.718 Y-502.914
G1 X-11.124 Y-504.582
G1 X-11.025 Y-504.626
G1 X-5.493 Y-506.967
G1 X-1.838 Y-508.514
G1 X-1.733 Y-508.556
G1 X3.873 Y-510.697
G1 X7.578 Y-512.111
G1 X7.69 Y-512.152
G1 X13.35 Y-514.073
G1 X17.091 Y-515.342
G1 X17.211 Y-515.38
G1 X22.906 Y-517.063
G1 X26.669 Y-518.175
G1 X26.799 Y-518.21
G1 X32.508 Y-519.637
G1 X36.281 Y-520.58
G1 X36.418 Y-520.611
G1 X42.125 Y-521.771
G1 X45.897 Y-522.537
G1 X46.03 Y-522.562
G1 X51.731 Y-523.468
G1 X55.499 Y-524.066
G1 X55.625 Y-524.083
G1 X61.32 Y-524.755
G1 X65.084 Y-525.198
G1 X65.201 Y-525.21
G1 X70.89 Y-525.668
G1 X74.651 Y-525.97
G1 X74.758 Y-525.977
G1 X80.442 Y-526.24
G1 X84.197 Y-526.414
G1 X84.295 Y-526.417
G1 X89.972 Y-526.506
G1 X93.724 Y-526.565
G1 X93.811
G1 X96.752 Y-526.531
G3 X99.89 Y-523.356 I-0.037 J3.175
G1 Y-519.98
G3 X99.355 Y-518.216 I-3.175 J0
G1 X99.182 Y-517.956
G1 X99.44 Y-518.129
G3 X101.205 Y-518.665 I1.765 J2.639
G1 X164.17
G3 X165.035 Y-518.545 I0 J3.175
G1 X165.434 Y-518.432
G1 X165.437 Y-518.431
G1 X167.274 Y-517.909
G1 X169.029 Y-517.41
G1 X169.173 Y-517.365
G1 X171.879 Y-516.454
G1 X171.883 Y-516.453
G1 X173.658 Y-515.853
G1 X173.758 Y-515.817
G1 X176.446 Y-514.807
G1 X176.452 Y-514.805
G1 X178.21 Y-514.14
G1 X178.312 Y-514.099
G1 X180.981 Y-512.983
G1 X180.987 Y-512.981
G1 X182.728 Y-512.249
G1 X182.832 Y-512.203
G1 X185.48 Y-510.976
G1 X185.487 Y-510.973
G1 X187.209 Y-510.17
G1 X187.313 Y-510.119
G1 X189.938 Y-508.776
G1 X189.946 Y-508.772
G1 X191.647 Y-507.896
G1 X191.749 Y-507.84
G1 X194.34 Y-506.383
G1 X194.346 Y-506.38
G1 X196.018 Y-505.435
G1 X196.12 Y-505.375
G1 X198.667 Y-503.807
G1 X198.674 Y-503.802
G1 X200.31 Y-502.789
G1 X200.411 Y-502.724
G1 X202.899 Y-501.05
G1 X202.906 Y-501.046
G1 X204.498 Y-499.969
G1 X204.599 Y-499.898
G1 X207.019 Y-498.12
G1 X207.026 Y-498.115
G1 X208.565 Y-496.978
G1 X208.666 Y-496.899
G1 X211.004 Y-495.021
G1 X211.011 Y-495.016
G1 X212.491 Y-493.821
G1 X212.593 Y-493.735
G1 X214.837 Y-491.761
G1 X214.844 Y-491.755
G1 X216.257 Y-490.505
G1 X216.36 Y-490.41
G1 X218.498 Y-488.343
G1 X218.504 Y-488.336
G1 X219.842 Y-487.035
G1 X219.946 Y-486.93
G1 X221.965 Y-484.775
G1 X221.973 Y-484.766
G1 X223.229 Y-483.415
G1 X223.332 Y-483.299
G1 X225.219 Y-481.059
G1 X225.228 Y-481.049
G1 X226.396 Y-479.651
G1 X226.497 Y-479.522
G1 X228.24 Y-477.202
G1 X228.249 Y-477.19
G1 X229.321 Y-475.749
G1 X229.422 Y-475.605
G1 X231.007 Y-473.208
G1 X231.016 Y-473.195
G1 X231.986 Y-471.712
G1 X232.084 Y-471.553
G1 X233.499 Y-469.084
G1 X233.508 Y-469.068
G1 X234.369 Y-467.545
G1 X234.461 Y-467.369
G1 X235.692 Y-464.834
G1 X235.701 Y-464.815
G1 X236.446 Y-463.254
G1 X236.531 Y-463.061
G1 X237.566 Y-460.462
G1 X237.574 Y-460.44
G1 X238.196 Y-458.844
G1 X238.27 Y-458.634
G1 X239.096 Y-455.978
G1 X239.104 Y-455.952
G1 X239.596 Y-454.321
G1 X239.627 Y-454.212
G1 X239.653 Y-454.102
G1 X240.263 Y-451.394
G1 X240.271 Y-451.361
G1 X240.627 Y-449.698
G1 X240.663 Y-449.495
G1 X241.067 Y-446.746
G1 X241.072 Y-446.708
G1 X241.3 Y-445.018
G1 X241.32 Y-444.836
G1 X241.532 Y-442.057
G1 X241.535 Y-442.017
G1 X241.644 Y-440.307
G1 X241.65 Y-440.145
G1 X241.685 Y-437.349
G1 Y-437.307
G1 X241.684 Y-435.582
G1 X241.681 Y-435.439
G1 X241.553 Y-432.636
G1 X241.551 Y-432.595
G1 X241.449 Y-430.861
G1 X241.439 Y-430.737
G1 X241.165 Y-427.94
G1 X241.16 Y-427.896
G1 X240.965 Y-426.16
G1 X240.952 Y-426.055
G1 X240.546 Y-423.275
G1 X240.539 Y-423.229
G1 X240.26 Y-421.497
G1 X240.244 Y-421.409
G1 X239.721 Y-418.656
G1 X239.712 Y-418.61
G1 X239.358 Y-416.888
G1 X239.342 Y-416.815
G1 X238.718 Y-414.102
G1 X238.706 Y-414.052
G1 X238.285 Y-412.348
G1 X238.271 Y-412.291
G1 X237.56 Y-409.627
G1 X237.545 Y-409.575
G1 X237.066 Y-407.895
G1 X237.054 Y-407.852
G1 X236.272 Y-405.249
G1 X236.255 Y-405.196
G1 X235.728 Y-403.548
G1 X235.717 Y-403.515
G1 X234.877 Y-400.983
G1 X234.859 Y-400.928
G1 X234.292 Y-399.318
G1 X234.284 Y-399.298
G1 X233.402 Y-396.848
G1 X233.381 Y-396.791
G1 X232.784 Y-395.227
G1 X232.78 Y-395.217
G1 X231.871 Y-392.86
G1 X231.847 Y-392.798
G1 X231.228 Y-391.288
G1 X230.305 Y-389.033
G1 X230.278 Y-388.969
G1 X229.817 Y-387.91
G3 X229.41 Y-387.225 I-2.911 J-1.267
G1 X228.915 Y-386.59
G3 X226.411 Y-385.367 I-2.504 J-1.952
G1 X48.478
G3 X46.714 Y-385.902 I0 J-3.175
G1 X46.454 Y-386.076
G1 X46.628 Y-385.816
G3 X47.163 Y-384.052 I-2.64 J1.764
G1 Y-380.586
G3 X46.628 Y-378.822 I-3.175 J0
G1 X46.454 Y-378.562
G1 X46.712 Y-378.735
G3 X48.478 Y-379.271 I1.765 J2.639
G1 X219.971
G3 X222.473 Y-378.05 I0 J3.175
G1 X222.969 Y-377.415
G3 X223.302 Y-374.032 I-2.502 J1.954
G1 X222.612 Y-372.663
G1 X222.564 Y-372.571
G1 X221.974 Y-371.489
G1 X221.133 Y-369.877
G1 X221.082 Y-369.782
G1 X220.502 Y-368.756
G1 X219.676 Y-367.219
G1 X219.619 Y-367.117
G1 X219.045 Y-366.138
G1 X217.41 Y-363.205
G1 X217.348 Y-363.099
G1 X216.208 Y-361.227
G1 X214.617 Y-358.464
G1 X214.548 Y-358.35
G1 X213.444 Y-356.606
G1 X211.898 Y-353.945
G1 X211.827 Y-353.828
G1 X210.757 Y-352.157
G1 X209.251 Y-349.519
G1 X209.181 Y-349.403
G1 X208.141 Y-347.75
G1 X206.668 Y-345.056
G1 X206.603 Y-344.944
G1 X205.583 Y-343.247
G1 X204.129 Y-340.424
G1 X204.071 Y-340.318
G1 X203.056 Y-338.519
G1 X201.594 Y-335.536
G1 X201.544 Y-335.439
G1 X200.522 Y-333.523
G1 X199.03 Y-330.377
G1 X198.985 Y-330.287
G1 X197.942 Y-328.256
G1 X196.4 Y-324.952
G1 X196.361 Y-324.871
G1 X195.285 Y-322.724
G1 X193.671 Y-319.261
G1 X193.636 Y-319.189
G1 X192.513 Y-316.93
G1 X190.81 Y-313.312
G1 X190.778 Y-313.246
G1 X189.597 Y-310.88
G1 X188.71 Y-309.026
G1 X188.682 Y-308.968
G1 X188.071 Y-307.756
G1 X187.154 Y-305.864
G1 X187.127 Y-305.81
G1 X186.496 Y-304.57
G1 X185.544 Y-302.639
G1 X185.518 Y-302.589
G1 X184.865 Y-301.321
G1 X183.878 Y-299.353
G1 X183.854 Y-299.306
G1 X183.178 Y-298.011
G1 X182.152 Y-296.004
G1 X182.13 Y-295.96
G1 X181.43 Y-294.641
G1 X180.375 Y-292.602
G1 X180.355 Y-292.563
G1 X179.636 Y-291.22
G1 X178.555 Y-289.145
G1 X178.536 Y-289.109
G1 X177.802 Y-287.743
G1 X176.701 Y-285.633
G1 X176.684 Y-285.602
G1 X175.939 Y-284.212
G1 X174.824 Y-282.067
G1 X174.809 Y-282.038
G1 X174.056 Y-280.624
G1 X172.934 Y-278.445
G1 X172.921 Y-278.419
G1 X172.164 Y-276.981
G1 X171.039 Y-274.765
G1 X171.028 Y-274.743
G1 X170.271 Y-273.281
G1 X169.15 Y-271.029
G1 X169.141 Y-271.01
G1 X168.388 Y-269.524
G1 X167.277 Y-267.236
G1 X167.269 Y-267.22
G1 X166.525 Y-265.709
G1 X165.427 Y-263.384
G1 X165.423 Y-263.374
G1 X164.691 Y-261.837
G1 X163.614 Y-259.474
G1 X163.612 Y-259.469
G1 X162.896 Y-257.906
G1 X161.843 Y-255.504
G1 Y-255.503
G1 X161.147 Y-253.916
G1 X160.128 Y-251.478
G1 X159.456 Y-249.867
G1 X158.96 Y-248.614
G3 X158.51 Y-247.829 I-2.952 J-1.169
G1 X158.014 Y-247.194
G3 X155.998 Y-246.01 I-2.502 J-1.954
G1 Z-15.984
G3 X155.512 Y-245.973 I-0.486 J-3.138
G1 X-2.323
G3 X-4.086 Y-246.508 I0 J-3.175
G1 X-4.346 Y-246.682
G1 X-4.173 Y-246.422
G3 X-3.638 Y-244.658 I-2.64 J1.764
G1 Y-241.192
G3 X-4.173 Y-239.428 I-3.175 J0
G1 X-4.346 Y-239.168
G1 X-4.086 Y-239.342
G3 X-2.323 Y-239.877 I1.763 J2.64
G1 X150.577
G3 X153.081 Y-238.654 I0 J3.175
G1 X153.576 Y-238.019
G3 X154.094 Y-235.094 I-2.504 J1.952
G1 X153.993 Y-234.778
G1 X153.455 Y-233.069
G1 X152.67 Y-230.446
G1 X152.168 Y-228.71
G1 X151.426 Y-226.052
G1 X150.955 Y-224.293
G1 X150.249 Y-221.603
G1 X149.806 Y-219.824
G1 X149.132 Y-217.109
G1 X148.714 Y-215.318
G1 X148.712 Y-215.309
G1 X148.066 Y-212.577
G1 X147.67 Y-210.777
G1 X147.665 Y-210.756
G1 X147.042 Y-208.015
G1 X146.663 Y-206.21
G1 X146.657 Y-206.178
G1 X146.051 Y-203.43
G1 X145.685 Y-201.622
G1 X145.677 Y-201.582
G1 X145.084 Y-198.83
G1 X144.727 Y-197.022
G1 X144.717 Y-196.973
G1 X144.13 Y-194.225
G1 X143.781 Y-192.421
G1 X143.769 Y-192.36
G1 X143.182 Y-189.619
G1 X142.835 Y-187.821
G1 X142.821 Y-187.751
G1 X142.23 Y-185.022
G1 X141.881 Y-183.233
G1 X141.863 Y-183.145
G1 X140.64 Y-177.704
G1 X139.916 Y-174.132
G1 X139.888 Y-174.01
G1 X138.583 Y-168.665
G1 X137.805 Y-165.164
G1 X137.769 Y-165.017
G1 X136.346 Y-159.794
G1 X135.491 Y-156.379
G1 X135.452 Y-156.236
G1 X133.911 Y-151.109
G1 X132.976 Y-147.761
G1 X132.937 Y-147.631
G1 X131.286 Y-142.567
G1 X130.278 Y-139.262
G1 X130.239 Y-139.144
G1 X128.486 Y-134.108
G1 X127.409 Y-130.82
G1 X127.374 Y-130.717
G1 X125.527 Y-125.672
G1 X124.385 Y-122.375
G1 X124.356 Y-122.294
G1 X123.404 Y-119.769
G1 X122.816 Y-118.123
G1 X122.792 Y-118.058
G1 X121.821 Y-115.518
G1 X121.216 Y-113.858
G1 X121.194 Y-113.799
G1 X120.203 Y-111.239
G1 X119.586 Y-109.565
G1 X119.564 Y-109.508
G1 X119.457 Y-109.234
G3 X119.004 Y-108.437 I-2.957 J-1.155
G1 X118.509 Y-107.802
G3 X116.005 Y-106.579 I-2.504 J-1.952
G1 X-6.186
G3 X-7.949 Y-107.114 I0 J-3.175
G1 X-8.21 Y-107.288
G1 X-8.036 Y-107.028
G3 X-7.501 Y-105.264 I-2.64 J1.764
G1 Y-101.798
G3 X-8.036 Y-100.034 I-3.175 J0
G1 X-8.21 Y-99.774
G1 X-7.95 Y-99.948
G3 X-6.186 Y-100.483 I1.764 J2.64
G1 X110.712
G3 X113.216 Y-99.26 I0 J3.175
G1 X113.711 Y-98.625
G3 X114.16 Y-95.506 I-2.504 J1.952
G1 X113.444 Y-93.693
G1 X112.777 Y-91.929
G1 X112.756 Y-91.874
G1 X111.676 Y-89.167
G1 X110.994 Y-87.381
G1 X110.97 Y-87.318
G1 X109.862 Y-84.592
G1 X109.16 Y-82.791
G1 X109.132 Y-82.722
G1 X107.992 Y-79.987
G1 X107.267 Y-78.178
G1 X107.235 Y-78.1
G1 X106.055 Y-75.366
G1 X105.304 Y-73.555
G1 X105.266 Y-73.469
G1 X104.041 Y-70.746
G1 X103.258 Y-68.94
G1 X103.216 Y-68.846
G1 X101.938 Y-66.142
G1 X101.121 Y-64.347
G1 X101.072 Y-64.246
G1 X99.737 Y-61.57
G1 X98.88 Y-59.793
G1 X98.825 Y-59.685
G1 X97.426 Y-57.047
G1 X96.526 Y-55.295
G1 X96.463 Y-55.179
G1 X94.994 Y-52.589
G1 X94.047 Y-50.868
G1 X93.976 Y-50.744
G1 X92.43 Y-48.211
G1 X91.432 Y-46.527
G1 X91.351 Y-46.397
G1 X89.723 Y-43.931
G1 X88.67 Y-42.29
G1 X88.577 Y-42.154
G1 X86.861 Y-39.763
G1 X85.749 Y-38.173
G1 X85.644 Y-38.031
G1 X83.833 Y-35.726
G1 X82.657 Y-34.192
G1 X82.539 Y-34.047
G1 X80.627 Y-31.835
G1 X79.384 Y-30.364
G1 X79.251 Y-30.217
G1 X77.232 Y-28.109
G1 X75.917 Y-26.708
G1 X75.772 Y-26.562
G1 X73.641 Y-24.566
G1 X72.252 Y-23.239
G1 X72.102 Y-23.105
G1 X69.865 Y-21.223
G1 X68.405 Y-19.972
G1 X68.254 Y-19.851
G1 X65.918 Y-18.085
G1 X64.392 Y-16.912
G1 X64.24 Y-16.802
G1 X61.813 Y-15.154
G1 X60.226 Y-14.059
G1 X60.075 Y-13.961
G1 X57.564 Y-12.432
G1 X55.92 Y-11.417
G1 X55.77 Y-11.329
G1 X53.183 Y-9.921
G1 X51.489 Y-8.986
G1 X51.339 Y-8.909
G1 X48.684 Y-7.623
G1 X46.943 Y-6.77
G1 X46.795 Y-6.702
G1 X44.079 Y-5.54
G1 X42.297 Y-4.77
G1 X42.15 Y-4.71
G1 X39.381 Y-3.674
G1 X37.564 Y-2.987
G1 X37.417 Y-2.936
G1 X34.603 Y-2.027
G1 X32.755 Y-1.425
G1 X32.609 Y-1.381
G1 X29.758 Y-0.602
G1 X27.884 Y-0.085
G1 X27.738 Y-0.049
G1 X24.858 Y0.6
G1 X22.963 Y1.03
G1 X22.817 Y1.06
G1 X19.915 Y1.577
G1 X18.005 Y1.919
G1 X17.859 Y1.941
G1 X14.942 Y2.325
G1 X13.023 Y2.578
G1 X12.875 Y2.594
G1 X9.953 Y2.842
G1 X8.028 Y3.006
G1 X7.879 Y3.015
G1 X4.958 Y3.126
G1 X3.033 Y3.199
G1 X2.883 Y3.202
G1 X-0.029 Y3.175
G1 X-1.949 Y3.157
G1 X-2.097 Y3.152
G1 X-4.997 Y2.99
G1 X-6.909 Y2.883
G1 X-7.054 Y2.872
G1 X-9.94 Y2.577
G1 X-11.843 Y2.383
G1 X-11.984 Y2.365
G1 X-14.852 Y1.941
G1 X-16.745 Y1.661
G1 X-16.882 Y1.638
G1 X-19.73 Y1.088
G1 X-21.611 Y0.724
G1 X-21.744 Y0.695
G1 X-24.569 Y0.022
G1 X-26.435 Y-0.423
G1 X-26.564 Y-0.457
G1 X-29.365 Y-1.25
G1 X-31.214 Y-1.775
G1 X-31.339 Y-1.813
G1 X-34.112 Y-2.724
G1 X-35.944 Y-3.326
G1 X-36.063 Y-3.368
G1 X-38.806 Y-4.393
G1 X-40.619 Y-5.07
G1 X-40.734 Y-5.116
G1 X-43.444 Y-6.252
G1 X-45.235 Y-7.003
G1 X-45.346 Y-7.052
G1 X-48.021 Y-8.296
G1 X-49.788 Y-9.119
G1 X-49.895 Y-9.171
G1 X-52.532 Y-10.52
G1 X-54.275 Y-11.412
G1 X-54.377 Y-11.467
G1 X-56.974 Y-12.918
G1 X-58.69 Y-13.877
G1 X-58.789 Y-13.935
G1 X-61.343 Y-15.485
G1 X-63.03 Y-16.509
G1 X-63.125 Y-16.569
G1 X-65.633 Y-18.215
G1 X-67.291 Y-19.303
G1 X-67.381 Y-19.365
G1 X-69.842 Y-21.104
G1 X-71.468 Y-22.254
G1 X-71.594 Y-22.348
G1 X-76.363 Y-26.087
G1 X-79.514 Y-28.559
G1 X-79.661 Y-28.681
G1 X-84.221 Y-32.724
G1 X-87.234 Y-35.395
G1 X-87.358 Y-35.512
G1 X-91.702 Y-39.8
G1 X-94.573 Y-42.635
G1 X-94.678 Y-42.744
G1 X-98.8 Y-47.222
G1 X-101.523 Y-50.182
G1 X-101.613 Y-50.284
G1 X-105.506 Y-54.895
G1 X-108.078 Y-57.943
G1 X-108.155 Y-58.037
G1 X-111.812 Y-62.725
G1 X-114.229 Y-65.823
G1 X-114.295 Y-65.911
G1 X-117.71 Y-70.618
G1 X-119.967 Y-73.728
G1 X-120.025 Y-73.812
G1 X-123.19 Y-78.481
G1 X-125.282 Y-81.567
G1 X-125.335 Y-81.647
G1 X-128.25 Y-86.24
G1 X-130.176 Y-89.275
G1 X-130.23 Y-89.364
G1 X-132.909 Y-93.909
G1 X-134.679 Y-96.912
G1 X-134.735 Y-97.011
G1 X-137.198 Y-101.552
G1 X-138.826 Y-104.554
G1 X-138.881 Y-104.66
G1 X-141.149 Y-109.245
G1 X-142.647 Y-112.276
G1 X-142.699 Y-112.386
G1 X-144.791 Y-117.06
G1 X-146.173 Y-120.148
G1 X-146.22 Y-120.259
G1 X-148.156 Y-125.067
G1 X-149.435 Y-128.246
G1 X-149.476 Y-128.353
G1 X-151.276 Y-133.341
G1 X-152.466 Y-136.638
G1 X-152.5 Y-136.739
G1 X-154.184 Y-141.953
G1 X-155.296 Y-145.399
G1 X-155.325 Y-145.491
G1 X-156.908 Y-150.961
G1 X-157.953 Y-154.577
G1 X-157.977 Y-154.664
G1 X-159.451 Y-160.364
G1 X-160.425 Y-164.131
G1 X-160.445 Y-164.214
G1 X-161.799 Y-170.101
G1 X-162.694 Y-173.991
G1 X-162.712 Y-174.073
G1 X-163.934 Y-180.106
G1 X-164.742 Y-184.092
G1 X-164.757 Y-184.174
G1 X-165.834 Y-190.311
G1 X-166.547 Y-194.366
G1 X-166.56 Y-194.449
G1 X-167.482 Y-200.648
G1 X-168.091 Y-204.744
G1 X-168.103 Y-204.829
G1 X-168.857 Y-211.048
G1 X-169.355 Y-215.158
G1 X-169.364 Y-215.247
G1 X-169.938 Y-221.445
G1 X-170.317 Y-225.541
G1 X-170.325 Y-225.636
G1 X-170.708 Y-231.777
G1 X-170.962 Y-235.836
G1 X-170.966 Y-235.935
G1 X-171.156 Y-242.014
G1 X-171.281 Y-246.031
G1 X-171.283 Y-246.133
G1 X-171.278 Y-252.151
G1 X-171.275 Y-256.128
G1 X-171.273 Y-256.233
G1 X-171.072 Y-262.191
G1 X-170.938 Y-266.13
G1 X-170.933 Y-266.236
G1 X-170.534 Y-272.136
G1 Y-272.137
G1 X-170.269 Y-276.036
G1 X-170.259 Y-276.145
G1 X-169.66 Y-281.988
G1 X-169.264 Y-285.849
G1 X-169.251 Y-285.96
G1 X-168.45 Y-291.747
G1 X-167.921 Y-295.571
G1 X-167.904 Y-295.683
G1 X-166.9 Y-301.416
G1 Y-301.417
G1 X-166.236 Y-305.205
G1 X-166.215 Y-305.317
G1 X-165.009 Y-310.995
G1 X-164.211 Y-314.748
G1 X-164.185 Y-314.858
G1 X-162.78 Y-320.481
G1 X-161.852 Y-324.198
G1 X-161.824 Y-324.305
G1 X-160.225 Y-329.874
G1 X-159.169 Y-333.555
G1 X-159.138 Y-333.657
G1 X-157.353 Y-339.17
G1 X-156.173 Y-342.814
G1 X-156.139 Y-342.913
G1 X-154.172 Y-348.37
G1 X-152.872 Y-351.976
G1 X-152.836 Y-352.07
G1 X-150.693 Y-357.47
G1 X-149.277 Y-361.038
G1 X-149.24 Y-361.129
G1 X-146.927 Y-366.471
G1 X-145.397 Y-370.001
G1 X-145.35 Y-370.104
G1 X-144.021 Y-372.894
G1 X-144.004 Y-372.93
G1 X-141.103 Y-378.83
G1 X-138.23 Y-384.787
G1 X-138.213 Y-384.821
G1 X-136.832 Y-387.598
G1 X-136.778 Y-387.701
G1 X-133.981 Y-392.845
G1 X-132.133 Y-396.244
G1 X-132.084 Y-396.332
G1 X-129.127 Y-401.38
G1 X-127.173 Y-404.717
G1 X-127.118 Y-404.808
G1 X-124.001 Y-409.745
G1 X-121.941 Y-413.007
G1 X-121.879 Y-413.101
G1 X-118.601 Y-417.909
G1 X-116.435 Y-421.086
G1 X-116.367 Y-421.182
G1 X-112.928 Y-425.842
G1 X-110.655 Y-428.922
G1 X-110.578 Y-429.022
G1 X-106.977 Y-433.517
G1 X-104.597 Y-436.488
G1 X-104.511 Y-436.59
G1 X-100.748 Y-440.903
G1 X-98.261 Y-443.754
G1 X-98.167 Y-443.857
G1 X-94.241 Y-447.975
G1 X-91.646 Y-450.697
G1 X-91.547 Y-450.796
G1 X-87.46 Y-454.723
G1 X-84.758 Y-457.318
G1 X-84.658 Y-457.41
G1 X-80.409 Y-461.155
G1 X-77.601 Y-463.63
G1 X-77.501 Y-463.715
G1 X-73.092 Y-467.287
G1 X-70.178 Y-469.647
G1 X-70.079 Y-469.725
G1 X-65.512 Y-473.133
G1 X-62.493 Y-475.385
G1 X-62.395 Y-475.455
G1 X-57.67 Y-478.708
G1 X-54.547 Y-480.857
G1 X-54.452 Y-480.92
G1 X-49.571 Y-484.027
G1 X-46.345 Y-486.081
G1 X-46.252 Y-486.137
G1 X-41.216 Y-489.106
G1 X-37.887 Y-491.068
G1 X-37.797 Y-491.119
G1 X-32.609 Y-493.955
G1 X-29.181 Y-495.829
G1 X-29.089 Y-495.877
G1 X-23.767 Y-498.566
G1 X-20.249 Y-500.343
G1 X-20.155 Y-500.389
G1 X-14.718 Y-502.914
G1 X-11.124 Y-504.582
G1 X-11.025 Y-504.626
G1 X-5.493 Y-506.967
G1 X-1.838 Y-508.514
G1 X-1.733 Y-508.556
G1 X3.873 Y-510.697
G1 X7.578 Y-512.111
G1 X7.69 Y-512.152
G1 X13.35 Y-514.073
G1 X17.091 Y-515.342
G1 X17.211 Y-515.38
G1 X22.906 Y-517.063
G1 X26.669 Y-518.175
G1 X26.799 Y-518.21
G1 X32.508 Y-519.637
G1 X36.281 Y-520.58
G1 X36.418 Y-520.611
G1 X42.125 Y-521.771
G1 X45.897 Y-522.537
G1 X46.03 Y-522.562
G1 X51.731 Y-523.468
G1 X55.499 Y-524.066
G1 X55.625 Y-524.083
G1 X61.32 Y-524.755
G1 X65.084 Y-525.198
G1 X65.201 Y-525.21
G1 X70.89 Y-525.668
G1 X74.651 Y-525.97
G1 X74.758 Y-525.977
G1 X80.442 Y-526.24
G1 X84.197 Y-526.414
G1 X84.295 Y-526.417
G1 X89.972 Y-526.506
G1 X93.724 Y-526.565
G1 X93.811
G1 X96.752 Y-526.531
G3 X99.89 Y-523.356 I-0.037 J3.175
G1 Y-519.98
G3 X99.355 Y-518.216 I-3.175 J0
G1 X99.182 Y-517.956
G1 X99.44 Y-518.129
G3 X101.205 Y-518.665 I1.765 J2.639
G1 X164.17
G3 X165.035 Y-518.545 I0 J3.175
G1 X165.434 Y-518.432
G1 X165.437 Y-518.431
G1 X167.274 Y-517.909
G1 X169.029 Y-517.41
G1 X169.173 Y-517.365
G1 X171.879 Y-516.454
G1 X171.883 Y-516.453
G1 X173.658 Y-515.853
G1 X173.758 Y-515.817
G1 X176.446 Y-514.807
G1 X176.452 Y-514.805
G1 X178.21 Y-514.14
G1 X178.312 Y-514.099
G1 X180.981 Y-512.983
G1 X180.987 Y-512.981
G1 X182.728 Y-512.249
G1 X182.832 Y-512.203
G1 X185.48 Y-510.976
G1 X185.487 Y-510.973
G1 X187.209 Y-510.17
G1 X187.313 Y-510.119
G1 X189.938 Y-508.776
G1 X189.946 Y-508.772
G1 X191.647 Y-507.896
G1 X191.749 Y-507.84
G1 X194.34 Y-506.383
G1 X194.346 Y-506.38
G1 X196.018 Y-505.435
G1 X196.12 Y-505.375
G1 X198.667 Y-503.807
G1 X198.674 Y-503.802
G1 X200.31 Y-502.789
G1 X200.411 Y-502.724
G1 X202.899 Y-501.05
G1 X202.906 Y-501.046
G1 X204.498 Y-499.969
G1 X204.599 Y-499.898
G1 X207.019 Y-498.12
G1 X207.026 Y-498.115
G1 X208.565 Y-496.978
G1 X208.666 Y-496.899
G1 X211.004 Y-495.021
G1 X211.011 Y-495.016
G1 X212.491 Y-493.821
G1 X212.593 Y-493.735
G1 X214.837 Y-491.761
G1 X214.844 Y-491.755
G1 X216.257 Y-490.505
G1 X216.36 Y-490.41
G1 X218.498 Y-488.343
G1 X218.504 Y-488.336
G1 X219.842 Y-487.035
G1 X219.946 Y-486.93
G1 X221.965 Y-484.775
G1 X221.973 Y-484.766
G1 X223.229 Y-483.415
G1 X223.332 Y-483.299
G1 X225.219 Y-481.059
G1 X225.228 Y-481.049
G1 X226.396 Y-479.651
G1 X226.497 Y-479.522
G1 X228.24 Y-477.202
G1 X228.249 Y-477.19
G1 X229.321 Y-475.749
G1 X229.422 Y-475.605
G1 X231.007 Y-473.208
G1 X231.016 Y-473.195
G1 X231.986 Y-471.712
G1 X232.084 Y-471.553
G1 X233.499 Y-469.084
G1 X233.508 Y-469.068
G1 X234.369 Y-467.545
G1 X234.461 Y-467.369
G1 X235.692 Y-464.834
G1 X235.701 Y-464.815
G1 X236.446 Y-463.254
G1 X236.531 Y-463.061
G1 X237.566 Y-460.462
G1 X237.574 Y-460.44
G1 X238.196 Y-458.844
G1 X238.27 Y-458.634
G1 X239.096 Y-455.978
G1 X239.104 Y-455.952
G1 X239.596 Y-454.321
G1 X239.627 Y-454.212
G1 X239.653 Y-454.102
G1 X240.263 Y-451.394
G1 X240.271 Y-451.361
G1 X240.627 Y-449.698
G1 X240.663 Y-449.495
G1 X241.067 Y-446.746
G1 X241.072 Y-446.708
G1 X241.3 Y-445.018
G1 X241.32 Y-444.836
G1 X241.532 Y-442.057
G1 X241.535 Y-442.017
G1 X241.644 Y-440.307
G1 X241.65 Y-440.145
G1 X241.685 Y-437.349
G1 Y-437.307
G1 X241.684 Y-435.582
G1 X241.681 Y-435.439
G1 X241.553 Y-432.636
G1 X241.551 Y-432.595
G1 X241.449 Y-430.861
G1 X241.439 Y-430.737
G1 X241.165 Y-427.94
G1 X241.16 Y-427.896
G1 X240.965 Y-426.16
G1 X240.952 Y-426.055
G1 X240.546 Y-423.275
G1 X240.539 Y-423.229
G1 X240.26 Y-421.497
G1 X240.244 Y-421.409
G1 X239.721 Y-418.656
G1 X239.712 Y-418.61
G1 X239.358 Y-416.888
G1 X239.342 Y-416.815
G1 X238.718 Y-414.102
G1 X238.706 Y-414.052
G1 X238.285 Y-412.348
G1 X238.271 Y-412.291
G1 X237.56 Y-409.627
G1 X237.545 Y-409.575
G1 X237.066 Y-407.895
G1 X237.054 Y-407.852
G1 X236.272 Y-405.249
G1 X236.255 Y-405.196
G1 X235.728 Y-403.548
G1 X235.717 Y-403.515
G1 X234.877 Y-400.983
G1 X234.859 Y-400.928
G1 X234.292 Y-399.318
G1 X234.284 Y-399.298
G1 X233.402 Y-396.848
G1 X233.381 Y-396.791
G1 X232.784 Y-395.227
G1 X232.78 Y-395.217
G1 X231.871 Y-392.86
G1 X231.847 Y-392.798
G1 X231.228 Y-391.288
G1 X230.305 Y-389.033
G1 X230.278 Y-388.969
G1 X229.817 Y-387.91
G3 X229.41 Y-387.225 I-2.911 J-1.267
G1 X228.915 Y-386.59
G3 X226.411 Y-385.367 I-2.504 J-1.952
G1 X48.478
G3 X46.714 Y-385.902 I0 J-3.175
G1 X46.454 Y-386.076
G1 X46.628 Y-385.816
G3 X47.163 Y-384.052 I-2.64 J1.764
G1 Y-380.586
G3 X46.628 Y-378.822 I-3.175 J0
G1 X46.454 Y-378.562
G1 X46.712 Y-378.735
G3 X48.478 Y-379.271 I1.765 J2.639
G1 X219.971
G3 X222.473 Y-378.05 I0 J3.175
G1 X222.969 Y-377.415
G3 X223.302 Y-374.032 I-2.502 J1.954
G1 X222.612 Y-372.663
G1 X222.564 Y-372.571
G1 X221.974 Y-371.489
G1 X221.133 Y-369.877
G1 X221.082 Y-369.782
G1 X220.502 Y-368.756
G1 X219.676 Y-367.219
G1 X219.619 Y-367.117
G1 X219.045 Y-366.138
G1 X217.41 Y-363.205
G1 X217.348 Y-363.099
G1 X216.208 Y-361.227
G1 X214.617 Y-358.464
G1 X214.548 Y-358.35
G1 X213.444 Y-356.606
G1 X211.898 Y-353.945
G1 X211.827 Y-353.828
G1 X210.757 Y-352.157
G1 X209.251 Y-349.519
G1 X209.181 Y-349.403
G1 X208.141 Y-347.75
G1 X206.668 Y-345.056
G1 X206.603 Y-344.944
G1 X205.583 Y-343.247
G1 X204.129 Y-340.424
G1 X204.071 Y-340.318
G1 X203.056 Y-338.519
G1 X201.594 Y-335.536
G1 X201.544 Y-335.439
G1 X200.522 Y-333.523
G1 X199.03 Y-330.377
G1 X198.985 Y-330.287
G1 X197.942 Y-328.256
G1 X196.4 Y-324.952
G1 X196.361 Y-324.871
G1 X195.285 Y-322.724
G1 X193.671 Y-319.261
G1 X193.636 Y-319.189
G1 X192.513 Y-316.93
G1 X190.81 Y-313.312
G1 X190.778 Y-313.246
G1 X189.597 Y-310.88
G1 X188.71 Y-309.026
G1 X188.682 Y-308.968
G1 X188.071 Y-307.756
G1 X187.154 Y-305.864
G1 X187.127 Y-305.81
G1 X186.496 Y-304.57
G1 X185.544 Y-302.639
G1 X185.518 Y-302.589
G1 X184.865 Y-301.321
G1 X183.878 Y-299.353
G1 X183.854 Y-299.306
G1 X183.178 Y-298.011
G1 X182.152 Y-296.004
G1 X182.13 Y-295.96
G1 X181.43 Y-294.641
G1 X180.375 Y-292.602
G1 X180.355 Y-292.563
G1 X179.636 Y-291.22
G1 X178.555 Y-289.145
G1 X178.536 Y-289.109
G1 X177.802 Y-287.743
G1 X176.701 Y-285.633
G1 X176.684 Y-285.602
G1 X175.939 Y-284.212
G1 X174.824 Y-282.067
G1 X174.809 Y-282.038
G1 X174.056 Y-280.624
G1 X172.934 Y-278.445
G1 X172.921 Y-278.419
G1 X172.164 Y-276.981
G1 X171.039 Y-274.765
G1 X171.028 Y-274.743
G1 X170.271 Y-273.281
G1 X169.15 Y-271.029
G1 X169.141 Y-271.01
G1 X168.388 Y-269.524
G1 X167.277 Y-267.236
G1 X167.269 Y-267.22
G1 X166.525 Y-265.709
G1 X165.427 Y-263.384
G1 X165.423 Y-263.374
G1 X164.691 Y-261.837
G1 X163.614 Y-259.474
G1 X163.612 Y-259.469
G1 X162.896 Y-257.906
G1 X161.843 Y-255.504
G1 Y-255.503
G1 X161.147 Y-253.916
G1 X160.128 Y-251.478
G1 X159.456 Y-249.867
G1 X158.96 Y-248.614
G3 X158.51 Y-247.829 I-2.952 J-1.169
G1 X158.014 Y-247.194
G3 X155.998 Y-246.01 I-2.502 J-1.954
G1 Z-20.066
G3 X155.512 Y-245.973 I-0.486 J-3.138
G1 X-2.323
G3 X-4.086 Y-246.508 I0 J-3.175
G1 X-4.346 Y-246.682
G1 X-4.173 Y-246.422
G3 X-3.638 Y-244.658 I-2.64 J1.764
G1 Y-241.192
G3 X-4.173 Y-239.428 I-3.175 J0
G1 X-4.346 Y-239.168
G1 X-4.086 Y-239.342
G3 X-2.323 Y-239.877 I1.763 J2.64
G1 X150.577
G3 X153.081 Y-238.654 I0 J3.175
G1 X153.576 Y-238.019
G3 X154.094 Y-235.094 I-2.504 J1.952
G1 X153.993 Y-234.778
G1 X153.455 Y-233.069
G1 X152.67 Y-230.446
G1 X152.168 Y-228.71
G1 X151.426 Y-226.052
G1 X150.955 Y-224.293
G1 X150.249 Y-221.603
G1 X149.806 Y-219.824
G1 X149.132 Y-217.109
G1 X148.714 Y-215.318
G1 X148.712 Y-215.309
G1 X148.066 Y-212.577
G1 X147.67 Y-210.777
G1 X147.665 Y-210.756
G1 X147.042 Y-208.015
G1 X146.663 Y-206.21
G1 X146.657 Y-206.178
G1 X146.051 Y-203.43
G1 X145.685 Y-201.622
G1 X145.677 Y-201.582
G1 X145.084 Y-198.83
G1 X144.727 Y-197.022
G1 X144.717 Y-196.973
G1 X144.13 Y-194.225
G1 X143.781 Y-192.421
G1 X143.769 Y-192.36
G1 X143.182 Y-189.619
G1 X142.835 Y-187.821
G1 X142.821 Y-187.751
G1 X142.23 Y-185.022
G1 X141.881 Y-183.233
G1 X141.863 Y-183.145
G1 X140.64 Y-177.704
G1 X139.916 Y-174.132
G1 X139.888 Y-174.01
G1 X138.583 Y-168.665
G1 X137.805 Y-165.164
G1 X137.769 Y-165.017
G1 X136.346 Y-159.794
G1 X135.491 Y-156.379
G1 X135.452 Y-156.236
G1 X134.517 Y-153.127
G1 Z-17.526
G1 X133.911 Y-151.109
G1 X132.976 Y-147.761
G1 X132.937 Y-147.631
G1 X131.286 Y-142.567
G1 X131.173 Y-142.195
G1 Z-20.066
G1 X130.278 Y-139.262
G1 X130.239 Y-139.144
G1 X128.486 Y-134.108
G1 X127.409 Y-130.82
G1 X127.374 Y-130.717
G1 X125.527 Y-125.672
G1 X124.385 Y-122.375
G1 X124.356 Y-122.294
G1 X123.404 Y-119.769
G1 X122.816 Y-118.123
G1 X122.792 Y-118.058
G1 X121.821 Y-115.518
G1 X121.216 Y-113.858
G1 X121.194 Y-113.799
G1 X120.203 Y-111.239
G1 X119.586 Y-109.565
G1 X119.564 Y-109.508
G1 X119.457 Y-109.234
G3 X119.004 Y-108.437 I-2.957 J-1.155
G1 X118.509 Y-107.802
G3 X116.005 Y-106.579 I-2.504 J-1.952
G1 X-6.186
G3 X-7.949 Y-107.114 I0 J-3.175
G1 X-8.21 Y-107.288
G1 X-8.036 Y-107.028
G3 X-7.501 Y-105.264 I-2.64 J1.764
G1 Y-101.798
G3 X-8.036 Y-100.034 I-3.175 J0
G1 X-8.21 Y-99.774
G1 X-7.95 Y-99.948
G3 X-6.186 Y-100.483 I1.764 J2.64
G1 X110.712
G3 X113.216 Y-99.26 I0 J3.175
G1 X113.711 Y-98.625
G3 X114.16 Y-95.506 I-2.504 J1.952
G1 X113.444 Y-93.693
G1 X112.777 Y-91.929
G1 X112.756 Y-91.874
G1 X111.676 Y-89.167
G1 X110.994 Y-87.381
G1 X110.97 Y-87.318
G1 X109.862 Y-84.592
G1 X109.16 Y-82.791
G1 X109.132 Y-82.722
G1 X107.992 Y-79.987
G1 X107.267 Y-78.178
G1 X107.235 Y-78.1
G1 X106.055 Y-75.366
G1 X105.304 Y-73.555
G1 X105.266 Y-73.469
G1 X104.041 Y-70.746
G1 X103.258 Y-68.94
G1 X103.216 Y-68.846
G1 X101.938 Y-66.142
G1 X101.121 Y-64.347
G1 X101.072 Y-64.246
G1 X99.737 Y-61.57
G1 X98.88 Y-59.793
G1 X98.825 Y-59.685
G1 X97.426 Y-57.047
G1 X96.526 Y-55.295
G1 X96.463 Y-55.179
G1 X94.994 Y-52.589
G1 X94.047 Y-50.868
G1 X93.976 Y-50.744
G1 X92.43 Y-48.211
G1 X91.432 Y-46.527
G1 X91.351 Y-46.397
G1 X89.723 Y-43.931
G1 X88.67 Y-42.29
G1 X88.577 Y-42.154
G1 X86.861 Y-39.763
G1 X86.033 Y-38.58
G1 Z-17.526
G1 X85.749 Y-38.173
G1 X85.644 Y-38.031
G1 X83.833 Y-35.726
G1 X82.657 Y-34.192
G1 X82.539 Y-34.047
G1 X80.627 Y-31.835
G1 X79.384 Y-30.364
G1 X79.251 Y-30.217
G1 X78.788 Y-29.734
G1 Z-20.066
G1 X77.232 Y-28.109
G1 X75.917 Y-26.708
G1 X75.772 Y-26.562
G1 X73.641 Y-24.566
G1 X72.252 Y-23.239
G1 X72.102 Y-23.105
G1 X69.865 Y-21.223
G1 X68.405 Y-19.972
G1 X68.254 Y-19.851
G1 X65.918 Y-18.085
G1 X64.392 Y-16.912
G1 X64.24 Y-16.802
G1 X61.813 Y-15.154
G1 X60.226 Y-14.059
G1 X60.075 Y-13.961
G1 X57.564 Y-12.432
G1 X55.92 Y-11.417
G1 X55.77 Y-11.329
G1 X53.183 Y-9.921
G1 X51.489 Y-8.986
G1 X51.339 Y-8.909
G1 X48.684 Y-7.623
G1 X46.943 Y-6.77
G1 X46.795 Y-6.702
G1 X44.079 Y-5.54
G1 X42.765 Y-4.972
G1 Z-17.526
G1 X42.297 Y-4.77
G1 X42.15 Y-4.71
G1 X39.381 Y-3.674
G1 X37.564 Y-2.987
G1 X37.417 Y-2.936
G1 X34.603 Y-2.027
G1 X32.755 Y-1.425
G1 X32.609 Y-1.381
G1 X31.97 Y-1.207
G1 Z-20.066
G1 X29.758 Y-0.602
G1 X27.884 Y-0.085
G1 X27.738 Y-0.049
G1 X24.858 Y0.6
G1 X22.963 Y1.03
G1 X22.817 Y1.06
G1 X19.915 Y1.577
G1 X18.005 Y1.919
G1 X17.859 Y1.941
G1 X14.942 Y2.325
G1 X13.023 Y2.578
G1 X12.875 Y2.594
G1 X9.953 Y2.842
G1 X8.028 Y3.006
G1 X7.879 Y3.015
G1 X4.958 Y3.126
G1 X3.033 Y3.199
G1 X2.883 Y3.202
G1 X-0.029 Y3.175
G1 X-1.949 Y3.157
G1 X-2.097 Y3.152
G1 X-4.997 Y2.99
G1 X-6.909 Y2.883
G1 X-7.054 Y2.872
G1 X-9.94 Y2.577
G1 X-11.843 Y2.383
G1 X-11.984 Y2.365
G1 X-14.852 Y1.941
G1 X-16.745 Y1.661
G1 X-16.882 Y1.638
G1 X-19.73 Y1.088
G1 X-21.611 Y0.724
G1 X-21.744 Y0.695
G1 X-24.569 Y0.022
G1 X-26.435 Y-0.423
G1 X-26.564 Y-0.457
G1 X-29.365 Y-1.25
G1 X-31.214 Y-1.775
G1 X-31.339 Y-1.813
G1 X-34.112 Y-2.724
G1 X-35.944 Y-3.326
G1 X-36.063 Y-3.368
G1 X-38.806 Y-4.393
G1 X-40.619 Y-5.07
G1 X-40.734 Y-5.116
G1 X-43.444 Y-6.252
G1 X-45.235 Y-7.003
G1 X-45.346 Y-7.052
G1 X-48.021 Y-8.296
G1 X-49.788 Y-9.119
G1 X-49.895 Y-9.171
G1 X-52.532 Y-10.52
G1 X-54.275 Y-11.412
G1 X-54.377 Y-11.467
G1 X-56.974 Y-12.918
G1 X-58.69 Y-13.877
G1 X-58.789 Y-13.935
G1 X-61.343 Y-15.485
G1 X-63.03 Y-16.509
G1 X-63.125 Y-16.569
G1 X-65.633 Y-18.215
G1 X-67.291 Y-19.303
G1 X-67.381 Y-19.365
G1 X-69.842 Y-21.104
G1 X-71.468 Y-22.254
G1 X-71.594 Y-22.348
G1 X-76.363 Y-26.087
G1 X-79.514 Y-28.559
G1 X-79.661 Y-28.681
G1 X-83.079 Y-31.712
G1 Z-17.526
G1 X-84.221 Y-32.724
G1 X-87.234 Y-35.395
G1 X-87.358 Y-35.512
G1 X-91.425 Y-39.527
G1 Z-20.066
G1 X-91.702 Y-39.8
G1 X-94.573 Y-42.635
G1 X-94.678 Y-42.744
G1 X-98.8 Y-47.222
G1 X-101.523 Y-50.182
G1 X-101.613 Y-50.284
G1 X-105.506 Y-54.895
G1 X-108.078 Y-57.943
G1 X-108.155 Y-58.037
G1 X-111.812 Y-62.725
G1 X-114.229 Y-65.823
G1 X-114.295 Y-65.911
G1 X-117.71 Y-70.618
G1 X-119.967 Y-73.728
G1 X-120.025 Y-73.812
G1 X-123.19 Y-78.481
G1 X-125.282 Y-81.567
G1 X-125.335 Y-81.647
G1 X-128.25 Y-86.24
G1 X-130.176 Y-89.275
G1 X-130.23 Y-89.364
G1 X-132.909 Y-93.909
G1 X-134.679 Y-96.912
G1 X-134.735 Y-97.011
G1 X-137.198 Y-101.552
G1 X-138.826 Y-104.554
G1 X-138.881 Y-104.66
G1 X-141.149 Y-109.245
G1 X-142.647 Y-112.276
G1 X-142.699 Y-112.386
G1 X-144.791 Y-117.06
G1 X-146.173 Y-120.148
G1 X-146.22 Y-120.259
G1 X-148.156 Y-125.067
G1 X-149.325 Y-127.97
G1 Z-17.526
G1 X-149.435 Y-128.246
G1 X-149.476 Y-128.353
G1 X-151.276 Y-133.341
G1 X-152.466 Y-136.638
G1 X-152.5 Y-136.739
G1 X-153.147 Y-138.742
G1 Z-20.066
G1 X-154.184 Y-141.953
G1 X-155.296 Y-145.399
G1 X-155.325 Y-145.491
G1 X-156.39 Y-149.171
G1 Z-17.526
G1 X-156.908 Y-150.961
G1 X-157.953 Y-154.577
G1 X-157.977 Y-154.664
G1 X-159.408 Y-160.197
G1 Z-20.066
G1 X-159.451 Y-160.364
G1 X-160.425 Y-164.131
G1 X-160.445 Y-164.214
G1 X-161.799 Y-170.101
G1 X-162.694 Y-173.991
G1 X-162.712 Y-174.073
G1 X-163.934 Y-180.106
G1 X-164.742 Y-184.092
G1 X-164.757 Y-184.174
G1 X-165.834 Y-190.311
G1 X-166.547 Y-194.366
G1 X-166.56 Y-194.449
G1 X-167.482 Y-200.648
G1 X-168.091 Y-204.744
G1 X-168.103 Y-204.829
G1 X-168.857 Y-211.048
G1 X-169.355 Y-215.158
G1 X-169.364 Y-215.247
G1 X-169.938 Y-221.445
G1 X-170.317 Y-225.541
G1 X-170.325 Y-225.636
G1 X-170.708 Y-231.777
G1 X-170.962 Y-235.836
G1 X-170.966 Y-235.935
G1 X-171.156 Y-242.014
G1 X-171.281 Y-246.031
G1 X-171.283 Y-246.133
G1 X-171.278 Y-252.151
G1 X-171.275 Y-256.128
G1 X-171.273 Y-256.233
G1 X-171.072 Y-262.191
G1 X-170.938 Y-266.13
G1 X-170.933 Y-266.236
G1 X-170.534 Y-272.136
G1 Y-272.137
G1 X-170.269 Y-276.036
G1 X-170.259 Y-276.145
G1 X-169.66 Y-281.988
G1 X-169.264 Y-285.849
G1 X-169.251 Y-285.96
G1 X-168.45 Y-291.747
G1 X-167.921 Y-295.571
G1 X-167.904 Y-295.683
G1 X-167.885 Y-295.787
G1 Z-17.526
G1 X-166.9 Y-301.416
G1 Y-301.417
G1 X-166.236 Y-305.205
G1 X-166.215 Y-305.317
G1 X-165.85 Y-307.034
G1 Z-20.066
G1 X-165.009 Y-310.995
G1 X-164.211 Y-314.748
G1 X-164.185 Y-314.858
G1 X-162.78 Y-320.481
G1 X-161.852 Y-324.198
G1 X-161.824 Y-324.305
G1 X-160.225 Y-329.874
G1 X-159.169 Y-333.555
G1 X-159.138 Y-333.657
G1 X-157.353 Y-339.17
G1 X-156.173 Y-342.814
G1 X-156.139 Y-342.913
G1 X-154.172 Y-348.37
G1 X-152.872 Y-351.976
G1 X-152.836 Y-352.07
G1 X-150.693 Y-357.47
G1 X-149.277 Y-361.038
G1 X-149.24 Y-361.129
G1 X-146.927 Y-366.471
G1 X-145.397 Y-370.001
G1 X-145.35 Y-370.104
G1 X-144.021 Y-372.894
G1 X-144.004 Y-372.93
G1 X-141.103 Y-378.83
G1 X-140.697 Y-379.674
G1 Z-17.526
G1 X-138.23 Y-384.787
G1 X-138.213 Y-384.821
G1 X-136.832 Y-387.598
G1 X-136.778 Y-387.701
G1 X-133.981 Y-392.845
G1 X-132.133 Y-396.244
G1 X-132.084 Y-396.332
G1 X-131.201 Y-397.838
G1 Z-20.066
G1 X-129.127 Y-401.38
G1 X-127.173 Y-404.717
G1 X-127.118 Y-404.808
G1 X-124.001 Y-409.745
G1 X-121.941 Y-413.007
G1 X-121.879 Y-413.101
G1 X-118.601 Y-417.909
G1 X-116.435 Y-421.086
G1 X-116.367 Y-421.182
G1 X-112.928 Y-425.842
G1 X-110.655 Y-428.922
G1 X-110.578 Y-429.022
G1 X-106.977 Y-433.517
G1 X-104.597 Y-436.488
G1 X-104.511 Y-436.59
G1 X-100.748 Y-440.903
G1 X-98.261 Y-443.754
G1 X-98.167 Y-443.857
G1 X-94.241 Y-447.975
G1 X-91.646 Y-450.697
G1 X-91.547 Y-450.796
G1 X-87.46 Y-454.723
G1 X-84.758 Y-457.318
G1 X-84.658 Y-457.41
G1 X-80.409 Y-461.155
G1 X-77.601 Y-463.63
G1 X-77.501 Y-463.715
G1 X-73.092 Y-467.287
G1 X-70.178 Y-469.647
G1 X-70.079 Y-469.725
G1 X-65.512 Y-473.133
G1 X-62.493 Y-475.385
G1 X-62.395 Y-475.455
G1 X-57.67 Y-478.708
G1 X-54.547 Y-480.857
G1 X-54.452 Y-480.92
G1 X-49.571 Y-484.027
G1 X-46.345 Y-486.081
G1 X-46.252 Y-486.137
G1 X-46.139 Y-486.204
G1 Z-17.526
G1 X-41.216 Y-489.106
G1 X-37.887 Y-491.068
G1 X-37.797 Y-491.119
G1 X-36.263 Y-491.958
G1 Z-20.066
G1 X-32.609 Y-493.955
G1 X-29.181 Y-495.829
G1 X-29.089 Y-495.877
G1 X-23.767 Y-498.566
G1 X-20.249 Y-500.343
G1 X-20.155 Y-500.389
G1 X-14.718 Y-502.914
G1 X-11.124 Y-504.582
G1 X-11.025 Y-504.626
G1 X-5.493 Y-506.967
G1 X-1.838 Y-508.514
G1 X-1.733 Y-508.556
G1 X3.873 Y-510.697
G1 X7.578 Y-512.111
G1 X7.69 Y-512.152
G1 X13.35 Y-514.073
G1 X17.091 Y-515.342
G1 X17.211 Y-515.38
G1 X22.906 Y-517.063
G1 X26.669 Y-518.175
G1 X26.799 Y-518.21
G1 X32.508 Y-519.637
G1 X36.281 Y-520.58
G1 X36.418 Y-520.611
G1 X42.125 Y-521.771
G1 X45.897 Y-522.537
G1 X46.03 Y-522.562
G1 X51.731 Y-523.468
G1 X55.499 Y-524.066
G1 X55.625 Y-524.083
G1 X61.32 Y-524.755
G1 X65.084 Y-525.198
G1 X65.194 Y-525.209
G1 Z-17.526
G1 X65.201 Y-525.21
G1 X70.89 Y-525.668
G1 X74.651 Y-525.97
G1 X74.758 Y-525.977
G1 X76.592 Y-526.061
G1 Z-20.066
G1 X80.442 Y-526.24
G1 X84.197 Y-526.414
G1 X84.295 Y-526.417
G1 X89.972 Y-526.506
G1 X93.724 Y-526.565
G1 X93.811
G1 X96.752 Y-526.531
G3 X99.89 Y-523.356 I-0.037 J3.175
G1 Y-519.98
G3 X99.355 Y-518.216 I-3.175 J0
G1 X99.182 Y-517.956
G1 X99.44 Y-518.129
G3 X101.205 Y-518.665 I1.765 J2.639
G1 X164.17
G3 X165.035 Y-518.545 I0 J3.175
G1 X165.434 Y-518.432
G1 X165.437 Y-518.431
G1 X167.274 Y-517.909
G1 X169.029 Y-517.41
G1 X169.173 Y-517.365
G1 X171.879 Y-516.454
G1 X171.883 Y-516.453
G1 X173.658 Y-515.853
G1 X173.758 Y-515.817
G1 X176.446 Y-514.807
G1 X176.452 Y-514.805
G1 X178.21 Y-514.14
G1 X178.312 Y-514.099
G1 X180.981 Y-512.983
G1 X180.987 Y-512.981
G1 X182.728 Y-512.249
G1 X182.832 Y-512.203
G1 X185.48 Y-510.976
G1 X185.487 Y-510.973
G1 X187.209 Y-510.17
G1 X187.313 Y-510.119
G1 X189.938 Y-508.776
G1 X189.946 Y-508.772
G1 X191.647 Y-507.896
G1 X191.749 Y-507.84
G1 X194.34 Y-506.383
G1 X194.346 Y-506.38
G1 X196.018 Y-505.435
G1 X196.12 Y-505.375
G1 X198.667 Y-503.807
G1 X198.674 Y-503.802
G1 X200.31 Y-502.789
G1 X200.411 Y-502.724
G1 X202.899 Y-501.05
G1 X202.906 Y-501.046
G1 X204.498 Y-499.969
G1 X204.599 Y-499.898
G1 X207.019 Y-498.12
G1 X207.026 Y-498.115
G1 X208.565 Y-496.978
G1 X208.666 Y-496.899
G1 X211.004 Y-495.021
G1 X211.011 Y-495.016
G1 X212.491 Y-493.821
G1 X212.593 Y-493.735
G1 X214.837 Y-491.761
G1 X214.844 Y-491.755
G1 X216.257 Y-490.505
G1 X216.36 Y-490.41
G1 X218.498 Y-488.343
G1 X218.504 Y-488.336
G1 X219.842 Y-487.035
G1 X219.946 Y-486.93
G1 X221.965 Y-484.775
G1 X221.973 Y-484.766
G1 X223.229 Y-483.415
G1 X223.332 Y-483.299
G1 X225.219 Y-481.059
G1 X225.228 Y-481.049
G1 X226.396 Y-479.651
G1 X226.497 Y-479.522
G1 X228.24 Y-477.202
G1 X228.249 Y-477.19
G1 X229.321 Y-475.749
G1 X229.422 Y-475.605
G1 X231.007 Y-473.208
G1 X231.016 Y-473.195
G1 X231.986 Y-471.712
G1 X232.084 Y-471.553
G1 X233.499 Y-469.084
G1 X233.508 Y-469.068
G1 X234.369 Y-467.545
G1 X234.461 Y-467.369
G1 X235.692 Y-464.834
G1 X235.701 Y-464.815
G1 X236.446 Y-463.254
G1 X236.531 Y-463.061
G1 X237.566 Y-460.462
G1 X237.574 Y-460.44
G1 X237.914 Y-459.568
G1 Z-17.526
G1 X238.196 Y-458.844
G1 X238.27 Y-458.634
G1 X239.096 Y-455.978
G1 X239.104 Y-455.952
G1 X239.596 Y-454.321
G1 X239.627 Y-454.212
G1 X239.653 Y-454.102
G1 X240.263 Y-451.394
G1 X240.271 Y-451.361
G1 X240.627 Y-449.698
G1 X240.663 Y-449.495
G1 X240.809 Y-448.504
G1 Z-20.066
G1 X241.067 Y-446.746
G1 X241.072 Y-446.708
G1 X241.3 Y-445.018
G1 X241.32 Y-444.836
G1 X241.532 Y-442.057
G1 X241.535 Y-442.017
G1 X241.644 Y-440.307
G1 X241.65 Y-440.145
G1 X241.685 Y-437.349
G1 Y-437.307
G1 X241.684 Y-435.582
G1 X241.681 Y-435.439
G1 X241.553 Y-432.636
G1 X241.551 Y-432.595
G1 X241.449 Y-430.861
G1 X241.439 Y-430.737
G1 X241.165 Y-427.94
G1 X241.16 Y-427.896
G1 X240.965 Y-426.16
G1 X240.952 Y-426.055
G1 X240.546 Y-423.275
G1 X240.539 Y-423.229
G1 X240.26 Y-421.497
G1 X240.244 Y-421.409
G1 X239.721 Y-418.656
G1 X239.712 Y-418.61
G1 X239.358 Y-416.888
G1 X239.342 Y-416.815
G1 X238.718 Y-414.102
G1 X238.706 Y-414.052
G1 X238.285 Y-412.348
G1 X238.271 Y-412.291
G1 X237.56 Y-409.627
G1 X237.545 Y-409.575
G1 X237.066 Y-407.895
G1 X237.054 Y-407.852
G1 X236.272 Y-405.249
G1 X236.255 Y-405.196
G1 X235.728 Y-403.548
G1 X235.717 Y-403.515
G1 X234.877 Y-400.983
G1 X234.859 Y-400.928
G1 X234.292 Y-399.318
G1 X234.284 Y-399.298
G1 X233.402 Y-396.848
G1 X233.381 Y-396.791
G1 X232.784 Y-395.227
G1 X232.78 Y-395.217
G1 X231.871 Y-392.86
G1 X231.847 Y-392.798
G1 X231.228 Y-391.288
G1 X230.305 Y-389.033
G1 X230.278 Y-388.969
G1 X229.817 Y-387.91
G3 X229.41 Y-387.225 I-2.911 J-1.267
G1 X228.915 Y-386.59
G3 X226.411 Y-385.367 I-2.504 J-1.952
G1 X48.478
G3 X46.714 Y-385.902 I0 J-3.175
G1 X46.454 Y-386.076
G1 X46.628 Y-385.816
G3 X47.163 Y-384.052 I-2.64 J1.764
G1 Y-380.586
G3 X46.628 Y-378.822 I-3.175 J0
G1 X46.454 Y-378.562
G1 X46.712 Y-378.735
G3 X48.478 Y-379.271 I1.765 J2.639
G1 X219.971
G3 X222.473 Y-378.05 I0 J3.175
G1 X222.969 Y-377.415
G3 X223.302 Y-374.032 I-2.502 J1.954
G1 X222.612 Y-372.663
G1 X222.564 Y-372.571
G1 X221.974 Y-371.489
G1 X221.133 Y-369.877
G1 X221.082 Y-369.782
G1 X220.502 Y-368.756
G1 X219.676 Y-367.219
G1 X219.619 Y-367.117
G1 X219.045 Y-366.138
G1 X217.41 Y-363.205
G1 X217.348 Y-363.099
G1 X216.208 Y-361.227
G1 X214.617 Y-358.464
G1 X214.548 Y-358.35
G1 X213.444 Y-356.606
G1 X211.898 Y-353.945
G1 X211.827 Y-353.828
G1 X210.757 Y-352.157
G1 X209.251 Y-349.519
G1 X209.181 Y-349.403
G1 X208.141 Y-347.75
G1 X206.668 Y-345.056
G1 X206.603 Y-344.944
G1 X205.583 Y-343.247
G1 X204.129 Y-340.424
G1 X204.071 Y-340.318
G1 X203.056 Y-338.519
G1 X201.594 Y-335.536
G1 X201.544 Y-335.439
G1 X200.522 Y-333.523
G1 X199.03 Y-330.377
G1 X198.985 Y-330.287
G1 X197.942 Y-328.256
G1 X196.4 Y-324.952
G1 X196.361 Y-324.871
G1 X195.285 Y-322.724
G1 X193.671 Y-319.261
G1 X193.636 Y-319.189
G1 X192.513 Y-316.93
G1 X190.81 Y-313.312
G1 X190.778 Y-313.246
G1 X189.597 Y-310.88
G1 X188.71 Y-309.026
G1 X188.682 Y-308.968
G1 X188.071 Y-307.756
G1 X187.154 Y-305.864
G1 X187.127 Y-305.81
G1 X186.496 Y-304.57
G1 X185.779 Y-303.116
G1 Z-17.526
G1 X185.544 Y-302.639
G1 X185.518 Y-302.589
G1 X184.865 Y-301.321
G1 X183.878 Y-299.353
G1 X183.854 Y-299.306
G1 X183.178 Y-298.011
G1 X182.152 Y-296.004
G1 X182.13 Y-295.96
G1 X181.43 Y-294.641
G1 X180.555 Y-292.949
G1 Z-20.066
G1 X180.375 Y-292.602
G1 X180.355 Y-292.563
G1 X179.636 Y-291.22
G1 X178.555 Y-289.145
G1 X178.536 Y-289.109
G1 X177.802 Y-287.743
G1 X176.701 Y-285.633
G1 X176.684 Y-285.602
G1 X175.939 Y-284.212
G1 X174.824 Y-282.067
G1 X174.809 Y-282.038
G1 X174.056 Y-280.624
G1 X172.934 Y-278.445
G1 X172.921 Y-278.419
G1 X172.164 Y-276.981
G1 X171.039 Y-274.765
G1 X171.028 Y-274.743
G1 X170.271 Y-273.281
G1 X169.15 Y-271.029
G1 X169.141 Y-271.01
G1 X168.388 Y-269.524
G1 X167.277 Y-267.236
G1 X167.269 Y-267.22
G1 X166.525 Y-265.709
G1 X165.427 Y-263.384
G1 X165.423 Y-263.374
G1 X164.691 Y-261.837
G1 X163.614 Y-259.474
G1 X163.612 Y-259.469
G1 X162.896 Y-257.906
G1 X161.843 Y-255.504
G1 Y-255.503
G1 X161.147 Y-253.916
G1 X160.128 Y-251.478
G1 X159.456 Y-249.867
G1 X158.96 Y-248.614
G3 X158.51 Y-247.829 I-2.952 J-1.169
G1 X158.014 Y-247.194
G3 X155.998 Y-246.01 I-2.502 J-1.954
G0 Z6.096

G0 Z6.096
M5
M30
