(1001)
(T1  D=6.35 CR=0 - ZMIN=-12.7 - FLAT END MILL)
G0 G40 G90 G17
G21

(2D CONTOUR2)
T1 M6
M3 S5000
G0 X8.763 Y2.089
G0 Z6.096
G1 Z4.191 F508.
G1 Z-6.604
G1 X0.402 Y3.149
G1 X-5.035 Y3.847
G3 X-5.288 Y3.869 I-0.404 J-3.149
G1 X-15.281 Y4.344
G1 X-19.124 Y4.527
G1 X-19.333 Y4.531
G1 X-26.04 Y4.409
G1 X-28.555 Y4.364
G1 X-28.716 Y4.357
G1 X-34.989 Y3.925
G1 X-37.971 Y3.718
G1 X-38.123 Y3.704
G1 X-43.634 Y3.056
G1 X-43.635 Y3.055
G1 X-47.455 Y2.604
G1 X-47.599 Y2.584
G1 X-52.058 Y1.85
G1 X-52.06
G1 X-53.805 Y1.561
G3 X-56.421 Y-2.088 I0.517 J-3.133
G3 X-55.792 Y-3.524 I3.133 J0.517
G1 X-55.296 Y-4.159
G3 X-52.793 Y-5.381 I2.503 J1.953
G1 X-30.097
G3 X-26.983 Y-2.826 I0 J3.175
G1 X-26.922 Y-2.519
G1 Y-14.339
G1 X-26.983 Y-14.033
G3 X-30.097 Y-11.477 I-3.114 J-0.619
G1 X-97.979
G3 X-99.224 Y-11.732 I0 J-3.175
G1 X-99.834 Y-11.991
G1 X-105.183 Y-14.273
G1 X-105.316 Y-14.333
G1 X-107.781 Y-15.521
G1 X-108.629 Y-15.929
G1 X-108.736 Y-15.983
G1 X-115.98 Y-19.813
G1 X-119.903 Y-21.887
G1 X-120.033 Y-21.959
G1 X-126.672 Y-25.879
G1 X-135.298 Y-30.971
G1 X-135.445 Y-31.063
G1 X-139.657 Y-33.872
G1 X-143.885 Y-36.691
G1 X-144.019 Y-36.786
G1 X-151.996 Y-42.72
G1 X-159.99 Y-48.667
G1 X-160.117 Y-48.767
G1 X-164.361 Y-52.273
G1 X-169.878 Y-56.832
G1 X-169.974 Y-56.914
G1 X-176.176 Y-62.467
G1 X-181.184 Y-66.951
G1 X-181.291 Y-67.051
G1 X-187.606 Y-73.255
G1 X-197.804 Y-83.271
G1 X-197.877 Y-83.345
G1 X-199.06 Y-84.586
G1 X-199.851 Y-85.415
G1 X-199.94 Y-85.513
G1 X-209.273 Y-96.148
G1 X-215.802 Y-103.587
G1 X-215.88 Y-103.679
G1 X-219.468 Y-108.094
G1 X-227.611 Y-118.114
G1 X-227.675 Y-118.195
G1 X-229.25 Y-120.268
G1 X-229.971 Y-121.217
G1 X-230.039 Y-121.31
G1 X-237.804 Y-132.338
G1 X-241.716 Y-137.894
G1 X-241.784 Y-137.995
G1 X-245.992 Y-144.488
G1 X-246.357 Y-145.051
G3 X-246.195 Y-148.732 I2.664 J-1.727
G1 X-245.699 Y-149.367
G3 X-243.197 Y-150.588 I2.502 J1.954
G1 X-72.068
G3 X-68.954 Y-148.032 I0 J3.175
G1 X-68.893 Y-147.726
G1 Y-159.546
G1 X-68.954 Y-159.24
G3 X-72.068 Y-156.684 I-3.114 J-0.619
G1 X-251.742
G3 X-254.246 Y-157.907 I0 J-3.175
G1 X-254.741 Y-158.542
G3 X-254.984 Y-158.901 I2.504 J-1.952
G1 X-260.347 Y-168.15
G1 X-260.391 Y-168.229
G1 X-263.117 Y-173.253
G1 X-264.044 Y-174.962
G1 X-264.13 Y-175.132
G1 X-270.562 Y-188.902
G1 X-273.215 Y-194.582
G1 X-273.293 Y-194.765
G1 X-277.054 Y-204.34
G1 X-280.351 Y-212.736
G1 X-280.419 Y-212.925
G1 X-282.504 Y-219.408
G1 X-285.755 Y-229.522
G1 X-285.808 Y-229.708
G1 X-286.898 Y-233.974
G1 X-289.725 Y-245.036
G1 X-289.764 Y-245.206
G1 X-290.302 Y-247.927
G1 X-292.564 Y-259.368
G1 X-292.588 Y-259.508
G1 X-292.842 Y-261.183
G1 X-294.576 Y-272.611
G1 X-294.589 Y-272.706
G1 X-294.707 Y-273.68
G1 X-296.066 Y-284.851
G1 X-296.071 Y-284.895
G1 X-296.134 Y-285.482
G1 X-296.796 Y-291.645
G3 X-296.143 Y-293.936 I3.157 J-0.339
G1 X-295.648 Y-294.571
G3 X-293.144 Y-295.794 I2.504 J1.952
G1 X-98.317
G3 X-95.204 Y-293.238 I0 J3.175
G1 X-95.143 Y-292.932
G1 Y-304.752
G1 X-95.204 Y-304.446
G3 X-98.317 Y-301.89 I-3.114 J-0.619
G1 X-294.507
G3 X-297.011 Y-303.113 I0 J-3.175
G1 X-297.506 Y-303.748
G3 X-298.164 Y-305.418 I2.504 J-1.952
G1 X-298.621 Y-310.55
G1 X-298.643 Y-310.789
G1 X-298.647 Y-310.836
G1 X-299.481 Y-321.831
G1 X-299.517 Y-322.299
G1 X-299.52 Y-322.347
G1 X-300.142 Y-332.434
G1 X-300.18 Y-333.045
G1 X-300.184 Y-333.116
G1 X-300.905 Y-351.334
G1 X-300.965 Y-352.829
G1 X-300.968 Y-352.918
G1 X-301.169 Y-369.89
G1 X-301.187 Y-371.407
G1 Y-371.483
G1 X-300.985 Y-388.539
G1 X-300.968 Y-389.972
G1 X-300.966 Y-390.06
G1 X-300.23 Y-408.611
G1 X-300.184 Y-409.774
G1 X-300.18 Y-409.844
G1 X-299.548 Y-420.091
G1 X-299.52 Y-420.545
G1 X-299.517 Y-420.589
G1 X-298.665 Y-431.82
G1 Y-431.824
G1 X-298.647 Y-432.058
G1 X-298.643 Y-432.096
G1 X-298.164 Y-437.472
G3 X-297.506 Y-439.142 I3.162 J0.282
G1 X-297.011 Y-439.777
G3 X-294.507 Y-441 I2.504 J1.952
G1 X-98.284
G3 X-95.17 Y-438.444 I0 J3.175
G1 X-95.109 Y-438.138
G1 Y-449.958
G1 X-95.17 Y-449.652
G3 X-98.284 Y-447.096 I-3.114 J-0.619
G1 X-293.144
G3 X-295.648 Y-448.319 I0 J-3.175
G1 X-296.143 Y-448.954
G3 X-296.796 Y-451.245 I2.504 J-1.952
G1 X-296.071 Y-457.996
G1 X-296.062 Y-458.073
G1 X-295.924 Y-459.117
G1 X-293.265 Y-479.284
G1 X-293.243 Y-479.427
G1 X-292.982 Y-480.889
G1 X-291.155 Y-491.116
G1 X-291.127 Y-491.251
G1 X-290.607 Y-493.576
G1 X-288.331 Y-503.747
G1 X-288.294 Y-503.899
G1 X-287.292 Y-507.53
G1 X-284.604 Y-517.268
G1 X-284.555 Y-517.427
G1 X-282.686 Y-523.031
G1 X-279.785 Y-531.731
G1 X-279.726 Y-531.892
G1 X-276.343 Y-540.47
G1 X-273.69 Y-547.197
G1 X-273.623 Y-547.353
G1 X-267.647 Y-560.416
G1 X-266.134 Y-563.722
G1 X-266.062 Y-563.87
G1 X-260.416 Y-574.693
G1 X-260.374 Y-574.77
G1 X-256.653 Y-581.445
G1 X-256.571 Y-581.584
G1 X-255.007 Y-584.082
G3 X-254.82 Y-584.349 I2.691 J1.685
G1 X-254.325 Y-584.984
G3 X-251.821 Y-586.207 I2.504 J1.952
G1 X-72.004
G3 X-68.89 Y-583.651 I0 J3.175
G1 X-68.829 Y-583.345
G1 Y-595.165
G1 X-68.89 Y-594.859
G3 X-72.004 Y-592.303 I-3.114 J-0.62
G1 X-243.234
G3 X-245.738 Y-593.526 I0 J-3.175
G1 X-246.233 Y-594.161
G3 X-246.42 Y-597.797 I2.504 J-1.952
G1 X-244.869 Y-600.276
G1 X-244.786 Y-600.402
G1 X-233.469 Y-616.702
G1 X-230.937 Y-620.349
G1 X-230.854 Y-620.464
G1 X-227.671 Y-624.64
G1 X-227.607 Y-624.721
G1 X-213.712 Y-641.769
G1 X-213.616 Y-641.881
G1 X-197.945 Y-659.376
G1 X-197.875 Y-659.452
G1 X-193.521 Y-664.006
G1 X-193.403 Y-664.123
G1 X-170.028 Y-686.138
G1 X-169.934 Y-686.223
G1 X-169.773 Y-686.363
G1 X-169.628 Y-686.482
G1 X-144.059 Y-706.18
G1 X-143.925 Y-706.278
G1 X-141.262 Y-708.117
G1 X-141.088 Y-708.228
G1 X-120.053 Y-720.816
G1 X-119.923 Y-720.89
G1 X-110.129 Y-726.139
G1 X-108.752 Y-726.877
G1 X-108.646 Y-726.931
G1 X-105.331 Y-728.55
G1 X-105.159 Y-728.628
G1 X-100.586 Y-730.534
G1 X-99.063 Y-731.169
G3 X-97.841 Y-731.413 I1.222 J2.931
G1 X-29.995
G3 X-26.881 Y-728.857 I0 J3.175
G1 X-26.82 Y-728.551
G1 Y-740.371
G1 X-26.881 Y-740.065
G3 X-29.995 Y-737.509 I-3.114 J-0.619
G1 X-53.478
G3 X-55.981 Y-738.731 I0 J-3.175
G1 X-56.476 Y-739.366
G3 X-55.926 Y-743.822 I2.503 J-1.953
G3 X-54.452 Y-744.458 I1.953 J2.504
G1 X-47.559 Y-745.51
G1 X-47.423 Y-745.527
G1 X-46.336 Y-745.645
G1 X-38.093 Y-746.544
G1 X-37.95 Y-746.557
G1 X-36.216 Y-746.667
G1 X-28.697 Y-747.147
G1 X-28.549 Y-747.153
G1 X-26.485 Y-747.188
G1 X-19.327 Y-747.308
G1 X-19.135 Y-747.305
G1 X-16.057 Y-747.171
G1 X-16.055
G1 X-5.296 Y-746.696
G1 X-5.071 Y-746.678
G1 X-2.735 Y-746.408
G1 X-2.726 Y-746.407
G1 X8.737 Y-745.05
G1 X8.849 Y-745.035
G1 X8.96 Y-745.016
G1 X9.823 Y-744.851
G1 X9.843 Y-744.847
G1 X14.522 Y-743.923
G1 X14.631 Y-743.899
G1 X21.242 Y-742.352
G1 X21.257 Y-742.349
G1 X22.773 Y-741.986
G1 X22.977 Y-741.93
G1 X28.068 Y-740.346
G1 X28.09 Y-740.338
G1 X29.752 Y-739.807
G1 X29.884 Y-739.762
G1 X33.983 Y-738.252
G1 X34.013 Y-738.241
G1 X36.587 Y-737.263
G1 X36.717 Y-737.21
G1 X39.751 Y-735.9
G1 X39.789 Y-735.883
G1 X43.327 Y-734.3
G1 X43.458 Y-734.238
G1 X45.368 Y-733.277
G1 X45.414 Y-733.254
G1 X49.952 Y-730.878
G1 X50.081 Y-730.806
G1 X50.829 Y-730.369
G1 X50.884 Y-730.336
G1 X54.039 Y-728.405
G1 X54.214 Y-728.29
G1 X56.155 Y-726.919
G1 X56.196 Y-726.89
G1 X56.666 Y-726.547
G1 X56.8 Y-726.443
G1 X61.243 Y-722.815
G1 X61.284 Y-722.781
G1 X63.041 Y-721.297
G1 X63.151 Y-721.2
G1 X66.191 Y-718.379
G1 X66.235 Y-718.337
G1 X69.292 Y-715.391
G1 X69.376 Y-715.307
G1 X71.02 Y-713.599
G1 X71.066 Y-713.551
G1 X75.445 Y-708.808
G1 X75.506 Y-708.74
G1 X75.744 Y-708.467
G1 X75.791 Y-708.412
G1 X76.521 Y-707.535
G1 X76.629 Y-707.398
G1 X80.245 Y-702.533
G1 X80.271 Y-702.498
G1 X81.732 Y-700.474
G1 X81.783 Y-700.402
G1 X84.601 Y-696.262
G1 X84.63 Y-696.219
G1 X87.839 Y-691.337
G1 X87.873 Y-691.284
G1 X88.912 Y-689.634
G1 X88.943 Y-689.583
G1 X91.341 Y-685.607
G1 X91.4 Y-685.505
G1 X93.095 Y-682.443
G1 X93.115 Y-682.406
G1 X94.005 Y-680.746
G1 X94.031 Y-680.697
G1 X97.061 Y-674.798
G1 X97.085 Y-674.75
G1 X100.046 Y-668.737
G1 X100.061 Y-668.705
G1 X100.976 Y-666.794
G1 X101.004 Y-666.734
G1 X102.641 Y-663.123
G1 X102.673 Y-663.05
G1 X104.682 Y-658.307
G1 X104.704 Y-658.255
G1 X106.012 Y-655.006
G1 X106.023 Y-654.979
G1 X108.176 Y-649.488
G1 X108.201 Y-649.421
G1 X111.337 Y-640.854
G1 X111.358 Y-640.796
G1 X111.542 Y-640.261
G1 X111.563 Y-640.197
G1 X111.706 Y-639.751
G1 X111.714 Y-639.728
G1 X114.484 Y-630.858
G1 X114.507 Y-630.779
G1 X116.873 Y-622.443
G1 X116.876 Y-622.432
G1 X117.25 Y-621.097
G1 X117.276 Y-620.998
G1 X117.694 Y-619.296
G1 X117.704 Y-619.257
G1 X119.572 Y-611.211
G1 X119.592 Y-611.117
G1 X121.251 Y-602.839
G1 X121.254 Y-602.826
G1 X121.602 Y-601.051
G1 X121.621 Y-600.94
G1 X121.916 Y-599.091
G1 X121.92 Y-599.065
G1 X123.168 Y-590.807
G1 X123.183 Y-590.7
G1 X124.392 Y-580.315
G1 Y-580.312
G1 X124.395 Y-580.286
G1 X124.412 Y-580.085
G1 X125.154 Y-569.751
G1 X125.16 Y-569.636
G1 X125.411 Y-562.514
G1 X125.537 Y-559.008
G1 X125.539 Y-558.898
G1 X125.548 Y-552.128
G1 Y-552.092
G1 X125.5 Y-547.302
G1 X125.492 Y-547.103
G1 X125.4 Y-545.854
G1 X124.953 Y-534.565
G1 X124.939 Y-534.369
G1 X124.541 Y-530.465
G1 X124.007 Y-522.079
G1 X123.988 Y-521.887
G1 X123.264 Y-516.096
G1 X122.756 Y-509.924
G1 X122.735 Y-509.736
G1 X121.73 Y-502.68
G1 X121.302 Y-498.168
G1 X121.279 Y-497.985
G1 X120.074 Y-490.155
G1 X119.738 Y-486.862
G1 X119.715 Y-486.687
G1 X118.408 Y-478.461
G1 X117.951 Y-473.918
G1 X117.93 Y-473.751
G1 X115.381 Y-457.273
G1 X115.224 Y-455.499
G1 X115.209 Y-455.363
G1 X113.688 Y-443.873
G1 X113.607 Y-442.791
G1 X113.597 Y-442.681
G1 X112.379 Y-431.548
G1 X112.345 Y-430.962
G1 X112.338 Y-430.876
G1 X111.419 Y-420.148
G1 X111.409 Y-419.904
G1 X111.406 Y-419.839
G1 X110.765 Y-409.517
G1 X110.763 Y-409.441
G1 X110.762 Y-409.409
G1 X110.597 Y-404.161
G1 Y-404.153
G1 X110.124 Y-390.204
G1 X110.123 Y-390.169
G1 X110.109 Y-389.853
G1 X110.004 Y-371.924
G1 X110.001 Y-371.445
G1 X110.106 Y-353.343
G1 X110.109 Y-353.023
G1 X110.597 Y-338.738
G1 Y-338.728
G1 X110.765 Y-333.351
G1 X110.766 Y-333.319
G1 X111.419 Y-322.738
G1 X111.439 Y-322.419
G1 X112.378 Y-311.344
G1 X112.38 Y-311.313
G1 X112.434 Y-310.589
G1 X113.685 Y-299.033
G1 X113.69 Y-298.978
G1 X113.811 Y-297.641
G1 X115.376 Y-285.645
G1 X115.386 Y-285.558
G1 X115.572 Y-283.748
G1 X117.082 Y-273.552
G1 X117.098 Y-273.424
G1 X117.385 Y-270.735
G1 X118.978 Y-260.471
G1 X118.999 Y-260.314
G1 X119.422 Y-256.268
G1 X120.946 Y-246.302
G1 X120.968 Y-246.12
G1 X121.557 Y-239.877
G1 X122.819 Y-230.938
G1 X122.841 Y-230.738
G1 X123.601 Y-220.873
G1 X124.397 Y-214.277
G1 X124.416 Y-214.063
G1 X125.248 Y-198.148
G1 X125.425 Y-196.214
G1 X125.437 Y-195.99
G1 X125.54 Y-190.874
G1 Y-190.749
G1 X125.264 Y-176.415
G1 X125.258 Y-176.262
G1 X124.366 Y-163.053
G1 X124.356 Y-162.936
G1 X123.536 Y-155.112
G1 X123.518 Y-154.973
G1 X121.289 Y-140.09
G1 X121.272 Y-139.986
G1 X121.118 Y-139.148
G1 X121.093 Y-139.028
G1 X120.095 Y-134.569
G1 X117.413 Y-122.452
G1 X117.385 Y-122.337
G1 X116.895 Y-120.458
G1 X116.867 Y-120.357
G1 X112.249 Y-104.779
G1 X112.216 Y-104.674
G1 X111.695 Y-103.116
G1 X111.662 Y-103.022
G1 X108.623 Y-94.801
G1 X106.043 Y-87.785
G1 X106.007 Y-87.692
G1 X105.492 Y-86.417
G1 X105.451 Y-86.322
G1 X100.097 Y-74.223
G1 X100.053 Y-74.128
G1 X97.067 Y-67.937
G1 X97.015 Y-67.834
G1 X94.014 Y-62.149
G1 X93.958 Y-62.047
G1 X89.501 Y-54.301
G1 X87.929 Y-51.547
G1 X87.863 Y-51.438
G1 X86.671 Y-49.531
G1 X86.594 Y-49.413
G1 X81.768 Y-42.409
G1 X81.678 Y-42.284
G1 X77.338 Y-36.596
G1 X75.649 Y-34.36
G1 X75.542 Y-34.225
G1 X73.375 Y-31.657
G1 X73.253 Y-31.521
G1 X69.38 Y-27.436
G1 X69.231 Y-27.288
G1 X67.04 Y-25.263
G1 X63.16 Y-21.615
G1 X63.075 Y-21.538
G1 X62.987 Y-21.463
G1 X57.772 Y-17.228
G1 X56.812 Y-16.436
G1 X56.715 Y-16.359
G1 X56.615 Y-16.286
G1 X54.206 Y-14.595
G1 X54.056 Y-14.495
G1 X50.15 Y-12.072
G1 X50.05 Y-12.013
G1 X49.949 Y-11.958
G1 X47.964 Y-10.918
G1 X43.516 Y-8.553
G1 X43.324 Y-8.459
G1 X38.608 Y-6.344
G1 X36.767 Y-5.506
G1 X36.585 Y-5.43
G1 X30.922 Y-3.267
G1 X30.806 Y-3.225
G1 X29.797 Y-2.885
G1 X29.637 Y-2.835
G1 X29.378 Y-2.763
G1 X22.904 Y-0.918
G1 X22.689 Y-0.865
G1 X18.569 Y0.004
G1 X9.027 Y2.044
G3 X8.763 Y2.089 I-0.664 J-3.105
G1 Z-12.7
G1 X0.402 Y3.149
G1 X-5.035 Y3.847
G3 X-5.288 Y3.869 I-0.404 J-3.149
G1 X-15.281 Y4.344
G1 X-19.124 Y4.527
G1 X-19.333 Y4.531
G1 X-26.04 Y4.409
G1 X-28.555 Y4.364
G1 X-28.716 Y4.357
G1 X-34.989 Y3.925
G1 X-37.971 Y3.718
G1 X-38.123 Y3.704
G1 X-43.634 Y3.056
G1 X-43.635 Y3.055
G1 X-47.455 Y2.604
G1 X-47.599 Y2.584
G1 X-52.058 Y1.85
G1 X-52.06
G1 X-53.805 Y1.561
G3 X-56.421 Y-2.088 I0.517 J-3.133
G3 X-55.792 Y-3.524 I3.133 J0.517
G1 X-55.296 Y-4.159
G3 X-52.793 Y-5.381 I2.503 J1.953
G1 X-30.097
G3 X-26.983 Y-2.826 I0 J3.175
G1 X-26.922 Y-2.519
G1 Y-14.339
G1 X-26.983 Y-14.033
G3 X-30.097 Y-11.477 I-3.114 J-0.619
G1 X-97.979
G3 X-99.224 Y-11.732 I0 J-3.175
G1 X-99.834 Y-11.991
G1 X-105.183 Y-14.273
G1 X-105.316 Y-14.333
G1 X-107.781 Y-15.521
G1 X-108.629 Y-15.929
G1 X-108.736 Y-15.983
G1 X-115.98 Y-19.813
G1 X-119.903 Y-21.887
G1 X-120.033 Y-21.959
G1 X-126.672 Y-25.879
G1 X-135.298 Y-30.971
G1 X-135.445 Y-31.063
G1 X-139.657 Y-33.872
G1 X-143.885 Y-36.691
G1 X-144.019 Y-36.786
G1 X-151.996 Y-42.72
G1 X-159.99 Y-48.667
G1 X-160.117 Y-48.767
G1 X-164.361 Y-52.273
G1 X-169.878 Y-56.832
G1 X-169.974 Y-56.914
G1 X-176.176 Y-62.467
G1 X-177.031 Y-63.233
G1 Z-10.16
G1 X-181.184 Y-66.951
G1 X-181.291 Y-67.051
G1 X-185.368 Y-71.056
G1 Z-12.7
G1 X-187.606 Y-73.255
G1 X-197.804 Y-83.271
G1 X-197.877 Y-83.345
G1 X-199.06 Y-84.586
G1 X-199.851 Y-85.415
G1 X-199.94 Y-85.513
G1 X-209.273 Y-96.148
G1 X-215.802 Y-103.587
G1 X-215.88 Y-103.679
G1 X-219.468 Y-108.094
G1 X-227.611 Y-118.114
G1 X-227.675 Y-118.195
G1 X-229.25 Y-120.268
G1 X-229.971 Y-121.217
G1 X-230.039 Y-121.31
G1 X-237.804 Y-132.338
G1 X-241.716 Y-137.894
G1 X-241.784 Y-137.995
G1 X-245.992 Y-144.488
G1 X-246.357 Y-145.051
G3 X-246.195 Y-148.732 I2.664 J-1.727
G1 X-245.699 Y-149.367
G3 X-243.197 Y-150.588 I2.502 J1.954
G1 X-72.068
G3 X-68.954 Y-148.032 I0 J3.175
G1 X-68.893 Y-147.726
G1 Y-159.546
G1 X-68.954 Y-159.24
G3 X-72.068 Y-156.684 I-3.114 J-0.619
G1 X-251.742
G3 X-254.246 Y-157.907 I0 J-3.175
G1 X-254.741 Y-158.542
G3 X-254.984 Y-158.901 I2.504 J-1.952
G1 X-260.347 Y-168.15
G1 X-260.391 Y-168.229
G1 X-263.117 Y-173.253
G1 X-264.044 Y-174.962
G1 X-264.13 Y-175.132
G1 X-270.562 Y-188.902
G1 X-273.215 Y-194.582
G1 X-273.293 Y-194.765
G1 X-274.965 Y-199.021
G1 Z-10.16
G1 X-277.054 Y-204.34
G1 X-279.143 Y-209.66
G1 Z-12.7
G1 X-280.351 Y-212.736
G1 X-280.419 Y-212.925
G1 X-282.504 Y-219.408
G1 X-285.755 Y-229.522
G1 X-285.808 Y-229.708
G1 X-286.898 Y-233.974
G1 X-289.725 Y-245.036
G1 X-289.764 Y-245.206
G1 X-290.302 Y-247.927
G1 X-292.564 Y-259.368
G1 X-292.588 Y-259.508
G1 X-292.842 Y-261.183
G1 X-294.576 Y-272.611
G1 X-294.589 Y-272.706
G1 X-294.707 Y-273.68
G1 X-296.066 Y-284.851
G1 X-296.071 Y-284.895
G1 X-296.134 Y-285.482
G1 X-296.796 Y-291.645
G3 X-296.143 Y-293.936 I3.157 J-0.339
G1 X-295.648 Y-294.571
G3 X-293.144 Y-295.794 I2.504 J1.952
G1 X-98.317
G3 X-95.204 Y-293.238 I0 J3.175
G1 X-95.143 Y-292.932
G1 Y-304.752
G1 X-95.204 Y-304.446
G3 X-98.317 Y-301.89 I-3.114 J-0.619
G1 X-294.507
G3 X-297.011 Y-303.113 I0 J-3.175
G1 X-297.506 Y-303.748
G3 X-298.164 Y-305.418 I2.504 J-1.952
G1 X-298.621 Y-310.55
G1 X-298.643 Y-310.789
G1 X-298.647 Y-310.836
G1 X-299.481 Y-321.831
G1 X-299.517 Y-322.299
G1 X-299.52 Y-322.347
G1 X-300.142 Y-332.434
G1 X-300.18 Y-333.045
G1 X-300.184 Y-333.116
G1 X-300.905 Y-351.334
G1 X-300.965 Y-352.829
G1 X-300.968 Y-352.918
G1 X-301.169 Y-369.89
G1 X-301.187 Y-371.407
G1 Y-371.483
G1 X-301.034 Y-384.343
G1 Z-10.16
G1 X-300.985 Y-388.539
G1 X-300.968 Y-389.972
G1 X-300.966 Y-390.06
G1 X-300.739 Y-395.77
G1 Z-12.7
G1 X-300.23 Y-408.611
G1 X-300.184 Y-409.774
G1 X-300.18 Y-409.844
G1 X-299.548 Y-420.091
G1 X-299.52 Y-420.545
G1 X-299.517 Y-420.589
G1 X-298.665 Y-431.82
G1 Y-431.824
G1 X-298.647 Y-432.058
G1 X-298.643 Y-432.096
G1 X-298.164 Y-437.472
G3 X-297.506 Y-439.142 I3.162 J0.282
G1 X-297.011 Y-439.777
G3 X-294.507 Y-441 I2.504 J1.952
G1 X-98.284
G3 X-95.17 Y-438.444 I0 J3.175
G1 X-95.109 Y-438.138
G1 Y-449.958
G1 X-95.17 Y-449.652
G3 X-98.284 Y-447.096 I-3.114 J-0.619
G1 X-293.144
G3 X-295.648 Y-448.319 I0 J-3.175
G1 X-296.143 Y-448.954
G3 X-296.796 Y-451.245 I2.504 J-1.952
G1 X-296.071 Y-457.996
G1 X-296.062 Y-458.073
G1 X-295.924 Y-459.117
G1 X-293.265 Y-479.284
G1 X-293.243 Y-479.427
G1 X-292.982 Y-480.889
G1 X-291.155 Y-491.116
G1 X-291.127 Y-491.251
G1 X-290.607 Y-493.576
G1 X-288.331 Y-503.747
G1 X-288.294 Y-503.899
G1 X-287.292 Y-507.53
G1 X-284.604 Y-517.268
G1 X-284.555 Y-517.427
G1 X-282.686 Y-523.031
G1 X-279.785 Y-531.731
G1 X-279.726 Y-531.892
G1 X-276.343 Y-540.47
G1 X-275.727 Y-542.031
G1 Z-10.16
G1 X-273.69 Y-547.197
G1 X-273.623 Y-547.353
G1 X-271.246 Y-552.55
G1 Z-12.7
G1 X-267.647 Y-560.416
G1 X-266.134 Y-563.722
G1 X-266.062 Y-563.87
G1 X-260.416 Y-574.693
G1 X-260.374 Y-574.77
G1 X-256.653 Y-581.445
G1 X-256.571 Y-581.584
G1 X-255.007 Y-584.082
G3 X-254.82 Y-584.349 I2.691 J1.685
G1 X-254.325 Y-584.984
G3 X-251.821 Y-586.207 I2.504 J1.952
G1 X-72.004
G3 X-68.89 Y-583.651 I0 J3.175
G1 X-68.829 Y-583.345
G1 Y-595.165
G1 X-68.89 Y-594.859
G3 X-72.004 Y-592.303 I-3.114 J-0.62
G1 X-243.234
G3 X-245.738 Y-593.526 I0 J-3.175
G1 X-246.233 Y-594.161
G3 X-246.42 Y-597.797 I2.504 J-1.952
G1 X-244.869 Y-600.276
G1 X-244.786 Y-600.402
G1 X-233.469 Y-616.702
G1 X-230.937 Y-620.349
G1 X-230.854 Y-620.464
G1 X-227.671 Y-624.64
G1 X-227.607 Y-624.721
G1 X-213.712 Y-641.769
G1 X-213.616 Y-641.881
G1 X-197.945 Y-659.376
G1 X-197.875 Y-659.452
G1 X-193.521 Y-664.006
G1 X-193.403 Y-664.123
G1 X-170.028 Y-686.138
G1 X-169.934 Y-686.223
G1 X-169.773 Y-686.363
G1 X-169.628 Y-686.482
G1 X-145.745 Y-704.881
G1 Z-10.16
G1 X-144.059 Y-706.18
G1 X-143.925 Y-706.278
G1 X-141.262 Y-708.117
G1 X-141.088 Y-708.228
G1 X-136.184 Y-711.163
G1 Z-12.7
G1 X-120.053 Y-720.816
G1 X-119.923 Y-720.89
G1 X-110.129 Y-726.139
G1 X-108.752 Y-726.877
G1 X-108.646 Y-726.931
G1 X-105.331 Y-728.55
G1 X-105.159 Y-728.628
G1 X-100.586 Y-730.534
G1 X-99.063 Y-731.169
G3 X-97.841 Y-731.413 I1.222 J2.931
G1 X-29.995
G3 X-26.881 Y-728.857 I0 J3.175
G1 X-26.82 Y-728.551
G1 Y-740.371
G1 X-26.881 Y-740.065
G3 X-29.995 Y-737.509 I-3.114 J-0.619
G1 X-53.478
G3 X-55.981 Y-738.731 I0 J-3.175
G1 X-56.476 Y-739.366
G3 X-55.926 Y-743.822 I2.503 J-1.953
G3 X-54.452 Y-744.458 I1.953 J2.504
G1 X-47.559 Y-745.51
G1 X-47.423 Y-745.527
G1 X-46.336 Y-745.645
G1 X-38.093 Y-746.544
G1 X-37.95 Y-746.557
G1 X-36.216 Y-746.667
G1 X-28.697 Y-747.147
G1 X-28.549 Y-747.153
G1 X-26.485 Y-747.188
G1 X-19.327 Y-747.308
G1 X-19.135 Y-747.305
G1 X-16.057 Y-747.171
G1 X-16.055
G1 X-5.296 Y-746.696
G1 X-5.071 Y-746.678
G1 X-2.735 Y-746.408
G1 X-2.726 Y-746.407
G1 X8.737 Y-745.05
G1 X8.849 Y-745.035
G1 X8.96 Y-745.016
G1 X9.823 Y-744.851
G1 X9.843 Y-744.847
G1 X14.522 Y-743.923
G1 X14.631 Y-743.899
G1 X21.242 Y-742.352
G1 X21.257 Y-742.349
G1 X22.773 Y-741.986
G1 X22.977 Y-741.93
G1 X28.068 Y-740.346
G1 X28.09 Y-740.338
G1 X29.752 Y-739.807
G1 X29.884 Y-739.762
G1 X33.983 Y-738.252
G1 X34.013 Y-738.241
G1 X36.587 Y-737.263
G1 X36.717 Y-737.21
G1 X39.751 Y-735.9
G1 X39.789 Y-735.883
G1 X43.327 Y-734.3
G1 X43.458 Y-734.238
G1 X45.368 Y-733.277
G1 X45.414 Y-733.254
G1 X49.952 Y-730.878
G1 X50.081 Y-730.806
G1 X50.829 Y-730.369
G1 X50.884 Y-730.336
G1 X54.039 Y-728.405
G1 X54.214 Y-728.29
G1 X56.155 Y-726.919
G1 X56.196 Y-726.89
G1 X56.666 Y-726.547
G1 X56.8 Y-726.443
G1 X61.243 Y-722.815
G1 X61.284 Y-722.781
G1 X63.041 Y-721.297
G1 X63.151 Y-721.2
G1 X66.191 Y-718.379
G1 X66.235 Y-718.337
G1 X69.292 Y-715.391
G1 X69.376 Y-715.307
G1 X71.02 Y-713.599
G1 X71.066 Y-713.551
G1 X75.445 Y-708.808
G1 X75.506 Y-708.74
G1 X75.744 Y-708.467
G1 X75.791 Y-708.412
G1 X76.521 Y-707.535
G1 X76.629 Y-707.398
G1 X80.245 Y-702.533
G1 X80.271 Y-702.498
G1 X81.732 Y-700.474
G1 X81.783 Y-700.402
G1 X84.601 Y-696.262
G1 X84.63 Y-696.219
G1 X87.839 Y-691.337
G1 X87.873 Y-691.284
G1 X88.912 Y-689.634
G1 X88.943 Y-689.583
G1 X91.341 Y-685.607
G1 X91.4 Y-685.505
G1 X93.095 Y-682.443
G1 X93.115 Y-682.406
G1 X94.005 Y-680.746
G1 X94.031 Y-680.697
G1 X97.061 Y-674.798
G1 X97.085 Y-674.75
G1 X97.536 Y-673.833
G1 Z-10.16
G1 X100.046 Y-668.737
G1 X100.061 Y-668.705
G1 X100.976 Y-666.794
G1 X101.004 Y-666.734
G1 X102.462 Y-663.519
G1 Z-12.7
G1 X102.641 Y-663.123
G1 X102.673 Y-663.05
G1 X104.682 Y-658.307
G1 X104.704 Y-658.255
G1 X106.012 Y-655.006
G1 X106.023 Y-654.979
G1 X108.176 Y-649.488
G1 X108.201 Y-649.421
G1 X111.337 Y-640.854
G1 X111.358 Y-640.796
G1 X111.542 Y-640.261
G1 X111.563 Y-640.197
G1 X111.706 Y-639.751
G1 X111.714 Y-639.728
G1 X114.484 Y-630.858
G1 X114.507 Y-630.779
G1 X116.873 Y-622.443
G1 X116.876 Y-622.432
G1 X117.25 Y-621.097
G1 X117.276 Y-620.998
G1 X117.694 Y-619.296
G1 X117.704 Y-619.257
G1 X119.572 Y-611.211
G1 X119.592 Y-611.117
G1 X121.251 Y-602.839
G1 X121.254 Y-602.826
G1 X121.602 Y-601.051
G1 X121.621 Y-600.94
G1 X121.916 Y-599.091
G1 X121.92 Y-599.065
G1 X123.168 Y-590.807
G1 X123.183 Y-590.7
G1 X124.392 Y-580.315
G1 Y-580.312
G1 X124.395 Y-580.286
G1 X124.412 Y-580.085
G1 X125.154 Y-569.751
G1 X125.16 Y-569.636
G1 X125.411 Y-562.514
G1 X125.537 Y-559.008
G1 X125.539 Y-558.898
G1 X125.548 Y-552.128
G1 Y-552.092
G1 X125.5 Y-547.302
G1 X125.492 Y-547.103
G1 X125.4 Y-545.854
G1 X124.953 Y-534.565
G1 X124.939 Y-534.369
G1 X124.541 Y-530.465
G1 X124.007 Y-522.079
G1 X123.988 Y-521.887
G1 X123.264 Y-516.096
G1 X122.756 Y-509.924
G1 X122.735 Y-509.736
G1 X121.73 Y-502.68
G1 X121.302 Y-498.168
G1 X121.279 Y-497.985
G1 X120.074 Y-490.155
G1 X119.738 Y-486.862
G1 X119.715 Y-486.687
G1 X118.408 Y-478.461
G1 X117.951 Y-473.918
G1 X117.93 Y-473.751
G1 X116.272 Y-463.035
G1 Z-10.16
G1 X115.381 Y-457.273
G1 X115.224 Y-455.499
G1 X115.209 Y-455.363
G1 X114.723 Y-451.698
G1 Z-12.7
G1 X113.688 Y-443.873
G1 X113.607 Y-442.791
G1 X113.597 Y-442.681
G1 X112.379 Y-431.548
G1 X112.345 Y-430.962
G1 X112.338 Y-430.876
G1 X111.419 Y-420.148
G1 X111.409 Y-419.904
G1 X111.406 Y-419.839
G1 X110.765 Y-409.517
G1 X110.763 Y-409.441
G1 X110.762 Y-409.409
G1 X110.597 Y-404.161
G1 Y-404.153
G1 X110.308 Y-395.629
G1 Z-10.16
G1 X110.124 Y-390.204
G1 X110.123 Y-390.169
G1 X110.109 Y-389.853
G1 X110.076 Y-384.201
G1 Z-12.7
G1 X110.004 Y-371.924
G1 X110.001 Y-371.445
G1 X110.106 Y-353.343
G1 X110.109 Y-353.023
G1 X110.597 Y-338.738
G1 Y-338.728
G1 X110.765 Y-333.351
G1 X110.766 Y-333.319
G1 X111.419 Y-322.738
G1 X111.439 Y-322.419
G1 X112.378 Y-311.344
G1 X112.38 Y-311.313
G1 X112.434 Y-310.589
G1 X113.685 Y-299.033
G1 X113.69 Y-298.978
G1 X113.811 Y-297.641
G1 X115.376 Y-285.645
G1 X115.386 Y-285.558
G1 X115.572 Y-283.748
G1 X117.082 Y-273.552
G1 X117.098 Y-273.424
G1 X117.385 Y-270.735
G1 X118.978 Y-260.471
G1 X118.999 Y-260.314
G1 X119.422 Y-256.268
G1 X120.946 Y-246.302
G1 X120.968 Y-246.12
G1 X121.013 Y-245.646
G1 Z-10.16
G1 X121.557 Y-239.877
G1 X122.346 Y-234.291
G1 Z-12.7
G1 X122.819 Y-230.938
G1 X122.841 Y-230.738
G1 X123.601 Y-220.873
G1 X124.397 Y-214.277
G1 X124.416 Y-214.063
G1 X125.248 Y-198.148
G1 X125.425 Y-196.214
G1 X125.437 Y-195.99
G1 X125.54 Y-190.874
G1 Y-190.749
G1 X125.264 Y-176.415
G1 X125.258 Y-176.262
G1 X124.366 Y-163.053
G1 X124.356 Y-162.936
G1 X123.536 Y-155.112
G1 X123.518 Y-154.973
G1 X121.289 Y-140.09
G1 X121.272 Y-139.986
G1 X121.118 Y-139.148
G1 X121.093 Y-139.028
G1 X120.095 Y-134.569
G1 X117.413 Y-122.452
G1 X117.385 Y-122.337
G1 X116.895 Y-120.458
G1 X116.867 Y-120.357
G1 X113.843 Y-110.156
G1 Z-10.16
G1 X112.249 Y-104.779
G1 X112.216 Y-104.674
G1 X111.695 Y-103.116
G1 X111.662 Y-103.022
G1 X110.284 Y-99.294
G1 Z-12.7
G1 X108.623 Y-94.801
G1 X106.043 Y-87.785
G1 X106.007 Y-87.692
G1 X105.492 Y-86.417
G1 X105.451 Y-86.322
G1 X100.097 Y-74.223
G1 X100.053 Y-74.128
G1 X97.067 Y-67.937
G1 X97.015 Y-67.834
G1 X94.014 Y-62.149
G1 X93.958 Y-62.047
G1 X89.501 Y-54.301
G1 X87.929 Y-51.547
G1 X87.863 Y-51.438
G1 X86.671 Y-49.531
G1 X86.594 Y-49.413
G1 X81.768 Y-42.409
G1 X81.678 Y-42.284
G1 X77.338 Y-36.596
G1 X75.649 Y-34.36
G1 X75.542 Y-34.225
G1 X73.375 Y-31.657
G1 X73.253 Y-31.521
G1 X69.38 Y-27.436
G1 X69.231 Y-27.288
G1 X67.168 Y-25.381
G1 Z-10.16
G1 X67.04 Y-25.263
G1 X63.16 Y-21.615
G1 X63.075 Y-21.538
G1 X62.987 Y-21.463
G1 X58.551 Y-17.86
G1 Z-12.7
G1 X57.772 Y-17.228
G1 X56.812 Y-16.436
G1 X56.715 Y-16.359
G1 X56.615 Y-16.286
G1 X54.206 Y-14.595
G1 X54.056 Y-14.495
G1 X50.15 Y-12.072
G1 X50.05 Y-12.013
G1 X49.949 Y-11.958
G1 X47.964 Y-10.918
G1 X43.516 Y-8.553
G1 X43.324 Y-8.459
G1 X38.608 Y-6.344
G1 X36.767 Y-5.506
G1 X36.585 Y-5.43
G1 X30.922 Y-3.267
G1 X30.806 Y-3.225
G1 X29.797 Y-2.885
G1 X29.637 Y-2.835
G1 X29.378 Y-2.763
G1 X22.904 Y-0.918
G1 X22.689 Y-0.865
G1 X18.569 Y0.004
G1 X9.027 Y2.044
G3 X8.763 Y2.089 I-0.664 J-3.105
G0 Z6.096

G0 Z6.096
M5
M30
