(1001)
(T1  D=6.35 CR=0 - ZMIN=-12.7 - FLAT END MILL)
G0 G40 G90 G17
G21

(2D CONTOUR2)
T1 M6
M3 S5000
G0 X-15.125 Y1.97
G0 Z6.096
G1 Z4.191 F508.
G1 Z-7.484
G1 X-22.362 Y1.056
G3 X-22.638 Y1.009 I0.398 J-3.15
G1 X-30.002 Y-0.592
G1 X-37.161 Y-2.149
G3 X-37.42 Y-2.217 I0.675 J-3.103
G1 X-44.673 Y-4.447
G1 X-51.724 Y-6.616
G3 X-51.964 Y-6.7 I0.933 J-3.035
G1 X-59.076 Y-9.528
G1 X-65.989 Y-12.278
G1 X-66.101 Y-12.325
G1 X-66.211 Y-12.376
G1 X-73.15 Y-15.77
G1 X-79.897 Y-19.069
G1 X-80 Y-19.122
G1 X-80.101 Y-19.179
G1 X-86.837 Y-23.107
G1 X-93.386 Y-26.926
G1 X-93.574 Y-27.045
G1 X-100.076 Y-31.475
G1 X-106.397 Y-35.783
G1 X-106.568 Y-35.908
G1 X-112.809 Y-40.802
G1 X-118.876 Y-45.56
G1 X-119.023 Y-45.683
G1 X-124.991 Y-50.973
G1 X-130.792 Y-56.117
G1 X-130.883 Y-56.2
G1 X-130.97 Y-56.287
G1 X-142.048 Y-67.761
G1 X-152.819 Y-78.915
G3 X-153 Y-79.119 I2.284 J-2.205
G1 X-162.88 Y-91.289
G1 X-172.485 Y-103.12
G1 X-172.619 Y-103.297
G1 X-181.231 Y-115.568
G1 X-189.603 Y-127.498
G1 X-189.712 Y-127.664
G1 X-197.032 Y-139.622
G1 X-204.149 Y-151.248
G1 X-204.206 Y-151.346
G1 X-204.26 Y-151.445
G1 X-210.451 Y-163.39
G1 X-216.47 Y-175.002
G1 X-216.524 Y-175.111
G1 X-216.573 Y-175.222
G1 X-221.844 Y-187.631
G1 X-226.968 Y-199.695
G1 X-227.011 Y-199.802
G1 X-227.051 Y-199.91
G1 X-231.609 Y-213.261
G1 X-236.041 Y-226.24
G1 X-236.098 Y-226.428
G1 X-240.098 Y-241.047
G1 X-243.987 Y-255.258
G1 X-244.028 Y-255.425
G1 X-247.399 Y-271.026
G1 X-250.676 Y-286.192
G1 X-250.707 Y-286.355
G1 X-253.324 Y-302.499
G1 X-255.869 Y-318.194
G1 X-255.892 Y-318.365
G1 X-257.629 Y-334.616
G1 X-259.318 Y-350.413
G1 X-259.333 Y-350.602
G1 X-260.083 Y-366.595
G1 X-260.814 Y-382.143
G1 X-260.817 Y-382.347
G1 X-260.546 Y-398.022
G1 X-260.284 Y-413.26
G1 X-260.273 Y-413.474
G1 X-258.965 Y-428.842
G1 X-257.694 Y-443.783
G1 X-257.667 Y-444.005
G1 X-255.306 Y-459.08
G1 X-253.01 Y-473.736
G1 X-252.99 Y-473.848
G1 X-252.966 Y-473.96
G1 X-249.548 Y-488.753
G1 X-246.225 Y-503.133
G1 X-246.169 Y-503.345
G1 X-241.741 Y-517.849
G1 X-237.436 Y-531.95
G1 X-237.368 Y-532.147
G1 X-231.989 Y-546.356
G1 X-226.76 Y-560.169
G1 X-226.69 Y-560.34
G1 X-217.281 Y-581.406
G1 X-217.269 Y-581.431
G1 X-214.352 Y-587.81
G1 X-214.285 Y-587.949
G1 X-211.045 Y-594.209
G1 X-211.032 Y-594.234
G1 X-200.207 Y-614.703
G1 X-200.113 Y-614.869
G1 X-192.164 Y-627.938
G1 X-184.436 Y-640.643
G1 X-184.313 Y-640.83
G1 X-175.521 Y-653.221
G1 X-166.975 Y-665.266
G3 X-166.822 Y-665.466 I2.589 J1.837
G1 X-157.184 Y-676.993
G1 X-147.814 Y-688.201
G3 X-147.627 Y-688.406 I2.436 J2.036
G1 X-137.138 Y-698.934
G1 X-126.942 Y-709.17
G3 X-126.743 Y-709.354 I2.249 J2.241
G1 X-115.413 Y-718.93
G1 X-104.397 Y-728.239
G3 X-104.198 Y-728.394 I2.049 J2.425
G1 X-92.038 Y-737.111
G1 X-80.215 Y-745.586
G1 X-80.121 Y-745.652
G1 X-80.024 Y-745.713
G1 X-67.043 Y-753.664
G1 X-54.424 Y-761.393
G1 X-54.243 Y-761.496
G1 X-40.487 Y-768.727
G1 X-27.114 Y-775.757
G1 X-26.924 Y-775.849
G1 X-12.569 Y-782.217
G1 X1.386 Y-788.408
G1 X1.491 Y-788.452
G1 X1.597 Y-788.493
G1 X16.341 Y-793.807
G1 X30.675 Y-798.974
G3 X30.917 Y-799.05 I1.077 J2.987
G1 X45.841 Y-803.12
G1 X60.35 Y-807.077
G3 X60.619 Y-807.138 I0.835 J3.063
G1 X75.549 Y-809.841
G1 X90.063 Y-812.468
G3 X90.315 Y-812.503 I0.565 J3.124
G1 X105.215 Y-813.982
G1 X119.699 Y-815.417
G1 X119.914 Y-815.431
G1 X134.783 Y-815.892
G1 X149.238 Y-816.34
G1 X149.41 Y-816.341
G1 X164.249 Y-815.994
G1 X178.674 Y-815.657
G1 X178.827 Y-815.65
G1 X193.617 Y-814.589
G1 X208.002 Y-813.556
G1 X208.12 Y-813.545
G1 X208.236 Y-813.53
G1 X222.884 Y-811.379
G1 X237.18 Y-809.279
G1 X237.3 Y-809.259
G1 X237.418 Y-809.235
G1 X244.646 Y-807.603
G1 X251.75 Y-805.997
G1 X251.938 Y-805.948
G1 X259.073 Y-803.869
G1 X259.075
G1 X266.147 Y-801.805
G1 X266.352 Y-801.737
G1 X273.369 Y-799.16
G1 X273.37
G1 X276.846 Y-797.881
G3 X278.73 Y-793.805 I-1.096 J2.98
G3 X278.252 Y-792.947 I-2.98 J-1.096
G1 X277.756 Y-792.312
G3 X275.254 Y-791.091 I-2.502 J-1.954
G1 X156.974
G3 X153.86 Y-793.646 I0 J-3.175
G1 X153.799 Y-793.953
G1 Y-782.133
G1 X153.86 Y-782.44
G3 X156.974 Y-784.995 I3.114 J0.62
G1 X303.08
G3 X304.617 Y-784.598 I0 J3.175
G1 X308.401 Y-782.504
G3 X308.615 Y-782.374 I-1.537 J2.778
G1 X314.97 Y-778.171
G1 X314.974 Y-778.169
G1 X321.79 Y-773.649
G3 X322.003 Y-773.494 I-1.755 J2.646
G1 X327.893 Y-768.84
G1 X327.897 Y-768.838
G1 X334.403 Y-763.684
G3 X334.62 Y-763.495 I-1.972 J2.489
G1 X339.92 Y-758.45
G1 X339.923 Y-758.447
G1 X345.955 Y-752.69
G3 X346.178 Y-752.455 I-2.192 J2.297
G1 X350.776 Y-747.07
G1 X350.779 Y-747.066
G1 X356.162 Y-740.743
G3 X356.385 Y-740.447 I-2.418 J2.058
G1 X360.176 Y-734.764
G1 X360.178 Y-734.761
G1 X364.73 Y-727.92
G3 X364.944 Y-727.546 I-2.643 J1.759
G1 X367.829 Y-721.595
G1 X367.83 Y-721.593
G1 X371.362 Y-714.292
G3 X371.543 Y-713.829 I-2.858 J1.383
G1 X373.421 Y-707.626
G1 X375.748 Y-699.934
G3 X375.86 Y-699.408 I-3.039 J0.919
G1 X376.662 Y-692.974
G1 X377.659 Y-684.99
G3 X377.683 Y-684.504 I-3.15 J0.394
G1 X377.491 Y-677.913
G1 X377.264 Y-669.81
G3 X377.224 Y-669.392 I-3.174 J-0.089
G1 X376.148 Y-662.738
G1 X374.867 Y-654.702
G3 X374.788 Y-654.343 I-3.135 J-0.5
G1 X372.929 Y-647.731
G1 X370.773 Y-639.938
G3 X370.665 Y-639.617 I-3.06 J-0.847
G1 X370.5 Y-639.2
G3 X370.052 Y-638.416 I-2.952 J-1.168
G1 X369.557 Y-637.781
G3 X367.053 Y-636.558 I-2.504 J-1.952
G1 X95.89
G3 X92.776 Y-639.114 I0 J-3.175
G1 X92.715 Y-639.42
G1 Y-627.6
G1 X92.776 Y-627.906
G3 X95.89 Y-630.462 I3.114 J0.62
G1 X361.675
G3 X364.179 Y-629.239 I0 J3.175
G1 X364.674 Y-628.604
G3 X365.003 Y-625.219 I-2.504 J1.952
G1 X362.033 Y-619.349
G1 X358.65 Y-612.51
G3 X358.496 Y-612.234 I-2.846 J-1.408
G1 X354.932 Y-606.538
G1 X351.185 Y-600.384
G3 X350.994 Y-600.105 I-2.712 J-1.651
G1 X347.106 Y-595.025
G1 X343.15 Y-589.676
G3 X342.908 Y-589.386 I-2.553 J-1.888
G1 X338.815 Y-585.045
G1 X334.769 Y-580.566
G3 X334.487 Y-580.291 I-2.356 J-2.129
G1 X330.229 Y-576.618
G1 X326.114 Y-572.886
G3 X325.82 Y-572.65 I-2.133 J-2.352
G1 X321.413 Y-569.517
G1 X317.228 Y-566.366
G3 X316.952 Y-566.181 I-1.91 J-2.537
G1 X312.408 Y-563.454
G1 X308.149 Y-560.729
G3 X307.876 Y-560.572 I-1.711 J-2.674
G1 X298.398 Y-555.757
G1 X289.609 Y-550.964
G1 X289.5 Y-550.908
G1 X279.634 Y-546.014
G1 X270.606 Y-541.203
G1 X260.525 Y-535.28
G1 X251.278 Y-529.478
G1 X241.178 Y-522.258
G1 X231.846 Y-515.189
G1 X226.892 Y-511.088
G1 X222.288 Y-507.078
G1 X217.398 Y-502.6
G1 X212.861 Y-498.255
G1 X208.094 Y-493.415
G1 X203.651 Y-488.726
G1 X199.232 Y-483.73
G1 X199.231 Y-483.729
G1 X199.039 Y-483.512
G1 X198.714 Y-483.133
G3 X196.303 Y-482.024 I-2.411 J-2.066
G1 X-22.185
G3 X-25.299 Y-484.58 I0 J-3.175
G1 X-25.36 Y-484.886
G1 Y-473.066
G1 X-25.299 Y-473.372
G3 X-22.185 Y-475.928 I3.114 J0.619
G1 X185.197
G3 X187.699 Y-474.707 I0 J3.175
G1 X188.195 Y-474.072
G3 X188.205 Y-470.176 I-2.502 J1.954
G1 X186.125 Y-467.486
G1 X181.947 Y-461.551
G1 X177.977 Y-455.825
G1 X174.095 Y-449.577
G1 X170.38 Y-443.553
G1 X166.847 Y-437.028
G1 X163.445 Y-430.739
G1 X160.315 Y-423.977
G1 X160.312 Y-423.97
G1 X157.277 Y-417.451
G1 X154.603 Y-410.486
G1 X154.597 Y-410.472
G1 X151.983 Y-403.759
G1 X149.816 Y-396.626
G1 X149.809 Y-396.605
G1 X147.668 Y-389.728
G1 X146.061 Y-382.462
G1 X146.055 Y-382.435
G1 X144.439 Y-375.422
G1 X143.42 Y-368.055
G1 X143.415 Y-368.022
G1 X142.353 Y-360.889
G1 X141.872 Y-353.45
G1 X141.87 Y-353.411
G1 X141.314 Y-346.201
G1 X141.304 Y-338.735
G1 Y-338.688
G1 X141.186 Y-331.452
G3 X140.517 Y-329.347 I-3.171 J0.151
G1 X140.021 Y-328.712
G3 X137.519 Y-327.491 I-2.502 J-1.954
G1 X-51.227
G3 X-54.34 Y-330.047 I0 J-3.175
G1 X-54.402 Y-330.353
G1 Y-318.533
G1 X-54.34 Y-318.839
G3 X-51.227 Y-321.395 I3.114 J0.619
G1 X138.134
G3 X140.638 Y-320.172 I0 J3.175
G1 X141.133 Y-319.537
G3 X141.802 Y-317.698 I-2.504 J1.952
G1 X141.836 Y-316.729
G1 X142.565 Y-309.36
G1 X142.57 Y-309.294
G1 X143.126 Y-302.143
G1 X144.121 Y-294.9
G1 X144.131 Y-294.822
G1 X144.919 Y-287.79
G1 X146.112 Y-280.722
G1 X146.126 Y-280.63
G1 X147.078 Y-273.767
G1 X148.399 Y-266.924
G1 X148.417 Y-266.817
G1 X149.464 Y-260.175
G1 X151.539 Y-250.335
G1 X151.563 Y-250.205
G1 X153.169 Y-240.631
G1 X155.135 Y-231.138
G1 X155.162 Y-230.989
G1 X156.625 Y-221.729
G1 X158.237 Y-212.305
G1 X158.259 Y-212.151
G1 X159.368 Y-202.973
G1 X159.374 Y-202.923
G1 X160.38 Y-193.326
G1 X160.392 Y-193.18
G1 X160.937 Y-183.851
G1 X160.939 Y-183.793
G1 X161.136 Y-178.856
G1 X161.139 Y-178.727
G1 X161.138 Y-176.765
G3 X160.465 Y-174.813 I-3.175 J-0.002
G1 X159.969 Y-174.178
G3 X157.467 Y-172.957 I-2.502 J-1.954
G1 X-21.281
G3 X-24.395 Y-175.513 I0 J-3.175
G1 X-24.456 Y-175.819
G1 Y-163.999
G1 X-24.395 Y-164.305
G3 X-21.281 Y-166.861 I3.114 J0.619
G1 X157.142
G3 X159.646 Y-165.638 I0 J3.175
G1 X160.141 Y-165.003
G3 X160.806 Y-162.855 I-2.504 J1.952
G1 X160.536 Y-158.489
G1 X160.529 Y-158.396
G1 X160.064 Y-153.301
G1 X160.056 Y-153.228
G1 X159.435 Y-147.819
G1 X159.426 Y-147.746
G1 X158.698 Y-142.488
G1 X158.684 Y-142.399
G1 X157.759 Y-136.871
G1 X157.75 Y-136.815
G1 X156.751 Y-131.441
G1 X156.73 Y-131.337
G1 X155.497 Y-125.744
G1 X155.487 Y-125.702
G1 X154.21 Y-120.264
G1 X154.18 Y-120.146
G1 X152.634 Y-114.539
G1 X152.625 Y-114.508
G1 X151.062 Y-109.058
G1 X151.02 Y-108.924
G1 X149.156 Y-103.358
G1 X149.148 Y-103.337
G1 X147.292 Y-97.926
G1 X147.237 Y-97.778
G1 X145.049 Y-92.306
G1 X145.043 Y-92.291
G1 X142.886 Y-86.972
G1 X142.815 Y-86.809
G1 X140.3 Y-81.484
G1 X140.296 Y-81.475
G1 X137.831 Y-76.298
G1 X137.739 Y-76.12
G1 X134.89 Y-70.996
G1 X134.888 Y-70.991
G1 X132.108 Y-66.009
G1 X131.992 Y-65.818
G1 X128.805 Y-60.947
G1 X128.804 Y-60.945
G1 X125.701 Y-56.209
G1 X125.631 Y-56.107
G1 X125.557 Y-56.007
G1 X122.027 Y-51.443
G1 X118.595 Y-47.005
G3 X118.418 Y-46.796 I-2.512 J-1.942
G1 X114.542 Y-42.589
G1 X110.773 Y-38.499
G3 X110.576 Y-38.303 I-2.335 J-2.152
G1 X106.373 Y-34.475
G1 X102.287 Y-30.754
G3 X102.08 Y-30.581 I-2.138 J-2.347
G1 X97.584 Y-27.135
G1 X93.213 Y-23.786
G3 X93 Y-23.636 I-1.931 J-2.52
G1 X88.244 Y-20.575
G1 X86.671 Y-19.563
G1 X85.684 Y-18.928
G3 X83.966 Y-18.423 I-1.718 J-2.67
G1 X9.601
G3 X6.487 Y-20.979 I0 J-3.175
G1 X6.426 Y-21.286
G1 Y-9.465
G1 X6.487 Y-9.772
G3 X9.601 Y-12.327 I3.114 J0.619
G1 X55.249
G3 X57.752 Y-11.105 I0 J3.175
G1 X58.247 Y-10.47
G3 X57.697 Y-6.014 I-2.503 J1.953
G3 X56.915 Y-5.566 I-1.953 J-2.503
G1 X52.527 Y-3.825
G3 X52.081 Y-3.685 I-1.171 J-2.951
G1 X41.076 Y-1.1
G1 X30.376 Y1.412
G3 X29.925 Y1.484 I-0.726 J-3.091
G1 X18.69 Y2.461
G1 X7.767 Y3.41
G3 X7.388 Y3.42 I-0.275 J-3.163
G1 X-0.105 Y3.173
G1 X-7.389 Y2.933
G3 X-7.682 Y2.91 I0.105 J-3.173
G1 X-15.125 Y1.97
G1 Z-12.7
G1 X-22.362 Y1.056
G3 X-22.638 Y1.009 I0.398 J-3.15
G1 X-30.002 Y-0.592
G1 X-37.161 Y-2.149
G3 X-37.42 Y-2.217 I0.675 J-3.103
G1 X-44.673 Y-4.447
G1 X-51.724 Y-6.616
G3 X-51.964 Y-6.7 I0.933 J-3.035
G1 X-59.076 Y-9.528
G1 X-65.989 Y-12.278
G1 X-66.101 Y-12.325
G1 X-66.211 Y-12.376
G1 X-68.017 Y-13.259
G1 Z-10.16
G1 X-73.15 Y-15.77
G1 X-78.284 Y-18.281
G1 Z-12.7
G1 X-79.897 Y-19.069
G1 X-80 Y-19.122
G1 X-80.101 Y-19.179
G1 X-86.837 Y-23.107
G1 X-93.386 Y-26.926
G1 X-93.574 Y-27.045
G1 X-100.076 Y-31.475
G1 X-106.397 Y-35.783
G1 X-106.568 Y-35.908
G1 X-112.809 Y-40.802
G1 X-118.876 Y-45.56
G1 X-119.023 Y-45.683
G1 X-124.991 Y-50.973
G1 X-130.792 Y-56.117
G1 X-130.883 Y-56.2
G1 X-130.97 Y-56.287
G1 X-142.048 Y-67.761
G1 X-149.025 Y-74.986
G1 Z-10.16
G1 X-152.819 Y-78.915
G3 X-153 Y-79.119 I2.284 J-2.205
G1 X-156.602 Y-83.556
G1 Z-12.7
G1 X-162.88 Y-91.289
G1 X-172.485 Y-103.12
G1 X-172.619 Y-103.297
G1 X-181.231 Y-115.568
G1 X-189.603 Y-127.498
G1 X-189.712 Y-127.664
G1 X-197.032 Y-139.622
G1 X-204.149 Y-151.248
G1 X-204.206 Y-151.346
G1 X-204.26 Y-151.445
G1 X-210.451 Y-163.39
G1 X-216.47 Y-175.002
G1 X-216.524 Y-175.111
G1 X-216.573 Y-175.222
G1 X-221.844 Y-187.631
G1 X-226.968 Y-199.695
G1 X-227.011 Y-199.802
G1 X-227.051 Y-199.91
G1 X-229.762 Y-207.853
G1 Z-10.16
G1 X-231.609 Y-213.261
G1 X-233.455 Y-218.669
G1 Z-12.7
G1 X-236.041 Y-226.24
G1 X-236.098 Y-226.428
G1 X-240.098 Y-241.047
G1 X-243.987 Y-255.258
G1 X-244.028 Y-255.425
G1 X-247.399 Y-271.026
G1 X-250.676 Y-286.192
G1 X-250.707 Y-286.355
G1 X-253.324 Y-302.499
G1 X-255.869 Y-318.194
G1 X-255.892 Y-318.365
G1 X-257.629 Y-334.616
G1 X-259.318 Y-350.413
G1 X-259.333 Y-350.602
G1 X-260.083 Y-366.595
G1 X-260.814 Y-382.143
G1 X-260.817 Y-382.347
G1 X-260.644 Y-392.308
G1 Z-10.16
G1 X-260.546 Y-398.022
G1 X-260.447 Y-403.736
G1 Z-12.7
G1 X-260.284 Y-413.26
G1 X-260.273 Y-413.474
G1 X-258.965 Y-428.842
G1 X-257.694 Y-443.783
G1 X-257.667 Y-444.005
G1 X-255.306 Y-459.08
G1 X-253.01 Y-473.736
G1 X-252.99 Y-473.848
G1 X-252.966 Y-473.96
G1 X-249.548 Y-488.753
G1 X-246.225 Y-503.133
G1 X-246.169 Y-503.345
G1 X-241.741 Y-517.849
G1 X-237.436 Y-531.95
G1 X-237.368 Y-532.147
G1 X-234.013 Y-541.011
G1 Z-10.16
G1 X-231.989 Y-546.356
G1 X-229.966 Y-551.701
G1 Z-12.7
G1 X-226.76 Y-560.169
G1 X-226.69 Y-560.34
G1 X-217.281 Y-581.406
G1 X-217.269 Y-581.431
G1 X-214.352 Y-587.81
G1 X-214.285 Y-587.949
G1 X-211.045 Y-594.209
G1 X-211.032 Y-594.234
G1 X-200.207 Y-614.703
G1 X-200.113 Y-614.869
G1 X-192.164 Y-627.938
G1 X-184.436 Y-640.643
G1 X-184.313 Y-640.83
G1 X-175.521 Y-653.221
G1 X-166.975 Y-665.266
G3 X-166.822 Y-665.466 I2.589 J1.837
G1 X-160.85 Y-672.609
G1 Z-10.16
G1 X-157.184 Y-676.993
G1 X-153.518 Y-681.378
G1 Z-12.7
G1 X-147.814 Y-688.201
G3 X-147.627 Y-688.406 I2.436 J2.036
G1 X-137.138 Y-698.934
G1 X-126.942 Y-709.17
G3 X-126.743 Y-709.354 I2.249 J2.241
G1 X-115.413 Y-718.93
G1 X-104.397 Y-728.239
G3 X-104.198 Y-728.394 I2.049 J2.425
G1 X-92.038 Y-737.111
G1 X-80.215 Y-745.586
G1 X-80.121 Y-745.652
G1 X-80.024 Y-745.713
G1 X-67.043 Y-753.664
G1 X-54.424 Y-761.393
G1 X-54.243 Y-761.496
G1 X-40.487 Y-768.727
G1 X-27.114 Y-775.757
G1 X-26.924 Y-775.849
G1 X-17.793 Y-779.9
G1 Z-10.16
G1 X-12.569 Y-782.217
G1 X-7.345 Y-784.535
G1 Z-12.7
G1 X1.386 Y-788.408
G1 X1.491 Y-788.452
G1 X1.597 Y-788.493
G1 X16.341 Y-793.807
G1 X30.675 Y-798.974
G3 X30.917 Y-799.05 I1.077 J2.987
G1 X45.841 Y-803.12
G1 X60.35 Y-807.077
G3 X60.619 Y-807.138 I0.835 J3.063
G1 X75.549 Y-809.841
G1 X90.063 Y-812.468
G3 X90.315 Y-812.503 I0.565 J3.124
G1 X105.215 Y-813.982
G1 X119.699 Y-815.417
G1 X119.914 Y-815.431
G1 X134.783 Y-815.892
G1 X143.69 Y-816.169
G1 Z-10.16
G1 X149.238 Y-816.34
G1 X149.41 Y-816.341
G1 X155.124 Y-816.208
G1 Z-12.7
G1 X164.249 Y-815.994
G1 X178.674 Y-815.657
G1 X178.827 Y-815.65
G1 X193.617 Y-814.589
G1 X208.002 Y-813.556
G1 X208.12 Y-813.545
G1 X208.236 Y-813.53
G1 X222.884 Y-811.379
G1 X237.18 Y-809.279
G1 X237.3 Y-809.259
G1 X237.418 Y-809.235
G1 X244.646 Y-807.603
G1 X251.75 Y-805.997
G1 X251.938 Y-805.948
G1 X259.073 Y-803.869
G1 X259.075
G1 X266.147 Y-801.805
G1 X266.352 Y-801.737
G1 X273.369 Y-799.16
G1 X273.37
G1 X276.846 Y-797.881
G3 X278.73 Y-793.805 I-1.096 J2.98
G3 X278.252 Y-792.947 I-2.98 J-1.096
G1 X277.756 Y-792.312
G3 X275.254 Y-791.091 I-2.502 J-1.954
G1 X156.974
G3 X153.86 Y-793.646 I0 J-3.175
G1 X153.799 Y-793.953
G1 Y-782.133
G1 X153.86 Y-782.44
G3 X156.974 Y-784.995 I3.114 J0.62
G1 X303.08
G3 X304.617 Y-784.598 I0 J3.175
G1 X308.401 Y-782.504
G3 X308.615 Y-782.374 I-1.537 J2.778
G1 X314.97 Y-778.171
G1 X314.974 Y-778.169
G1 X321.79 Y-773.649
G3 X322.003 Y-773.494 I-1.755 J2.646
G1 X327.893 Y-768.84
G1 X327.897 Y-768.838
G1 X334.403 Y-763.684
G3 X334.62 Y-763.495 I-1.972 J2.489
G1 X339.92 Y-758.45
G1 X339.923 Y-758.447
G1 X345.955 Y-752.69
G3 X346.178 Y-752.455 I-2.192 J2.297
G1 X350.776 Y-747.07
G1 X350.779 Y-747.066
G1 X356.162 Y-740.743
G3 X356.385 Y-740.447 I-2.418 J2.058
G1 X357.007 Y-739.515
G1 Z-10.16
G1 X360.176 Y-734.764
G1 X360.178 Y-734.761
G1 X363.344 Y-730.003
G1 Z-12.7
G1 X364.73 Y-727.92
G3 X364.944 Y-727.546 I-2.643 J1.759
G1 X367.829 Y-721.595
G1 X367.83 Y-721.593
G1 X371.362 Y-714.292
G3 X371.543 Y-713.829 I-2.858 J1.383
G1 X373.421 Y-707.626
G1 X375.748 Y-699.934
G3 X375.86 Y-699.408 I-3.039 J0.919
G1 X376.662 Y-692.974
G1 X377.659 Y-684.99
G3 X377.683 Y-684.504 I-3.15 J0.394
G1 X377.491 Y-677.913
G1 X377.264 Y-669.81
G3 X377.224 Y-669.392 I-3.174 J-0.089
G1 X376.148 Y-662.738
G1 X374.867 Y-654.702
G3 X374.788 Y-654.343 I-3.135 J-0.5
G1 X372.929 Y-647.731
G1 X370.773 Y-639.938
G3 X370.665 Y-639.617 I-3.06 J-0.847
G1 X370.5 Y-639.2
G3 X370.052 Y-638.416 I-2.952 J-1.168
G1 X369.557 Y-637.781
G3 X367.053 Y-636.558 I-2.504 J-1.952
G1 X95.89
G3 X92.776 Y-639.114 I0 J-3.175
G1 X92.715 Y-639.42
G1 Y-627.6
G1 X92.776 Y-627.906
G3 X95.89 Y-630.462 I3.114 J0.62
G1 X361.675
G3 X364.179 Y-629.239 I0 J3.175
G1 X364.674 Y-628.604
G3 X365.003 Y-625.219 I-2.504 J1.952
G1 X362.033 Y-619.349
G1 X358.65 Y-612.51
G3 X358.496 Y-612.234 I-2.846 J-1.408
G1 X354.932 Y-606.538
G1 X351.185 Y-600.384
G3 X350.994 Y-600.105 I-2.712 J-1.651
G1 X347.106 Y-595.025
G1 X343.15 Y-589.676
G3 X342.908 Y-589.386 I-2.553 J-1.888
G1 X338.815 Y-585.045
G1 X334.769 Y-580.566
G3 X334.487 Y-580.291 I-2.356 J-2.129
G1 X330.229 Y-576.618
G1 X326.114 Y-572.886
G3 X325.82 Y-572.65 I-2.133 J-2.352
G1 X321.413 Y-569.517
G1 X317.228 Y-566.366
G3 X316.952 Y-566.181 I-1.91 J-2.537
G1 X312.408 Y-563.454
G1 X308.149 Y-560.729
G3 X307.876 Y-560.572 I-1.711 J-2.674
G1 X298.398 Y-555.757
G1 X289.609 Y-550.964
G1 X289.5 Y-550.908
G1 X279.634 Y-546.014
G1 X270.606 Y-541.203
G1 X265.495 Y-538.2
G1 Z-10.16
G1 X260.525 Y-535.28
G1 X255.723 Y-532.267
G1 Z-12.7
G1 X251.278 Y-529.478
G1 X241.178 Y-522.258
G1 X231.846 Y-515.189
G1 X226.892 Y-511.088
G1 X222.288 Y-507.078
G1 X217.398 Y-502.6
G1 X212.861 Y-498.255
G1 X208.094 Y-493.415
G1 X203.651 Y-488.726
G1 X199.232 Y-483.73
G1 X199.231 Y-483.729
G1 X199.039 Y-483.512
G1 X198.714 Y-483.133
G3 X196.303 Y-482.024 I-2.411 J-2.066
G1 X-22.185
G3 X-25.299 Y-484.58 I0 J-3.175
G1 X-25.36 Y-484.886
G1 Y-473.066
G1 X-25.299 Y-473.372
G3 X-22.185 Y-475.928 I3.114 J0.619
G1 X185.197
G3 X187.699 Y-474.707 I0 J3.175
G1 X188.195 Y-474.072
G3 X188.205 Y-470.176 I-2.502 J1.954
G1 X186.125 Y-467.486
G1 X181.947 Y-461.551
G1 X177.977 Y-455.825
G1 X174.095 Y-449.577
G1 X170.38 Y-443.553
G1 X166.847 Y-437.028
G1 X163.445 Y-430.739
G1 X162.712 Y-429.156
G1 Z-10.16
G1 X160.315 Y-423.977
G1 X160.312 Y-423.97
G1 X157.899 Y-418.789
G1 Z-12.7
G1 X157.277 Y-417.451
G1 X154.603 Y-410.486
G1 X154.597 Y-410.472
G1 X151.983 Y-403.759
G1 X149.816 Y-396.626
G1 X149.809 Y-396.605
G1 X147.668 Y-389.728
G1 X146.061 Y-382.462
G1 X146.055 Y-382.435
G1 X144.439 Y-375.422
G1 X143.42 Y-368.055
G1 X143.415 Y-368.022
G1 X142.353 Y-360.889
G1 X141.872 Y-353.45
G1 X141.87 Y-353.411
G1 X141.314 Y-346.201
G1 X141.304 Y-338.735
G1 Y-338.688
G1 X141.186 Y-331.452
G3 X140.517 Y-329.347 I-3.171 J0.151
G1 X140.021 Y-328.712
G3 X137.519 Y-327.491 I-2.502 J-1.954
G1 X-51.227
G3 X-54.34 Y-330.047 I0 J-3.175
G1 X-54.402 Y-330.353
G1 Y-318.533
G1 X-54.34 Y-318.839
G3 X-51.227 Y-321.395 I3.114 J0.619
G1 X138.134
G3 X140.638 Y-320.172 I0 J3.175
G1 X141.133 Y-319.537
G3 X141.802 Y-317.698 I-2.504 J1.952
G1 X141.836 Y-316.729
G1 X142.565 Y-309.36
G1 X142.57 Y-309.294
G1 X143.126 Y-302.143
G1 X144.121 Y-294.9
G1 X144.131 Y-294.822
G1 X144.919 Y-287.79
G1 X146.112 Y-280.722
G1 X146.126 Y-280.63
G1 X147.078 Y-273.767
G1 X148.399 Y-266.924
G1 X148.417 Y-266.817
G1 X149.464 Y-260.175
G1 X151.539 Y-250.335
G1 X151.563 Y-250.205
G1 X152.213 Y-246.331
G1 Z-10.16
G1 X153.169 Y-240.631
G1 X154.316 Y-235.093
G1 Z-12.7
G1 X155.135 Y-231.138
G1 X155.162 Y-230.989
G1 X156.625 Y-221.729
G1 X158.237 Y-212.305
G1 X158.259 Y-212.151
G1 X159.368 Y-202.973
G1 X159.374 Y-202.923
G1 X160.38 Y-193.326
G1 X160.392 Y-193.18
G1 X160.937 Y-183.851
G1 X160.939 Y-183.793
G1 X161.136 Y-178.856
G1 X161.139 Y-178.727
G1 X161.138 Y-176.765
G3 X160.465 Y-174.813 I-3.175 J-0.002
G1 X159.969 Y-174.178
G3 X157.467 Y-172.957 I-2.502 J-1.954
G1 X-21.281
G3 X-24.395 Y-175.513 I0 J-3.175
G1 X-24.456 Y-175.819
G1 Y-163.999
G1 X-24.395 Y-164.305
G3 X-21.281 Y-166.861 I3.114 J0.619
G1 X157.142
G3 X159.646 Y-165.638 I0 J3.175
G1 X160.141 Y-165.003
G3 X160.806 Y-162.855 I-2.504 J1.952
G1 X160.536 Y-158.489
G1 X160.529 Y-158.396
G1 X160.064 Y-153.301
G1 X160.056 Y-153.228
G1 X159.435 Y-147.819
G1 X159.426 Y-147.746
G1 X158.698 Y-142.488
G1 X158.684 Y-142.399
G1 X157.759 Y-136.871
G1 X157.75 Y-136.815
G1 X156.751 Y-131.441
G1 X156.73 Y-131.337
G1 X155.497 Y-125.744
G1 X155.487 Y-125.702
G1 X154.21 Y-120.264
G1 X154.18 Y-120.146
G1 X152.634 Y-114.539
G1 X152.625 Y-114.508
G1 X151.062 Y-109.058
G1 X151.02 Y-108.924
G1 X149.156 Y-103.358
G1 X149.148 Y-103.337
G1 X147.292 Y-97.926
G1 X147.237 Y-97.778
G1 X145.049 Y-92.306
G1 X145.043 Y-92.291
G1 X142.886 Y-86.972
G1 X142.815 Y-86.809
G1 X140.3 Y-81.484
G1 X140.296 Y-81.475
G1 X140.206 Y-81.288
G1 Z-10.16
G1 X137.831 Y-76.298
G1 X137.739 Y-76.12
G1 X134.962 Y-71.126
G1 Z-12.7
G1 X134.89 Y-70.996
G1 X134.888 Y-70.991
G1 X132.108 Y-66.009
G1 X131.992 Y-65.818
G1 X128.805 Y-60.947
G1 X128.804 Y-60.945
G1 X125.701 Y-56.209
G1 X125.631 Y-56.107
G1 X125.557 Y-56.007
G1 X122.027 Y-51.443
G1 X118.595 Y-47.005
G3 X118.418 Y-46.796 I-2.512 J-1.942
G1 X114.542 Y-42.589
G1 X110.773 Y-38.499
G3 X110.576 Y-38.303 I-2.335 J-2.152
G1 X106.373 Y-34.475
G1 X102.287 Y-30.754
G3 X102.08 Y-30.581 I-2.138 J-2.347
G1 X97.584 Y-27.135
G1 X93.213 Y-23.786
G3 X93 Y-23.636 I-1.931 J-2.52
G1 X88.244 Y-20.575
G1 X86.671 Y-19.563
G1 X85.684 Y-18.928
G3 X83.966 Y-18.423 I-1.718 J-2.67
G1 X9.601
G3 X6.487 Y-20.979 I0 J-3.175
G1 X6.426 Y-21.286
G1 Y-9.465
G1 X6.487 Y-9.772
G3 X9.601 Y-12.327 I3.114 J0.619
G1 X55.249
G3 X57.752 Y-11.105 I0 J3.175
G1 X58.247 Y-10.47
G3 X57.697 Y-6.014 I-2.503 J1.953
G3 X56.915 Y-5.566 I-1.953 J-2.503
G1 X52.527 Y-3.825
G3 X52.081 Y-3.685 I-1.171 J-2.951
G1 X41.076 Y-1.1
G1 X30.376 Y1.412
G3 X29.925 Y1.484 I-0.726 J-3.091
G1 X18.69 Y2.461
G1 X7.767 Y3.41
G3 X7.388 Y3.42 I-0.275 J-3.163
G1 X-0.105 Y3.173
G1 X-7.389 Y2.933
G3 X-7.682 Y2.91 I0.105 J-3.173
G1 X-15.125 Y1.97
G0 Z6.096

G0 Z6.096
M5
M30
