(1001)
(T1  D=6.35 CR=0 - ZMIN=-7.366 - FLAT END MILL)
G0 G40 G90 G17
G21

(2D CONTOUR2)
T1 M6
M3 S5000
G0 X100.962 Y-490.929
G0 Z18.796
G1 Z16.891 F508.
G1 Z6.096
G3 X100.232 Y-490.844 I-0.73 J-3.09
G1 X-100.57
G3 X-102.334 Y-491.379 I0 J-3.175
G1 X-102.593 Y-491.552
G1 X-102.42 Y-491.293
G3 X-101.885 Y-489.529 I-2.64 J1.764
G1 Y-486.063
G3 X-102.42 Y-484.299 I-3.175 J0
G1 X-102.593 Y-484.04
G1 X-102.334 Y-484.213
G3 X-100.57 Y-484.748 I1.764 J2.64
G1 X95.856
G3 X98.359 Y-483.526 I0 J3.175
G1 X98.854 Y-482.891
G3 X99.396 Y-480.039 I-2.503 J1.953
G1 X98.842 Y-478.161
G1 X96.706 Y-469.548
G1 X94.957 Y-460.859
G1 X93.607 Y-452.101
G1 X92.66 Y-443.287
G1 X92.111 Y-434.424
G1 X91.946 Y-425.527
G1 X92.157 Y-416.609
G1 X92.732 Y-407.683
G1 X93.66 Y-398.767
G1 X94.93 Y-389.872
G1 X96.531 Y-381.013
G1 X98.453 Y-372.205
G1 X100.684 Y-363.463
G1 X102.819 Y-356.15
G3 X102.275 Y-353.307 I-3.048 J0.89
G1 X101.78 Y-352.672
G3 X99.276 Y-351.45 I-2.503 J-1.953
G1 X-93.273
G3 X-95.036 Y-351.985 I0 J-3.175
G1 X-95.296 Y-352.159
G1 X-95.123 Y-351.899
G3 X-94.588 Y-350.135 I-2.64 J1.764
G1 Y-346.669
G3 X-95.123 Y-344.905 I-3.175 J0
G1 X-95.296 Y-344.645
G1 X-95.036 Y-344.819
G3 X-93.273 Y-345.354 I1.763 J2.64
G1 X103.934
G3 X106.438 Y-344.131 I0 J3.175
G1 X106.933 Y-343.496
G3 X107.393 Y-342.682 I-2.504 J1.952
G1 X112.48 Y-329.431
G1 X119.943 Y-313.175
G1 X128.294 Y-297.504
G1 X137.211 Y-282.256
G1 X146.298 Y-267.257
G1 X146.313 Y-267.233
G1 X155.156 Y-252.334
G1 X155.211 Y-252.237
G1 X163.399 Y-237.274
G1 X163.462 Y-237.153
G1 X167.187 Y-229.59
G1 X167.238 Y-229.481
G1 X170.651 Y-221.833
G1 X170.707 Y-221.701
G1 X172.545 Y-217.028
G3 X172.094 Y-213.914 I-2.955 J1.162
G1 X171.599 Y-213.279
G3 X169.095 Y-212.056 I-2.504 J-1.952
G1 X-36.834
G3 X-38.597 Y-212.591 I0 J-3.175
G1 X-38.858 Y-212.765
G1 X-38.684 Y-212.505
G3 X-38.149 Y-210.741 I-2.64 J1.764
G1 Y-207.275
G3 X-38.684 Y-205.511 I-3.175 J0
G1 X-38.858 Y-205.251
G1 X-38.597 Y-205.425
G3 X-36.834 Y-205.96 I1.764 J2.64
G1 X173.692
G3 X176.196 Y-204.737 I0 J3.175
G1 X176.691 Y-204.102
G3 X177.251 Y-202.981 I-2.504 J1.952
G1 X178.686 Y-197.687
G1 X178.734 Y-197.488
G1 X180.402 Y-189.271
G1 X180.437 Y-189.058
G1 X181.556 Y-180.651
G1 X181.577 Y-180.443
G1 X182.148 Y-171.873
G1 X182.155 Y-171.675
G1 X182.19 Y-162.98
G1 X182.185 Y-162.79
G1 X181.696 Y-154.008
G1 X181.681 Y-153.826
G1 X180.68 Y-144.993
G1 X180.655 Y-144.82
G1 X179.154 Y-135.973
G1 X179.121 Y-135.806
G1 X177.133 Y-126.983
G1 X177.092 Y-126.821
G1 X174.627 Y-118.06
G1 X174.579 Y-117.903
G1 X171.651 Y-109.24
G1 X171.595 Y-109.087
G1 X168.215 Y-100.561
G1 X168.15 Y-100.411
G1 X164.33 Y-92.057
G1 X164.258 Y-91.909
G1 X160.011 Y-83.766
G1 X159.93 Y-83.62
G1 X155.267 Y-75.724
G1 X155.176 Y-75.58
G1 X154.599 Y-74.713
G1 X154.531 Y-74.615
G1 X154.46 Y-74.52
G1 X153.965 Y-73.885
G3 X151.461 Y-72.662 I-2.504 J-1.952
G1 X1.497
G3 X-0.267 Y-73.197 I0 J-3.175
G1 X-0.527 Y-73.371
G1 X-0.353 Y-73.111
G3 X0.182 Y-71.347 I-2.64 J1.764
G1 Y-67.882
G3 X-0.353 Y-66.118 I-3.175 J0
G1 X-0.527 Y-65.857
G1 X-0.267 Y-66.031
G3 X1.497 Y-66.566 I1.764 J2.64
G1 X141.748
G3 X144.252 Y-65.343 I0 J3.175
G1 X144.747 Y-64.708
G3 X144.787 Y-60.857 I-2.504 J1.952
G1 X144.552 Y-60.542
G1 X144.436 Y-60.395
G1 X138.597 Y-53.468
G1 X138.472 Y-53.328
G1 X132.269 Y-46.792
G1 X132.137 Y-46.661
G1 X125.589 Y-40.523
G1 X125.453 Y-40.403
G1 X118.585 Y-34.666
G1 X118.446 Y-34.556
G1 X111.281 Y-29.223
G1 X111.139 Y-29.123
G1 X103.701 Y-24.195
G1 X103.557 Y-24.105
G1 X95.87 Y-19.583
G1 X95.724 Y-19.502
G1 X87.811 Y-15.39
G1 X87.665 Y-15.318
G1 X79.55 Y-11.616
G1 X79.403 Y-11.554
G1 X71.109 Y-8.265
G1 X70.961 Y-8.21
G1 X62.513 Y-5.336
G1 X62.364 Y-5.289
G1 X53.785 Y-2.832
G1 X53.636 Y-2.793
G1 X44.949 Y-0.754
G1 X44.799 Y-0.723
G1 X36.029 Y0.895
G1 X35.878 Y0.919
G1 X27.047 Y2.114
G1 X26.896 Y2.131
G1 X18.028 Y2.902
G1 X17.876 Y2.911
G1 X8.996 Y3.255
G1 X8.843 Y3.257
G1 X-0.03 Y3.175
G1 X-0.18 Y3.17
G1 X-9.032 Y2.668
G1 X-9.179 Y2.656
G1 X-18.003 Y1.745
G1 X-18.146 Y1.727
G1 X-26.931 Y0.415
G1 X-27.07 Y0.391
G1 X-35.808 Y-1.312
G1 X-35.942 Y-1.341
G1 X-44.625 Y-3.426
G1 X-44.754 Y-3.46
G1 X-53.371 Y-5.917
G1 X-53.496 Y-5.955
G1 X-62.038 Y-8.775
G1 X-62.158 Y-8.818
G1 X-70.617 Y-11.991
G1 X-70.732 Y-12.037
G1 X-79.098 Y-15.554
G1 X-79.209 Y-15.603
G1 X-87.473 Y-19.455
G1 X-87.579 Y-19.507
G1 X-95.732 Y-23.685
G1 X-95.834 Y-23.739
G1 X-103.867 Y-28.233
G1 X-103.965 Y-28.29
G1 X-111.868 Y-33.09
G1 X-111.962 Y-33.149
G1 X-119.727 Y-38.246
G1 X-119.818 Y-38.308
G1 X-127.436 Y-43.693
G1 X-127.562 Y-43.787
G1 X-142.326 Y-55.366
G1 X-142.473 Y-55.488
G1 X-156.59 Y-68.005
G1 X-156.715 Y-68.121
G1 X-170.164 Y-81.4
G1 X-170.269 Y-81.509
G1 X-183.03 Y-95.375
G1 X-183.12 Y-95.477
G1 X-195.172 Y-109.754
G1 X-195.249 Y-109.849
G1 X-206.571 Y-124.362
G1 X-206.638 Y-124.451
G1 X-217.21 Y-139.024
G1 X-217.268 Y-139.106
G1 X-227.07 Y-153.564
G1 X-227.123 Y-153.645
G1 X-236.147 Y-167.866
G1 X-236.201 Y-167.955
G1 X-244.495 Y-182.025
G1 X-244.551 Y-182.123
G1 X-252.178 Y-196.186
G1 X-252.233 Y-196.293
G1 X-259.253 Y-210.489
G1 X-259.305 Y-210.599
G1 X-265.781 Y-225.07
G1 X-265.828 Y-225.181
G1 X-271.821 Y-240.067
G1 X-271.863 Y-240.175
G1 X-277.436 Y-255.619
G1 X-277.47 Y-255.721
G1 X-282.683 Y-271.863
G1 X-282.712 Y-271.957
G1 X-287.61 Y-288.894
G1 X-287.634 Y-288.981
G1 X-292.198 Y-306.628
G1 X-292.218 Y-306.711
G1 X-296.411 Y-324.939
G1 X-296.429 Y-325.021
G1 X-300.212 Y-343.7
G1 X-300.227 Y-343.781
G1 X-303.564 Y-362.782
G1 X-303.577 Y-362.864
G1 X-306.431 Y-382.057
G1 X-306.443 Y-382.142
G1 X-308.777 Y-401.397
G1 X-308.786 Y-401.486
G1 X-310.563 Y-420.675
G1 X-310.571 Y-420.77
G1 X-311.758 Y-439.785
G1 X-311.762 Y-439.884
G1 X-312.351 Y-458.706
G1 X-312.353 Y-458.808
G1 X-312.337 Y-477.442
G1 X-312.335 Y-477.546
G1 X-311.711 Y-495.994
G1 X-311.706 Y-496.102
G1 X-310.469 Y-514.37
G1 X-310.459 Y-514.479
G1 X-308.603 Y-532.57
G1 X-308.59 Y-532.681
G1 X-306.11 Y-550.598
G1 X-306.092 Y-550.71
G1 X-302.986 Y-568.458
G1 X-302.965 Y-568.571
G1 X-299.229 Y-586.152
G1 X-299.203 Y-586.262
G1 X-294.852 Y-603.676
G1 X-294.824 Y-603.782
G1 X-289.876 Y-621.025
G1 X-289.845 Y-621.127
G1 X-284.317 Y-638.198
G1 X-284.283 Y-638.297
G1 X-278.192 Y-655.193
G1 X-278.156 Y-655.287
G1 X-271.522 Y-672.005
G1 X-271.485 Y-672.096
G1 X-264.323 Y-688.635
G1 X-264.284 Y-688.721
G1 X-256.613 Y-705.079
G1 X-256.572 Y-705.163
G1 X-248.406 Y-721.327
G1 X-248.361 Y-721.412
G1 X-239.701 Y-737.337
G1 X-239.652 Y-737.424
G1 X-230.498 Y-753.057
G1 X-230.443 Y-753.148
G1 X-220.792 Y-768.434
G1 X-220.73 Y-768.528
G1 X-210.581 Y-783.412
G1 X-210.513 Y-783.508
G1 X-199.865 Y-797.937
G1 X-199.788 Y-798.037
G1 X-188.638 Y-811.956
G1 X-188.552 Y-812.058
G1 X-176.9 Y-825.412
G1 X-176.806 Y-825.516
G1 X-164.65 Y-838.266
G1 X-164.552 Y-838.365
G1 X-151.895 Y-850.524
G1 X-151.794 Y-850.616
G1 X-138.639 Y-862.211
G1 X-138.539 Y-862.296
G1 X-124.889 Y-873.355
G1 X-124.789 Y-873.433
G1 X-110.649 Y-883.985
G1 X-110.55 Y-884.055
G1 X-95.921 Y-894.126
G1 X-95.825 Y-894.19
G1 X-80.712 Y-903.807
G1 X-80.62 Y-903.863
G1 X-65.024 Y-913.056
G1 X-64.935 Y-913.107
G1 X-48.871 Y-921.887
G1 X-48.78 Y-921.935
G1 X-32.3 Y-930.262
G1 X-32.206 Y-930.308
G1 X-15.371 Y-938.124
G1 X-15.272 Y-938.168
G1 X1.854 Y-945.417
G1 X1.96 Y-945.459
G1 X19.317 Y-952.085
G1 X19.429 Y-952.126
G1 X36.954 Y-958.073
G1 X37.074 Y-958.111
G1 X54.706 Y-963.322
G1 X54.836 Y-963.357
G1 X72.511 Y-967.776
G1 X72.649 Y-967.807
G1 X90.318 Y-971.397
G1 X90.452 Y-971.422
G1 X108.103 Y-974.226
G1 X108.229 Y-974.243
G1 X125.862 Y-976.321
G1 X125.98 Y-976.333
G1 X143.596 Y-977.749
G1 X143.703 Y-977.756
G1 X161.3 Y-978.571
G1 X161.397 Y-978.574
G1 X178.976 Y-978.85
G1 X179.063
G1 X196.625 Y-978.648
G1 X196.7 Y-978.646
G1 X214.243 Y-978.028
G1 X214.313 Y-978.025
G1 X231.834 Y-977.019
G1 X231.924 Y-977.012
G1 X249.405 Y-975.508
G1 X249.521 Y-975.496
G1 X266.938 Y-973.351
G1 X267.079 Y-973.331
G1 X284.412 Y-970.4
G1 X284.577 Y-970.367
G1 X301.803 Y-966.506
G1 X301.99 Y-966.458
G1 X319.086 Y-961.523
G1 X319.236 Y-961.476
G1 X327.728 Y-958.561
G1 X327.833 Y-958.523
G1 X336.285 Y-955.286
G1 X336.392 Y-955.242
G1 X344.8 Y-951.664
G1 X344.909 Y-951.616
G1 X353.271 Y-947.68
G1 X353.381 Y-947.625
G1 X361.687 Y-943.317
G1 X361.795 Y-943.259
G1 X370.006 Y-938.588
G1 X370.113 Y-938.524
G1 X378.186 Y-933.502
G1 X378.294 Y-933.432
G1 X386.183 Y-928.071
G1 X386.29 Y-927.994
G1 X393.951 Y-922.307
G1 X394.061 Y-922.222
G1 X401.448 Y-916.222
G1 X401.559 Y-916.128
G1 X402.593 Y-915.206
G3 X402.984 Y-910.884 I-2.113 J2.37
G1 X402.489 Y-910.249
G3 X399.985 Y-909.026 I-2.504 J-1.952
G1 X173.237
G3 X171.473 Y-909.561 I0 J-3.175
G1 X171.214 Y-909.734
G1 X171.387 Y-909.475
G3 X171.922 Y-907.711 I-2.64 J1.764
G1 Y-904.245
G3 X171.387 Y-902.481 I-3.175 J0
G1 X171.213 Y-902.221
G1 X171.472 Y-902.394
G3 X173.237 Y-902.93 I1.765 J2.639
G1 X414.242
G3 X416.581 Y-901.902 I0 J3.175
G1 X417.164 Y-901.267
G1 Y-901.266
G1 X421.857 Y-896.151
G1 X421.973 Y-896.018
G1 X427.817 Y-888.891
G1 X427.933 Y-888.741
G1 X433.28 Y-881.364
G1 X433.394 Y-881.195
G1 X438.198 Y-873.581
G1 X438.309 Y-873.391
G1 X442.525 Y-865.552
G1 X442.579 Y-865.447
G1 X442.63 Y-865.339
G1 X446.214 Y-857.288
G3 X446.308 Y-857.052 I-2.901 J1.291
G1 X449.214 Y-848.801
G3 X449.293 Y-848.542 I-2.995 J1.055
G1 X451.477 Y-840.105
G3 X451.535 Y-839.83 I-3.074 J0.796
G1 X452.966 Y-831.223
G3 X452.999 Y-830.954 I-3.132 J0.521
G1 X453.694 Y-822.217
G3 X453.704 Y-821.962 I-3.165 J0.252
G1 X453.697 Y-813.138
G1 X453.695 Y-813.019
G1 X453.688 Y-812.9
G1 X453.012 Y-804.033
G1 X452.987 Y-803.809
G1 X451.674 Y-794.943
G1 X451.636 Y-794.733
G1 X449.718 Y-785.911
G1 X449.668 Y-785.716
G1 X447.178 Y-776.982
G1 X447.12 Y-776.797
G1 X445.567 Y-772.387
G3 X445.076 Y-771.49 I-2.995 J-1.055
G1 X444.581 Y-770.855
G3 X442.077 Y-769.632 I-2.504 J-1.952
G1 X115.503
G3 X113.739 Y-770.167 I0 J-3.175
G1 X113.479 Y-770.341
G1 X113.652 Y-770.082
G3 X114.188 Y-768.317 I-2.639 J1.765
G1 Y-764.851
G3 X113.652 Y-763.086 I-3.175 J0
G1 X113.479 Y-762.827
G1 X113.739 Y-763.001
G3 X115.503 Y-763.536 I1.764 J2.64
G1 X436.526
G3 X439.028 Y-762.315 I0 J3.175
G1 X439.524 Y-761.68
G3 X439.874 Y-758.332 I-2.502 J1.954
G1 X436.4 Y-751.225
G1 X436.318 Y-751.067
G1 X431.865 Y-743.122
G1 X431.773 Y-742.969
G1 X426.91 Y-735.333
G1 X426.809 Y-735.185
G1 X421.569 Y-727.9
G1 X421.459 Y-727.755
G1 X415.874 Y-720.864
G1 X415.751 Y-720.721
G1 X409.854 Y-714.268
G1 X409.717 Y-714.127
G1 X403.541 Y-708.156
G1 X403.39 Y-708.019
G1 X396.964 Y-702.559
G1 X396.809 Y-702.436
G1 X390.15 Y-697.457
G1 X389.999 Y-697.351
G1 X383.123 Y-692.808
G1 X382.98 Y-692.719
G1 X375.902 Y-688.566
G1 X375.768 Y-688.491
G1 X368.502 Y-684.685
G1 X368.382 Y-684.626
G1 X360.943 Y-681.122
G1 X360.794 Y-681.056
G1 X345.458 Y-674.77
G1 X345.315 Y-674.716
G1 X329.466 Y-669.096
G1 X329.392 Y-669.071
G1 X313.149 Y-663.759
G1 X313.143 Y-663.757
G1 X296.655 Y-658.404
G1 X280.068 Y-652.658
G1 X263.478 Y-646.215
G1 X246.989 Y-638.987
G1 X230.728 Y-630.951
G1 X230.169 Y-630.64
G3 X228.623 Y-630.238 I-1.546 J-2.773
G1 X-28.897
G3 X-30.66 Y-630.773 I0 J-3.175
G1 X-30.92 Y-630.947
G1 X-30.747 Y-630.687
G3 X-30.212 Y-628.923 I-2.64 J1.764
G1 Y-625.457
G3 X-30.747 Y-623.693 I-3.175 J0
G1 X-30.92 Y-623.433
G1 X-30.66 Y-623.607
G3 X-28.897 Y-624.142 I1.764 J2.64
G1 X205.592
G3 X208.096 Y-622.919 I0 J3.175
G1 X208.591 Y-622.284
G3 X209.215 Y-619.785 I-2.504 J1.952
G3 X207.78 Y-617.646 I-3.128 J-0.547
G1 X199.396 Y-612.362
G1 X184.559 Y-601.749
G1 X177.439 Y-596.129
G1 X170.5 Y-590.268
G1 X163.776 Y-584.177
G1 X157.283 Y-577.853
G1 X151.034 Y-571.294
G1 X145.039 Y-564.508
G1 X139.309 Y-557.506
G1 X133.854 Y-550.3
G1 X128.684 Y-542.901
G1 X123.81 Y-535.321
G1 X119.242 Y-527.571
G1 X114.99 Y-519.663
G1 X111.065 Y-511.609
G1 X107.478 Y-503.42
G1 X104.238 Y-495.108
G1 X103.731 Y-493.626
G3 X103.231 Y-492.702 I-3.004 J-1.028
G1 X102.736 Y-492.067
G3 X100.962 Y-490.929 I-2.504 J-1.952
G1 Z-1.524
G3 X100.232 Y-490.844 I-0.73 J-3.09
G1 X-100.57
G3 X-102.334 Y-491.379 I0 J-3.175
G1 X-102.593 Y-491.552
G1 X-102.42 Y-491.293
G3 X-101.885 Y-489.529 I-2.64 J1.764
G1 Y-486.063
G3 X-102.42 Y-484.299 I-3.175 J0
G1 X-102.593 Y-484.04
G1 X-102.334 Y-484.213
G3 X-100.57 Y-484.748 I1.764 J2.64
G1 X95.856
G3 X98.359 Y-483.526 I0 J3.175
G1 X98.854 Y-482.891
G3 X99.396 Y-480.039 I-2.503 J1.953
G1 X98.842 Y-478.161
G1 X96.706 Y-469.548
G1 X94.957 Y-460.859
G1 X93.607 Y-452.101
G1 X92.66 Y-443.287
G1 X92.111 Y-434.424
G1 X91.946 Y-425.527
G1 X92.157 Y-416.609
G1 X92.732 Y-407.683
G1 X93.66 Y-398.767
G1 X94.93 Y-389.872
G1 X96.531 Y-381.013
G1 X98.453 Y-372.205
G1 X100.684 Y-363.463
G1 X102.819 Y-356.15
G3 X102.275 Y-353.307 I-3.048 J0.89
G1 X101.78 Y-352.672
G3 X99.276 Y-351.45 I-2.503 J-1.953
G1 X-93.273
G3 X-95.036 Y-351.985 I0 J-3.175
G1 X-95.296 Y-352.159
G1 X-95.123 Y-351.899
G3 X-94.588 Y-350.135 I-2.64 J1.764
G1 Y-346.669
G3 X-95.123 Y-344.905 I-3.175 J0
G1 X-95.296 Y-344.645
G1 X-95.036 Y-344.819
G3 X-93.273 Y-345.354 I1.763 J2.64
G1 X103.934
G3 X106.438 Y-344.131 I0 J3.175
G1 X106.933 Y-343.496
G3 X107.393 Y-342.682 I-2.504 J1.952
G1 X112.48 Y-329.431
G1 X119.943 Y-313.175
G1 X128.294 Y-297.504
G1 X137.211 Y-282.256
G1 X146.298 Y-267.257
G1 X146.313 Y-267.233
G1 X155.156 Y-252.334
G1 X155.211 Y-252.237
G1 X163.399 Y-237.274
G1 X163.462 Y-237.153
G1 X167.187 Y-229.59
G1 X167.238 Y-229.481
G1 X170.651 Y-221.833
G1 X170.707 Y-221.701
G1 X172.545 Y-217.028
G3 X172.094 Y-213.914 I-2.955 J1.162
G1 X171.599 Y-213.279
G3 X169.095 Y-212.056 I-2.504 J-1.952
G1 X-36.834
G3 X-38.597 Y-212.591 I0 J-3.175
G1 X-38.858 Y-212.765
G1 X-38.684 Y-212.505
G3 X-38.149 Y-210.741 I-2.64 J1.764
G1 Y-207.275
G3 X-38.684 Y-205.511 I-3.175 J0
G1 X-38.858 Y-205.251
G1 X-38.597 Y-205.425
G3 X-36.834 Y-205.96 I1.764 J2.64
G1 X173.692
G3 X176.196 Y-204.737 I0 J3.175
G1 X176.691 Y-204.102
G3 X177.251 Y-202.981 I-2.504 J1.952
G1 X178.686 Y-197.687
G1 X178.734 Y-197.488
G1 X180.402 Y-189.271
G1 X180.437 Y-189.058
G1 X181.556 Y-180.651
G1 X181.577 Y-180.443
G1 X182.148 Y-171.873
G1 X182.155 Y-171.675
G1 X182.19 Y-162.98
G1 X182.185 Y-162.79
G1 X181.696 Y-154.008
G1 X181.681 Y-153.826
G1 X180.68 Y-144.993
G1 X180.655 Y-144.82
G1 X179.154 Y-135.973
G1 X179.121 Y-135.806
G1 X177.133 Y-126.983
G1 X177.092 Y-126.821
G1 X174.627 Y-118.06
G1 X174.579 Y-117.903
G1 X171.651 Y-109.24
G1 X171.595 Y-109.087
G1 X168.215 Y-100.561
G1 X168.15 Y-100.411
G1 X164.33 Y-92.057
G1 X164.258 Y-91.909
G1 X160.011 Y-83.766
G1 X159.93 Y-83.62
G1 X155.267 Y-75.724
G1 X155.176 Y-75.58
G1 X154.599 Y-74.713
G1 X154.531 Y-74.615
G1 X154.46 Y-74.52
G1 X153.965 Y-73.885
G3 X151.461 Y-72.662 I-2.504 J-1.952
G1 X1.497
G3 X-0.267 Y-73.197 I0 J-3.175
G1 X-0.527 Y-73.371
G1 X-0.353 Y-73.111
G3 X0.182 Y-71.347 I-2.64 J1.764
G1 Y-67.882
G3 X-0.353 Y-66.118 I-3.175 J0
G1 X-0.527 Y-65.857
G1 X-0.267 Y-66.031
G3 X1.497 Y-66.566 I1.764 J2.64
G1 X141.748
G3 X144.252 Y-65.343 I0 J3.175
G1 X144.747 Y-64.708
G3 X144.787 Y-60.857 I-2.504 J1.952
G1 X144.552 Y-60.542
G1 X144.436 Y-60.395
G1 X138.597 Y-53.468
G1 X138.472 Y-53.328
G1 X132.269 Y-46.792
G1 X132.137 Y-46.661
G1 X125.589 Y-40.523
G1 X125.453 Y-40.403
G1 X118.585 Y-34.666
G1 X118.446 Y-34.556
G1 X111.281 Y-29.223
G1 X111.139 Y-29.123
G1 X103.701 Y-24.195
G1 X103.557 Y-24.105
G1 X95.87 Y-19.583
G1 X95.724 Y-19.502
G1 X87.811 Y-15.39
G1 X87.665 Y-15.318
G1 X79.55 Y-11.616
G1 X79.403 Y-11.554
G1 X71.109 Y-8.265
G1 X70.961 Y-8.21
G1 X62.513 Y-5.336
G1 X62.364 Y-5.289
G1 X53.785 Y-2.832
G1 X53.636 Y-2.793
G1 X44.949 Y-0.754
G1 X44.799 Y-0.723
G1 X36.029 Y0.895
G1 X35.878 Y0.919
G1 X27.047 Y2.114
G1 X26.896 Y2.131
G1 X18.028 Y2.902
G1 X17.876 Y2.911
G1 X8.996 Y3.255
G1 X8.843 Y3.257
G1 X-0.03 Y3.175
G1 X-0.18 Y3.17
G1 X-9.032 Y2.668
G1 X-9.179 Y2.656
G1 X-18.003 Y1.745
G1 X-18.146 Y1.727
G1 X-26.931 Y0.415
G1 X-27.07 Y0.391
G1 X-35.808 Y-1.312
G1 X-35.942 Y-1.341
G1 X-44.625 Y-3.426
G1 X-44.754 Y-3.46
G1 X-53.371 Y-5.917
G1 X-53.496 Y-5.955
G1 X-62.038 Y-8.775
G1 X-62.158 Y-8.818
G1 X-70.617 Y-11.991
G1 X-70.732 Y-12.037
G1 X-79.098 Y-15.554
G1 X-79.209 Y-15.603
G1 X-87.473 Y-19.455
G1 X-87.579 Y-19.507
G1 X-95.732 Y-23.685
G1 X-95.834 Y-23.739
G1 X-103.867 Y-28.233
G1 X-103.965 Y-28.29
G1 X-111.868 Y-33.09
G1 X-111.962 Y-33.149
G1 X-119.727 Y-38.246
G1 X-119.818 Y-38.308
G1 X-127.436 Y-43.693
G1 X-127.562 Y-43.787
G1 X-142.326 Y-55.366
G1 X-142.473 Y-55.488
G1 X-156.59 Y-68.005
G1 X-156.715 Y-68.121
G1 X-170.164 Y-81.4
G1 X-170.269 Y-81.509
G1 X-183.03 Y-95.375
G1 X-183.12 Y-95.477
G1 X-195.172 Y-109.754
G1 X-195.249 Y-109.849
G1 X-206.571 Y-124.362
G1 X-206.638 Y-124.451
G1 X-217.21 Y-139.024
G1 X-217.268 Y-139.106
G1 X-227.07 Y-153.564
G1 X-227.123 Y-153.645
G1 X-236.147 Y-167.866
G1 X-236.201 Y-167.955
G1 X-244.495 Y-182.025
G1 X-244.551 Y-182.123
G1 X-252.178 Y-196.186
G1 X-252.233 Y-196.293
G1 X-259.253 Y-210.489
G1 X-259.305 Y-210.599
G1 X-265.781 Y-225.07
G1 X-265.828 Y-225.181
G1 X-271.821 Y-240.067
G1 X-271.863 Y-240.175
G1 X-277.436 Y-255.619
G1 X-277.47 Y-255.721
G1 X-282.683 Y-271.863
G1 X-282.712 Y-271.957
G1 X-287.61 Y-288.894
G1 X-287.634 Y-288.981
G1 X-292.198 Y-306.628
G1 X-292.218 Y-306.711
G1 X-296.411 Y-324.939
G1 X-296.429 Y-325.021
G1 X-300.212 Y-343.7
G1 X-300.227 Y-343.781
G1 X-303.564 Y-362.782
G1 X-303.577 Y-362.864
G1 X-306.431 Y-382.057
G1 X-306.443 Y-382.142
G1 X-308.777 Y-401.397
G1 X-308.786 Y-401.486
G1 X-310.563 Y-420.675
G1 X-310.571 Y-420.77
G1 X-311.758 Y-439.785
G1 X-311.762 Y-439.884
G1 X-312.351 Y-458.706
G1 X-312.353 Y-458.808
G1 X-312.337 Y-477.442
G1 X-312.335 Y-477.546
G1 X-311.711 Y-495.994
G1 X-311.706 Y-496.102
G1 X-310.469 Y-514.37
G1 X-310.459 Y-514.479
G1 X-308.603 Y-532.57
G1 X-308.59 Y-532.681
G1 X-306.11 Y-550.598
G1 X-306.092 Y-550.71
G1 X-302.986 Y-568.458
G1 X-302.965 Y-568.571
G1 X-299.229 Y-586.152
G1 X-299.203 Y-586.262
G1 X-294.852 Y-603.676
G1 X-294.824 Y-603.782
G1 X-289.876 Y-621.025
G1 X-289.845 Y-621.127
G1 X-284.317 Y-638.198
G1 X-284.283 Y-638.297
G1 X-278.192 Y-655.193
G1 X-278.156 Y-655.287
G1 X-271.522 Y-672.005
G1 X-271.485 Y-672.096
G1 X-264.323 Y-688.635
G1 X-264.284 Y-688.721
G1 X-256.613 Y-705.079
G1 X-256.572 Y-705.163
G1 X-248.406 Y-721.327
G1 X-248.361 Y-721.412
G1 X-239.701 Y-737.337
G1 X-239.652 Y-737.424
G1 X-230.498 Y-753.057
G1 X-230.443 Y-753.148
G1 X-220.792 Y-768.434
G1 X-220.73 Y-768.528
G1 X-210.581 Y-783.412
G1 X-210.513 Y-783.508
G1 X-199.865 Y-797.937
G1 X-199.788 Y-798.037
G1 X-188.638 Y-811.956
G1 X-188.552 Y-812.058
G1 X-176.9 Y-825.412
G1 X-176.806 Y-825.516
G1 X-164.65 Y-838.266
G1 X-164.552 Y-838.365
G1 X-151.895 Y-850.524
G1 X-151.794 Y-850.616
G1 X-138.639 Y-862.211
G1 X-138.539 Y-862.296
G1 X-124.889 Y-873.355
G1 X-124.789 Y-873.433
G1 X-110.649 Y-883.985
G1 X-110.55 Y-884.055
G1 X-95.921 Y-894.126
G1 X-95.825 Y-894.19
G1 X-80.712 Y-903.807
G1 X-80.62 Y-903.863
G1 X-65.024 Y-913.056
G1 X-64.935 Y-913.107
G1 X-48.871 Y-921.887
G1 X-48.78 Y-921.935
G1 X-32.3 Y-930.262
G1 X-32.206 Y-930.308
G1 X-15.371 Y-938.124
G1 X-15.272 Y-938.168
G1 X1.854 Y-945.417
G1 X1.96 Y-945.459
G1 X19.317 Y-952.085
G1 X19.429 Y-952.126
G1 X36.954 Y-958.073
G1 X37.074 Y-958.111
G1 X54.706 Y-963.322
G1 X54.836 Y-963.357
G1 X72.511 Y-967.776
G1 X72.649 Y-967.807
G1 X90.318 Y-971.397
G1 X90.452 Y-971.422
G1 X108.103 Y-974.226
G1 X108.229 Y-974.243
G1 X125.862 Y-976.321
G1 X125.98 Y-976.333
G1 X143.596 Y-977.749
G1 X143.703 Y-977.756
G1 X161.3 Y-978.571
G1 X161.397 Y-978.574
G1 X178.976 Y-978.85
G1 X179.063
G1 X196.625 Y-978.648
G1 X196.7 Y-978.646
G1 X214.243 Y-978.028
G1 X214.313 Y-978.025
G1 X231.834 Y-977.019
G1 X231.924 Y-977.012
G1 X249.405 Y-975.508
G1 X249.521 Y-975.496
G1 X266.938 Y-973.351
G1 X267.079 Y-973.331
G1 X284.412 Y-970.4
G1 X284.577 Y-970.367
G1 X301.803 Y-966.506
G1 X301.99 Y-966.458
G1 X319.086 Y-961.523
G1 X319.236 Y-961.476
G1 X327.728 Y-958.561
G1 X327.833 Y-958.523
G1 X336.285 Y-955.286
G1 X336.392 Y-955.242
G1 X344.8 Y-951.664
G1 X344.909 Y-951.616
G1 X353.271 Y-947.68
G1 X353.381 Y-947.625
G1 X361.687 Y-943.317
G1 X361.795 Y-943.259
G1 X370.006 Y-938.588
G1 X370.113 Y-938.524
G1 X378.186 Y-933.502
G1 X378.294 Y-933.432
G1 X386.183 Y-928.071
G1 X386.29 Y-927.994
G1 X393.951 Y-922.307
G1 X394.061 Y-922.222
G1 X401.448 Y-916.222
G1 X401.559 Y-916.128
G1 X402.593 Y-915.206
G3 X402.984 Y-910.884 I-2.113 J2.37
G1 X402.489 Y-910.249
G3 X399.985 Y-909.026 I-2.504 J-1.952
G1 X173.237
G3 X171.473 Y-909.561 I0 J-3.175
G1 X171.214 Y-909.734
G1 X171.387 Y-909.475
G3 X171.922 Y-907.711 I-2.64 J1.764
G1 Y-904.245
G3 X171.387 Y-902.481 I-3.175 J0
G1 X171.213 Y-902.221
G1 X171.472 Y-902.394
G3 X173.237 Y-902.93 I1.765 J2.639
G1 X414.242
G3 X416.581 Y-901.902 I0 J3.175
G1 X417.164 Y-901.267
G1 Y-901.266
G1 X421.857 Y-896.151
G1 X421.973 Y-896.018
G1 X427.817 Y-888.891
G1 X427.933 Y-888.741
G1 X433.28 Y-881.364
G1 X433.394 Y-881.195
G1 X438.198 Y-873.581
G1 X438.309 Y-873.391
G1 X442.525 Y-865.552
G1 X442.579 Y-865.447
G1 X442.63 Y-865.339
G1 X446.214 Y-857.288
G3 X446.308 Y-857.052 I-2.901 J1.291
G1 X449.214 Y-848.801
G3 X449.293 Y-848.542 I-2.995 J1.055
G1 X451.477 Y-840.105
G3 X451.535 Y-839.83 I-3.074 J0.796
G1 X452.966 Y-831.223
G3 X452.999 Y-830.954 I-3.132 J0.521
G1 X453.694 Y-822.217
G3 X453.704 Y-821.962 I-3.165 J0.252
G1 X453.697 Y-813.138
G1 X453.695 Y-813.019
G1 X453.688 Y-812.9
G1 X453.012 Y-804.033
G1 X452.987 Y-803.809
G1 X451.674 Y-794.943
G1 X451.636 Y-794.733
G1 X449.718 Y-785.911
G1 X449.668 Y-785.716
G1 X447.178 Y-776.982
G1 X447.12 Y-776.797
G1 X445.567 Y-772.387
G3 X445.076 Y-771.49 I-2.995 J-1.055
G1 X444.581 Y-770.855
G3 X442.077 Y-769.632 I-2.504 J-1.952
G1 X115.503
G3 X113.739 Y-770.167 I0 J-3.175
G1 X113.479 Y-770.341
G1 X113.652 Y-770.082
G3 X114.188 Y-768.317 I-2.639 J1.765
G1 Y-764.851
G3 X113.652 Y-763.086 I-3.175 J0
G1 X113.479 Y-762.827
G1 X113.739 Y-763.001
G3 X115.503 Y-763.536 I1.764 J2.64
G1 X436.526
G3 X439.028 Y-762.315 I0 J3.175
G1 X439.524 Y-761.68
G3 X439.874 Y-758.332 I-2.502 J1.954
G1 X436.4 Y-751.225
G1 X436.318 Y-751.067
G1 X431.865 Y-743.122
G1 X431.773 Y-742.969
G1 X426.91 Y-735.333
G1 X426.809 Y-735.185
G1 X421.569 Y-727.9
G1 X421.459 Y-727.755
G1 X415.874 Y-720.864
G1 X415.751 Y-720.721
G1 X409.854 Y-714.268
G1 X409.717 Y-714.127
G1 X403.541 Y-708.156
G1 X403.39 Y-708.019
G1 X396.964 Y-702.559
G1 X396.809 Y-702.436
G1 X390.15 Y-697.457
G1 X389.999 Y-697.351
G1 X383.123 Y-692.808
G1 X382.98 Y-692.719
G1 X375.902 Y-688.566
G1 X375.768 Y-688.491
G1 X368.502 Y-684.685
G1 X368.382 Y-684.626
G1 X360.943 Y-681.122
G1 X360.794 Y-681.056
G1 X345.458 Y-674.77
G1 X345.315 Y-674.716
G1 X329.466 Y-669.096
G1 X329.392 Y-669.071
G1 X313.149 Y-663.759
G1 X313.143 Y-663.757
G1 X296.655 Y-658.404
G1 X280.068 Y-652.658
G1 X263.478 Y-646.215
G1 X246.989 Y-638.987
G1 X230.728 Y-630.951
G1 X230.169 Y-630.64
G3 X228.623 Y-630.238 I-1.546 J-2.773
G1 X-28.897
G3 X-30.66 Y-630.773 I0 J-3.175
G1 X-30.92 Y-630.947
G1 X-30.747 Y-630.687
G3 X-30.212 Y-628.923 I-2.64 J1.764
G1 Y-625.457
G3 X-30.747 Y-623.693 I-3.175 J0
G1 X-30.92 Y-623.433
G1 X-30.66 Y-623.607
G3 X-28.897 Y-624.142 I1.764 J2.64
G1 X205.592
G3 X208.096 Y-622.919 I0 J3.175
G1 X208.591 Y-622.284
G3 X209.215 Y-619.785 I-2.504 J1.952
G3 X207.78 Y-617.646 I-3.128 J-0.547
G1 X199.396 Y-612.362
G1 X184.559 Y-601.749
G1 X177.439 Y-596.129
G1 X170.5 Y-590.268
G1 X163.776 Y-584.177
G1 X157.283 Y-577.853
G1 X151.034 Y-571.294
G1 X145.039 Y-564.508
G1 X139.309 Y-557.506
G1 X133.854 Y-550.3
G1 X128.684 Y-542.901
G1 X123.81 Y-535.321
G1 X119.242 Y-527.571
G1 X114.99 Y-519.663
G1 X111.065 Y-511.609
G1 X107.478 Y-503.42
G1 X104.238 Y-495.108
G1 X103.731 Y-493.626
G3 X103.231 Y-492.702 I-3.004 J-1.028
G1 X102.736 Y-492.067
G3 X100.962 Y-490.929 I-2.504 J-1.952
G1 Z-7.366
G3 X100.232 Y-490.844 I-0.73 J-3.09
G1 X-100.57
G3 X-102.334 Y-491.379 I0 J-3.175
G1 X-102.593 Y-491.552
G1 X-102.42 Y-491.293
G3 X-101.885 Y-489.529 I-2.64 J1.764
G1 Y-486.063
G3 X-102.42 Y-484.299 I-3.175 J0
G1 X-102.593 Y-484.04
G1 X-102.334 Y-484.213
G3 X-100.57 Y-484.748 I1.764 J2.64
G1 X95.856
G3 X98.359 Y-483.526 I0 J3.175
G1 X98.854 Y-482.891
G3 X99.396 Y-480.039 I-2.503 J1.953
G1 X98.842 Y-478.161
G1 X96.706 Y-469.548
G1 X94.957 Y-460.859
G1 X93.607 Y-452.101
G1 X92.66 Y-443.287
G1 X92.111 Y-434.424
G1 X91.946 Y-425.527
G1 X92.157 Y-416.609
G1 X92.732 Y-407.683
G1 X93.66 Y-398.767
G1 X94.93 Y-389.872
G1 X96.531 Y-381.013
G1 X98.453 Y-372.205
G1 X100.684 Y-363.463
G1 X102.819 Y-356.15
G3 X102.275 Y-353.307 I-3.048 J0.89
G1 X101.78 Y-352.672
G3 X99.276 Y-351.45 I-2.503 J-1.953
G1 X-93.273
G3 X-95.036 Y-351.985 I0 J-3.175
G1 X-95.296 Y-352.159
G1 X-95.123 Y-351.899
G3 X-94.588 Y-350.135 I-2.64 J1.764
G1 Y-346.669
G3 X-95.123 Y-344.905 I-3.175 J0
G1 X-95.296 Y-344.645
G1 X-95.036 Y-344.819
G3 X-93.273 Y-345.354 I1.763 J2.64
G1 X103.934
G3 X106.438 Y-344.131 I0 J3.175
G1 X106.933 Y-343.496
G3 X107.393 Y-342.682 I-2.504 J1.952
G1 X112.48 Y-329.431
G1 X119.943 Y-313.175
G1 X128.294 Y-297.504
G1 X137.211 Y-282.256
G1 X146.298 Y-267.257
G1 X146.313 Y-267.233
G1 X155.156 Y-252.334
G1 X155.211 Y-252.237
G1 X163.399 Y-237.274
G1 X163.462 Y-237.153
G1 X167.187 Y-229.59
G1 X167.238 Y-229.481
G1 X170.651 Y-221.833
G1 X170.707 Y-221.701
G1 X172.545 Y-217.028
G3 X172.094 Y-213.914 I-2.955 J1.162
G1 X171.599 Y-213.279
G3 X169.095 Y-212.056 I-2.504 J-1.952
G1 X-36.834
G3 X-38.597 Y-212.591 I0 J-3.175
G1 X-38.858 Y-212.765
G1 X-38.684 Y-212.505
G3 X-38.149 Y-210.741 I-2.64 J1.764
G1 Y-207.275
G3 X-38.684 Y-205.511 I-3.175 J0
G1 X-38.858 Y-205.251
G1 X-38.597 Y-205.425
G3 X-36.834 Y-205.96 I1.764 J2.64
G1 X173.692
G3 X176.196 Y-204.737 I0 J3.175
G1 X176.691 Y-204.102
G3 X177.251 Y-202.981 I-2.504 J1.952
G1 X178.686 Y-197.687
G1 X178.734 Y-197.488
G1 X180.402 Y-189.271
G1 X180.437 Y-189.058
G1 X181.556 Y-180.651
G1 X181.577 Y-180.443
G1 X182.148 Y-171.873
G1 X182.155 Y-171.675
G1 X182.19 Y-162.98
G1 X182.185 Y-162.79
G1 X181.696 Y-154.008
G1 X181.681 Y-153.826
G1 X180.68 Y-144.993
G1 X180.655 Y-144.82
G1 X179.154 Y-135.973
G1 X179.121 Y-135.806
G1 X177.133 Y-126.983
G1 X177.092 Y-126.821
G1 X174.627 Y-118.06
G1 X174.579 Y-117.903
G1 X171.651 Y-109.24
G1 X171.595 Y-109.087
G1 X168.215 Y-100.561
G1 X168.15 Y-100.411
G1 X164.33 Y-92.057
G1 X164.258 Y-91.909
G1 X160.011 Y-83.766
G1 X159.93 Y-83.62
G1 X155.267 Y-75.724
G1 X155.176 Y-75.58
G1 X154.599 Y-74.713
G1 X154.531 Y-74.615
G1 X154.46 Y-74.52
G1 X153.965 Y-73.885
G3 X151.461 Y-72.662 I-2.504 J-1.952
G1 X1.497
G3 X-0.267 Y-73.197 I0 J-3.175
G1 X-0.527 Y-73.371
G1 X-0.353 Y-73.111
G3 X0.182 Y-71.347 I-2.64 J1.764
G1 Y-67.882
G3 X-0.353 Y-66.118 I-3.175 J0
G1 X-0.527 Y-65.857
G1 X-0.267 Y-66.031
G3 X1.497 Y-66.566 I1.764 J2.64
G1 X141.748
G3 X144.252 Y-65.343 I0 J3.175
G1 X144.747 Y-64.708
G3 X144.787 Y-60.857 I-2.504 J1.952
G1 X144.552 Y-60.542
G1 X144.436 Y-60.395
G1 X138.597 Y-53.468
G1 X138.472 Y-53.328
G1 X132.269 Y-46.792
G1 X132.137 Y-46.661
G1 X125.589 Y-40.523
G1 X125.453 Y-40.403
G1 X118.585 Y-34.666
G1 X118.446 Y-34.556
G1 X111.281 Y-29.223
G1 X111.139 Y-29.123
G1 X103.701 Y-24.195
G1 X103.557 Y-24.105
G1 X95.87 Y-19.583
G1 X95.724 Y-19.502
G1 X87.811 Y-15.39
G1 X87.665 Y-15.318
G1 X79.55 Y-11.616
G1 X79.403 Y-11.554
G1 X71.109 Y-8.265
G1 X70.961 Y-8.21
G1 X62.513 Y-5.336
G1 X62.364 Y-5.289
G1 X53.785 Y-2.832
G1 X53.636 Y-2.793
G1 X44.949 Y-0.754
G1 X44.799 Y-0.723
G1 X36.029 Y0.895
G1 X35.878 Y0.919
G1 X27.047 Y2.114
G1 X26.896 Y2.131
G1 X18.028 Y2.902
G1 X17.876 Y2.911
G1 X8.996 Y3.255
G1 X8.843 Y3.257
G1 X-0.03 Y3.175
G1 X-0.18 Y3.17
G1 X-9.032 Y2.668
G1 X-9.179 Y2.656
G1 X-18.003 Y1.745
G1 X-18.146 Y1.727
G1 X-26.931 Y0.415
G1 X-27.07 Y0.391
G1 X-35.808 Y-1.312
G1 X-35.942 Y-1.341
G1 X-44.625 Y-3.426
G1 X-44.754 Y-3.46
G1 X-53.371 Y-5.917
G1 X-53.496 Y-5.955
G1 X-62.038 Y-8.775
G1 X-62.158 Y-8.818
G1 X-70.617 Y-11.991
G1 X-70.732 Y-12.037
G1 X-79.098 Y-15.554
G1 X-79.209 Y-15.603
G1 X-87.473 Y-19.455
G1 X-87.579 Y-19.507
G1 X-95.732 Y-23.685
G1 X-95.834 Y-23.739
G1 X-103.867 Y-28.233
G1 X-103.965 Y-28.29
G1 X-111.868 Y-33.09
G1 X-111.962 Y-33.149
G1 X-119.727 Y-38.246
G1 X-119.818 Y-38.308
G1 X-127.436 Y-43.693
G1 X-127.562 Y-43.787
G1 X-142.326 Y-55.366
G1 X-142.473 Y-55.488
G1 X-156.59 Y-68.005
G1 X-156.715 Y-68.121
G1 X-170.164 Y-81.4
G1 X-170.269 Y-81.509
G1 X-183.03 Y-95.375
G1 X-183.12 Y-95.477
G1 X-195.172 Y-109.754
G1 X-195.249 Y-109.849
G1 X-206.571 Y-124.362
G1 X-206.638 Y-124.451
G1 X-217.21 Y-139.024
G1 X-217.268 Y-139.106
G1 X-227.07 Y-153.564
G1 X-227.123 Y-153.645
G1 X-236.147 Y-167.866
G1 X-236.201 Y-167.955
G1 X-244.495 Y-182.025
G1 X-244.551 Y-182.123
G1 X-252.178 Y-196.186
G1 X-252.233 Y-196.293
G1 X-259.253 Y-210.489
G1 X-259.305 Y-210.599
G1 X-265.781 Y-225.07
G1 X-265.828 Y-225.181
G1 X-271.821 Y-240.067
G1 X-271.863 Y-240.175
G1 X-277.436 Y-255.619
G1 X-277.47 Y-255.721
G1 X-282.683 Y-271.863
G1 X-282.712 Y-271.957
G1 X-287.61 Y-288.894
G1 X-287.634 Y-288.981
G1 X-292.198 Y-306.628
G1 X-292.218 Y-306.711
G1 X-296.411 Y-324.939
G1 X-296.429 Y-325.021
G1 X-300.212 Y-343.7
G1 X-300.227 Y-343.781
G1 X-303.564 Y-362.782
G1 X-303.577 Y-362.864
G1 X-306.431 Y-382.057
G1 X-306.443 Y-382.142
G1 X-308.777 Y-401.397
G1 X-308.786 Y-401.486
G1 X-310.563 Y-420.675
G1 X-310.571 Y-420.77
G1 X-311.758 Y-439.785
G1 X-311.762 Y-439.884
G1 X-312.351 Y-458.706
G1 X-312.353 Y-458.808
G1 X-312.337 Y-477.442
G1 X-312.335 Y-477.546
G1 X-311.711 Y-495.994
G1 X-311.706 Y-496.102
G1 X-310.469 Y-514.37
G1 X-310.459 Y-514.479
G1 X-308.603 Y-532.57
G1 X-308.59 Y-532.681
G1 X-306.11 Y-550.598
G1 X-306.092 Y-550.71
G1 X-302.986 Y-568.458
G1 X-302.965 Y-568.571
G1 X-299.229 Y-586.152
G1 X-299.203 Y-586.262
G1 X-294.852 Y-603.676
G1 X-294.824 Y-603.782
G1 X-289.876 Y-621.025
G1 X-289.845 Y-621.127
G1 X-284.317 Y-638.198
G1 X-284.283 Y-638.297
G1 X-278.192 Y-655.193
G1 X-278.156 Y-655.287
G1 X-271.522 Y-672.005
G1 X-271.485 Y-672.096
G1 X-264.323 Y-688.635
G1 X-264.284 Y-688.721
G1 X-256.613 Y-705.079
G1 X-256.572 Y-705.163
G1 X-248.406 Y-721.327
G1 X-248.361 Y-721.412
G1 X-239.701 Y-737.337
G1 X-239.652 Y-737.424
G1 X-230.498 Y-753.057
G1 X-230.443 Y-753.148
G1 X-220.792 Y-768.434
G1 X-220.73 Y-768.528
G1 X-210.581 Y-783.412
G1 X-210.513 Y-783.508
G1 X-199.865 Y-797.937
G1 X-199.788 Y-798.037
G1 X-188.638 Y-811.956
G1 X-188.552 Y-812.058
G1 X-176.9 Y-825.412
G1 X-176.806 Y-825.516
G1 X-164.65 Y-838.266
G1 X-164.552 Y-838.365
G1 X-151.895 Y-850.524
G1 X-151.794 Y-850.616
G1 X-138.639 Y-862.211
G1 X-138.539 Y-862.296
G1 X-124.889 Y-873.355
G1 X-124.789 Y-873.433
G1 X-110.649 Y-883.985
G1 X-110.55 Y-884.055
G1 X-95.921 Y-894.126
G1 X-95.825 Y-894.19
G1 X-80.712 Y-903.807
G1 X-80.62 Y-903.863
G1 X-65.024 Y-913.056
G1 X-64.935 Y-913.107
G1 X-48.871 Y-921.887
G1 X-48.78 Y-921.935
G1 X-32.3 Y-930.262
G1 X-32.206 Y-930.308
G1 X-15.371 Y-938.124
G1 X-15.272 Y-938.168
G1 X1.854 Y-945.417
G1 X1.96 Y-945.459
G1 X19.317 Y-952.085
G1 X19.429 Y-952.126
G1 X36.954 Y-958.073
G1 X37.074 Y-958.111
G1 X54.706 Y-963.322
G1 X54.836 Y-963.357
G1 X72.511 Y-967.776
G1 X72.649 Y-967.807
G1 X90.318 Y-971.397
G1 X90.452 Y-971.422
G1 X108.103 Y-974.226
G1 X108.229 Y-974.243
G1 X125.862 Y-976.321
G1 X125.98 Y-976.333
G1 X143.596 Y-977.749
G1 X143.703 Y-977.756
G1 X161.3 Y-978.571
G1 X161.397 Y-978.574
G1 X178.976 Y-978.85
G1 X179.063
G1 X196.625 Y-978.648
G1 X196.7 Y-978.646
G1 X214.243 Y-978.028
G1 X214.313 Y-978.025
G1 X231.834 Y-977.019
G1 X231.924 Y-977.012
G1 X249.405 Y-975.508
G1 X249.521 Y-975.496
G1 X266.938 Y-973.351
G1 X267.079 Y-973.331
G1 X284.412 Y-970.4
G1 X284.577 Y-970.367
G1 X301.803 Y-966.506
G1 X301.99 Y-966.458
G1 X319.086 Y-961.523
G1 X319.236 Y-961.476
G1 X327.728 Y-958.561
G1 X327.833 Y-958.523
G1 X336.285 Y-955.286
G1 X336.392 Y-955.242
G1 X344.8 Y-951.664
G1 X344.909 Y-951.616
G1 X353.271 Y-947.68
G1 X353.381 Y-947.625
G1 X361.687 Y-943.317
G1 X361.795 Y-943.259
G1 X370.006 Y-938.588
G1 X370.113 Y-938.524
G1 X378.186 Y-933.502
G1 X378.294 Y-933.432
G1 X386.183 Y-928.071
G1 X386.29 Y-927.994
G1 X393.951 Y-922.307
G1 X394.061 Y-922.222
G1 X401.448 Y-916.222
G1 X401.559 Y-916.128
G1 X402.593 Y-915.206
G3 X402.984 Y-910.884 I-2.113 J2.37
G1 X402.489 Y-910.249
G3 X399.985 Y-909.026 I-2.504 J-1.952
G1 X173.237
G3 X171.473 Y-909.561 I0 J-3.175
G1 X171.214 Y-909.734
G1 X171.387 Y-909.475
G3 X171.922 Y-907.711 I-2.64 J1.764
G1 Y-904.245
G3 X171.387 Y-902.481 I-3.175 J0
G1 X171.213 Y-902.221
G1 X171.472 Y-902.394
G3 X173.237 Y-902.93 I1.765 J2.639
G1 X414.242
G3 X416.581 Y-901.902 I0 J3.175
G1 X417.164 Y-901.267
G1 Y-901.266
G1 X421.857 Y-896.151
G1 X421.973 Y-896.018
G1 X427.817 Y-888.891
G1 X427.933 Y-888.741
G1 X433.28 Y-881.364
G1 X433.394 Y-881.195
G1 X438.198 Y-873.581
G1 X438.309 Y-873.391
G1 X442.525 Y-865.552
G1 X442.579 Y-865.447
G1 X442.63 Y-865.339
G1 X446.214 Y-857.288
G3 X446.308 Y-857.052 I-2.901 J1.291
G1 X449.214 Y-848.801
G3 X449.293 Y-848.542 I-2.995 J1.055
G1 X451.477 Y-840.105
G3 X451.535 Y-839.83 I-3.074 J0.796
G1 X452.966 Y-831.223
G3 X452.999 Y-830.954 I-3.132 J0.521
G1 X453.694 Y-822.217
G3 X453.704 Y-821.962 I-3.165 J0.252
G1 X453.697 Y-813.138
G1 X453.695 Y-813.019
G1 X453.688 Y-812.9
G1 X453.012 Y-804.033
G1 X452.987 Y-803.809
G1 X451.674 Y-794.943
G1 X451.636 Y-794.733
G1 X449.718 Y-785.911
G1 X449.668 Y-785.716
G1 X447.178 Y-776.982
G1 X447.12 Y-776.797
G1 X445.567 Y-772.387
G3 X445.076 Y-771.49 I-2.995 J-1.055
G1 X444.581 Y-770.855
G3 X442.077 Y-769.632 I-2.504 J-1.952
G1 X115.503
G3 X113.739 Y-770.167 I0 J-3.175
G1 X113.479 Y-770.341
G1 X113.652 Y-770.082
G3 X114.188 Y-768.317 I-2.639 J1.765
G1 Y-764.851
G3 X113.652 Y-763.086 I-3.175 J0
G1 X113.479 Y-762.827
G1 X113.739 Y-763.001
G3 X115.503 Y-763.536 I1.764 J2.64
G1 X436.526
G3 X439.028 Y-762.315 I0 J3.175
G1 X439.524 Y-761.68
G3 X439.874 Y-758.332 I-2.502 J1.954
G1 X436.4 Y-751.225
G1 X436.318 Y-751.067
G1 X431.865 Y-743.122
G1 X431.773 Y-742.969
G1 X426.91 Y-735.333
G1 X426.809 Y-735.185
G1 X421.569 Y-727.9
G1 X421.459 Y-727.755
G1 X415.874 Y-720.864
G1 X415.751 Y-720.721
G1 X409.854 Y-714.268
G1 X409.717 Y-714.127
G1 X403.541 Y-708.156
G1 X403.39 Y-708.019
G1 X396.964 Y-702.559
G1 X396.809 Y-702.436
G1 X390.15 Y-697.457
G1 X389.999 Y-697.351
G1 X383.123 Y-692.808
G1 X382.98 Y-692.719
G1 X375.902 Y-688.566
G1 X375.768 Y-688.491
G1 X368.502 Y-684.685
G1 X368.382 Y-684.626
G1 X360.943 Y-681.122
G1 X360.794 Y-681.056
G1 X345.458 Y-674.77
G1 X345.315 Y-674.716
G1 X329.466 Y-669.096
G1 X329.392 Y-669.071
G1 X313.149 Y-663.759
G1 X313.143 Y-663.757
G1 X296.655 Y-658.404
G1 X280.068 Y-652.658
G1 X263.478 Y-646.215
G1 X246.989 Y-638.987
G1 X230.728 Y-630.951
G1 X230.169 Y-630.64
G3 X228.623 Y-630.238 I-1.546 J-2.773
G1 X-28.897
G3 X-30.66 Y-630.773 I0 J-3.175
G1 X-30.92 Y-630.947
G1 X-30.747 Y-630.687
G3 X-30.212 Y-628.923 I-2.64 J1.764
G1 Y-625.457
G3 X-30.747 Y-623.693 I-3.175 J0
G1 X-30.92 Y-623.433
G1 X-30.66 Y-623.607
G3 X-28.897 Y-624.142 I1.764 J2.64
G1 X205.592
G3 X208.096 Y-622.919 I0 J3.175
G1 X208.591 Y-622.284
G3 X209.215 Y-619.785 I-2.504 J1.952
G3 X207.78 Y-617.646 I-3.128 J-0.547
G1 X199.396 Y-612.362
G1 X184.559 Y-601.749
G1 X177.439 Y-596.129
G1 X170.5 Y-590.268
G1 X163.776 Y-584.177
G1 X157.283 Y-577.853
G1 X151.034 Y-571.294
G1 X145.039 Y-564.508
G1 X139.309 Y-557.506
G1 X133.854 Y-550.3
G1 X128.684 Y-542.901
G1 X123.81 Y-535.321
G1 X119.242 Y-527.571
G1 X114.99 Y-519.663
G1 X111.065 Y-511.609
G1 X107.478 Y-503.42
G1 X104.238 Y-495.108
G1 X103.731 Y-493.626
G3 X103.231 Y-492.702 I-3.004 J-1.028
G1 X102.736 Y-492.067
G3 X100.962 Y-490.929 I-2.504 J-1.952
G0 Z18.796

G0 Z18.796
M5
M30
