(1001)
(T1  D=6.35 CR=0 - ZMIN=-20.574 - FLAT END MILL)
G0 G40 G90 G17
G21

(2D CONTOUR2)
T1 M6
M3 S5000
G0 X-45.716 Y-206.591
G0 Z6.096
G1 Z4.191 F508.
G1 Z-6.604
G3 X-47.554 Y-206.301 I-3.279 J-14.817
G1 X-205.684 Y-191.22
G3 X-217.366 Y-195.129 I-1.44 J-15.107
G3 X-222.299 Y-206.417 I10.242 J-11.198
G1 X-219.971 Y-597.134
G3 X-218.297 Y-600.916 I5.175 J0.03
G3 X-214.387 Y-602.263 I3.5 J3.811
G1 X-58.67 Y-589.895
G3 X-19.285 Y-547.093 I-3.387 J42.638
G1 X-19.766 Y-421.751
G1 X-19.773 Y-421.541
G1 X-33.857 Y-220.348
G3 X-45.716 Y-206.591 I-15.138 J-1.06
G1 Z-14.224
G3 X-47.554 Y-206.301 I-3.279 J-14.817
G1 X-205.684 Y-191.22
G3 X-217.366 Y-195.129 I-1.44 J-15.107
G3 X-222.299 Y-206.417 I10.242 J-11.198
G1 X-219.971 Y-597.134
G3 X-218.297 Y-600.916 I5.175 J0.03
G3 X-214.387 Y-602.263 I3.5 J3.811
G1 X-58.67 Y-589.895
G3 X-19.285 Y-547.093 I-3.387 J42.638
G1 X-19.766 Y-421.751
G1 X-19.773 Y-421.541
G1 X-33.857 Y-220.348
G3 X-45.716 Y-206.591 I-15.138 J-1.06
G1 Z-20.574
G3 X-47.554 Y-206.301 I-3.279 J-14.817
G1 X-111.481 Y-200.205
G1 Z-18.034
G1 X-122.86 Y-199.119
G1 Z-20.574
G1 X-156.081 Y-195.951
G1 Z-18.034
G1 X-167.46 Y-194.866
G1 Z-20.574
G1 X-198.354 Y-191.919
G1 Z-18.034
G1 X-205.684 Y-191.22
G3 X-209.786 Y-191.387 I-1.44 J-15.107
G1 Z-20.574
G3 X-215.705 Y-193.811 I2.661 J-14.94
G1 Z-18.034
G3 X-222.295 Y-205.982 I8.581 J-12.516
G1 Z-20.574
G3 X-222.299 Y-206.417 I15.171 J-0.345
G1 X-221.912 Y-271.322
G1 Z-18.034
G1 X-221.844 Y-282.752
G1 Z-20.574
G1 X-221.553 Y-331.539
G1 Z-18.034
G1 X-221.367 Y-362.799
G1 Z-20.574
G1 X-220.532 Y-502.987
G1 Z-18.034
G1 X-220.464 Y-514.417
G1 Z-20.574
G1 X-220.445 Y-517.563
G1 Z-18.034
G1 X-220.377 Y-528.993
G1 Z-20.574
G1 X-220.346 Y-534.175
G1 Z-18.034
G1 X-220.278 Y-545.605
G1 Z-20.574
G1 X-220.004 Y-591.507
G1 Z-18.034
G1 X-219.971 Y-597.134
G3 X-218.297 Y-600.916 I5.175 J0.03
G3 X-214.387 Y-602.263 I3.5 J3.811
G1 X-201.225 Y-601.218
G1 Z-20.574
G1 X-154.915 Y-597.539
G1 Z-18.034
G1 X-137.612 Y-596.165
G1 Z-20.574
G1 X-134.6 Y-595.926
G1 Z-18.034
G1 X-123.206 Y-595.021
G1 Z-20.574
G1 X-114.125 Y-594.3
G1 Z-18.034
G1 X-92.984 Y-592.62
G1 Z-20.574
G1 X-89.69 Y-592.359
G1 Z-18.034
G1 X-78.296 Y-591.454
G1 Z-20.574
G1 X-70.738 Y-590.854
G1 Z-18.034
G1 X-58.67 Y-589.895
G3 X-40.715 Y-584.325 I-3.387 J42.638
G1 Z-20.574
G3 X-34.565 Y-580.024 I-21.341 J37.068
G1 Z-18.034
G3 X-24.799 Y-568.265 I-27.492 J32.767
G1 Z-20.574
G3 X-20.846 Y-558.709 I-37.258 J21.008
G1 Z-18.034
G3 X-19.284 Y-547.386 I-41.211 J11.452
G1 Z-20.574
G3 X-19.285 Y-547.093 I-42.772 J0.129
G1 X-19.377 Y-522.957
G1 Z-18.034
G1 X-19.421 Y-511.527
G1 Z-20.574
G1 X-19.506 Y-489.489
G1 Z-18.034
G1 X-19.549 Y-478.059
G1 Z-20.574
G1 X-19.631 Y-456.715
G1 Z-18.034
G1 X-19.675 Y-445.285
G1 Z-20.574
G1 X-19.766 Y-421.751
G1 X-19.773 Y-421.541
G1 X-26.982 Y-318.56
G1 Z-18.034
G1 X-28.467 Y-297.349
G1 Z-20.574
G1 X-33.857 Y-220.348
G3 X-36.166 Y-213.303 I-15.138 J-1.06
G1 Z-18.034
G3 X-45.461 Y-206.65 I-12.829 J-8.105
G1 Z-20.574
G3 X-45.716 Y-206.591 I-3.534 J-14.758
G0 Z6.096

(2D POCKET1)
G0 Z11.176
G0 X-50.44 Y-345.095
G0 Z6.096
G1 Z3.556 F508.
G1 X-50.221 Y-345.083 Z3.548
G1 X-50.001 Y-345.087 Z3.541
G1 X-49.783 Y-345.106 Z3.533
G1 X-49.566 Y-345.142 Z3.525
G1 X-49.353 Y-345.193 Z3.518
G1 X-49.144 Y-345.26 Z3.51
G1 X-48.94 Y-345.342 Z3.502
G1 X-48.743 Y-345.438 Z3.495
G1 X-48.553 Y-345.548 Z3.487
G1 X-48.372 Y-345.672 Z3.479
G1 X-48.2 Y-345.809 Z3.472
G1 X-48.039 Y-345.958 Z3.464
G1 X-47.889 Y-346.118 Z3.456
G1 X-47.751 Y-346.289 Z3.449
G1 X-47.626 Y-346.469 Z3.441
G1 X-47.514 Y-346.658 Z3.433
G1 X-47.416 Y-346.854 Z3.426
G1 X-47.333 Y-347.057 Z3.418
G1 X-47.265 Y-347.266 Z3.41
G1 X-47.212 Y-347.479 Z3.403
G1 X-47.175 Y-347.695 Z3.395
G1 X-47.153 Y-347.914 Z3.387
G1 X-47.148 Y-348.133 Z3.38
G1 X-47.159 Y-348.352 Z3.372
G1 X-47.185 Y-348.57 Z3.364
G1 X-47.227 Y-348.786 Z3.357
G1 X-47.285 Y-348.997 Z3.349
G1 X-47.358 Y-349.204 Z3.341
G1 X-47.446 Y-349.406 Z3.334
G1 X-47.548 Y-349.6 Z3.326
G1 X-47.664 Y-349.786 Z3.318
G1 X-47.793 Y-349.963 Z3.311
G1 X-47.935 Y-350.131 Z3.303
G1 X-48.089 Y-350.287 Z3.295
G1 X-48.254 Y-350.433 Z3.288
G1 X-48.428 Y-350.565 Z3.28
G1 X-48.612 Y-350.685 Z3.272
G1 X-48.805 Y-350.791 Z3.265
G1 X-49.004 Y-350.883 Z3.257
G1 X-49.21 Y-350.96 Z3.249
G1 X-49.42 Y-351.021 Z3.242
G1 X-49.635 Y-351.068 Z3.234
G1 X-49.852 Y-351.098 Z3.226
G1 X-50.071 Y-351.113 Z3.219
G1 X-50.29 Y-351.112 Z3.211
G1 X-50.509 Y-351.095 Z3.203
G1 X-50.726 Y-351.062 Z3.196
G1 X-50.94 Y-351.013 Z3.188
G1 X-51.15 Y-350.949 Z3.18
G1 X-51.355 Y-350.87 Z3.173
G1 X-51.553 Y-350.776 Z3.165
G1 X-51.744 Y-350.668 Z3.157
G1 X-51.927 Y-350.546 Z3.15
G1 X-52.1 Y-350.411 Z3.142
G1 X-52.263 Y-350.264 Z3.134
G1 X-52.415 Y-350.106 Z3.127
G1 X-52.555 Y-349.937 Z3.119
G1 X-52.683 Y-349.758 Z3.111
G1 X-52.797 Y-349.571 Z3.104
G1 X-52.897 Y-349.375 Z3.096
G1 X-52.982 Y-349.173 Z3.088
G1 X-53.053 Y-348.966 Z3.081
G1 X-53.108 Y-348.753 Z3.073
G1 X-53.148 Y-348.537 Z3.065
G1 X-53.172 Y-348.319 Z3.058
G1 X-53.18 Y-348.1 Z3.05
G1 X-53.172 Y-347.88 Z3.042
G1 X-53.149 Y-347.662 Z3.035
G1 X-53.109 Y-347.446 Z3.027
G1 X-53.054 Y-347.234 Z3.019
G1 X-52.983 Y-347.026 Z3.012
G1 X-52.898 Y-346.824 Z3.004
G1 X-52.798 Y-346.629 Z2.996
G1 X-52.684 Y-346.441 Z2.989
G1 X-52.557 Y-346.262 Z2.981
G1 X-52.417 Y-346.093 Z2.973
G1 X-52.265 Y-345.934 Z2.966
G1 X-52.102 Y-345.787 Z2.958
G1 X-51.929 Y-345.653 Z2.95
G1 X-51.747 Y-345.531 Z2.943
G1 X-51.556 Y-345.422 Z2.935
G1 X-51.357 Y-345.328 Z2.927
G1 X-51.153 Y-345.249 Z2.92
G1 X-50.943 Y-345.184 Z2.912
G1 X-50.729 Y-345.136 Z2.904
G1 X-50.512 Y-345.102 Z2.897
G1 X-50.293 Y-345.085 Z2.889
G1 X-50.074 Y-345.083 Z2.881
G1 X-49.855 Y-345.098 Z2.874
G1 X-49.638 Y-345.128 Z2.866
G1 X-49.423 Y-345.175 Z2.858
G1 X-49.212 Y-345.236 Z2.851
G1 X-49.007 Y-345.313 Z2.843
G1 X-48.807 Y-345.405 Z2.835
G1 X-48.615 Y-345.51 Z2.828
G1 X-48.431 Y-345.63 Z2.82
G1 X-48.256 Y-345.762 Z2.812
G1 X-48.091 Y-345.907 Z2.805
G1 X-47.937 Y-346.064 Z2.797
G1 X-47.795 Y-346.231 Z2.789
G1 X-47.666 Y-346.408 Z2.782
G1 X-47.549 Y-346.595 Z2.774
G1 X-47.447 Y-346.789 Z2.766
G1 X-47.359 Y-346.99 Z2.759
G1 X-47.286 Y-347.197 Z2.751
G1 X-47.228 Y-347.408 Z2.743
G1 X-47.185 Y-347.624 Z2.736
G1 X-47.159 Y-347.841 Z2.728
G1 X-47.148 Y-348.061 Z2.72
G1 X-47.153 Y-348.28 Z2.713
G1 X-47.174 Y-348.499 Z2.705
G1 X-47.211 Y-348.715 Z2.697
G1 X-47.264 Y-348.928 Z2.69
G1 X-47.332 Y-349.137 Z2.682
G1 X-47.415 Y-349.34 Z2.674
G1 X-47.513 Y-349.536 Z2.667
G1 X-47.624 Y-349.725 Z2.659
G1 X-47.749 Y-349.906 Z2.651
G1 X-47.887 Y-350.077 Z2.644
G1 X-48.037 Y-350.237 Z2.636
G1 X-48.198 Y-350.386 Z2.628
G1 X-48.37 Y-350.523 Z2.621
G1 X-48.551 Y-350.647 Z2.613
G1 X-48.74 Y-350.757 Z2.605
G1 X-48.937 Y-350.854 Z2.598
G1 X-49.141 Y-350.936 Z2.59
G1 X-49.35 Y-351.003 Z2.582
G1 X-49.564 Y-351.054 Z2.575
G1 X-49.78 Y-351.09 Z2.567
G1 X-49.999 Y-351.11 Z2.559
G1 X-50.218 Y-351.114 Z2.552
G1 X-50.437 Y-351.102 Z2.544
G1 X-50.655 Y-351.074 Z2.536
G1 X-50.87 Y-351.031 Z2.529
G1 X-51.081 Y-350.972 Z2.521
G1 X-51.288 Y-350.897 Z2.513
G1 X-51.488 Y-350.808 Z2.506
G1 X-51.682 Y-350.705 Z2.498
G1 X-51.868 Y-350.588 Z2.49
G1 X-52.044 Y-350.457 Z2.483
G1 X-52.211 Y-350.314 Z2.475
G1 X-52.366 Y-350.159 Z2.467
G1 X-52.51 Y-349.994 Z2.46
G1 X-52.642 Y-349.818 Z2.452
G1 X-52.76 Y-349.634 Z2.444
G1 X-52.865 Y-349.441 Z2.437
G1 X-52.956 Y-349.241 Z2.429
G1 X-53.031 Y-349.035 Z2.421
G1 X-53.092 Y-348.824 Z2.414
G1 X-53.137 Y-348.609 Z2.406
G1 X-53.166 Y-348.391 Z2.398
G1 X-53.179 Y-348.172 Z2.391
G1 X-53.177 Y-347.953 Z2.383
G1 X-53.158 Y-347.734 Z2.375
G1 X-53.124 Y-347.517 Z2.368
G1 X-53.074 Y-347.304 Z2.36
G1 X-53.008 Y-347.094 Z2.352
G1 X-52.928 Y-346.89 Z2.345
G1 X-52.833 Y-346.692 Z2.337
G1 X-52.723 Y-346.502 Z2.329
G1 X-52.6 Y-346.32 Z2.322
G1 X-52.465 Y-346.148 Z2.314
G1 X-52.317 Y-345.986 Z2.306
G1 X-52.157 Y-345.835 Z2.299
G1 X-51.987 Y-345.696 Z2.291
G1 X-51.808 Y-345.569 Z2.283
G1 X-51.62 Y-345.457 Z2.276
G1 X-51.424 Y-345.358 Z2.268
G1 X-51.221 Y-345.273 Z2.26
G1 X-51.013 Y-345.204 Z2.253
G1 X-50.8 Y-345.15 Z2.245
G1 X-50.584 Y-345.112 Z2.237
G1 X-50.366 Y-345.089 Z2.23
G1 X-50.146 Y-345.082 Z2.222
G1 X-49.927 Y-345.091 Z2.214
G1 X-49.709 Y-345.117 Z2.207
G1 X-49.493 Y-345.158 Z2.199
G1 X-49.281 Y-345.214 Z2.191
G1 X-49.074 Y-345.286 Z2.184
G1 X-48.872 Y-345.373 Z2.176
G1 X-48.678 Y-345.474 Z2.168
G1 X-48.491 Y-345.589 Z2.161
G1 X-48.313 Y-345.717 Z2.153
G1 X-48.144 Y-345.858 Z2.145
G1 X-47.987 Y-346.011 Z2.138
G1 X-47.841 Y-346.175 Z2.13
G1 X-47.707 Y-346.349 Z2.122
G1 X-47.586 Y-346.532 Z2.115
G1 X-47.479 Y-346.724 Z2.107
G1 X-47.386 Y-346.923 Z2.099
G1 X-47.308 Y-347.128 Z2.092
G1 X-47.245 Y-347.338 Z2.084
G1 X-47.198 Y-347.552 Z2.076
G1 X-47.166 Y-347.769 Z2.069
G1 X-47.15 Y-347.988 Z2.061
G1 Y-348.208 Z2.053
G1 X-47.166 Y-348.427 Z2.046
G1 X-47.198 Y-348.644 Z2.038
G1 X-47.245 Y-348.858 Z2.03
G1 X-47.308 Y-349.068 Z2.023
G1 X-47.386 Y-349.273 Z2.015
G1 X-47.479 Y-349.472 Z2.007
G1 X-47.586 Y-349.664 Z2
G1 X-47.707 Y-349.847 Z1.992
G1 X-47.84 Y-350.021 Z1.984
G1 X-47.986 Y-350.185 Z1.977
G1 X-48.144 Y-350.338 Z1.969
G1 X-48.312 Y-350.479 Z1.961
G1 X-48.49 Y-350.607 Z1.954
G1 X-48.677 Y-350.723 Z1.946
G1 X-48.872 Y-350.824 Z1.938
G1 X-49.073 Y-350.91 Z1.931
G1 X-49.281 Y-350.982 Z1.923
G1 X-49.493 Y-351.039 Z1.915
G1 X-49.708 Y-351.08 Z1.908
G1 X-49.926 Y-351.105 Z1.9
G1 X-50.146 Y-351.115 Z1.892
G1 X-50.365 Y-351.108 Z1.885
G1 X-50.583 Y-351.085 Z1.877
G1 X-50.799 Y-351.047 Z1.869
G1 X-51.012 Y-350.993 Z1.862
G1 X-51.22 Y-350.924 Z1.854
G1 X-51.423 Y-350.839 Z1.846
G1 X-51.619 Y-350.741 Z1.839
G1 X-51.807 Y-350.628 Z1.831
G1 X-51.987 Y-350.502 Z1.823
G1 X-52.157 Y-350.363 Z1.816
G1 X-52.316 Y-350.212 Z1.808
G1 X-52.464 Y-350.05 Z1.8
G1 X-52.6 Y-349.877 Z1.793
G1 X-52.723 Y-349.695 Z1.785
G1 X-52.832 Y-349.505 Z1.777
G1 X-52.927 Y-349.307 Z1.77
G1 X-53.008 Y-349.103 Z1.762
G1 X-53.074 Y-348.894 Z1.754
G1 X-53.124 Y-348.68 Z1.747
G1 X-53.158 Y-348.463 Z1.739
G1 X-53.177 Y-348.245 Z1.731
G1 X-53.179 Y-348.025 Z1.724
G1 X-53.166 Y-347.806 Z1.716
G1 X-53.137 Y-347.589 Z1.708
G1 X-53.092 Y-347.374 Z1.701
G1 X-53.032 Y-347.163 Z1.693
G1 X-52.956 Y-346.957 Z1.685
G1 X-52.866 Y-346.757 Z1.678
G1 X-52.761 Y-346.564 Z1.67
G1 X-52.642 Y-346.379 Z1.662
G1 X-52.511 Y-346.203 Z1.655
G1 X-52.367 Y-346.038 Z1.647
G1 X-52.211 Y-345.883 Z1.64
G1 X-52.045 Y-345.74 Z1.632
G1 X-51.868 Y-345.61 Z1.624
G1 X-51.683 Y-345.492 Z1.617
G1 X-51.489 Y-345.389 Z1.609
G1 X-51.289 Y-345.3 Z1.601
G1 X-51.082 Y-345.225 Z1.594
G1 X-50.871 Y-345.166 Z1.586
G1 X-50.656 Y-345.122 Z1.578
G1 X-50.438 Y-345.095 Z1.571
G1 X-50.219 Y-345.083 Z1.563
G1 X-49.999 Y-345.087 Z1.555
G1 X-49.781 Y-345.107 Z1.548
G1 X-49.564 Y-345.142 Z1.54
G1 X-49.351 Y-345.194 Z1.532
G1 X-49.142 Y-345.261 Z1.525
G1 X-48.938 Y-345.342 Z1.517
G1 X-48.741 Y-345.439 Z1.509
G1 X-48.551 Y-345.549 Z1.502
G1 X-48.37 Y-345.673 Z1.494
G1 X-48.199 Y-345.81 Z1.486
G1 X-48.038 Y-345.959 Z1.479
G1 X-47.888 Y-346.12 Z1.471
G1 X-47.75 Y-346.29 Z1.463
G1 X-47.625 Y-346.471 Z1.456
G1 X-47.513 Y-346.66 Z1.448
G1 X-47.415 Y-346.856 Z1.44
G1 X-47.332 Y-347.059 Z1.433
G1 X-47.264 Y-347.268 Z1.425
G1 X-47.212 Y-347.481 Z1.417
G1 X-47.175 Y-347.697 Z1.41
G1 X-47.153 Y-347.916 Z1.402
G1 X-47.148 Y-348.135 Z1.394
G1 X-47.159 Y-348.355 Z1.387
G1 X-47.185 Y-348.572 Z1.379
G1 X-47.228 Y-348.788 Z1.371
G1 X-47.286 Y-348.999 Z1.364
G1 X-47.359 Y-349.206 Z1.356
G1 X-47.447 Y-349.407 Z1.348
G1 X-47.549 Y-349.602 Z1.341
G1 X-47.665 Y-349.788 Z1.333
G1 X-47.795 Y-349.965 Z1.325
G1 X-47.937 Y-350.132 Z1.318
G1 X-48.091 Y-350.289 Z1.31
G1 X-48.255 Y-350.434 Z1.302
G1 X-48.43 Y-350.566 Z1.295
G1 X-48.614 Y-350.686 Z1.287
G1 X-48.807 Y-350.792 Z1.279
G1 X-49.006 Y-350.883 Z1.272
G1 X-49.212 Y-350.96 Z1.264
G1 X-49.422 Y-351.022 Z1.256
G1 X-49.637 Y-351.068 Z1.249
G1 X-49.854 Y-351.099 Z1.241
G1 X-50.073 Y-351.113 Z1.233
G1 X-50.293 Y-351.112 Z1.226
G1 X-50.511 Y-351.095 Z1.218
G1 X-50.728 Y-351.061 Z1.21
G1 X-50.942 Y-351.013 Z1.203
G1 X-51.152 Y-350.948 Z1.195
G1 X-51.357 Y-350.869 Z1.187
G1 X-51.555 Y-350.775 Z1.18
G1 X-51.746 Y-350.667 Z1.172
G1 X-51.929 Y-350.545 Z1.164
G1 X-52.102 Y-350.41 Z1.157
G1 X-52.265 Y-350.263 Z1.149
G1 X-52.417 Y-350.104 Z1.141
G1 X-52.556 Y-349.935 Z1.134
G1 X-52.684 Y-349.756 Z1.126
G1 X-52.798 Y-349.569 Z1.118
G1 X-52.898 Y-349.373 Z1.111
G1 X-52.983 Y-349.171 Z1.103
G1 X-53.054 Y-348.964 Z1.095
G1 X-53.109 Y-348.751 Z1.088
G1 X-53.149 Y-348.535 Z1.08
G1 X-53.172 Y-348.317 Z1.072
G1 X-53.18 Y-348.098 Z1.065
G1 X-53.172 Y-347.878 Z1.057
G1 X-53.148 Y-347.66 Z1.049
G1 X-53.109 Y-347.444 Z1.042
G1 X-53.053 Y-347.232 Z1.034
G1 X-52.983 Y-347.024 Z1.026
G1 X-52.897 Y-346.822 Z1.019
G1 X-52.797 Y-346.627 Z1.011
G1 X-52.683 Y-346.439 Z1.003
G1 X-52.556 Y-346.26 Z0.996
G1 X-52.416 Y-346.091 Z0.988
G1 X-52.264 Y-345.933 Z0.98
G1 X-52.101 Y-345.786 Z0.973
G1 X-51.927 Y-345.651 Z0.965
G1 X-51.745 Y-345.53 Z0.957
G1 X-51.554 Y-345.421 Z0.95
G1 X-51.356 Y-345.327 Z0.942
G1 X-51.151 Y-345.248 Z0.934
G1 X-50.941 Y-345.184 Z0.927
G1 X-50.727 Y-345.135 Z0.919
G1 X-50.51 Y-345.102 Z0.911
G1 X-50.291 Y-345.085 Z0.904
G1 X-50.072 Y-345.084 Z0.896
G1 X-49.853 Y-345.098 Z0.888
G1 X-49.635 Y-345.129 Z0.881
G1 X-49.421 Y-345.175 Z0.873
G1 X-49.21 Y-345.237 Z0.865
G1 X-49.005 Y-345.314 Z0.858
G1 X-48.805 Y-345.405 Z0.85
G1 X-48.613 Y-345.511 Z0.842
G1 X-48.429 Y-345.631 Z0.835
G1 X-48.254 Y-345.764 Z0.827
G1 X-48.09 Y-345.909 Z0.819
G1 X-47.936 Y-346.065 Z0.812
G1 X-47.794 Y-346.233 Z0.804
G1 X-47.665 Y-346.41 Z0.796
G1 X-47.548 Y-346.596 Z0.789
G1 X-47.446 Y-346.791 Z0.781
G1 X-47.358 Y-346.992 Z0.773
G1 X-47.285 Y-347.199 Z0.766
G1 X-47.227 Y-347.41 Z0.758
G1 X-47.185 Y-347.626 Z0.75
G1 X-47.159 Y-347.844 Z0.743
G1 X-47.148 Y-348.063 Z0.735
G1 X-47.153 Y-348.282 Z0.727
G1 X-47.175 Y-348.501 Z0.72
G1 X-47.212 Y-348.717 Z0.712
G1 X-47.265 Y-348.93 Z0.704
G1 X-47.333 Y-349.139 Z0.697
G1 X-47.416 Y-349.342 Z0.689
G1 X-47.514 Y-349.538 Z0.681
G1 X-47.625 Y-349.727 Z0.674
G1 X-47.751 Y-349.907 Z0.666
G1 X-47.889 Y-350.078 Z0.658
G1 X-48.039 Y-350.238 Z0.651
G1 X-48.2 Y-350.387 Z0.643
G1 X-48.371 Y-350.524 Z0.635
G1 X-48.553 Y-350.648 Z0.628
G1 X-48.742 Y-350.758 Z0.62
G1 X-48.939 Y-350.855 Z0.612
G1 X-49.143 Y-350.937 Z0.605
G1 X-49.352 Y-351.003 Z0.597
G1 X-49.566 Y-351.055 Z0.589
G1 X-49.782 Y-351.09 Z0.582
G1 X-50.001 Y-351.11 Z0.574
G1 X-50.22 Y-351.114 Z0.566
G1 X-50.439 Y-351.102 Z0.559
G1 X-50.657 Y-351.074 Z0.551
G1 X-50.872 Y-351.03 Z0.543
G1 X-51.083 Y-350.971 Z0.536
G1 X-51.29 Y-350.897 Z0.528
G1 X-51.49 Y-350.807 Z0.52
G1 X-51.684 Y-350.704 Z0.513
G1 X-51.869 Y-350.586 Z0.505
G1 X-52.046 Y-350.456 Z0.497
G1 X-52.212 Y-350.313 Z0.49
G1 X-52.368 Y-350.158 Z0.482
G1 X-52.512 Y-349.992 Z0.474
G1 X-52.643 Y-349.817 Z0.467
G1 X-52.762 Y-349.632 Z0.459
G1 X-52.866 Y-349.439 Z0.451
G1 X-52.956 Y-349.239 Z0.444
G1 X-53.032 Y-349.033 Z0.436
G1 X-53.092 Y-348.822 Z0.428
G1 X-53.137 Y-348.607 Z0.421
G1 X-53.166 Y-348.389 Z0.413
G1 X-53.179 Y-348.17 Z0.405
G1 X-53.177 Y-347.951 Z0.398
G1 X-53.158 Y-347.732 Z0.39
G1 X-53.123 Y-347.515 Z0.382
G1 X-53.073 Y-347.302 Z0.375
G1 X-53.008 Y-347.092 Z0.367
G1 X-52.927 Y-346.888 Z0.359
G1 X-52.832 Y-346.69 Z0.352
G1 X-52.722 Y-346.5 Z0.344
G1 X-52.599 Y-346.318 Z0.336
G1 X-52.463 Y-346.146 Z0.329
G1 X-52.315 Y-345.984 Z0.321
G1 X-52.156 Y-345.833 Z0.313
G1 X-51.986 Y-345.694 Z0.306
G1 X-51.806 Y-345.568 Z0.298
G1 X-51.618 Y-345.456 Z0.29
G1 X-51.422 Y-345.357 Z0.283
G1 X-51.219 Y-345.273 Z0.275
G1 X-51.011 Y-345.203 Z0.267
G1 X-50.798 Y-345.15 Z0.26
G1 X-50.582 Y-345.111 Z0.252
G1 X-50.364 Y-345.089 Z0.244
G1 X-50.144 Y-345.082 Z0.237
G1 X-49.925 Y-345.092 Z0.229
G1 X-49.707 Y-345.117 Z0.221
G1 X-49.491 Y-345.158 Z0.214
G1 X-49.279 Y-345.215 Z0.206
G1 X-49.072 Y-345.287 Z0.198
G1 X-48.87 Y-345.374 Z0.191
G1 X-48.676 Y-345.475 Z0.183
G1 X-48.489 Y-345.59 Z0.175
G1 X-48.311 Y-345.719 Z0.168
G1 X-48.143 Y-345.86 Z0.16
G1 X-47.985 Y-346.013 Z0.152
G1 X-47.839 Y-346.176 Z0.145
G1 X-47.706 Y-346.351 Z0.137
G1 X-47.585 Y-346.534 Z0.129
G1 X-47.478 Y-346.726 Z0.122
G1 X-47.386 Y-346.925 Z0.114
G1 X-47.308 Y-347.13 Z0.106
G1 X-47.245 Y-347.34 Z0.099
G1 X-47.197 Y-347.554 Z0.091
G1 X-47.166 Y-347.771 Z0.083
G1 X-47.15 Y-347.99 Z0.076
G1 Y-348.21 Z0.068
G1 X-47.166 Y-348.429 Z0.06
G1 X-47.198 Y-348.646 Z0.053
G1 X-47.246 Y-348.86 Z0.045
G1 X-47.309 Y-349.07 Z0.037
G1 X-47.387 Y-349.275 Z0.03
G1 X-47.48 Y-349.474 Z0.022
G1 X-47.587 Y-349.666 Z0.014
G1 X-47.708 Y-349.849 Z0.007
G1 X-47.842 Y-350.023 Z-0.001
G1 X-47.988 Y-350.187 Z-0.009
G1 X-48.145 Y-350.339 Z-0.016
G1 X-48.314 Y-350.48 Z-0.024
G1 X-48.492 Y-350.609 Z-0.032
G1 X-48.679 Y-350.724 Z-0.039
G1 X-48.874 Y-350.825 Z-0.047
G1 X-49.075 Y-350.911 Z-0.055
G1 X-49.283 Y-350.983 Z-0.062
G1 X-49.495 Y-351.039 Z-0.07
G1 X-49.71 Y-351.08 Z-0.078
G1 X-49.928 Y-351.105 Z-0.085
G1 X-50.148 Y-351.115 Z-0.093
G1 X-50.367 Y-351.108 Z-0.101
G1 X-50.585 Y-351.085 Z-0.108
G1 X-50.801 Y-351.047 Z-0.116
G1 X-51.014 Y-350.992 Z-0.124
G1 X-51.222 Y-350.923 Z-0.131
G1 X-51.425 Y-350.838 Z-0.139
G1 X-51.621 Y-350.74 Z-0.147
G1 X-51.809 Y-350.627 Z-0.154
G1 X-51.988 Y-350.5 Z-0.162
G1 X-52.158 Y-350.361 Z-0.17
G1 X-52.318 Y-350.21 Z-0.177
G1 X-52.465 Y-350.048 Z-0.185
G1 X-52.601 Y-349.876 Z-0.193
G1 X-52.724 Y-349.694 Z-0.2
G1 X-52.833 Y-349.503 Z-0.208
G1 X-52.928 Y-349.306 Z-0.216
G1 X-53.009 Y-349.101 Z-0.223
G1 X-53.074 Y-348.892 Z-0.231
G1 X-53.124 Y-348.678 Z-0.239
G1 X-53.158 Y-348.461 Z-0.246
G1 X-53.177 Y-348.243 Z-0.254
G1 X-53.179 Y-348.023 Z-0.262
G1 X-53.166 Y-347.804 Z-0.269
G1 X-53.137 Y-347.587 Z-0.277
G1 X-53.092 Y-347.372 Z-0.285
G1 X-53.031 Y-347.161 Z-0.292
G1 X-52.955 Y-346.955 Z-0.3
G1 X-52.865 Y-346.755 Z-0.308
G1 X-52.76 Y-346.562 Z-0.315
G1 X-52.641 Y-346.377 Z-0.323
G1 X-52.509 Y-346.202 Z-0.331
G1 X-52.365 Y-346.036 Z-0.338
G1 X-52.21 Y-345.882 Z-0.346
G1 X-52.043 Y-345.739 Z-0.354
G1 X-51.866 Y-345.608 Z-0.361
G1 X-51.681 Y-345.491 Z-0.369
G1 X-51.487 Y-345.388 Z-0.377
G1 X-51.287 Y-345.299 Z-0.384
G1 X-51.08 Y-345.225 Z-0.392
G1 X-50.869 Y-345.166 Z-0.4
G1 X-50.654 Y-345.122 Z-0.407
G1 X-50.436 Y-345.094 Z-0.415
G1 X-50.217 Y-345.083 Z-0.423
G1 X-49.997 Y-345.087 Z-0.43
G1 X-49.779 Y-345.107 Z-0.438
G1 X-49.562 Y-345.143 Z-0.446
G1 X-49.349 Y-345.194 Z-0.453
G1 X-49.14 Y-345.261 Z-0.461
G1 X-48.936 Y-345.343 Z-0.469
G1 X-48.739 Y-345.44 Z-0.476
G1 X-48.55 Y-345.551 Z-0.484
G1 X-48.369 Y-345.675 Z-0.492
G1 X-48.197 Y-345.812 Z-0.499
G1 X-48.036 Y-345.961 Z-0.507
G1 X-47.886 Y-346.121 Z-0.515
G1 X-47.749 Y-346.292 Z-0.522
G1 X-47.624 Y-346.472 Z-0.53
G1 X-47.512 Y-346.662 Z-0.538
G1 X-47.415 Y-346.858 Z-0.545
G1 X-47.332 Y-347.061 Z-0.553
G1 X-47.264 Y-347.27 Z-0.561
G1 X-47.211 Y-347.483 Z-0.568
G1 X-47.174 Y-347.7 Z-0.576
G1 X-47.153 Y-347.918 Z-0.584
G1 X-47.148 Y-348.137 Z-0.591
G1 X-47.159 Y-348.357 Z-0.599
G1 X-47.186 Y-348.574 Z-0.607
G1 X-47.228 Y-348.79 Z-0.614
G1 X-47.286 Y-349.001 Z-0.622
G1 X-47.359 Y-349.208 Z-0.63
G1 X-47.448 Y-349.409 Z-0.637
G1 X-47.55 Y-349.603 Z-0.645
G1 X-47.666 Y-349.789 Z-0.653
G1 X-47.796 Y-349.967 Z-0.66
G1 X-47.938 Y-350.134 Z-0.668
G1 X-48.092 Y-350.29 Z-0.676
G1 X-48.257 Y-350.435 Z-0.683
G1 X-48.432 Y-350.568 Z-0.691
G1 X-48.616 Y-350.687 Z-0.699
G1 X-48.808 Y-350.793 Z-0.706
G1 X-49.008 Y-350.884 Z-0.714
G1 X-49.214 Y-350.961 Z-0.722
G1 X-49.424 Y-351.023 Z-0.729
G1 X-49.639 Y-351.069 Z-0.737
G1 X-49.856 Y-351.099 Z-0.745
G1 X-50.075 Y-351.113 Z-0.752
G1 X-50.295 Y-351.112 Z-0.76
G1 X-50.513 Y-351.094 Z-0.768
G1 X-50.73 Y-351.061 Z-0.775
G1 X-50.944 Y-351.012 Z-0.783
G1 X-51.154 Y-350.948 Z-0.791
G1 X-51.359 Y-350.868 Z-0.798
G1 X-51.557 Y-350.774 Z-0.806
G1 X-51.748 Y-350.665 Z-0.814
G1 X-51.93 Y-350.543 Z-0.821
G1 X-52.103 Y-350.409 Z-0.829
G1 X-52.266 Y-350.261 Z-0.837
G1 X-52.418 Y-350.103 Z-0.844
G1 X-52.558 Y-349.934 Z-0.852
G1 X-52.685 Y-349.755 Z-0.86
G1 X-52.799 Y-349.567 Z-0.867
G1 X-52.898 Y-349.372 Z-0.875
G1 X-52.984 Y-349.169 Z-0.883
G1 X-53.054 Y-348.961 Z-0.89
G1 X-53.109 Y-348.749 Z-0.898
G1 X-53.149 Y-348.533 Z-0.906
G1 X-53.173 Y-348.315 Z-0.913
G1 X-53.18 Y-348.096 Z-0.921
G1 X-53.172 Y-347.876 Z-0.929
G1 X-53.148 Y-347.658 Z-0.936
G1 X-53.108 Y-347.442 Z-0.944
G1 X-53.053 Y-347.23 Z-0.952
G1 X-52.982 Y-347.022 Z-0.959
G1 X-52.896 Y-346.82 Z-0.967
G1 X-52.796 Y-346.625 Z-0.975
G1 X-52.682 Y-346.437 Z-0.982
G1 X-52.554 Y-346.259 Z-0.99
G1 X-52.414 Y-346.09 Z-0.998
G1 X-52.262 Y-345.931 Z-1.005
G1 X-52.099 Y-345.785 Z-1.013
G1 X-51.926 Y-345.65 Z-1.021
G1 X-51.743 Y-345.528 Z-1.028
G1 X-51.552 Y-345.42 Z-1.036
G1 X-51.354 Y-345.327 Z-1.044
G1 X-51.149 Y-345.247 Z-1.051
G1 X-50.939 Y-345.183 Z-1.059
G1 X-50.725 Y-345.135 Z-1.067
G1 X-50.508 Y-345.102 Z-1.074
G1 X-50.289 Y-345.085 Z-1.082
G1 X-50.07 Y-345.084 Z-1.09
G1 X-49.851 Y-345.098 Z-1.097
G1 X-49.633 Y-345.129 Z-1.105
G1 X-49.419 Y-345.176 Z-1.113
G1 X-49.208 Y-345.238 Z-1.12
G1 X-49.003 Y-345.315 Z-1.128
G1 X-48.803 Y-345.406 Z-1.136
G1 X-48.611 Y-345.513 Z-1.143
G1 X-48.427 Y-345.632 Z-1.151
G1 X-48.253 Y-345.765 Z-1.159
G1 X-48.088 Y-345.91 Z-1.166
G1 X-47.934 Y-346.067 Z-1.174
G1 X-47.793 Y-346.235 Z-1.182
G1 X-47.663 Y-346.412 Z-1.189
G1 X-47.547 Y-346.598 Z-1.197
G1 X-47.445 Y-346.792 Z-1.205
G1 X-47.357 Y-346.994 Z-1.212
G1 X-47.285 Y-347.201 Z-1.22
G1 X-47.227 Y-347.412 Z-1.228
G1 X-47.185 Y-347.628 Z-1.235
G1 X-47.158 Y-347.846 Z-1.243
G1 X-47.148 Y-348.065 Z-1.251
G1 X-47.154 Y-348.284 Z-1.258
G1 X-47.175 Y-348.503 Z-1.266
G1 X-47.212 Y-348.719 Z-1.274
G1 X-47.265 Y-348.932 Z-1.281
G1 X-47.334 Y-349.141 Z-1.289
G1 X-47.417 Y-349.344 Z-1.297
G1 X-47.515 Y-349.54 Z-1.304
G1 X-47.627 Y-349.729 Z-1.312
G1 X-47.752 Y-349.909 Z-1.32
G1 X-47.89 Y-350.08 Z-1.327
G1 X-48.04 Y-350.24 Z-1.335
G1 X-48.201 Y-350.389 Z-1.343
G1 X-48.373 Y-350.525 Z-1.35
G1 X-48.554 Y-350.649 Z-1.358
G1 X-48.744 Y-350.759 Z-1.366
G1 X-48.941 Y-350.856 Z-1.373
G1 X-49.145 Y-350.937 Z-1.381
G1 X-49.354 Y-351.004 Z-1.389
G1 X-49.568 Y-351.055 Z-1.396
G1 X-49.784 Y-351.091 Z-1.404
G1 X-50.003 Y-351.11 Z-1.412
G1 X-50.222 Y-351.114 Z-1.419
G1 X-50.441 Y-351.102 Z-1.427
G1 X-50.659 Y-351.074 Z-1.435
G1 X-50.874 Y-351.03 Z-1.442
G1 X-51.085 Y-350.97 Z-1.45
G1 X-51.292 Y-350.896 Z-1.458
G1 X-51.492 Y-350.806 Z-1.465
G1 X-51.686 Y-350.703 Z-1.473
G1 X-51.871 Y-350.585 Z-1.481
G1 X-52.047 Y-350.454 Z-1.488
G1 X-52.214 Y-350.311 Z-1.496
G1 X-52.369 Y-350.156 Z-1.504
G1 X-52.513 Y-349.991 Z-1.511
G1 X-52.644 Y-349.815 Z-1.519
G1 X-52.763 Y-349.63 Z-1.527
G1 X-52.867 Y-349.437 Z-1.534
G1 X-52.957 Y-349.237 Z-1.542
G1 X-53.033 Y-349.031 Z-1.55
G1 X-53.093 Y-348.82 Z-1.557
G1 X-53.138 Y-348.605 Z-1.565
G1 X-53.166 Y-348.387 Z-1.573
G1 X-53.18 Y-348.168 Z-1.58
G1 X-53.177 Y-347.949 Z-1.588
G1 X-53.158 Y-347.73 Z-1.596
G1 X-53.123 Y-347.513 Z-1.603
G1 X-53.073 Y-347.3 Z-1.611
G1 X-53.007 Y-347.09 Z-1.619
G1 X-52.926 Y-346.886 Z-1.626
G1 X-52.831 Y-346.689 Z-1.634
G1 X-52.721 Y-346.498 Z-1.642
G1 X-52.598 Y-346.317 Z-1.649
G1 X-52.462 Y-346.144 Z-1.657
G1 X-52.314 Y-345.983 Z-1.665
G1 X-52.154 Y-345.832 Z-1.672
G1 X-51.984 Y-345.693 Z-1.68
G1 X-51.804 Y-345.567 Z-1.688
G1 X-51.616 Y-345.455 Z-1.695
G1 X-51.42 Y-345.356 Z-1.703
G1 X-51.217 Y-345.272 Z-1.711
G1 X-51.009 Y-345.203 Z-1.718
G1 X-50.796 Y-345.149 Z-1.726
G1 X-50.58 Y-345.111 Z-1.734
G1 X-50.362 Y-345.089 Z-1.741
G1 X-50.142 Y-345.082 Z-1.749
G1 X-49.923 Y-345.092 Z-1.757
G1 X-49.705 Y-345.117 Z-1.764
G1 X-49.489 Y-345.159 Z-1.772
G1 X-49.277 Y-345.215 Z-1.78
G1 X-49.07 Y-345.288 Z-1.787
G1 X-48.869 Y-345.375 Z-1.795
G1 X-48.674 Y-345.476 Z-1.803
G1 X-48.487 Y-345.591 Z-1.81
G1 X-48.309 Y-345.72 Z-1.818
G1 X-48.141 Y-345.861 Z-1.826
G1 X-47.984 Y-346.014 Z-1.833
G1 X-47.838 Y-346.178 Z-1.841
G1 X-47.705 Y-346.352 Z-1.849
G1 X-47.584 Y-346.536 Z-1.856
G1 X-47.477 Y-346.728 Z-1.864
G1 X-47.385 Y-346.927 Z-1.872
G1 X-47.307 Y-347.132 Z-1.879
G1 X-47.244 Y-347.342 Z-1.887
G1 X-47.197 Y-347.556 Z-1.895
G1 X-47.165 Y-347.774 Z-1.902
G1 X-47.15 Y-347.992 Z-1.91
G1 Y-348.212 Z-1.918
G1 X-47.166 Y-348.431 Z-1.925
G1 X-47.198 Y-348.648 Z-1.933
G1 X-47.246 Y-348.862 Z-1.941
G1 X-47.309 Y-349.072 Z-1.948
G1 X-47.388 Y-349.277 Z-1.956
G1 X-47.481 Y-349.476 Z-1.964
G1 X-47.588 Y-349.668 Z-1.971
G1 X-47.709 Y-349.851 Z-1.979
G1 X-47.843 Y-350.025 Z-1.987
G1 X-47.989 Y-350.188 Z-1.994
G1 X-48.147 Y-350.341 Z-2.002
G1 X-48.315 Y-350.482 Z-2.01
G1 X-48.494 Y-350.61 Z-2.017
G1 X-48.681 Y-350.725 Z-2.025
G1 X-48.875 Y-350.826 Z-2.033
G1 X-49.077 Y-350.912 Z-2.04
G1 X-49.285 Y-350.984 Z-2.048
G1 X-49.497 Y-351.04 Z-2.056
G1 X-49.712 Y-351.081 Z-2.063
G1 X-49.93 Y-351.106 Z-2.071
G1 X-50.15 Y-351.115 Z-2.079
G1 X-50.369 Y-351.108 Z-2.086
G1 X-50.587 Y-351.085 Z-2.094
G1 X-50.803 Y-351.046 Z-2.102
G1 X-51.016 Y-350.992 Z-2.109
G1 X-51.224 Y-350.922 Z-2.117
G1 X-51.427 Y-350.838 Z-2.125
G1 X-51.623 Y-350.739 Z-2.132
G1 X-51.811 Y-350.625 Z-2.14
G1 X-51.99 Y-350.499 Z-2.148
G1 X-52.16 Y-350.36 Z-2.155
G1 X-52.319 Y-350.209 Z-2.163
G1 X-52.467 Y-350.047 Z-2.17
G1 X-52.602 Y-349.874 Z-2.178
G1 X-52.725 Y-349.692 Z-2.186
G1 X-52.834 Y-349.501 Z-2.193
G1 X-52.929 Y-349.304 Z-2.201
G1 X-53.009 Y-349.099 Z-2.209
G1 X-53.075 Y-348.89 Z-2.216
G1 X-53.125 Y-348.676 Z-2.224
G1 X-53.159 Y-348.459 Z-2.232
G1 X-53.177 Y-348.241 Z-2.239
G1 X-53.179 Y-348.021 Z-2.247
G1 X-53.166 Y-347.802 Z-2.255
G1 X-53.136 Y-347.585 Z-2.262
G1 X-53.091 Y-347.37 Z-2.27
G1 X-53.03 Y-347.159 Z-2.278
G1 X-52.954 Y-346.953 Z-2.285
G1 X-52.864 Y-346.753 Z-2.293
G1 X-52.759 Y-346.56 Z-2.301
G1 X-52.64 Y-346.376 Z-2.308
G1 X-52.508 Y-346.2 Z-2.316
G1 X-52.364 Y-346.035 Z-2.324
G1 X-52.208 Y-345.88 Z-2.331
G1 X-52.041 Y-345.738 Z-2.339
G1 X-51.865 Y-345.607 Z-2.347
G1 X-51.679 Y-345.49 Z-2.354
G1 X-51.485 Y-345.387 Z-2.362
G1 X-51.285 Y-345.298 Z-2.37
G1 X-51.078 Y-345.224 Z-2.377
G1 X-50.867 Y-345.165 Z-2.385
G1 X-50.652 Y-345.122 Z-2.393
G1 X-50.434 Y-345.094 Z-2.4
G1 X-50.215 Y-345.083 Z-2.408
G1 X-49.995 Y-345.087 Z-2.416
G1 X-49.777 Y-345.107 Z-2.423
G1 X-49.56 Y-345.143 Z-2.431
G1 X-49.347 Y-345.195 Z-2.439
G1 X-49.138 Y-345.262 Z-2.446
G1 X-48.934 Y-345.344 Z-2.454
G1 X-48.737 Y-345.441 Z-2.462
G1 X-48.548 Y-345.552 Z-2.469
G1 X-48.367 Y-345.676 Z-2.477
G1 X-48.196 Y-345.813 Z-2.485
G1 X-48.035 Y-345.962 Z-2.492
G1 X-47.885 Y-346.123 Z-2.5
G1 X-47.747 Y-346.294 Z-2.508
G1 X-47.622 Y-346.474 Z-2.515
G1 X-47.511 Y-346.663 Z-2.523
G1 X-47.414 Y-346.86 Z-2.531
G1 X-47.331 Y-347.063 Z-2.538
G1 X-47.263 Y-347.272 Z-2.546
G1 X-47.211 Y-347.485 Z-2.554
G1 X-47.174 Y-347.702 Z-2.561
G1 X-47.153 Y-347.92 Z-2.569
G1 X-47.148 Y-348.14 Z-2.577
G1 X-47.159 Y-348.359 Z-2.584
G1 X-47.186 Y-348.577 Z-2.592
G1 X-47.229 Y-348.792 Z-2.6
G1 X-47.287 Y-349.003 Z-2.607
G1 X-47.36 Y-349.21 Z-2.615
G1 X-47.449 Y-349.411 Z-2.623
G1 X-47.551 Y-349.605 Z-2.63
G1 X-47.668 Y-349.791 Z-2.638
G1 X-47.797 Y-349.968 Z-2.646
G1 X-47.94 Y-350.135 Z-2.653
G1 X-48.094 Y-350.292 Z-2.661
G1 X-48.259 Y-350.437 Z-2.669
G1 X-48.434 Y-350.569 Z-2.676
G1 X-48.618 Y-350.688 Z-2.684
G1 X-48.81 Y-350.794 Z-2.692
G1 X-49.01 Y-350.885 Z-2.699
G1 X-49.216 Y-350.962 Z-2.707
G1 X-49.426 Y-351.023 Z-2.715
G1 X-49.641 Y-351.069 Z-2.722
G1 X-49.858 Y-351.099 Z-2.73
G1 X-50.077 Y-351.113 Z-2.738
G1 X-50.297 Y-351.112 Z-2.745
G1 X-50.516 Y-351.094 Z-2.753
G1 X-50.732 Y-351.061 Z-2.761
G1 X-50.946 Y-351.011 Z-2.768
G1 X-51.156 Y-350.947 Z-2.776
G1 X-51.361 Y-350.867 Z-2.784
G1 X-51.559 Y-350.773 Z-2.791
G1 X-51.75 Y-350.664 Z-2.799
G1 X-51.932 Y-350.542 Z-2.807
G1 X-52.105 Y-350.407 Z-2.814
G1 X-52.268 Y-350.26 Z-2.822
G1 X-52.419 Y-350.101 Z-2.83
G1 X-52.559 Y-349.932 Z-2.837
G1 X-52.686 Y-349.753 Z-2.845
G1 X-52.8 Y-349.565 Z-2.853
G1 X-52.899 Y-349.37 Z-2.86
G1 X-52.985 Y-349.167 Z-2.868
G1 X-53.055 Y-348.959 Z-2.876
G1 X-53.11 Y-348.747 Z-2.883
G1 X-53.149 Y-348.531 Z-2.891
G1 X-53.173 Y-348.313 Z-2.899
G1 X-53.18 Y-348.094 Z-2.906
G1 X-53.172 Y-347.874 Z-2.914
G1 X-53.148 Y-347.656 Z-2.922
G1 X-53.108 Y-347.44 Z-2.929
G1 X-53.052 Y-347.228 Z-2.937
G1 X-52.981 Y-347.02 Z-2.945
G1 X-52.895 Y-346.818 Z-2.952
G1 X-52.795 Y-346.623 Z-2.96
G1 X-52.681 Y-346.436 Z-2.968
G1 X-52.553 Y-346.257 Z-2.975
G1 X-52.413 Y-346.088 Z-2.983
G1 X-52.261 Y-345.93 Z-2.991
G1 X-52.098 Y-345.783 Z-2.998
G1 X-51.924 Y-345.649 Z-3.006
G1 X-51.741 Y-345.527 Z-3.014
G1 X-51.55 Y-345.419 Z-3.021
G1 X-51.352 Y-345.326 Z-3.029
G1 X-51.147 Y-345.247 Z-3.037
G1 X-50.937 Y-345.183 Z-3.044
G1 X-50.723 Y-345.134 Z-3.052
G1 X-50.506 Y-345.102 Z-3.06
G1 X-50.287 Y-345.085 Z-3.067
G1 X-50.068 Y-345.084 Z-3.075
G1 X-49.849 Y-345.099 Z-3.083
G1 X-49.631 Y-345.13 Z-3.09
G1 X-49.417 Y-345.176 Z-3.098
G1 X-49.206 Y-345.238 Z-3.106
G1 X-49.001 Y-345.315 Z-3.113
G1 X-48.802 Y-345.407 Z-3.121
G1 X-48.61 Y-345.514 Z-3.129
G1 X-48.426 Y-345.633 Z-3.136
G1 X-48.251 Y-345.766 Z-3.144
G1 X-48.087 Y-345.912 Z-3.152
G1 X-47.933 Y-346.069 Z-3.159
G1 X-47.791 Y-346.236 Z-3.167
G1 X-47.662 Y-346.414 Z-3.175
G1 X-47.546 Y-346.6 Z-3.182
G1 X-47.444 Y-346.794 Z-3.19
G1 X-47.357 Y-346.996 Z-3.198
G1 X-47.284 Y-347.203 Z-3.205
G1 X-47.226 Y-347.414 Z-3.213
G1 X-47.184 Y-347.63 Z-3.221
G1 X-47.158 Y-347.848 Z-3.228
G1 X-47.148 Y-348.067 Z-3.236
G1 X-47.154 Y-348.286 Z-3.244
G1 X-47.175 Y-348.505 Z-3.251
G1 X-47.213 Y-348.721 Z-3.259
G1 X-47.266 Y-348.934 Z-3.267
G1 X-47.334 Y-349.143 Z-3.274
G1 X-47.418 Y-349.346 Z-3.282
G1 X-47.516 Y-349.542 Z-3.29
G1 X-47.628 Y-349.731 Z-3.297
G1 X-47.753 Y-349.911 Z-3.305
G1 X-47.891 Y-350.081 Z-3.313
G1 X-48.042 Y-350.241 Z-3.32
G1 X-48.203 Y-350.39 Z-3.328
G1 X-48.375 Y-350.527 Z-3.336
G1 X-48.556 Y-350.65 Z-3.343
G1 X-48.746 Y-350.76 Z-3.351
G1 X-48.943 Y-350.857 Z-3.359
G1 X-49.147 Y-350.938 Z-3.366
G1 X-49.356 Y-351.004 Z-3.374
G1 X-49.57 Y-351.056 Z-3.382
G1 X-49.786 Y-351.091 Z-3.389
G1 X-50.005 Y-351.11 Z-3.397
G1 X-50.224 Y-351.114 Z-3.405
G1 X-50.443 Y-351.102 Z-3.412
G1 X-50.661 Y-351.073 Z-3.42
G1 X-50.876 Y-351.029 Z-3.428
G1 X-51.087 Y-350.97 Z-3.435
G1 X-51.294 Y-350.895 Z-3.443
G1 X-51.494 Y-350.806 Z-3.451
G1 X-51.687 Y-350.702 Z-3.458
G1 X-51.873 Y-350.584 Z-3.466
G1 X-52.049 Y-350.453 Z-3.474
G1 X-52.215 Y-350.31 Z-3.481
G1 X-52.371 Y-350.155 Z-3.489
G1 X-52.514 Y-349.989 Z-3.497
G1 X-52.646 Y-349.813 Z-3.504
G1 X-52.764 Y-349.628 Z-3.512
G1 X-52.868 Y-349.435 Z-3.52
G1 X-52.958 Y-349.235 Z-3.527
G1 X-53.033 Y-349.029 Z-3.535
G1 X-53.093 Y-348.818 Z-3.543
G1 X-53.138 Y-348.603 Z-3.55
G1 X-53.167 Y-348.385 Z-3.558
G1 X-53.18 Y-348.166 Z-3.566
G1 X-53.177 Y-347.947 Z-3.573
G1 X-53.157 Y-347.728 Z-3.581
G1 X-53.123 Y-347.511 Z-3.589
G1 X-53.072 Y-347.298 Z-3.596
G1 X-53.006 Y-347.088 Z-3.604
G1 X-52.925 Y-346.884 Z-3.612
G1 X-52.83 Y-346.687 Z-3.619
G1 X-52.72 Y-346.497 Z-3.627
G1 X-52.597 Y-346.315 Z-3.635
G1 X-52.461 Y-346.143 Z-3.642
G1 X-52.312 Y-345.981 Z-3.65
G1 X-52.153 Y-345.83 Z-3.658
G1 X-51.982 Y-345.692 Z-3.665
G1 X-51.803 Y-345.566 Z-3.673
G1 X-51.614 Y-345.454 Z-3.681
G1 X-51.418 Y-345.355 Z-3.688
G1 X-51.215 Y-345.271 Z-3.696
G1 X-51.007 Y-345.202 Z-3.704
G1 X-50.794 Y-345.149 Z-3.711
G1 X-50.578 Y-345.111 Z-3.719
G1 X-50.359 Y-345.088 Z-3.727
G1 X-50.14 Y-345.082 Z-3.734
G1 X-49.921 Y-345.092 Z-3.742
G1 X-49.703 Y-345.118 Z-3.75
G1 X-49.487 Y-345.159 Z-3.757
G1 X-49.275 Y-345.216 Z-3.765
G1 X-49.068 Y-345.288 Z-3.773
G1 X-48.867 Y-345.375 Z-3.78
G1 X-48.672 Y-345.477 Z-3.788
G1 X-48.485 Y-345.592 Z-3.796
G1 X-48.308 Y-345.721 Z-3.803
G1 X-48.14 Y-345.862 Z-3.811
G1 X-47.982 Y-346.016 Z-3.819
G1 X-47.837 Y-346.18 Z-3.826
G1 X-47.703 Y-346.354 Z-3.834
G1 X-47.583 Y-346.538 Z-3.842
G1 X-47.476 Y-346.729 Z-3.849
G1 X-47.384 Y-346.928 Z-3.857
G1 X-47.306 Y-347.134 Z-3.865
G1 X-47.244 Y-347.344 Z-3.872
G1 X-47.197 Y-347.558 Z-3.88
G1 X-47.165 Y-347.776 Z-3.888
G1 X-47.15 Y-347.995 Z-3.895
G1 Y-348.214 Z-3.903
G1 X-47.166 Y-348.433 Z-3.911
G1 X-47.199 Y-348.65 Z-3.918
G1 X-47.247 Y-348.864 Z-3.926
G1 X-47.31 Y-349.074 Z-3.934
G1 X-47.389 Y-349.279 Z-3.941
G1 X-47.482 Y-349.478 Z-3.949
G1 X-47.589 Y-349.669 Z-3.957
G1 X-47.71 Y-349.852 Z-3.964
G1 X-47.844 Y-350.026 Z-3.972
G1 X-47.991 Y-350.19 Z-3.98
G1 X-48.148 Y-350.342 Z-3.987
G1 X-48.317 Y-350.483 Z-3.995
G1 X-48.495 Y-350.611 Z-4.003
G1 X-48.682 Y-350.726 Z-4.01
G1 X-48.877 Y-350.826 Z-4.018
G1 X-49.079 Y-350.913 Z-4.026
G1 X-49.287 Y-350.984 Z-4.033
G1 X-49.499 Y-351.04 Z-4.041
G1 X-49.715 Y-351.081 Z-4.049
G1 X-49.933 Y-351.106 Z-4.056
G1 X-50.152 Y-351.115 Z-4.064
G1 X-50.18
G1 X-50.181
G1 X-50.218 Y-351.107
G1 X-50.25 Y-351.086
G1 X-50.271 Y-351.055
G1 X-50.279 Y-351.017
G1 X-50.614 Y-269.11
G1 X-50.608 Y-269.071
G1 X-50.59 Y-269.036
G1 X-50.562 Y-269.008
G1 X-50.527 Y-268.99
G1 X-50.489 Y-268.984
G1 X-50.488
G1 X-50.449 Y-268.99
G1 X-50.414 Y-269.008
G1 X-50.386 Y-269.035
G1 X-50.368 Y-269.07
G1 X-50.362 Y-269.109
G1 X-50.026 Y-351.016
G1 Y-351.017
G1 X-50.033 Y-351.054
G1 X-50.055 Y-351.086
G1 X-50.086 Y-351.107
G1 X-50.123 Y-351.115
G1 X-50.152
G3 X-52.711 Y-352.449 I0.013 J-3.146
G2 X-54.822 Y-352.814 I-1.238 J0.873
G2 X-55.464 Y-351.582 I0.873 J1.238
G1 X-55.816 Y-265.699
G3 X-56.932 Y-263.073 I-3.683 J-0.015
G2 X-56.938 Y-262.625 I0.221 J0.227
G2 X-56.712 Y-262.529 I0.227 J-0.221
G2 X-56.486 Y-262.624 I0.001 J-0.317
G3 X-53.85 Y-263.718 I2.62 J2.589
G1 X-47.17 Y-263.69
G3 X-44.545 Y-262.575 I-0.015 J3.683
G2 X-44.096 Y-262.568 I0.227 J-0.221
G2 X-44 Y-262.794 I-0.221 J-0.227
G2 X-44.094 Y-263.021 I-0.317 J-0.001
G3 X-45.188 Y-265.656 I2.589 J-2.62
G1 X-44.824 Y-354.307
G3 X-43.709 Y-356.933 I3.683 J0.015
G2 X-43.702 Y-357.381 I-0.221 J-0.227
G2 X-43.928 Y-357.477 I-0.227 J0.221
G2 X-44.155 Y-357.383 I-0.001 J0.317
G3 X-46.79 Y-356.289 I-2.619 J-2.589
G1 X-53.471 Y-356.316
G3 X-56.097 Y-357.432 I0.015 J-3.683
G2 X-56.545 Y-357.438 I-0.227 J0.221
G2 X-56.641 Y-357.212 I0.221 J0.227
G2 X-56.547 Y-356.986 I0.317 J0.001
G3 X-55.453 Y-354.351 I-2.589 J2.62
G1 X-55.464 Y-351.582
G0 Z6.096
G0 X-47.457 Y-346.768
G1 Z-1.524 F508.
G1 X-47.367 Y-346.969 Z-1.532
G1 X-47.293 Y-347.175 Z-1.539
G1 X-47.233 Y-347.387 Z-1.547
G1 X-47.189 Y-347.602 Z-1.555
G1 X-47.161 Y-347.819 Z-1.562
G1 X-47.148 Y-348.039 Z-1.57
G1 X-47.152 Y-348.258 Z-1.578
G1 X-47.172 Y-348.477 Z-1.585
G1 X-47.207 Y-348.694 Z-1.593
G1 X-47.258 Y-348.907 Z-1.601
G1 X-47.325 Y-349.116 Z-1.608
G1 X-47.406 Y-349.32 Z-1.616
G1 X-47.503 Y-349.518 Z-1.624
G1 X-47.613 Y-349.707 Z-1.631
G1 X-47.737 Y-349.889 Z-1.639
G1 X-47.873 Y-350.061 Z-1.647
G1 X-48.022 Y-350.222 Z-1.654
G1 X-48.182 Y-350.372 Z-1.662
G1 X-48.353 Y-350.51 Z-1.67
G1 X-48.533 Y-350.636 Z-1.677
G1 X-48.722 Y-350.748 Z-1.685
G1 X-48.919 Y-350.846 Z-1.693
G1 X-49.122 Y-350.929 Z-1.7
G1 X-49.331 Y-350.997 Z-1.708
G1 X-49.544 Y-351.05 Z-1.716
G1 X-49.76 Y-351.087 Z-1.723
G1 X-49.979 Y-351.109 Z-1.731
G1 X-50.198 Y-351.114 Z-1.739
G1 X-50.417 Y-351.104 Z-1.746
G1 X-50.635 Y-351.078 Z-1.754
G1 X-50.851 Y-351.035 Z-1.762
G1 X-51.063 Y-350.978 Z-1.769
G1 X-51.27 Y-350.905 Z-1.777
G1 X-51.471 Y-350.817 Z-1.785
G1 X-51.665 Y-350.714 Z-1.792
G1 X-51.852 Y-350.598 Z-1.8
G1 X-52.029 Y-350.469 Z-1.808
G1 X-52.197 Y-350.327 Z-1.815
G1 X-52.353 Y-350.173 Z-1.823
G1 X-52.498 Y-350.008 Z-1.831
G1 X-52.631 Y-349.834 Z-1.838
G1 X-52.751 Y-349.649 Z-1.846
G1 X-52.857 Y-349.457 Z-1.854
G1 X-52.949 Y-349.258 Z-1.861
G1 X-53.026 Y-349.052 Z-1.869
G1 X-53.087 Y-348.841 Z-1.877
G1 X-53.134 Y-348.627 Z-1.884
G1 X-53.164 Y-348.409 Z-1.892
G1 X-53.179 Y-348.19 Z-1.9
G1 X-53.178 Y-347.971 Z-1.907
G1 X-53.16 Y-347.752 Z-1.915
G1 X-53.127 Y-347.535 Z-1.923
G1 X-53.078 Y-347.321 Z-1.93
G1 X-53.014 Y-347.111 Z-1.938
G1 X-52.935 Y-346.906 Z-1.946
G1 X-52.841 Y-346.708 Z-1.953
G1 X-52.732 Y-346.517 Z-1.961
G1 X-52.61 Y-346.334 Z-1.969
G1 X-52.476 Y-346.161 Z-1.976
G1 X-52.328 Y-345.998 Z-1.984
G1 X-52.17 Y-345.846 Z-1.992
G1 X-52.001 Y-345.706 Z-2
G1 X-51.822 Y-345.578 Z-2.007
G1 X-51.634 Y-345.465 Z-2.015
G1 X-51.438 Y-345.365 Z-2.023
G1 X-51.236 Y-345.279 Z-2.03
G1 X-51.028 Y-345.209 Z-2.038
G1 X-50.816 Y-345.153 Z-2.046
G1 X-50.6 Y-345.114 Z-2.053
G1 X-50.382 Y-345.09 Z-2.061
G1 X-50.162 Y-345.082 Z-2.069
G1 X-49.943 Y-345.09 Z-2.076
G1 X-49.724 Y-345.114 Z-2.084
G1 X-49.508 Y-345.154 Z-2.092
G1 X-49.296 Y-345.21 Z-2.099
G1 X-49.088 Y-345.281 Z-2.107
G1 X-48.886 Y-345.366 Z-2.115
G1 X-48.691 Y-345.466 Z-2.122
G1 X-48.503 Y-345.581 Z-2.13
G1 X-48.324 Y-345.708 Z-2.138
G1 X-48.155 Y-345.848 Z-2.145
G1 X-47.997 Y-346 Z-2.153
G1 X-47.85 Y-346.164 Z-2.161
G1 X-47.715 Y-346.337 Z-2.168
G1 X-47.594 Y-346.52 Z-2.176
G1 X-47.486 Y-346.711 Z-2.184
G1 X-47.392 Y-346.91 Z-2.191
G1 X-47.313 Y-347.114 Z-2.199
G1 X-47.249 Y-347.324 Z-2.207
G1 X-47.2 Y-347.539 Z-2.214
G1 X-47.167 Y-347.756 Z-2.222
G1 X-47.15 Y-347.975 Z-2.23
G1 X-47.149 Y-348.194 Z-2.237
G1 X-47.164 Y-348.413 Z-2.245
G1 X-47.195 Y-348.631 Z-2.253
G1 X-47.242 Y-348.845 Z-2.26
G1 X-47.304 Y-349.056 Z-2.268
G1 X-47.381 Y-349.261 Z-2.276
G1 X-47.473 Y-349.461 Z-2.283
G1 X-47.579 Y-349.653 Z-2.291
G1 X-47.699 Y-349.837 Z-2.299
G1 X-47.832 Y-350.012 Z-2.306
G1 X-47.978 Y-350.176 Z-2.314
G1 X-48.134 Y-350.33 Z-2.322
G1 X-48.302 Y-350.471 Z-2.329
G1 X-48.48 Y-350.601 Z-2.337
G1 X-48.666 Y-350.716 Z-2.345
G1 X-48.861 Y-350.818 Z-2.352
G1 X-49.062 Y-350.906 Z-2.36
G1 X-49.269 Y-350.979 Z-2.368
G1 X-49.481 Y-351.036 Z-2.375
G1 X-49.697 Y-351.078 Z-2.383
G1 X-49.915 Y-351.104 Z-2.391
G1 X-50.134 Y-351.114 Z-2.398
G1 X-50.354 Y-351.109 Z-2.406
G1 X-50.572 Y-351.087 Z-2.414
G1 X-50.788 Y-351.049 Z-2.421
G1 X-51.001 Y-350.996 Z-2.429
G1 X-51.21 Y-350.928 Z-2.437
G1 X-51.413 Y-350.844 Z-2.444
G1 X-51.609 Y-350.746 Z-2.452
G1 X-51.798 Y-350.634 Z-2.46
G1 X-51.978 Y-350.508 Z-2.467
G1 X-52.149 Y-350.37 Z-2.475
G1 X-52.309 Y-350.219 Z-2.483
G1 X-52.457 Y-350.058 Z-2.49
G1 X-52.594 Y-349.886 Z-2.498
G1 X-52.717 Y-349.704 Z-2.506
G1 X-52.827 Y-349.514 Z-2.513
G1 X-52.923 Y-349.317 Z-2.521
G1 X-53.005 Y-349.113 Z-2.529
G1 X-53.071 Y-348.903 Z-2.536
G1 X-53.122 Y-348.69 Z-2.544
G1 X-53.157 Y-348.473 Z-2.552
G1 X-53.176 Y-348.254 Z-2.559
G1 X-53.18 Y-348.035 Z-2.567
G1 X-53.167 Y-347.815 Z-2.575
G1 X-53.138 Y-347.598 Z-2.582
G1 X-53.094 Y-347.383 Z-2.59
G1 X-53.034 Y-347.171 Z-2.598
G1 X-52.959 Y-346.965 Z-2.605
G1 X-52.869 Y-346.765 Z-2.613
G1 X-52.765 Y-346.571 Z-2.621
G1 X-52.647 Y-346.386 Z-2.628
G1 X-52.516 Y-346.21 Z-2.636
G1 X-52.373 Y-346.044 Z-2.644
G1 X-52.217 Y-345.889 Z-2.651
G1 X-52.051 Y-345.745 Z-2.659
G1 X-51.875 Y-345.614 Z-2.667
G1 X-51.69 Y-345.496 Z-2.674
G1 X-51.496 Y-345.392 Z-2.682
G1 X-51.296 Y-345.303 Z-2.69
G1 X-51.09 Y-345.228 Z-2.697
G1 X-50.878 Y-345.168 Z-2.705
G1 X-50.663 Y-345.124 Z-2.713
G1 X-50.445 Y-345.095 Z-2.72
G1 X-50.226 Y-345.083 Z-2.728
G1 X-50.007 Y-345.086 Z-2.736
G1 X-49.788 Y-345.106 Z-2.743
G1 X-49.571 Y-345.141 Z-2.751
G1 X-49.358 Y-345.192 Z-2.759
G1 X-49.148 Y-345.258 Z-2.766
G1 X-48.944 Y-345.34 Z-2.774
G1 X-48.747 Y-345.436 Z-2.782
G1 X-48.557 Y-345.546 Z-2.789
G1 X-48.376 Y-345.67 Z-2.797
G1 X-48.204 Y-345.806 Z-2.805
G1 X-48.042 Y-345.955 Z-2.812
G1 X-47.892 Y-346.115 Z-2.82
G1 X-47.753 Y-346.285 Z-2.828
G1 X-47.628 Y-346.466 Z-2.835
G1 X-47.516 Y-346.654 Z-2.843
G1 X-47.418 Y-346.851 Z-2.851
G1 X-47.334 Y-347.054 Z-2.858
G1 X-47.266 Y-347.263 Z-2.866
G1 X-47.213 Y-347.476 Z-2.874
G1 X-47.175 Y-347.692 Z-2.881
G1 X-47.154 Y-347.911 Z-2.889
G1 X-47.148 Y-348.13 Z-2.897
G1 X-47.158 Y-348.349 Z-2.904
G1 X-47.185 Y-348.567 Z-2.912
G1 X-47.227 Y-348.783 Z-2.92
G1 X-47.284 Y-348.995 Z-2.927
G1 X-47.357 Y-349.202 Z-2.935
G1 X-47.445 Y-349.403 Z-2.943
G1 X-47.547 Y-349.598 Z-2.951
G1 X-47.663 Y-349.784 Z-2.958
G1 X-47.792 Y-349.962 Z-2.966
G1 X-47.934 Y-350.129 Z-2.974
G1 X-48.088 Y-350.286 Z-2.981
G1 X-48.252 Y-350.431 Z-2.989
G1 X-48.427 Y-350.564 Z-2.997
G1 X-48.611 Y-350.684 Z-3.004
G1 X-48.803 Y-350.79 Z-3.012
G1 X-49.003 Y-350.882 Z-3.02
G1 X-49.208 Y-350.959 Z-3.027
G1 X-49.419 Y-351.021 Z-3.035
G1 X-49.633 Y-351.068 Z-3.043
G1 X-49.851 Y-351.098 Z-3.05
G1 X-50.07 Y-351.113 Z-3.058
G1 X-50.289 Y-351.112 Z-3.066
G1 X-50.508 Y-351.095 Z-3.073
G1 X-50.725 Y-351.062 Z-3.081
G1 X-50.94 Y-351.013 Z-3.089
G1 X-51.15 Y-350.949 Z-3.096
G1 X-51.354 Y-350.87 Z-3.104
G1 X-51.553 Y-350.776 Z-3.112
G1 X-51.744 Y-350.668 Z-3.119
G1 X-51.927 Y-350.546 Z-3.127
G1 X-52.1 Y-350.411 Z-3.135
G1 X-52.263 Y-350.264 Z-3.142
G1 X-52.415 Y-350.106 Z-3.15
G1 X-52.555 Y-349.937 Z-3.158
G1 X-52.683 Y-349.758 Z-3.165
G1 X-52.797 Y-349.57 Z-3.173
G1 X-52.897 Y-349.375 Z-3.181
G1 X-52.982 Y-349.173 Z-3.188
G1 X-53.053 Y-348.965 Z-3.196
G1 X-53.109 Y-348.752 Z-3.204
G1 X-53.148 Y-348.536 Z-3.211
G1 X-53.172 Y-348.318 Z-3.219
G1 X-53.18 Y-348.099 Z-3.227
G1 X-53.172 Y-347.879 Z-3.234
G1 X-53.148 Y-347.661 Z-3.242
G1 X-53.109 Y-347.445 Z-3.25
G1 X-53.053 Y-347.233 Z-3.257
G1 X-52.983 Y-347.025 Z-3.265
G1 X-52.897 Y-346.823 Z-3.273
G1 X-52.797 Y-346.627 Z-3.28
G1 X-52.683 Y-346.439 Z-3.288
G1 X-52.556 Y-346.261 Z-3.296
G1 X-52.416 Y-346.091 Z-3.303
G1 X-52.264 Y-345.933 Z-3.311
G1 X-52.101 Y-345.786 Z-3.319
G1 X-51.927 Y-345.651 Z-3.326
G1 X-51.745 Y-345.529 Z-3.334
G1 X-51.554 Y-345.421 Z-3.342
G1 X-51.355 Y-345.327 Z-3.349
G1 X-51.15 Y-345.248 Z-3.357
G1 X-50.94 Y-345.184 Z-3.365
G1 X-50.726 Y-345.135 Z-3.372
G1 X-50.509 Y-345.102 Z-3.38
G1 X-50.29 Y-345.085 Z-3.388
G1 X-50.071 Y-345.084 Z-3.395
G1 X-49.852 Y-345.098 Z-3.403
G1 X-49.634 Y-345.129 Z-3.411
G1 X-49.42 Y-345.175 Z-3.418
G1 X-49.209 Y-345.237 Z-3.426
G1 X-49.003 Y-345.314 Z-3.434
G1 X-48.804 Y-345.406 Z-3.441
G1 X-48.612 Y-345.512 Z-3.449
G1 X-48.428 Y-345.632 Z-3.457
G1 X-48.253 Y-345.765 Z-3.464
G1 X-48.088 Y-345.91 Z-3.472
G1 X-47.934 Y-346.067 Z-3.48
G1 X-47.793 Y-346.235 Z-3.487
G1 X-47.663 Y-346.412 Z-3.495
G1 X-47.547 Y-346.599 Z-3.503
G1 X-47.445 Y-346.793 Z-3.51
G1 X-47.357 Y-346.994 Z-3.518
G1 X-47.284 Y-347.201 Z-3.526
G1 X-47.227 Y-347.413 Z-3.533
G1 X-47.185 Y-347.629 Z-3.541
G1 X-47.158 Y-347.847 Z-3.549
G1 X-47.148 Y-348.066 Z-3.556
G1 X-47.154 Y-348.285 Z-3.564
G1 X-47.175 Y-348.504 Z-3.572
G1 X-47.213 Y-348.72 Z-3.579
G1 X-47.266 Y-348.933 Z-3.587
G1 X-47.334 Y-349.142 Z-3.595
G1 X-47.418 Y-349.345 Z-3.602
G1 X-47.516 Y-349.542 Z-3.61
G1 X-47.628 Y-349.731 Z-3.618
G1 X-47.753 Y-349.911 Z-3.625
G1 X-47.891 Y-350.081 Z-3.633
G1 X-48.042 Y-350.241 Z-3.641
G1 X-48.203 Y-350.39 Z-3.648
G1 X-48.375 Y-350.527 Z-3.656
G1 X-48.556 Y-350.65 Z-3.664
G1 X-48.746 Y-350.761 Z-3.671
G1 X-48.944 Y-350.857 Z-3.679
G1 X-49.148 Y-350.938 Z-3.687
G1 X-49.357 Y-351.005 Z-3.694
G1 X-49.57 Y-351.056 Z-3.702
G1 X-49.787 Y-351.091 Z-3.71
G1 X-50.006 Y-351.11 Z-3.717
G1 X-50.225 Y-351.114 Z-3.725
G1 X-50.445 Y-351.102 Z-3.733
G1 X-50.662 Y-351.073 Z-3.74
G1 X-50.877 Y-351.029 Z-3.748
G1 X-51.089 Y-350.969 Z-3.756
G1 X-51.295 Y-350.895 Z-3.763
G1 X-51.496 Y-350.805 Z-3.771
G1 X-51.689 Y-350.701 Z-3.779
G1 X-51.874 Y-350.583 Z-3.786
G1 X-52.05 Y-350.452 Z-3.794
G1 X-52.217 Y-350.308 Z-3.802
G1 X-52.372 Y-350.153 Z-3.809
G1 X-52.516 Y-349.987 Z-3.817
G1 X-52.647 Y-349.811 Z-3.825
G1 X-52.765 Y-349.626 Z-3.832
G1 X-52.869 Y-349.433 Z-3.84
G1 X-52.959 Y-349.232 Z-3.848
G1 X-53.034 Y-349.026 Z-3.855
G1 X-53.094 Y-348.815 Z-3.863
G1 X-53.138 Y-348.6 Z-3.871
G1 X-53.167 Y-348.382 Z-3.879
G1 X-53.18 Y-348.163 Z-3.886
G1 X-53.176 Y-347.943 Z-3.894
G1 X-53.157 Y-347.725 Z-3.902
G1 X-53.122 Y-347.508 Z-3.909
G1 X-53.071 Y-347.294 Z-3.917
G1 X-53.005 Y-347.085 Z-3.925
G1 X-52.924 Y-346.881 Z-3.932
G1 X-52.828 Y-346.683 Z-3.94
G1 X-52.718 Y-346.493 Z-3.948
G1 X-52.594 Y-346.312 Z-3.955
G1 X-52.458 Y-346.14 Z-3.963
G1 X-52.309 Y-345.978 Z-3.971
G1 X-52.149 Y-345.828 Z-3.978
G1 X-51.979 Y-345.689 Z-3.986
G1 X-51.799 Y-345.564 Z-3.994
G1 X-51.61 Y-345.451 Z-4.001
G1 X-51.414 Y-345.353 Z-4.009
G1 X-51.211 Y-345.27 Z-4.017
G1 X-51.002 Y-345.201 Z-4.024
G1 X-50.789 Y-345.148 Z-4.032
G1 X-50.573 Y-345.11 Z-4.04
G1 X-50.354 Y-345.088 Z-4.047
G1 X-50.135 Y-345.082 Z-4.055
G1 X-49.915 Y-345.092 Z-4.063
G1 X-49.697 Y-345.118 Z-4.07
G1 X-49.482 Y-345.16 Z-4.078
G1 X-49.27 Y-345.218 Z-4.086
G1 X-49.063 Y-345.29 Z-4.093
G1 X-48.861 Y-345.378 Z-4.101
G1 X-48.667 Y-345.48 Z-4.109
G1 X-48.48 Y-345.596 Z-4.116
G1 X-48.303 Y-345.725 Z-4.124
G1 X-48.135 Y-345.867 Z-4.132
G1 X-47.978 Y-346.02 Z-4.139
G1 X-47.833 Y-346.185 Z-4.147
G1 X-47.7 Y-346.359 Z-4.155
G1 X-47.58 Y-346.543 Z-4.162
G1 X-47.473 Y-346.735 Z-4.17
G1 X-47.381 Y-346.935 Z-4.178
G1 X-47.304 Y-347.14 Z-4.185
G1 X-47.242 Y-347.351 Z-4.193
G1 X-47.195 Y-347.565 Z-4.201
G1 X-47.164 Y-347.783 Z-4.208
G1 X-47.149 Y-348.002 Z-4.216
G1 X-47.15 Y-348.221 Z-4.224
G1 X-47.167 Y-348.44 Z-4.231
G1 X-47.2 Y-348.657 Z-4.239
G1 X-47.249 Y-348.872 Z-4.247
G1 X-47.313 Y-349.082 Z-4.254
G1 X-47.392 Y-349.287 Z-4.262
G1 X-47.485 Y-349.485 Z-4.27
G1 X-47.593 Y-349.676 Z-4.277
G1 X-47.715 Y-349.859 Z-4.285
G1 X-47.85 Y-350.033 Z-4.293
G1 X-47.996 Y-350.196 Z-4.3
G1 X-48.155 Y-350.348 Z-4.308
G1 X-48.324 Y-350.488 Z-4.316
G1 X-48.502 Y-350.616 Z-4.323
G1 X-48.69 Y-350.73 Z-4.331
G1 X-48.885 Y-350.83 Z-4.339
G1 X-49.087 Y-350.916 Z-4.346
G1 X-49.295 Y-350.987 Z-4.354
G1 X-49.508 Y-351.042 Z-4.362
G1 X-49.724 Y-351.082 Z-4.369
G1 X-49.942 Y-351.106 Z-4.377
G1 X-50.161 Y-351.115 Z-4.385
G1 X-50.381 Y-351.107 Z-4.392
G1 X-50.599 Y-351.083 Z-4.4
G1 X-50.815 Y-351.044 Z-4.408
G1 X-51.028 Y-350.988 Z-4.415
G1 X-51.236 Y-350.918 Z-4.423
G1 X-51.438 Y-350.833 Z-4.431
G1 X-51.633 Y-350.733 Z-4.438
G1 X-51.821 Y-350.619 Z-4.446
G1 X-52 Y-350.492 Z-4.454
G1 X-52.169 Y-350.352 Z-4.461
G1 X-52.328 Y-350.2 Z-4.469
G1 X-52.475 Y-350.037 Z-4.477
G1 X-52.61 Y-349.864 Z-4.484
G1 X-52.732 Y-349.681 Z-4.492
G1 X-52.84 Y-349.49 Z-4.5
G1 X-52.934 Y-349.292 Z-4.507
G1 X-53.014 Y-349.087 Z-4.515
G1 X-53.078 Y-348.877 Z-4.523
G1 X-53.127 Y-348.663 Z-4.53
G1 X-53.16 Y-348.446 Z-4.538
G1 X-53.178 Y-348.227 Z-4.546
G1 X-53.179 Y-348.007 Z-4.553
G1 X-53.164 Y-347.788 Z-4.561
G1 X-53.134 Y-347.571 Z-4.569
G1 X-53.088 Y-347.356 Z-4.576
G1 X-53.026 Y-347.145 Z-4.584
G1 X-52.949 Y-346.94 Z-4.592
G1 X-52.857 Y-346.74 Z-4.599
G1 X-52.751 Y-346.548 Z-4.607
G1 X-52.632 Y-346.364 Z-4.615
G1 X-52.499 Y-346.189 Z-4.622
G1 X-52.354 Y-346.024 Z-4.63
G1 X-52.197 Y-345.87 Z-4.638
G1 X-52.03 Y-345.728 Z-4.645
G1 X-51.852 Y-345.599 Z-4.653
G1 X-51.666 Y-345.483 Z-4.661
G1 X-51.472 Y-345.38 Z-4.668
G1 X-51.271 Y-345.292 Z-4.676
G1 X-51.063 Y-345.219 Z-4.684
G1 X-50.852 Y-345.162 Z-4.691
G1 X-50.636 Y-345.119 Z-4.699
G1 X-50.418 Y-345.093 Z-4.707
G1 X-50.199 Y-345.082 Z-4.714
G1 X-49.979 Y-345.088 Z-4.722
G1 X-49.761 Y-345.109 Z-4.73
G1 X-49.544 Y-345.146 Z-4.737
G1 X-49.331 Y-345.199 Z-4.745
G1 X-49.123 Y-345.268 Z-4.753
G1 X-48.919 Y-345.351 Z-4.76
G1 X-48.723 Y-345.449 Z-4.768
G1 X-48.534 Y-345.561 Z-4.776
G1 X-48.354 Y-345.686 Z-4.783
G1 X-48.183 Y-345.824 Z-4.791
G1 X-48.023 Y-345.974 Z-4.799
G1 X-47.874 Y-346.136 Z-4.807
G1 X-47.737 Y-346.307 Z-4.814
G1 X-47.613 Y-346.489 Z-4.822
G1 X-47.503 Y-346.679 Z-4.83
G1 X-47.407 Y-346.876 Z-4.837
G1 X-47.325 Y-347.08 Z-4.845
G1 X-47.258 Y-347.289 Z-4.853
G1 X-47.207 Y-347.502 Z-4.86
G1 X-47.172 Y-347.719 Z-4.868
G1 X-47.152 Y-347.938 Z-4.876
G1 X-47.148 Y-348.157 Z-4.883
G1 X-47.161 Y-348.377 Z-4.891
G1 X-47.189 Y-348.594 Z-4.899
G1 X-47.233 Y-348.809 Z-4.906
G1 X-47.292 Y-349.021 Z-4.914
G1 X-47.367 Y-349.227 Z-4.922
G1 X-47.457 Y-349.428 Z-4.929
G1 X-47.56 Y-349.621 Z-4.937
G1 X-47.678 Y-349.807 Z-4.945
G1 X-47.809 Y-349.983 Z-4.952
G1 X-47.952 Y-350.149 Z-4.96
G1 X-48.107 Y-350.305 Z-4.968
G1 X-48.273 Y-350.449 Z-4.975
G1 X-48.449 Y-350.58 Z-4.983
G1 X-48.634 Y-350.698 Z-4.991
G1 X-48.828 Y-350.802 Z-4.998
G1 X-49.028 Y-350.892 Z-5.006
G1 X-49.234 Y-350.968 Z-5.014
G1 X-49.445 Y-351.028 Z-5.021
G1 X-49.66 Y-351.072 Z-5.029
G1 X-49.878 Y-351.101 Z-5.037
G1 X-50.097 Y-351.114 Z-5.044
G1 X-50.317 Y-351.111 Z-5.052
G1 X-50.536 Y-351.092 Z-5.06
G1 X-50.752 Y-351.057 Z-5.067
G1 X-50.966 Y-351.006 Z-5.075
G1 X-51.175 Y-350.94 Z-5.083
G1 X-51.379 Y-350.859 Z-5.09
G1 X-51.577 Y-350.763 Z-5.098
G1 X-51.767 Y-350.653 Z-5.106
G1 X-51.949 Y-350.53 Z-5.113
G1 X-52.121 Y-350.394 Z-5.121
G1 X-52.283 Y-350.245 Z-5.129
G1 X-52.433 Y-350.085 Z-5.136
G1 X-52.572 Y-349.915 Z-5.144
G1 X-52.698 Y-349.735 Z-5.152
G1 X-52.81 Y-349.546 Z-5.159
G1 X-52.908 Y-349.35 Z-5.167
G1 X-52.992 Y-349.147 Z-5.175
G1 X-53.061 Y-348.939 Z-5.182
G1 X-53.114 Y-348.726 Z-5.19
G1 X-53.152 Y-348.509 Z-5.198
G1 X-53.174 Y-348.291 Z-5.205
G1 X-53.18 Y-348.071 Z-5.213
G1 X-53.17 Y-347.852 Z-5.221
G1 X-53.144 Y-347.634 Z-5.228
G1 X-53.103 Y-347.418 Z-5.236
G1 X-53.045 Y-347.206 Z-5.244
G1 X-52.973 Y-346.999 Z-5.251
G1 X-52.886 Y-346.798 Z-5.259
G1 X-52.784 Y-346.603 Z-5.267
G1 X-52.668 Y-346.417 Z-5.274
G1 X-52.539 Y-346.239 Z-5.282
G1 X-52.397 Y-346.071 Z-5.29
G1 X-52.244 Y-345.914 Z-5.297
G1 X-52.08 Y-345.768 Z-5.305
G1 X-51.905 Y-345.635 Z-5.313
G1 X-51.721 Y-345.515 Z-5.32
G1 X-51.529 Y-345.409 Z-5.328
G1 X-51.33 Y-345.317 Z-5.336
G1 X-51.124 Y-345.239 Z-5.343
G1 X-50.914 Y-345.177 Z-5.351
G1 X-50.699 Y-345.13 Z-5.359
G1 X-50.482 Y-345.099 Z-5.366
G1 X-50.263 Y-345.084 Z-5.374
G1 X-50.043 Y-345.085 Z-5.382
G1 X-49.824 Y-345.101 Z-5.389
G1 X-49.607 Y-345.134 Z-5.397
G1 X-49.393 Y-345.182 Z-5.405
G1 X-49.183 Y-345.246 Z-5.412
G1 X-48.978 Y-345.325 Z-5.42
G1 X-48.78 Y-345.419 Z-5.428
G1 X-48.588 Y-345.527 Z-5.435
G1 X-48.405 Y-345.648 Z-5.443
G1 X-48.232 Y-345.782 Z-5.451
G1 X-48.068 Y-345.929 Z-5.458
G1 X-47.916 Y-346.087 Z-5.466
G1 X-47.776 Y-346.256 Z-5.474
G1 X-47.648 Y-346.435 Z-5.481
G1 X-47.534 Y-346.622 Z-5.489
G1 X-47.433 Y-346.818 Z-5.497
G1 X-47.347 Y-347.02 Z-5.504
G1 X-47.276 Y-347.227 Z-5.512
G1 X-47.221 Y-347.44 Z-5.52
G1 X-47.18 Y-347.656 Z-5.527
G1 X-47.156 Y-347.874 Z-5.535
G1 X-47.148 Y-348.093 Z-5.543
G1 X-47.155 Y-348.313 Z-5.55
G1 X-47.179 Y-348.531 Z-5.558
G1 X-47.218 Y-348.747 Z-5.566
G1 X-47.273 Y-348.96 Z-5.573
G1 X-47.344 Y-349.168 Z-5.581
G1 X-47.429 Y-349.37 Z-5.589
G1 X-47.529 Y-349.566 Z-5.596
G1 X-47.642 Y-349.753 Z-5.604
G1 X-47.77 Y-349.932 Z-5.612
G1 X-47.909 Y-350.102 Z-5.619
G1 X-48.061 Y-350.261 Z-5.627
G1 X-48.224 Y-350.408 Z-5.635
G1 X-48.397 Y-350.543 Z-5.642
G1 X-48.58 Y-350.665 Z-5.65
G1 X-48.77 Y-350.773 Z-5.658
G1 X-48.969 Y-350.868 Z-5.665
G1 X-49.173 Y-350.947 Z-5.673
G1 X-49.383 Y-351.012 Z-5.681
G1 X-49.597 Y-351.061 Z-5.688
G1 X-49.814 Y-351.094 Z-5.696
G1 X-50.033 Y-351.112 Z-5.704
G1 X-50.253 Y-351.113 Z-5.711
G1 X-50.472 Y-351.099 Z-5.719
G1 X-50.689 Y-351.069 Z-5.727
G1 X-50.904 Y-351.022 Z-5.734
G1 X-51.115 Y-350.961 Z-5.742
G1 X-51.32 Y-350.884 Z-5.75
G1 X-51.52 Y-350.793 Z-5.758
G1 X-51.712 Y-350.687 Z-5.765
G1 X-51.897 Y-350.567 Z-5.773
G1 X-52.072 Y-350.435 Z-5.781
G1 X-52.237 Y-350.29 Z-5.788
G1 X-52.391 Y-350.133 Z-5.796
G1 X-52.533 Y-349.966 Z-5.804
G1 X-52.662 Y-349.789 Z-5.811
G1 X-52.779 Y-349.602 Z-5.819
G1 X-52.881 Y-349.408 Z-5.827
G1 X-52.969 Y-349.207 Z-5.834
G1 X-53.042 Y-349 Z-5.842
G1 X-53.1 Y-348.788 Z-5.85
G1 X-53.143 Y-348.573 Z-5.857
G1 X-53.169 Y-348.355 Z-5.865
G1 X-53.18 Y-348.136 Z-5.873
G1 X-53.175 Y-347.916 Z-5.88
G1 X-53.154 Y-347.697 Z-5.888
G1 X-53.116 Y-347.481 Z-5.896
G1 X-53.064 Y-347.268 Z-5.903
G1 X-52.996 Y-347.059 Z-5.911
G1 X-52.913 Y-346.856 Z-5.919
G1 X-52.815 Y-346.659 Z-5.926
G1 X-52.703 Y-346.47 Z-5.934
G1 X-52.578 Y-346.29 Z-5.942
G1 X-52.44 Y-346.119 Z-5.949
G1 X-52.29 Y-345.959 Z-5.957
G1 X-52.129 Y-345.81 Z-5.965
G1 X-51.957 Y-345.673 Z-5.972
G1 X-51.776 Y-345.549 Z-5.98
G1 X-51.586 Y-345.438 Z-5.988
G1 X-51.389 Y-345.342 Z-5.995
G1 X-51.185 Y-345.26 Z-6.003
G1 X-50.976 Y-345.193 Z-6.011
G1 X-50.762 Y-345.142 Z-6.018
G1 X-50.546 Y-345.106 Z-6.026
G1 X-50.327 Y-345.087 Z-6.034
G1 X-50.107 Y-345.083 Z-6.041
G1 X-49.888 Y-345.095 Z-6.049
G1 X-49.67 Y-345.123 Z-6.057
G1 X-49.455 Y-345.167 Z-6.064
G1 X-49.244 Y-345.226 Z-6.072
G1 X-49.037 Y-345.3 Z-6.08
G1 X-48.837 Y-345.39 Z-6.087
G1 X-48.643 Y-345.494 Z-6.095
G1 X-48.458 Y-345.611 Z-6.103
G1 X-48.281 Y-345.742 Z-6.11
G1 X-48.115 Y-345.885 Z-6.118
G1 X-47.959 Y-346.04 Z-6.126
G1 X-47.815 Y-346.206 Z-6.133
G1 X-47.684 Y-346.382 Z-6.141
G1 X-47.566 Y-346.567 Z-6.149
G1 X-47.461 Y-346.76 Z-6.156
G1 X-47.371 Y-346.96 Z-6.164
G1 X-47.295 Y-347.166 Z-6.172
G1 X-47.235 Y-347.377 Z-6.179
G1 X-47.191 Y-347.592 Z-6.187
G1 X-47.162 Y-347.81 Z-6.195
G1 X-47.149 Y-348.029 Z-6.202
G1 X-47.152 Y-348.249 Z-6.21
G1 X-47.17 Y-348.468 Z-6.218
G1 X-47.205 Y-348.684 Z-6.225
G1 X-47.256 Y-348.898 Z-6.233
G1 X-47.322 Y-349.107 Z-6.241
G1 X-47.403 Y-349.312 Z-6.248
G1 X-47.498 Y-349.509 Z-6.256
G1 X-47.608 Y-349.699 Z-6.264
G1 X-47.731 Y-349.881 Z-6.271
G1 X-47.867 Y-350.053 Z-6.279
G1 X-48.016 Y-350.215 Z-6.287
G1 X-48.175 Y-350.366 Z-6.294
G1 X-48.345 Y-350.505 Z-6.302
G1 X-48.525 Y-350.631 Z-6.31
G1 X-48.714 Y-350.743 Z-6.317
G1 X-48.91 Y-350.842 Z-6.325
G1 X-49.113 Y-350.926 Z-6.333
G1 X-49.322 Y-350.995 Z-6.34
G1 X-49.534 Y-351.048 Z-6.348
G1 X-49.751 Y-351.086 Z-6.356
G1 X-49.969 Y-351.108 Z-6.363
G1 X-50.189 Y-351.115 Z-6.371
G1 X-50.408 Y-351.105 Z-6.379
G1 X-50.626 Y-351.079 Z-6.386
G1 X-50.842 Y-351.038 Z-6.394
G1 X-51.054 Y-350.98 Z-6.402
G1 X-51.261 Y-350.908 Z-6.409
G1 X-51.463 Y-350.821 Z-6.417
G1 X-51.657 Y-350.719 Z-6.425
G1 X-51.844 Y-350.604 Z-6.432
G1 X-52.022 Y-350.475 Z-6.44
G1 X-52.19 Y-350.333 Z-6.448
G1 X-52.347 Y-350.18 Z-6.455
G1 X-52.492 Y-350.016 Z-6.463
G1 X-52.626 Y-349.841 Z-6.471
G1 X-52.746 Y-349.658 Z-6.478
G1 X-52.853 Y-349.466 Z-6.486
G1 X-52.945 Y-349.266 Z-6.494
G1 X-53.023 Y-349.061 Z-6.501
G1 X-53.085 Y-348.85 Z-6.509
G1 X-53.132 Y-348.636 Z-6.517
G1 X-53.163 Y-348.419 Z-6.524
G1 X-53.179 Y-348.2 Z-6.532
G1 X-53.178 Y-347.98 Z-6.54
G1 X-53.161 Y-347.761 Z-6.547
G1 X-53.129 Y-347.544 Z-6.555
G1 X-53.081 Y-347.33 Z-6.563
G1 X-53.017 Y-347.12 Z-6.57
G1 X-52.938 Y-346.915 Z-6.578
G1 X-52.845 Y-346.716 Z-6.586
G1 X-52.737 Y-346.525 Z-6.593
G1 X-52.616 Y-346.342 Z-6.601
G1 X-52.482 Y-346.168 Z-6.609
G1 X-52.335 Y-346.004 Z-6.616
G1 X-52.177 Y-345.852 Z-6.624
G1 X-52.008 Y-345.711 Z-6.632
G1 X-51.83 Y-345.584 Z-6.639
G1 X-51.642 Y-345.469 Z-6.647
G1 X-51.447 Y-345.369 Z-6.655
G1 X-51.245 Y-345.282 Z-6.662
G1 X-51.037 Y-345.211 Z-6.67
G1 X-50.825 Y-345.155 Z-6.678
G1 X-50.609 Y-345.115 Z-6.686
G1 X-50.391 Y-345.091 Z-6.693
G1 X-50.172 Y-345.082 Z-6.701
G1 X-49.952 Y-345.09 Z-6.709
G1 X-49.734 Y-345.113 Z-6.716
G1 X-49.518 Y-345.152 Z-6.724
G1 X-49.305 Y-345.207 Z-6.732
G1 X-49.097 Y-345.277 Z-6.739
G1 X-48.895 Y-345.362 Z-6.747
G1 X-48.699 Y-345.462 Z-6.755
G1 X-48.511 Y-345.575 Z-6.762
G1 X-48.332 Y-345.702 Z-6.77
G1 X-48.162 Y-345.842 Z-6.778
G1 X-48.004 Y-345.994 Z-6.785
G1 X-47.856 Y-346.156 Z-6.793
G1 X-47.721 Y-346.329 Z-6.801
G1 X-47.599 Y-346.512 Z-6.808
G1 X-47.49 Y-346.703 Z-6.816
G1 X-47.396 Y-346.901 Z-6.824
G1 X-47.316 Y-347.105 Z-6.831
G1 X-47.251 Y-347.315 Z-6.839
G1 X-47.202 Y-347.529 Z-6.847
G1 X-47.168 Y-347.746 Z-6.854
G1 X-47.151 Y-347.965 Z-6.862
G1 X-47.149 Y-348.185 Z-6.87
G1 X-47.163 Y-348.404 Z-6.877
G1 X-47.193 Y-348.621 Z-6.885
G1 X-47.239 Y-348.836 Z-6.893
G1 X-47.301 Y-349.047 Z-6.9
G1 X-47.377 Y-349.253 Z-6.908
G1 X-47.469 Y-349.452 Z-6.916
G1 X-47.574 Y-349.645 Z-6.923
G1 X-47.694 Y-349.829 Z-6.931
G1 X-47.826 Y-350.004 Z-6.939
G1 X-47.971 Y-350.169 Z-6.946
G1 X-48.128 Y-350.323 Z-6.954
G1 X-48.295 Y-350.466 Z-6.962
G1 X-48.472 Y-350.595 Z-6.969
G1 X-48.658 Y-350.712 Z-6.977
G1 X-48.852 Y-350.814 Z-6.985
G1 X-49.053 Y-350.903 Z-6.992
G1 X-49.26 Y-350.976 Z-7
G1 X-49.472 Y-351.034 Z-7.008
G1 X-49.687 Y-351.077 Z-7.015
G1 X-49.905 Y-351.104 Z-7.023
G1 X-50.125 Y-351.114 Z-7.031
G1 X-50.344 Y-351.109 Z-7.038
G1 X-50.563 Y-351.088 Z-7.046
G1 X-50.779 Y-351.051 Z-7.054
G1 X-50.992 Y-350.999 Z-7.061
G1 X-51.201 Y-350.931 Z-7.069
G1 X-51.404 Y-350.848 Z-7.077
G1 X-51.601 Y-350.75 Z-7.084
G1 X-51.79 Y-350.639 Z-7.092
G1 X-51.971 Y-350.514 Z-7.1
G1 X-52.142 Y-350.376 Z-7.107
G1 X-52.302 Y-350.226 Z-7.115
G1 X-52.451 Y-350.065 Z-7.123
G1 X-52.588 Y-349.893 Z-7.13
G1 X-52.712 Y-349.712 Z-7.138
G1 X-52.823 Y-349.522 Z-7.146
G1 X-52.92 Y-349.325 Z-7.153
G1 X-53.002 Y-349.122 Z-7.161
G1 X-53.068 Y-348.912 Z-7.169
G1 X-53.12 Y-348.699 Z-7.176
G1 X-53.156 Y-348.482 Z-7.184
G1 X-53.176 Y-348.264 Z-7.192
G1 X-53.18 Y-348.044 Z-7.199
G1 X-53.168 Y-347.825 Z-7.207
G1 X-53.14 Y-347.607 Z-7.215
G1 X-53.096 Y-347.392 Z-7.222
G1 X-53.037 Y-347.18 Z-7.23
G1 X-52.963 Y-346.974 Z-7.238
G1 X-52.874 Y-346.773 Z-7.245
G1 X-52.77 Y-346.58 Z-7.253
G1 X-52.653 Y-346.394 Z-7.261
G1 X-52.522 Y-346.218 Z-7.268
G1 X-52.379 Y-346.051 Z-7.276
G1 X-52.224 Y-345.895 Z-7.284
G1 X-52.058 Y-345.751 Z-7.291
G1 X-51.883 Y-345.62 Z-7.299
G1 X-51.698 Y-345.501 Z-7.307
G1 X-51.505 Y-345.396 Z-7.314
G1 X-51.305 Y-345.306 Z-7.322
G1 X-51.098 Y-345.231 Z-7.33
G1 X-50.887 Y-345.17 Z-7.337
G1 X-50.672 Y-345.125 Z-7.345
G1 X-50.455 Y-345.096 Z-7.353
G1 X-50.236 Y-345.083 Z-7.36
G1 X-50.016 Y-345.086 Z-7.368
G1 X-49.797 Y-345.105 Z-7.376
G1 X-49.58 Y-345.139 Z-7.383
G1 X-49.367 Y-345.189 Z-7.391
G1 X-49.157 Y-345.255 Z-7.399
G1 X-48.953 Y-345.336 Z-7.406
G1 X-48.755 Y-345.431 Z-7.414
G1 X-48.565 Y-345.541 Z-7.422
G1 X-48.383 Y-345.664 Z-7.429
G1 X-48.211 Y-345.8 Z-7.437
G1 X-48.049 Y-345.948 Z-7.445
G1 X-47.898 Y-346.108 Z-7.452
G1 X-47.759 Y-346.278 Z-7.46
G1 X-47.633 Y-346.458 Z-7.468
G1 X-47.52 Y-346.646 Z-7.475
G1 X-47.422 Y-346.842 Z-7.483
G1 X-47.338 Y-347.045 Z-7.491
G1 X-47.269 Y-347.254 Z-7.498
G1 X-47.215 Y-347.466 Z-7.506
G1 X-47.177 Y-347.683 Z-7.514
G1 X-47.154 Y-347.901 Z-7.521
G1 X-47.148 Y-348.121 Z-7.529
G1 X-47.158 Y-348.34 Z-7.537
G1 X-47.183 Y-348.558 Z-7.544
G1 X-47.224 Y-348.774 Z-7.552
G1 X-47.281 Y-348.986 Z-7.56
G1 X-47.354 Y-349.193 Z-7.567
G1 X-47.441 Y-349.395 Z-7.575
G1 X-47.542 Y-349.589 Z-7.583
G1 X-47.658 Y-349.776 Z-7.59
G1 X-47.786 Y-349.954 Z-7.598
G1 X-47.928 Y-350.122 Z-7.606
G1 X-48.081 Y-350.28 Z-7.614
G1 X-48.245 Y-350.425 Z-7.621
G1 X-48.419 Y-350.559 Z-7.629
G1 X-48.603 Y-350.679 Z-7.637
G1 X-48.795 Y-350.786 Z-7.644
G1 X-48.994 Y-350.878 Z-7.652
G1 X-49.199 Y-350.956 Z-7.66
G1 X-49.41 Y-351.019 Z-7.667
G1 X-49.624 Y-351.066 Z-7.675
G1 X-49.841 Y-351.097 Z-7.683
G1 X-50.06 Y-351.113 Z-7.69
G1 X-50.28 Y-351.112 Z-7.698
G1 X-50.499 Y-351.096 Z-7.706
G1 X-50.716 Y-351.064 Z-7.713
G1 X-50.93 Y-351.016 Z-7.721
G1 X-51.141 Y-350.952 Z-7.729
G1 X-51.346 Y-350.874 Z-7.736
G1 X-51.544 Y-350.78 Z-7.744
G1 X-51.736 Y-350.673 Z-7.752
G1 X-51.919 Y-350.552 Z-7.759
G1 X-52.093 Y-350.417 Z-7.767
G1 X-52.256 Y-350.271 Z-7.775
G1 X-52.409 Y-350.113 Z-7.782
G1 X-52.55 Y-349.944 Z-7.79
G1 X-52.677 Y-349.766 Z-7.798
G1 X-52.792 Y-349.579 Z-7.805
G1 X-52.893 Y-349.384 Z-7.813
G1 X-52.979 Y-349.182 Z-7.821
G1 X-53.05 Y-348.974 Z-7.828
G1 X-53.107 Y-348.762 Z-7.836
G1 X-53.147 Y-348.546 Z-7.844
G1 X-53.172 Y-348.328 Z-7.851
G1 X-53.18 Y-348.108 Z-7.859
G1 X-53.173 Y-347.889 Z-7.867
G1 X-53.15 Y-347.67 Z-7.874
G1 X-53.111 Y-347.454 Z-7.882
G1 X-53.056 Y-347.242 Z-7.89
G1 X-52.986 Y-347.034 Z-7.897
G1 X-52.901 Y-346.831 Z-7.905
G1 X-52.802 Y-346.635 Z-7.913
G1 X-52.688 Y-346.447 Z-7.92
G1 X-52.562 Y-346.268 Z-7.928
G1 X-52.422 Y-346.098 Z-7.936
G1 X-52.271 Y-345.94 Z-7.943
G1 X-52.108 Y-345.792 Z-7.951
G1 X-51.935 Y-345.657 Z-7.959
G1 X-51.753 Y-345.534 Z-7.966
G1 X-51.562 Y-345.426 Z-7.974
G1 X-51.364 Y-345.331 Z-7.982
G1 X-51.159 Y-345.251 Z-7.989
G1 X-50.949 Y-345.186 Z-7.997
G1 X-50.736 Y-345.137 Z-8.005
G1 X-50.519 Y-345.103 Z-8.012
G1 X-50.3 Y-345.085 Z-8.02
G1 X-50.08 Y-345.083 Z-8.028
G1 X-49.861 Y-345.097 Z-8.035
G1 X-49.643 Y-345.127 Z-8.043
G1 X-49.429 Y-345.173 Z-8.051
G1 X-49.218 Y-345.234 Z-8.058
G1 X-49.012 Y-345.311 Z-8.066
G1 X-48.812 Y-345.402 Z-8.074
G1 X-48.62 Y-345.507 Z-8.081
G1 X-48.435 Y-345.627 Z-8.089
G1 X-48.26 Y-345.759 Z-8.097
G1 X-48.095 Y-345.904 Z-8.104
G1 X-47.941 Y-346.06 Z-8.112
G1 X-47.798 Y-346.227 Z-8.12
G1 X-47.669 Y-346.404 Z-8.127
G1 X-47.552 Y-346.59 Z-8.135
G1 X-47.449 Y-346.784 Z-8.143
G1 X-47.361 Y-346.985 Z-8.15
G1 X-47.287 Y-347.192 Z-8.158
G1 X-47.229 Y-347.404 Z-8.166
G1 X-47.186 Y-347.619 Z-8.173
G1 X-47.159 Y-347.837 Z-8.181
G1 X-47.148 Y-348.057 Z-8.189
G1 X-47.153 Y-348.276 Z-8.196
G1 X-47.174 Y-348.495 Z-8.204
G1 X-47.211 Y-348.711 Z-8.212
G1 X-47.263 Y-348.924 Z-8.219
G1 X-47.331 Y-349.133 Z-8.227
G1 X-47.414 Y-349.337 Z-8.235
G1 X-47.511 Y-349.533 Z-8.242
G1 X-47.622 Y-349.723 Z-8.25
G1 X-47.747 Y-349.903 Z-8.258
G1 X-47.885 Y-350.074 Z-8.265
G1 X-48.035 Y-350.235 Z-8.273
G1 X-48.196 Y-350.384 Z-8.281
G1 X-48.367 Y-350.521 Z-8.288
G1 X-48.548 Y-350.645 Z-8.296
G1 X-48.738 Y-350.756 Z-8.304
G1 X-48.935 Y-350.853 Z-8.311
G1 X-49.139 Y-350.935 Z-8.319
G1 X-49.348 Y-351.002 Z-8.327
G1 X-49.561 Y-351.054 Z-8.334
G1 X-49.778 Y-351.09 Z-8.342
G1 X-49.996 Y-351.11 Z-8.35
G1 X-50.216 Y-351.114 Z-8.357
G1 X-50.435 Y-351.102 Z-8.365
G1 X-50.653 Y-351.075 Z-8.373
G1 X-50.868 Y-351.031 Z-8.38
G1 X-51.08 Y-350.972 Z-8.388
G1 X-51.286 Y-350.898 Z-8.396
G1 X-51.487 Y-350.809 Z-8.403
G1 X-51.681 Y-350.706 Z-8.411
G1 X-51.866 Y-350.588 Z-8.419
G1 X-52.043 Y-350.458 Z-8.426
G1 X-52.21 Y-350.315 Z-8.434
G1 X-52.366 Y-350.16 Z-8.442
G1 X-52.51 Y-349.995 Z-8.449
G1 X-52.641 Y-349.819 Z-8.457
G1 X-52.76 Y-349.634 Z-8.465
G1 X-52.865 Y-349.441 Z-8.472
G1 X-52.955 Y-349.241 Z-8.48
G1 X-53.031 Y-349.035 Z-8.488
G1 X-53.092 Y-348.824 Z-8.495
G1 X-53.137 Y-348.609 Z-8.503
G1 X-53.166 Y-348.391 Z-8.511
G1 X-53.179 Y-348.172 Z-8.518
G1 X-53.177 Y-347.953 Z-8.526
G1 X-53.158 Y-347.734 Z-8.534
G1 X-53.124 Y-347.517 Z-8.541
G1 X-53.074 Y-347.303 Z-8.549
G1 X-53.008 Y-347.094 Z-8.557
G1 X-52.927 Y-346.89 Z-8.565
G1 X-52.832 Y-346.692 Z-8.572
G1 X-52.723 Y-346.501 Z-8.58
G1 X-52.6 Y-346.319 Z-8.588
G1 X-52.464 Y-346.147 Z-8.595
G1 X-52.316 Y-345.985 Z-8.603
G1 X-52.156 Y-345.834 Z-8.611
G1 X-51.986 Y-345.695 Z-8.618
G1 X-51.807 Y-345.569 Z-8.626
G1 X-51.618 Y-345.456 Z-8.634
G1 X-51.422 Y-345.357 Z-8.641
G1 X-51.22 Y-345.273 Z-8.649
G1 X-51.011 Y-345.204 Z-8.657
G1 X-50.798 Y-345.15 Z-8.664
G1 X-50.582 Y-345.111 Z-8.672
G1 X-50.364 Y-345.089 Z-8.68
G1 X-50.144 Y-345.082 Z-8.687
G1 X-49.925 Y-345.092 Z-8.695
G1 X-49.707 Y-345.117 Z-8.703
G1 X-49.491 Y-345.158 Z-8.71
G1 X-49.279 Y-345.215 Z-8.718
G1 X-49.072 Y-345.287 Z-8.726
G1 X-48.87 Y-345.374 Z-8.733
G1 X-48.675 Y-345.475 Z-8.741
G1 X-48.488 Y-345.591 Z-8.749
G1 X-48.31 Y-345.719 Z-8.756
G1 X-48.142 Y-345.86 Z-8.764
G1 X-47.985 Y-346.013 Z-8.772
G1 X-47.839 Y-346.177 Z-8.779
G1 X-47.705 Y-346.352 Z-8.787
G1 X-47.585 Y-346.535 Z-8.795
G1 X-47.478 Y-346.727 Z-8.802
G1 X-47.385 Y-346.926 Z-8.81
G1 X-47.307 Y-347.131 Z-8.818
G1 X-47.244 Y-347.342 Z-8.825
G1 X-47.197 Y-347.556 Z-8.833
G1 X-47.165 Y-347.773 Z-8.841
G1 X-47.15 Y-347.992 Z-8.848
G1 Y-348.212 Z-8.856
G1 X-47.166 Y-348.431 Z-8.864
G1 X-47.198 Y-348.648 Z-8.871
G1 X-47.246 Y-348.862 Z-8.879
G1 X-47.31 Y-349.073 Z-8.887
G1 X-47.388 Y-349.278 Z-8.894
G1 X-47.481 Y-349.477 Z-8.902
G1 X-47.589 Y-349.668 Z-8.91
G1 X-47.71 Y-349.851 Z-8.917
G1 X-47.844 Y-350.025 Z-8.925
G1 X-47.99 Y-350.189 Z-8.933
G1 X-48.148 Y-350.342 Z-8.94
G1 X-48.316 Y-350.482 Z-8.948
G1 X-48.495 Y-350.611 Z-8.956
G1 X-48.682 Y-350.725 Z-8.963
G1 X-48.877 Y-350.826 Z-8.971
G1 X-49.079 Y-350.913 Z-8.979
G1 X-49.286 Y-350.984 Z-8.986
G1 X-49.499 Y-351.04 Z-8.994
G1 X-49.714 Y-351.081 Z-9.002
G1 X-49.932 Y-351.106 Z-9.009
G1 X-50.152 Y-351.115 Z-9.017
G1 X-50.18
G1 X-50.181
G1 X-50.218 Y-351.107
G1 X-50.25 Y-351.086
G1 X-50.271 Y-351.055
G1 X-50.279 Y-351.017
G1 X-50.614 Y-269.11
G1 X-50.608 Y-269.071
G1 X-50.59 Y-269.036
G1 X-50.562 Y-269.008
G1 X-50.527 Y-268.99
G1 X-50.489 Y-268.984
G1 X-50.488
G1 X-50.449 Y-268.99
G1 X-50.414 Y-269.008
G1 X-50.386 Y-269.035
G1 X-50.368 Y-269.07
G1 X-50.362 Y-269.109
G1 X-50.026 Y-351.016
G1 Y-351.017
G1 X-50.033 Y-351.054
G1 X-50.055 Y-351.086
G1 X-50.086 Y-351.107
G1 X-50.123 Y-351.115
G1 X-50.152
G3 X-52.711 Y-352.449 I0.013 J-3.146
G2 X-54.822 Y-352.814 I-1.238 J0.873
G2 X-55.464 Y-351.582 I0.873 J1.238
G1 X-55.816 Y-265.699
G3 X-56.932 Y-263.073 I-3.683 J-0.015
G2 X-56.938 Y-262.625 I0.221 J0.227
G2 X-56.712 Y-262.529 I0.227 J-0.221
G2 X-56.486 Y-262.624 I0.001 J-0.317
G3 X-53.85 Y-263.718 I2.62 J2.589
G1 X-47.17 Y-263.69
G3 X-44.545 Y-262.575 I-0.015 J3.683
G2 X-44.096 Y-262.568 I0.227 J-0.221
G2 X-44 Y-262.794 I-0.221 J-0.227
G2 X-44.094 Y-263.021 I-0.317 J-0.001
G3 X-45.188 Y-265.656 I2.589 J-2.62
G1 X-44.824 Y-354.307
G3 X-43.709 Y-356.933 I3.683 J0.015
G2 X-43.702 Y-357.381 I-0.221 J-0.227
G2 X-43.928 Y-357.477 I-0.227 J0.221
G2 X-44.155 Y-357.383 I-0.001 J0.317
G3 X-46.79 Y-356.289 I-2.619 J-2.589
G1 X-53.471 Y-356.316
G3 X-56.097 Y-357.432 I0.015 J-3.683
G2 X-56.545 Y-357.438 I-0.227 J0.221
G2 X-56.641 Y-357.212 I0.221 J0.227
G2 X-56.547 Y-356.986 I0.317 J0.001
G3 X-55.453 Y-354.351 I-2.589 J2.62
G1 X-55.464 Y-351.582
G0 Z6.096
G0 X-119.284 Y-232.098
G1 Z3.556 F508.
G1 X-119.274 Y-232.317 Z3.548
G1 X-119.28 Y-232.537 Z3.541
G1 X-119.302 Y-232.755 Z3.533
G1 X-119.339 Y-232.971 Z3.525
G1 X-119.392 Y-233.184 Z3.518
G1 X-119.461 Y-233.393 Z3.51
G1 X-119.544 Y-233.596 Z3.502
G1 X-119.642 Y-233.792 Z3.495
G1 X-119.755 Y-233.981 Z3.487
G1 X-119.88 Y-234.161 Z3.479
G1 X-120.018 Y-234.331 Z3.472
G1 X-120.169 Y-234.491 Z3.464
G1 X-120.33 Y-234.64 Z3.456
G1 X-120.502 Y-234.776 Z3.449
G1 X-120.683 Y-234.9 Z3.441
G1 X-120.873 Y-235.01 Z3.433
G1 X-121.071 Y-235.106 Z3.426
G1 X-121.275 Y-235.187 Z3.418
G1 X-121.484 Y-235.253 Z3.41
G1 X-121.697 Y-235.304 Z3.403
G1 X-121.914 Y-235.34 Z3.395
G1 X-122.132 Y-235.359 Z3.387
G1 X-122.352 Y-235.363 Z3.38
G1 X-122.571 Y-235.35 Z3.372
G1 X-122.789 Y-235.322 Z3.364
G1 X-123.004 Y-235.278 Z3.357
G1 X-123.215 Y-235.218 Z3.349
G1 X-123.421 Y-235.143 Z3.341
G1 X-123.622 Y-235.053 Z3.334
G1 X-123.815 Y-234.949 Z3.326
G1 X-124 Y-234.832 Z3.318
G1 X-124.176 Y-234.701 Z3.311
G1 X-124.342 Y-234.557 Z3.303
G1 X-124.498 Y-234.402 Z3.295
G1 X-124.641 Y-234.236 Z3.288
G1 X-124.772 Y-234.06 Z3.28
G1 X-124.89 Y-233.875 Z3.272
G1 X-124.995 Y-233.682 Z3.265
G1 X-125.085 Y-233.482 Z3.257
G1 X-125.16 Y-233.276 Z3.249
G1 X-125.22 Y-233.065 Z3.242
G1 X-125.264 Y-232.85 Z3.234
G1 X-125.293 Y-232.632 Z3.226
G1 X-125.306 Y-232.413 Z3.219
G1 X-125.302 Y-232.193 Z3.211
G1 X-125.283 Y-231.975 Z3.203
G1 X-125.248 Y-231.758 Z3.196
G1 X-125.198 Y-231.545 Z3.188
G1 X-125.132 Y-231.335 Z3.18
G1 X-125.051 Y-231.131 Z3.173
G1 X-124.955 Y-230.934 Z3.165
G1 X-124.845 Y-230.744 Z3.157
G1 X-124.722 Y-230.562 Z3.15
G1 X-124.585 Y-230.39 Z3.142
G1 X-124.437 Y-230.228 Z3.134
G1 X-124.277 Y-230.078 Z3.127
G1 X-124.107 Y-229.939 Z3.119
G1 X-123.927 Y-229.814 Z3.111
G1 X-123.739 Y-229.701 Z3.104
G1 X-123.543 Y-229.603 Z3.096
G1 X-123.34 Y-229.519 Z3.088
G1 X-123.131 Y-229.45 Z3.081
G1 X-122.918 Y-229.397 Z3.073
G1 X-122.702 Y-229.359 Z3.065
G1 X-122.484 Y-229.337 Z3.058
G1 X-122.264 Y-229.331 Z3.05
G1 X-122.045 Y-229.341 Z3.042
G1 X-121.827 Y-229.366 Z3.035
G1 X-121.612 Y-229.408 Z3.027
G1 X-121.4 Y-229.465 Z3.019
G1 X-121.193 Y-229.537 Z3.012
G1 X-120.991 Y-229.625 Z3.004
G1 X-120.797 Y-229.726 Z2.996
G1 X-120.61 Y-229.842 Z2.989
G1 X-120.432 Y-229.971 Z2.981
G1 X-120.265 Y-230.112 Z2.973
G1 X-120.107 Y-230.265 Z2.966
G1 X-119.962 Y-230.429 Z2.958
G1 X-119.828 Y-230.604 Z2.95
G1 X-119.708 Y-230.787 Z2.943
G1 X-119.602 Y-230.979 Z2.935
G1 X-119.509 Y-231.178 Z2.927
G1 X-119.432 Y-231.384 Z2.92
G1 X-119.369 Y-231.594 Z2.912
G1 X-119.322 Y-231.809 Z2.904
G1 X-119.291 Y-232.026 Z2.897
G1 X-119.276 Y-232.245 Z2.889
G1 Y-232.464 Z2.881
G1 X-119.293 Y-232.683 Z2.874
G1 X-119.325 Y-232.9 Z2.866
G1 X-119.373 Y-233.114 Z2.858
G1 X-119.437 Y-233.324 Z2.851
G1 X-119.515 Y-233.529 Z2.843
G1 X-119.609 Y-233.728 Z2.835
G1 X-119.716 Y-233.919 Z2.828
G1 X-119.837 Y-234.102 Z2.82
G1 X-119.971 Y-234.276 Z2.812
G1 X-120.118 Y-234.439 Z2.805
G1 X-120.276 Y-234.592 Z2.797
G1 X-120.444 Y-234.732 Z2.789
G1 X-120.623 Y-234.86 Z2.782
G1 X-120.81 Y-234.975 Z2.774
G1 X-121.005 Y-235.076 Z2.766
G1 X-121.207 Y-235.162 Z2.759
G1 X-121.414 Y-235.233 Z2.751
G1 X-121.626 Y-235.289 Z2.743
G1 X-121.842 Y-235.33 Z2.736
G1 X-122.06 Y-235.354 Z2.728
G1 X-122.279 Y-235.363 Z2.72
G1 X-122.499 Y-235.356 Z2.713
G1 X-122.717 Y-235.333 Z2.705
G1 X-122.933 Y-235.294 Z2.697
G1 X-123.146 Y-235.239 Z2.69
G1 X-123.354 Y-235.169 Z2.682
G1 X-123.556 Y-235.085 Z2.674
G1 X-123.752 Y-234.985 Z2.667
G1 X-123.94 Y-234.872 Z2.659
G1 X-124.119 Y-234.745 Z2.651
G1 X-124.289 Y-234.606 Z2.644
G1 X-124.448 Y-234.455 Z2.636
G1 X-124.595 Y-234.292 Z2.628
G1 X-124.731 Y-234.119 Z2.621
G1 X-124.853 Y-233.937 Z2.613
G1 X-124.962 Y-233.747 Z2.605
G1 X-125.057 Y-233.549 Z2.598
G1 X-125.137 Y-233.344 Z2.59
G1 X-125.202 Y-233.135 Z2.582
G1 X-125.251 Y-232.921 Z2.575
G1 X-125.285 Y-232.704 Z2.567
G1 X-125.303 Y-232.485 Z2.559
G1 X-125.305 Y-232.266 Z2.552
G1 X-125.291 Y-232.047 Z2.544
G1 X-125.262 Y-231.829 Z2.536
G1 X-125.216 Y-231.615 Z2.529
G1 X-125.155 Y-231.404 Z2.521
G1 X-125.079 Y-231.198 Z2.513
G1 X-124.988 Y-230.998 Z2.506
G1 X-124.883 Y-230.806 Z2.498
G1 X-124.764 Y-230.621 Z2.49
G1 X-124.632 Y-230.446 Z2.483
G1 X-124.487 Y-230.281 Z2.475
G1 X-124.331 Y-230.126 Z2.467
G1 X-124.164 Y-229.984 Z2.46
G1 X-123.988 Y-229.854 Z2.452
G1 X-123.802 Y-229.737 Z2.444
G1 X-123.608 Y-229.634 Z2.437
G1 X-123.407 Y-229.545 Z2.429
G1 X-123.201 Y-229.471 Z2.421
G1 X-122.989 Y-229.413 Z2.414
G1 X-122.774 Y-229.37 Z2.406
G1 X-122.556 Y-229.342 Z2.398
G1 X-122.337 Y-229.331 Z2.391
G1 X-122.118 Y-229.336 Z2.383
G1 X-121.899 Y-229.356 Z2.375
G1 X-121.683 Y-229.392 Z2.368
G1 X-121.469 Y-229.444 Z2.36
G1 X-121.26 Y-229.512 Z2.352
G1 X-121.057 Y-229.594 Z2.345
G1 X-120.86 Y-229.691 Z2.337
G1 X-120.671 Y-229.802 Z2.329
G1 X-120.49 Y-229.927 Z2.322
G1 X-120.319 Y-230.064 Z2.314
G1 X-120.158 Y-230.213 Z2.306
G1 X-120.009 Y-230.374 Z2.299
G1 X-119.871 Y-230.545 Z2.291
G1 X-119.746 Y-230.726 Z2.283
G1 X-119.635 Y-230.915 Z2.276
G1 X-119.538 Y-231.112 Z2.268
G1 X-119.456 Y-231.315 Z2.26
G1 X-119.388 Y-231.524 Z2.253
G1 X-119.336 Y-231.737 Z2.245
G1 X-119.3 Y-231.954 Z2.237
G1 X-119.279 Y-232.172 Z2.23
G1 X-119.274 Y-232.392 Z2.222
G1 X-119.285 Y-232.611 Z2.214
G1 X-119.313 Y-232.829 Z2.207
G1 X-119.355 Y-233.044 Z2.199
G1 X-119.414 Y-233.255 Z2.191
G1 X-119.488 Y-233.462 Z2.184
G1 X-119.576 Y-233.663 Z2.176
G1 X-119.679 Y-233.857 Z2.168
G1 X-119.796 Y-234.043 Z2.161
G1 X-119.926 Y-234.22 Z2.153
G1 X-120.068 Y-234.387 Z2.145
G1 X-120.222 Y-234.543 Z2.138
G1 X-120.387 Y-234.687 Z2.13
G1 X-120.563 Y-234.82 Z2.122
G1 X-120.747 Y-234.939 Z2.115
G1 X-120.94 Y-235.044 Z2.107
G1 X-121.139 Y-235.135 Z2.099
G1 X-121.345 Y-235.211 Z2.092
G1 X-121.556 Y-235.272 Z2.084
G1 X-121.771 Y-235.318 Z2.076
G1 X-121.988 Y-235.348 Z2.069
G1 X-122.207 Y-235.362 Z2.061
G1 X-122.426 Y-235.36 Z2.053
G1 X-122.645 Y-235.342 Z2.046
G1 X-122.862 Y-235.308 Z2.038
G1 X-123.076 Y-235.259 Z2.03
G1 X-123.286 Y-235.194 Z2.023
G1 X-123.49 Y-235.114 Z2.015
G1 X-123.688 Y-235.02 Z2.007
G1 X-123.879 Y-234.911 Z2
G1 X-124.061 Y-234.789 Z1.992
G1 X-124.234 Y-234.653 Z1.984
G1 X-124.396 Y-234.506 Z1.977
G1 X-124.548 Y-234.347 Z1.969
G1 X-124.687 Y-234.178 Z1.961
G1 X-124.814 Y-233.998 Z1.954
G1 X-124.927 Y-233.811 Z1.946
G1 X-125.027 Y-233.615 Z1.938
G1 X-125.112 Y-233.412 Z1.931
G1 X-125.182 Y-233.204 Z1.923
G1 X-125.237 Y-232.992 Z1.915
G1 X-125.276 Y-232.776 Z1.908
G1 X-125.299 Y-232.558 Z1.9
G1 X-125.306 Y-232.338 Z1.892
G1 X-125.298 Y-232.119 Z1.885
G1 X-125.273 Y-231.901 Z1.877
G1 X-125.233 Y-231.685 Z1.869
G1 X-125.177 Y-231.473 Z1.862
G1 X-125.106 Y-231.265 Z1.854
G1 X-125.02 Y-231.063 Z1.846
G1 X-124.919 Y-230.868 Z1.839
G1 X-124.805 Y-230.681 Z1.831
G1 X-124.677 Y-230.503 Z1.823
G1 X-124.536 Y-230.334 Z1.816
G1 X-124.384 Y-230.176 Z1.808
G1 X-124.221 Y-230.029 Z1.8
G1 X-124.047 Y-229.895 Z1.793
G1 X-123.864 Y-229.774 Z1.785
G1 X-123.673 Y-229.666 Z1.777
G1 X-123.474 Y-229.573 Z1.77
G1 X-123.269 Y-229.494 Z1.762
G1 X-123.059 Y-229.43 Z1.754
G1 X-122.845 Y-229.382 Z1.747
G1 X-122.628 Y-229.35 Z1.739
G1 X-122.409 Y-229.333 Z1.731
G1 X-122.19 Y-229.332 Z1.724
G1 X-121.971 Y-229.348 Z1.716
G1 X-121.754 Y-229.379 Z1.708
G1 X-121.539 Y-229.426 Z1.701
G1 X-121.329 Y-229.488 Z1.693
G1 X-121.123 Y-229.565 Z1.685
G1 X-120.924 Y-229.658 Z1.678
G1 X-120.732 Y-229.764 Z1.67
G1 X-120.549 Y-229.884 Z1.662
G1 X-120.374 Y-230.017 Z1.655
G1 X-120.21 Y-230.163 Z1.647
G1 X-120.057 Y-230.32 Z1.64
G1 X-119.915 Y-230.488 Z1.632
G1 X-119.786 Y-230.665 Z1.624
G1 X-119.67 Y-230.852 Z1.617
G1 X-119.569 Y-231.046 Z1.609
G1 X-119.481 Y-231.248 Z1.601
G1 X-119.409 Y-231.455 Z1.594
G1 X-119.352 Y-231.667 Z1.586
G1 X-119.31 Y-231.882 Z1.578
G1 X-119.284 Y-232.1 Z1.571
G1 X-119.274 Y-232.319 Z1.563
G1 X-119.28 Y-232.539 Z1.555
G1 X-119.302 Y-232.757 Z1.548
G1 X-119.34 Y-232.973 Z1.54
G1 X-119.393 Y-233.186 Z1.532
G1 X-119.462 Y-233.395 Z1.525
G1 X-119.545 Y-233.597 Z1.517
G1 X-119.643 Y-233.794 Z1.509
G1 X-119.756 Y-233.982 Z1.502
G1 X-119.881 Y-234.162 Z1.494
G1 X-120.02 Y-234.333 Z1.486
G1 X-120.17 Y-234.493 Z1.479
G1 X-120.332 Y-234.641 Z1.471
G1 X-120.504 Y-234.777 Z1.463
G1 X-120.685 Y-234.901 Z1.456
G1 X-120.875 Y-235.011 Z1.448
G1 X-121.073 Y-235.107 Z1.44
G1 X-121.277 Y-235.188 Z1.433
G1 X-121.486 Y-235.254 Z1.425
G1 X-121.699 Y-235.305 Z1.417
G1 X-121.916 Y-235.34 Z1.41
G1 X-122.135 Y-235.359 Z1.402
G1 X-122.354 Y-235.362 Z1.394
G1 X-122.573 Y-235.35 Z1.387
G1 X-122.791 Y-235.321 Z1.379
G1 X-123.006 Y-235.277 Z1.371
G1 X-123.217 Y-235.217 Z1.364
G1 X-123.423 Y-235.142 Z1.356
G1 X-123.623 Y-235.052 Z1.348
G1 X-123.817 Y-234.948 Z1.341
G1 X-124.002 Y-234.83 Z1.333
G1 X-124.178 Y-234.699 Z1.325
G1 X-124.344 Y-234.556 Z1.318
G1 X-124.499 Y-234.401 Z1.31
G1 X-124.643 Y-234.235 Z1.302
G1 X-124.774 Y-234.059 Z1.295
G1 X-124.892 Y-233.873 Z1.287
G1 X-124.996 Y-233.68 Z1.279
G1 X-125.085 Y-233.48 Z1.272
G1 X-125.16 Y-233.274 Z1.264
G1 X-125.22 Y-233.063 Z1.256
G1 X-125.264 Y-232.848 Z1.249
G1 X-125.293 Y-232.63 Z1.241
G1 X-125.306 Y-232.411 Z1.233
G1 X-125.302 Y-232.191 Z1.226
G1 X-125.283 Y-231.973 Z1.218
G1 X-125.248 Y-231.756 Z1.21
G1 X-125.197 Y-231.543 Z1.203
G1 X-125.131 Y-231.333 Z1.195
G1 X-125.05 Y-231.129 Z1.187
G1 X-124.954 Y-230.932 Z1.18
G1 X-124.844 Y-230.742 Z1.172
G1 X-124.72 Y-230.561 Z1.164
G1 X-124.584 Y-230.389 Z1.157
G1 X-124.436 Y-230.227 Z1.149
G1 X-124.276 Y-230.077 Z1.141
G1 X-124.105 Y-229.938 Z1.134
G1 X-123.925 Y-229.813 Z1.126
G1 X-123.737 Y-229.7 Z1.118
G1 X-123.541 Y-229.602 Z1.111
G1 X-123.338 Y-229.518 Z1.103
G1 X-123.129 Y-229.45 Z1.095
G1 X-122.916 Y-229.396 Z1.088
G1 X-122.7 Y-229.359 Z1.08
G1 X-122.482 Y-229.337 Z1.072
G1 X-122.262 Y-229.331 Z1.065
G1 X-122.043 Y-229.341 Z1.057
G1 X-121.825 Y-229.367 Z1.049
G1 X-121.61 Y-229.408 Z1.042
G1 X-121.398 Y-229.466 Z1.034
G1 X-121.191 Y-229.538 Z1.026
G1 X-120.989 Y-229.626 Z1.019
G1 X-120.795 Y-229.727 Z1.011
G1 X-120.608 Y-229.843 Z1.003
G1 X-120.431 Y-229.972 Z0.996
G1 X-120.263 Y-230.113 Z0.988
G1 X-120.106 Y-230.267 Z0.98
G1 X-119.96 Y-230.431 Z0.973
G1 X-119.827 Y-230.606 Z0.965
G1 X-119.707 Y-230.789 Z0.957
G1 X-119.601 Y-230.981 Z0.95
G1 X-119.509 Y-231.18 Z0.942
G1 X-119.431 Y-231.386 Z0.934
G1 X-119.369 Y-231.596 Z0.927
G1 X-119.322 Y-231.811 Z0.919
G1 X-119.291 Y-232.028 Z0.911
G1 X-119.275 Y-232.247 Z0.904
G1 X-119.276 Y-232.466 Z0.896
G1 X-119.293 Y-232.685 Z0.888
G1 X-119.325 Y-232.902 Z0.881
G1 X-119.374 Y-233.116 Z0.873
G1 X-119.437 Y-233.326 Z0.865
G1 X-119.516 Y-233.531 Z0.858
G1 X-119.609 Y-233.73 Z0.85
G1 X-119.717 Y-233.921 Z0.842
G1 X-119.838 Y-234.104 Z0.835
G1 X-119.973 Y-234.278 Z0.827
G1 X-120.119 Y-234.441 Z0.819
G1 X-120.277 Y-234.593 Z0.812
G1 X-120.446 Y-234.734 Z0.804
G1 X-120.624 Y-234.861 Z0.796
G1 X-120.812 Y-234.976 Z0.789
G1 X-121.007 Y-235.077 Z0.781
G1 X-121.209 Y-235.163 Z0.773
G1 X-121.416 Y-235.234 Z0.766
G1 X-121.628 Y-235.29 Z0.758
G1 X-121.844 Y-235.33 Z0.75
G1 X-122.062 Y-235.355 Z0.743
G1 X-122.282 Y-235.363 Z0.735
G1 X-122.501 Y-235.356 Z0.727
G1 X-122.719 Y-235.332 Z0.72
G1 X-122.935 Y-235.293 Z0.712
G1 X-123.148 Y-235.239 Z0.704
G1 X-123.356 Y-235.169 Z0.697
G1 X-123.558 Y-235.084 Z0.689
G1 X-123.754 Y-234.984 Z0.681
G1 X-123.942 Y-234.871 Z0.674
G1 X-124.121 Y-234.744 Z0.666
G1 X-124.29 Y-234.605 Z0.658
G1 X-124.449 Y-234.453 Z0.651
G1 X-124.597 Y-234.291 Z0.643
G1 X-124.732 Y-234.118 Z0.635
G1 X-124.854 Y-233.936 Z0.628
G1 X-124.963 Y-233.745 Z0.62
G1 X-125.057 Y-233.547 Z0.612
G1 X-125.137 Y-233.342 Z0.605
G1 X-125.202 Y-233.133 Z0.597
G1 X-125.252 Y-232.919 Z0.589
G1 X-125.285 Y-232.702 Z0.582
G1 X-125.303 Y-232.483 Z0.574
G1 X-125.305 Y-232.264 Z0.566
G1 X-125.291 Y-232.045 Z0.559
G1 X-125.261 Y-231.827 Z0.551
G1 X-125.216 Y-231.613 Z0.543
G1 X-125.154 Y-231.402 Z0.536
G1 X-125.078 Y-231.196 Z0.528
G1 X-124.987 Y-230.996 Z0.52
G1 X-124.882 Y-230.804 Z0.513
G1 X-124.763 Y-230.619 Z0.505
G1 X-124.631 Y-230.444 Z0.497
G1 X-124.486 Y-230.279 Z0.49
G1 X-124.33 Y-230.125 Z0.482
G1 X-124.163 Y-229.982 Z0.474
G1 X-123.986 Y-229.853 Z0.467
G1 X-123.8 Y-229.736 Z0.459
G1 X-123.606 Y-229.633 Z0.451
G1 X-123.405 Y-229.544 Z0.444
G1 X-123.199 Y-229.471 Z0.436
G1 X-122.987 Y-229.412 Z0.428
G1 X-122.772 Y-229.369 Z0.421
G1 X-122.554 Y-229.342 Z0.413
G1 X-122.335 Y-229.331 Z0.405
G1 X-122.115 Y-229.336 Z0.398
G1 X-121.897 Y-229.356 Z0.39
G1 X-121.68 Y-229.393 Z0.382
G1 X-121.467 Y-229.445 Z0.375
G1 X-121.258 Y-229.513 Z0.367
G1 X-121.055 Y-229.595 Z0.359
G1 X-120.858 Y-229.692 Z0.352
G1 X-120.669 Y-229.803 Z0.344
G1 X-120.488 Y-229.928 Z0.336
G1 X-120.317 Y-230.065 Z0.329
G1 X-120.157 Y-230.215 Z0.321
G1 X-120.007 Y-230.376 Z0.313
G1 X-119.87 Y-230.547 Z0.306
G1 X-119.745 Y-230.728 Z0.298
G1 X-119.634 Y-230.917 Z0.29
G1 X-119.537 Y-231.114 Z0.283
G1 X-119.455 Y-231.317 Z0.275
G1 X-119.388 Y-231.526 Z0.267
G1 X-119.336 Y-231.739 Z0.26
G1 X-119.299 Y-231.956 Z0.252
G1 X-119.279 Y-232.174 Z0.244
G1 X-119.274 Y-232.394 Z0.237
G1 X-119.286 Y-232.613 Z0.229
G1 X-119.313 Y-232.831 Z0.221
G1 X-119.356 Y-233.046 Z0.214
G1 X-119.415 Y-233.257 Z0.206
G1 X-119.488 Y-233.464 Z0.198
G1 X-119.577 Y-233.665 Z0.191
G1 X-119.68 Y-233.859 Z0.183
G1 X-119.797 Y-234.045 Z0.175
G1 X-119.927 Y-234.221 Z0.168
G1 X-120.07 Y-234.388 Z0.16
G1 X-120.224 Y-234.544 Z0.152
G1 X-120.389 Y-234.689 Z0.145
G1 X-120.564 Y-234.821 Z0.137
G1 X-120.749 Y-234.94 Z0.129
G1 X-120.941 Y-235.045 Z0.122
G1 X-121.141 Y-235.136 Z0.114
G1 X-121.347 Y-235.212 Z0.106
G1 X-121.558 Y-235.273 Z0.099
G1 X-121.773 Y-235.318 Z0.091
G1 X-121.99 Y-235.348 Z0.083
G1 X-122.209 Y-235.362 Z0.076
G1 X-122.429 Y-235.36 Z0.068
G1 X-122.647 Y-235.342 Z0.06
G1 X-122.864 Y-235.308 Z0.053
G1 X-123.078 Y-235.258 Z0.045
G1 X-123.288 Y-235.193 Z0.037
G1 X-123.492 Y-235.113 Z0.03
G1 X-123.69 Y-235.019 Z0.022
G1 X-123.88 Y-234.91 Z0.014
G1 X-124.063 Y-234.787 Z0.007
G1 X-124.235 Y-234.652 Z-0.001
G1 X-124.398 Y-234.504 Z-0.009
G1 X-124.549 Y-234.345 Z-0.016
G1 X-124.689 Y-234.176 Z-0.024
G1 X-124.815 Y-233.997 Z-0.032
G1 X-124.928 Y-233.809 Z-0.039
G1 X-125.028 Y-233.613 Z-0.047
G1 X-125.113 Y-233.411 Z-0.055
G1 X-125.182 Y-233.202 Z-0.062
G1 X-125.237 Y-232.99 Z-0.07
G1 X-125.276 Y-232.774 Z-0.078
G1 X-125.299 Y-232.556 Z-0.085
G1 X-125.306 Y-232.336 Z-0.093
G1 X-125.298 Y-232.117 Z-0.101
G1 X-125.273 Y-231.899 Z-0.108
G1 X-125.232 Y-231.683 Z-0.116
G1 X-125.176 Y-231.471 Z-0.124
G1 X-125.105 Y-231.263 Z-0.131
G1 X-125.019 Y-231.062 Z-0.139
G1 X-124.918 Y-230.867 Z-0.147
G1 X-124.803 Y-230.679 Z-0.154
G1 X-124.676 Y-230.501 Z-0.162
G1 X-124.535 Y-230.332 Z-0.17
G1 X-124.383 Y-230.175 Z-0.177
G1 X-124.219 Y-230.028 Z-0.185
G1 X-124.045 Y-229.894 Z-0.193
G1 X-123.862 Y-229.773 Z-0.2
G1 X-123.671 Y-229.665 Z-0.208
G1 X-123.472 Y-229.572 Z-0.216
G1 X-123.267 Y-229.493 Z-0.223
G1 X-123.057 Y-229.43 Z-0.231
G1 X-122.843 Y-229.382 Z-0.239
G1 X-122.626 Y-229.349 Z-0.246
G1 X-122.407 Y-229.333 Z-0.254
G1 X-122.188 Y-229.332 Z-0.262
G1 X-121.969 Y-229.348 Z-0.269
G1 X-121.752 Y-229.379 Z-0.277
G1 X-121.537 Y-229.426 Z-0.285
G1 X-121.327 Y-229.489 Z-0.292
G1 X-121.122 Y-229.566 Z-0.3
G1 X-120.922 Y-229.659 Z-0.308
G1 X-120.731 Y-229.765 Z-0.315
G1 X-120.547 Y-229.885 Z-0.323
G1 X-120.373 Y-230.019 Z-0.331
G1 X-120.208 Y-230.164 Z-0.338
G1 X-120.055 Y-230.321 Z-0.346
G1 X-119.914 Y-230.489 Z-0.354
G1 X-119.785 Y-230.667 Z-0.361
G1 X-119.669 Y-230.854 Z-0.369
G1 X-119.568 Y-231.048 Z-0.377
G1 X-119.481 Y-231.249 Z-0.384
G1 X-119.408 Y-231.457 Z-0.392
G1 X-119.351 Y-231.669 Z-0.4
G1 X-119.31 Y-231.884 Z-0.407
G1 X-119.284 Y-232.102 Z-0.415
G1 X-119.274 Y-232.321 Z-0.423
G1 X-119.28 Y-232.541 Z-0.43
G1 X-119.302 Y-232.759 Z-0.438
G1 X-119.34 Y-232.975 Z-0.446
G1 X-119.394 Y-233.188 Z-0.453
G1 X-119.462 Y-233.397 Z-0.461
G1 X-119.546 Y-233.599 Z-0.469
G1 X-119.645 Y-233.796 Z-0.476
G1 X-119.757 Y-233.984 Z-0.484
G1 X-119.883 Y-234.164 Z-0.492
G1 X-120.021 Y-234.334 Z-0.499
G1 X-120.172 Y-234.494 Z-0.507
G1 X-120.333 Y-234.642 Z-0.515
G1 X-120.505 Y-234.779 Z-0.522
G1 X-120.687 Y-234.902 Z-0.53
G1 X-120.877 Y-235.012 Z-0.538
G1 X-121.075 Y-235.107 Z-0.545
G1 X-121.279 Y-235.188 Z-0.553
G1 X-121.488 Y-235.255 Z-0.561
G1 X-121.701 Y-235.305 Z-0.568
G1 X-121.918 Y-235.34 Z-0.576
G1 X-122.137 Y-235.359 Z-0.584
G1 X-122.356 Y-235.362 Z-0.591
G1 X-122.575 Y-235.35 Z-0.599
G1 X-122.793 Y-235.321 Z-0.607
G1 X-123.008 Y-235.277 Z-0.614
G1 X-123.219 Y-235.217 Z-0.622
G1 X-123.425 Y-235.141 Z-0.63
G1 X-123.625 Y-235.052 Z-0.637
G1 X-123.818 Y-234.947 Z-0.645
G1 X-124.004 Y-234.829 Z-0.653
G1 X-124.179 Y-234.698 Z-0.66
G1 X-124.345 Y-234.554 Z-0.668
G1 X-124.501 Y-234.399 Z-0.676
G1 X-124.644 Y-234.233 Z-0.683
G1 X-124.775 Y-234.057 Z-0.691
G1 X-124.893 Y-233.872 Z-0.699
G1 X-124.997 Y-233.678 Z-0.706
G1 X-125.086 Y-233.478 Z-0.714
G1 X-125.161 Y-233.272 Z-0.722
G1 X-125.221 Y-233.06 Z-0.729
G1 X-125.265 Y-232.845 Z-0.737
G1 X-125.293 Y-232.628 Z-0.745
G1 X-125.306 Y-232.409 Z-0.752
G1 X-125.302 Y-232.189 Z-0.76
G1 X-125.283 Y-231.971 Z-0.768
G1 X-125.247 Y-231.754 Z-0.775
G1 X-125.197 Y-231.541 Z-0.783
G1 X-125.13 Y-231.331 Z-0.791
G1 X-125.049 Y-231.128 Z-0.798
G1 X-124.953 Y-230.93 Z-0.806
G1 X-124.843 Y-230.74 Z-0.814
G1 X-124.719 Y-230.559 Z-0.821
G1 X-124.583 Y-230.387 Z-0.829
G1 X-124.434 Y-230.225 Z-0.837
G1 X-124.274 Y-230.075 Z-0.844
G1 X-124.104 Y-229.937 Z-0.852
G1 X-123.924 Y-229.811 Z-0.86
G1 X-123.735 Y-229.699 Z-0.867
G1 X-123.539 Y-229.601 Z-0.875
G1 X-123.336 Y-229.518 Z-0.883
G1 X-123.127 Y-229.449 Z-0.89
G1 X-122.914 Y-229.396 Z-0.898
G1 X-122.698 Y-229.358 Z-0.906
G1 X-122.48 Y-229.337 Z-0.913
G1 X-122.26 Y-229.331 Z-0.921
G1 X-122.041 Y-229.341 Z-0.929
G1 X-121.823 Y-229.367 Z-0.936
G1 X-121.608 Y-229.409 Z-0.944
G1 X-121.396 Y-229.466 Z-0.952
G1 X-121.189 Y-229.539 Z-0.959
G1 X-120.987 Y-229.626 Z-0.967
G1 X-120.793 Y-229.728 Z-0.975
G1 X-120.607 Y-229.844 Z-0.982
G1 X-120.429 Y-229.973 Z-0.99
G1 X-120.261 Y-230.115 Z-0.998
G1 X-120.104 Y-230.268 Z-1.005
G1 X-119.959 Y-230.433 Z-1.013
G1 X-119.826 Y-230.607 Z-1.021
G1 X-119.706 Y-230.791 Z-1.028
G1 X-119.6 Y-230.983 Z-1.036
G1 X-119.508 Y-231.182 Z-1.044
G1 X-119.43 Y-231.388 Z-1.051
G1 X-119.368 Y-231.598 Z-1.059
G1 X-119.322 Y-231.813 Z-1.067
G1 X-119.291 Y-232.03 Z-1.074
G1 X-119.275 Y-232.249 Z-1.082
G1 X-119.276 Y-232.468 Z-1.09
G1 X-119.293 Y-232.687 Z-1.097
G1 X-119.326 Y-232.904 Z-1.105
G1 X-119.374 Y-233.118 Z-1.113
G1 X-119.438 Y-233.328 Z-1.12
G1 X-119.517 Y-233.533 Z-1.128
G1 X-119.61 Y-233.732 Z-1.136
G1 X-119.718 Y-233.923 Z-1.143
G1 X-119.84 Y-234.106 Z-1.151
G1 X-119.974 Y-234.279 Z-1.159
G1 X-120.121 Y-234.442 Z-1.166
G1 X-120.279 Y-234.595 Z-1.174
G1 X-120.448 Y-234.735 Z-1.182
G1 X-120.626 Y-234.863 Z-1.189
G1 X-120.813 Y-234.977 Z-1.197
G1 X-121.009 Y-235.077 Z-1.205
G1 X-121.211 Y-235.163 Z-1.212
G1 X-121.418 Y-235.234 Z-1.22
G1 X-121.63 Y-235.29 Z-1.228
G1 X-121.846 Y-235.33 Z-1.235
G1 X-122.064 Y-235.355 Z-1.243
G1 X-122.284 Y-235.363 Z-1.251
G1 X-122.503 Y-235.356 Z-1.258
G1 X-122.721 Y-235.332 Z-1.266
G1 X-122.937 Y-235.293 Z-1.274
G1 X-123.15 Y-235.238 Z-1.281
G1 X-123.358 Y-235.168 Z-1.289
G1 X-123.56 Y-235.083 Z-1.297
G1 X-123.756 Y-234.983 Z-1.304
G1 X-123.943 Y-234.87 Z-1.312
G1 X-124.122 Y-234.743 Z-1.32
G1 X-124.292 Y-234.603 Z-1.327
G1 X-124.451 Y-234.452 Z-1.335
G1 X-124.598 Y-234.289 Z-1.343
G1 X-124.733 Y-234.116 Z-1.35
G1 X-124.855 Y-233.934 Z-1.358
G1 X-124.964 Y-233.743 Z-1.366
G1 X-125.058 Y-233.545 Z-1.373
G1 X-125.138 Y-233.34 Z-1.381
G1 X-125.203 Y-233.131 Z-1.389
G1 X-125.252 Y-232.917 Z-1.396
G1 X-125.286 Y-232.7 Z-1.404
G1 X-125.303 Y-232.481 Z-1.412
G1 X-125.305 Y-232.262 Z-1.419
G1 X-125.291 Y-232.043 Z-1.427
G1 X-125.261 Y-231.825 Z-1.435
G1 X-125.215 Y-231.611 Z-1.442
G1 X-125.154 Y-231.4 Z-1.45
G1 X-125.077 Y-231.194 Z-1.458
G1 X-124.986 Y-230.995 Z-1.465
G1 X-124.881 Y-230.802 Z-1.473
G1 X-124.761 Y-230.618 Z-1.481
G1 X-124.629 Y-230.443 Z-1.488
G1 X-124.485 Y-230.278 Z-1.496
G1 X-124.328 Y-230.123 Z-1.504
G1 X-124.161 Y-229.981 Z-1.511
G1 X-123.984 Y-229.851 Z-1.519
G1 X-123.798 Y-229.735 Z-1.527
G1 X-123.604 Y-229.632 Z-1.534
G1 X-123.403 Y-229.544 Z-1.542
G1 X-123.197 Y-229.47 Z-1.55
G1 X-122.985 Y-229.412 Z-1.557
G1 X-122.77 Y-229.369 Z-1.565
G1 X-122.552 Y-229.342 Z-1.573
G1 X-122.333 Y-229.331 Z-1.58
G1 X-122.113 Y-229.336 Z-1.588
G1 X-121.895 Y-229.357 Z-1.596
G1 X-121.678 Y-229.393 Z-1.603
G1 X-121.465 Y-229.446 Z-1.611
G1 X-121.256 Y-229.513 Z-1.619
G1 X-121.053 Y-229.596 Z-1.626
G1 X-120.856 Y-229.693 Z-1.634
G1 X-120.667 Y-229.804 Z-1.642
G1 X-120.487 Y-229.929 Z-1.649
G1 X-120.316 Y-230.067 Z-1.657
G1 X-120.155 Y-230.216 Z-1.665
G1 X-120.006 Y-230.377 Z-1.672
G1 X-119.869 Y-230.549 Z-1.68
G1 X-119.744 Y-230.729 Z-1.688
G1 X-119.633 Y-230.919 Z-1.695
G1 X-119.537 Y-231.116 Z-1.703
G1 X-119.454 Y-231.319 Z-1.711
G1 X-119.387 Y-231.528 Z-1.718
G1 X-119.335 Y-231.741 Z-1.726
G1 X-119.299 Y-231.958 Z-1.734
G1 X-119.279 Y-232.176 Z-1.741
G1 X-119.274 Y-232.396 Z-1.749
G1 X-119.286 Y-232.615 Z-1.757
G1 X-119.313 Y-232.833 Z-1.764
G1 X-119.356 Y-233.048 Z-1.772
G1 X-119.415 Y-233.259 Z-1.78
G1 X-119.489 Y-233.466 Z-1.787
G1 X-119.578 Y-233.667 Z-1.795
G1 X-119.681 Y-233.861 Z-1.803
G1 X-119.798 Y-234.046 Z-1.81
G1 X-119.928 Y-234.223 Z-1.818
G1 X-120.071 Y-234.39 Z-1.826
G1 X-120.225 Y-234.546 Z-1.833
G1 X-120.391 Y-234.69 Z-1.841
G1 X-120.566 Y-234.822 Z-1.849
G1 X-120.751 Y-234.941 Z-1.856
G1 X-120.943 Y-235.046 Z-1.864
G1 X-121.143 Y-235.137 Z-1.872
G1 X-121.349 Y-235.213 Z-1.879
G1 X-121.56 Y-235.273 Z-1.887
G1 X-121.775 Y-235.319 Z-1.895
G1 X-121.992 Y-235.348 Z-1.902
G1 X-122.211 Y-235.362 Z-1.91
G1 X-122.431 Y-235.36 Z-1.918
G1 X-122.649 Y-235.342 Z-1.925
G1 X-122.866 Y-235.308 Z-1.933
G1 X-123.08 Y-235.258 Z-1.941
G1 X-123.29 Y-235.193 Z-1.948
G1 X-123.494 Y-235.113 Z-1.956
G1 X-123.692 Y-235.018 Z-1.964
G1 X-123.882 Y-234.909 Z-1.971
G1 X-124.064 Y-234.786 Z-1.979
G1 X-124.237 Y-234.651 Z-1.987
G1 X-124.399 Y-234.503 Z-1.994
G1 X-124.551 Y-234.344 Z-2.002
G1 X-124.69 Y-234.174 Z-2.01
G1 X-124.816 Y-233.995 Z-2.017
G1 X-124.929 Y-233.807 Z-2.025
G1 X-125.029 Y-233.611 Z-2.033
G1 X-125.113 Y-233.409 Z-2.04
G1 X-125.183 Y-233.2 Z-2.048
G1 X-125.237 Y-232.988 Z-2.056
G1 X-125.276 Y-232.772 Z-2.063
G1 X-125.299 Y-232.554 Z-2.071
G1 X-125.306 Y-232.334 Z-2.079
G1 X-125.297 Y-232.115 Z-2.086
G1 X-125.273 Y-231.897 Z-2.094
G1 X-125.232 Y-231.681 Z-2.102
G1 X-125.176 Y-231.469 Z-2.109
G1 X-125.104 Y-231.261 Z-2.117
G1 X-125.018 Y-231.06 Z-2.125
G1 X-124.917 Y-230.865 Z-2.132
G1 X-124.802 Y-230.678 Z-2.14
G1 X-124.674 Y-230.499 Z-2.148
G1 X-124.534 Y-230.331 Z-2.155
G1 X-124.381 Y-230.173 Z-2.163
G1 X-124.217 Y-230.027 Z-2.17
G1 X-124.044 Y-229.893 Z-2.178
G1 X-123.861 Y-229.772 Z-2.186
G1 X-123.669 Y-229.664 Z-2.193
G1 X-123.47 Y-229.571 Z-2.201
G1 X-123.265 Y-229.493 Z-2.209
G1 X-123.055 Y-229.429 Z-2.216
G1 X-122.841 Y-229.381 Z-2.224
G1 X-122.624 Y-229.349 Z-2.232
G1 X-122.405 Y-229.333 Z-2.239
G1 X-122.186 Y-229.332 Z-2.247
G1 X-121.967 Y-229.348 Z-2.255
G1 X-121.75 Y-229.38 Z-2.262
G1 X-121.535 Y-229.427 Z-2.27
G1 X-121.325 Y-229.489 Z-2.278
G1 X-121.12 Y-229.567 Z-2.285
G1 X-120.921 Y-229.66 Z-2.293
G1 X-120.729 Y-229.766 Z-2.301
G1 X-120.545 Y-229.887 Z-2.308
G1 X-120.371 Y-230.02 Z-2.316
G1 X-120.207 Y-230.166 Z-2.324
G1 X-120.054 Y-230.323 Z-2.331
G1 X-119.912 Y-230.491 Z-2.339
G1 X-119.784 Y-230.669 Z-2.347
G1 X-119.668 Y-230.855 Z-2.354
G1 X-119.567 Y-231.05 Z-2.362
G1 X-119.48 Y-231.251 Z-2.37
G1 X-119.408 Y-231.459 Z-2.377
G1 X-119.351 Y-231.671 Z-2.385
G1 X-119.309 Y-231.886 Z-2.393
G1 X-119.284 Y-232.104 Z-2.4
G1 X-119.274 Y-232.323 Z-2.408
G1 X-119.28 Y-232.543 Z-2.416
G1 X-119.302 Y-232.761 Z-2.423
G1 X-119.34 Y-232.977 Z-2.431
G1 X-119.394 Y-233.19 Z-2.439
G1 X-119.463 Y-233.399 Z-2.446
G1 X-119.547 Y-233.601 Z-2.454
G1 X-119.646 Y-233.797 Z-2.462
G1 X-119.758 Y-233.986 Z-2.469
G1 X-119.884 Y-234.166 Z-2.477
G1 X-120.023 Y-234.336 Z-2.485
G1 X-120.173 Y-234.495 Z-2.492
G1 X-120.335 Y-234.644 Z-2.5
G1 X-120.507 Y-234.78 Z-2.508
G1 X-120.689 Y-234.903 Z-2.515
G1 X-120.879 Y-235.013 Z-2.523
G1 X-121.076 Y-235.108 Z-2.531
G1 X-121.28 Y-235.189 Z-2.538
G1 X-121.49 Y-235.255 Z-2.546
G1 X-121.703 Y-235.306 Z-2.554
G1 X-121.92 Y-235.34 Z-2.561
G1 X-122.139 Y-235.359 Z-2.569
G1 X-122.358 Y-235.362 Z-2.577
G1 X-122.577 Y-235.349 Z-2.584
G1 X-122.795 Y-235.321 Z-2.592
G1 X-123.01 Y-235.276 Z-2.6
G1 X-123.221 Y-235.216 Z-2.607
G1 X-123.427 Y-235.141 Z-2.615
G1 X-123.627 Y-235.051 Z-2.623
G1 X-123.82 Y-234.946 Z-2.63
G1 X-124.005 Y-234.828 Z-2.638
G1 X-124.181 Y-234.697 Z-2.646
G1 X-124.347 Y-234.553 Z-2.653
G1 X-124.502 Y-234.398 Z-2.661
G1 X-124.645 Y-234.231 Z-2.669
G1 X-124.776 Y-234.055 Z-2.676
G1 X-124.894 Y-233.87 Z-2.684
G1 X-124.997 Y-233.676 Z-2.692
G1 X-125.087 Y-233.476 Z-2.699
G1 X-125.162 Y-233.27 Z-2.707
G1 X-125.221 Y-233.058 Z-2.715
G1 X-125.265 Y-232.843 Z-2.722
G1 X-125.293 Y-232.626 Z-2.73
G1 X-125.306 Y-232.407 Z-2.738
G1 X-125.302 Y-232.187 Z-2.745
G1 X-125.283 Y-231.969 Z-2.753
G1 X-125.247 Y-231.752 Z-2.761
G1 X-125.196 Y-231.539 Z-2.768
G1 X-125.13 Y-231.329 Z-2.776
G1 X-125.048 Y-231.126 Z-2.784
G1 X-124.952 Y-230.928 Z-2.791
G1 X-124.842 Y-230.738 Z-2.799
G1 X-124.718 Y-230.557 Z-2.807
G1 X-124.581 Y-230.385 Z-2.814
G1 X-124.433 Y-230.224 Z-2.822
G1 X-124.273 Y-230.074 Z-2.83
G1 X-124.102 Y-229.936 Z-2.837
G1 X-123.922 Y-229.81 Z-2.845
G1 X-123.733 Y-229.698 Z-2.853
G1 X-123.537 Y-229.6 Z-2.86
G1 X-123.334 Y-229.517 Z-2.868
G1 X-123.125 Y-229.449 Z-2.876
G1 X-122.912 Y-229.396 Z-2.883
G1 X-122.696 Y-229.358 Z-2.891
G1 X-122.478 Y-229.337 Z-2.899
G1 X-122.258 Y-229.331 Z-2.906
G1 X-122.039 Y-229.341 Z-2.914
G1 X-121.821 Y-229.367 Z-2.922
G1 X-121.606 Y-229.409 Z-2.929
G1 X-121.394 Y-229.467 Z-2.937
G1 X-121.187 Y-229.54 Z-2.945
G1 X-120.986 Y-229.627 Z-2.952
G1 X-120.791 Y-229.729 Z-2.96
G1 X-120.605 Y-229.845 Z-2.968
G1 X-120.427 Y-229.975 Z-2.975
G1 X-120.26 Y-230.116 Z-2.983
G1 X-120.103 Y-230.27 Z-2.991
G1 X-119.958 Y-230.434 Z-2.998
G1 X-119.825 Y-230.609 Z-3.006
G1 X-119.705 Y-230.793 Z-3.014
G1 X-119.599 Y-230.985 Z-3.021
G1 X-119.507 Y-231.184 Z-3.029
G1 X-119.43 Y-231.39 Z-3.037
G1 X-119.368 Y-231.6 Z-3.044
G1 X-119.321 Y-231.815 Z-3.052
G1 X-119.29 Y-232.032 Z-3.06
G1 X-119.275 Y-232.251 Z-3.067
G1 X-119.276 Y-232.47 Z-3.075
G1 X-119.293 Y-232.689 Z-3.083
G1 X-119.326 Y-232.906 Z-3.09
G1 X-119.375 Y-233.12 Z-3.098
G1 X-119.439 Y-233.33 Z-3.106
G1 X-119.518 Y-233.535 Z-3.113
G1 X-119.611 Y-233.733 Z-3.121
G1 X-119.719 Y-233.925 Z-3.129
G1 X-119.841 Y-234.107 Z-3.136
G1 X-119.975 Y-234.281 Z-3.144
G1 X-120.122 Y-234.444 Z-3.152
G1 X-120.28 Y-234.596 Z-3.159
G1 X-120.449 Y-234.736 Z-3.167
G1 X-120.628 Y-234.864 Z-3.175
G1 X-120.815 Y-234.978 Z-3.182
G1 X-121.01 Y-235.078 Z-3.19
G1 X-121.212 Y-235.164 Z-3.198
G1 X-121.42 Y-235.235 Z-3.205
G1 X-121.633 Y-235.291 Z-3.213
G1 X-121.848 Y-235.331 Z-3.221
G1 X-122.066 Y-235.355 Z-3.228
G1 X-122.286 Y-235.363 Z-3.236
G1 X-122.505 Y-235.355 Z-3.244
G1 X-122.723 Y-235.332 Z-3.251
G1 X-122.939 Y-235.292 Z-3.259
G1 X-123.152 Y-235.237 Z-3.267
G1 X-123.36 Y-235.167 Z-3.274
G1 X-123.562 Y-235.082 Z-3.282
G1 X-123.757 Y-234.982 Z-3.29
G1 X-123.945 Y-234.869 Z-3.297
G1 X-124.124 Y-234.742 Z-3.305
G1 X-124.293 Y-234.602 Z-3.313
G1 X-124.452 Y-234.45 Z-3.32
G1 X-124.599 Y-234.287 Z-3.328
G1 X-124.734 Y-234.114 Z-3.336
G1 X-124.856 Y-233.932 Z-3.343
G1 X-124.965 Y-233.741 Z-3.351
G1 X-125.059 Y-233.543 Z-3.359
G1 X-125.139 Y-233.338 Z-3.366
G1 X-125.203 Y-233.129 Z-3.374
G1 X-125.252 Y-232.915 Z-3.382
G1 X-125.286 Y-232.698 Z-3.389
G1 X-125.303 Y-232.479 Z-3.397
G1 X-125.305 Y-232.26 Z-3.405
G1 X-125.291 Y-232.041 Z-3.412
G1 X-125.261 Y-231.823 Z-3.42
G1 X-125.215 Y-231.609 Z-3.428
G1 X-125.153 Y-231.398 Z-3.435
G1 X-125.077 Y-231.192 Z-3.443
G1 X-124.985 Y-230.993 Z-3.451
G1 X-124.88 Y-230.8 Z-3.458
G1 X-124.76 Y-230.616 Z-3.466
G1 X-124.628 Y-230.441 Z-3.474
G1 X-124.483 Y-230.276 Z-3.481
G1 X-124.327 Y-230.122 Z-3.489
G1 X-124.16 Y-229.98 Z-3.497
G1 X-123.982 Y-229.85 Z-3.504
G1 X-123.796 Y-229.734 Z-3.512
G1 X-123.602 Y-229.631 Z-3.52
G1 X-123.401 Y-229.543 Z-3.527
G1 X-123.195 Y-229.469 Z-3.535
G1 X-122.983 Y-229.411 Z-3.543
G1 X-122.768 Y-229.369 Z-3.55
G1 X-122.55 Y-229.342 Z-3.558
G1 X-122.331 Y-229.331 Z-3.566
G1 X-122.111 Y-229.336 Z-3.573
G1 X-121.893 Y-229.357 Z-3.581
G1 X-121.676 Y-229.394 Z-3.589
G1 X-121.463 Y-229.446 Z-3.596
G1 X-121.255 Y-229.514 Z-3.604
G1 X-121.051 Y-229.597 Z-3.612
G1 X-120.855 Y-229.694 Z-3.619
G1 X-120.665 Y-229.806 Z-3.627
G1 X-120.485 Y-229.93 Z-3.635
G1 X-120.314 Y-230.068 Z-3.642
G1 X-120.154 Y-230.218 Z-3.65
G1 X-120.004 Y-230.379 Z-3.658
G1 X-119.867 Y-230.55 Z-3.665
G1 X-119.743 Y-230.731 Z-3.673
G1 X-119.632 Y-230.921 Z-3.681
G1 X-119.536 Y-231.118 Z-3.688
G1 X-119.454 Y-231.321 Z-3.696
G1 X-119.387 Y-231.53 Z-3.704
G1 X-119.335 Y-231.744 Z-3.711
G1 X-119.299 Y-231.96 Z-3.719
G1 X-119.279 Y-232.179 Z-3.727
G1 X-119.274 Y-232.398 Z-3.734
G1 X-119.286 Y-232.617 Z-3.742
G1 X-119.314 Y-232.835 Z-3.75
G1 X-119.357 Y-233.05 Z-3.757
G1 X-119.416 Y-233.261 Z-3.765
G1 X-119.49 Y-233.468 Z-3.773
G1 X-119.579 Y-233.669 Z-3.78
G1 X-119.682 Y-233.862 Z-3.788
G1 X-119.799 Y-234.048 Z-3.796
G1 X-119.93 Y-234.225 Z-3.803
G1 X-120.072 Y-234.391 Z-3.811
G1 X-120.227 Y-234.547 Z-3.819
G1 X-120.392 Y-234.691 Z-3.826
G1 X-120.568 Y-234.823 Z-3.834
G1 X-120.752 Y-234.942 Z-3.842
G1 X-120.945 Y-235.047 Z-3.849
G1 X-121.145 Y-235.137 Z-3.857
G1 X-121.351 Y-235.213 Z-3.865
G1 X-121.562 Y-235.274 Z-3.872
G1 X-121.777 Y-235.319 Z-3.88
G1 X-121.994 Y-235.349 Z-3.888
G1 X-122.213 Y-235.362 Z-3.895
G1 X-122.433 Y-235.36 Z-3.903
G1 X-122.651 Y-235.341 Z-3.911
G1 X-122.868 Y-235.307 Z-3.918
G1 X-123.082 Y-235.257 Z-3.926
G1 X-123.292 Y-235.192 Z-3.934
G1 X-123.496 Y-235.112 Z-3.941
G1 X-123.694 Y-235.017 Z-3.949
G1 X-123.884 Y-234.908 Z-3.957
G1 X-124.066 Y-234.785 Z-3.964
G1 X-124.239 Y-234.649 Z-3.972
G1 X-124.401 Y-234.502 Z-3.98
G1 X-124.552 Y-234.342 Z-3.987
G1 X-124.691 Y-234.173 Z-3.995
G1 X-124.817 Y-233.993 Z-4.003
G1 X-124.931 Y-233.805 Z-4.01
G1 X-125.03 Y-233.609 Z-4.018
G1 X-125.114 Y-233.407 Z-4.026
G1 X-125.184 Y-233.198 Z-4.033
G1 X-125.238 Y-232.986 Z-4.041
G1 X-125.277 Y-232.77 Z-4.049
G1 X-125.299 Y-232.551 Z-4.056
G1 X-125.306 Y-232.332 Z-4.064
G2 X-122.591 Y-229.643 I2.702 J-0.013
G2 X-120.684 Y-230.444 I-0.013 J-2.702
G2 X-119.902 Y-232.359 I-1.92 J-1.901
G1 X-119.905 Y-232.859
G2 X-120.048 Y-233.001 I-0.143 J0.001
G2 X-120.149 Y-232.959 I0.001 J0.143
G2 X-120.19 Y-232.858 I0.101 J0.1
G1 X-120.188 Y-232.347
G1 X-120.181 Y-232.306
G1 X-120.162 Y-232.269
G1 X-120.133 Y-232.24
G1 X-120.096 Y-232.222
G1 X-120.055 Y-232.215
G1 X-120.034
G1 X-119.993 Y-232.222
G1 X-119.956 Y-232.241
G1 X-119.927 Y-232.271
G1 X-119.909 Y-232.307
G1 X-119.902 Y-232.348
G1 Y-232.359
G3 X-118.165 Y-235.109 I3.021 J-0.015
G2 X-117.364 Y-237.324 I-0.708 J-1.508
G2 X-118.88 Y-238.282 I-1.508 J0.708
G1 X-123.432 Y-238.26
G3 X-126.067 Y-239.352 I-0.018 J-3.683
G2 X-126.515 Y-239.354 I-0.225 J0.223
G2 X-126.609 Y-239.127 I0.223 J0.225
G2 X-126.513 Y-238.902 I0.317 J-0.002
G3 X-125.395 Y-236.277 I-2.565 J2.643
G1 X-125.359 Y-228.974
G3 X-126.451 Y-226.338 I-3.683 J0.018
G2 X-126.453 Y-225.89 I0.223 J0.225
G2 X-126.227 Y-225.796 I0.225 J-0.223
G2 X-126.001 Y-225.892 I-0.002 J-0.317
G3 X-123.375 Y-227.011 I2.644 J2.564
G1 X-116.662 Y-227.044
G3 X-114.026 Y-225.952 I0.018 J3.683
G2 X-113.578 Y-225.95 I0.225 J-0.223
G2 X-113.484 Y-226.176 I-0.223 J-0.225
G2 X-113.58 Y-226.402 I-0.317 J0.002
G3 X-114.698 Y-229.027 I2.565 J-2.643
G1 X-114.734 Y-236.329
G3 X-113.642 Y-238.965 I3.683 J-0.018
G2 X-113.64 Y-239.413 I-0.223 J-0.226
G2 X-113.867 Y-239.507 I-0.226 J0.223
G2 X-114.093 Y-239.411 I0.002 J0.317
G3 X-116.718 Y-238.293 I-2.643 J-2.565
G1 X-118.88 Y-238.282
G0 Z6.096
G0 X-120.984 Y-235.066
G1 Z-1.524 F508.
G1 X-121.186 Y-235.154 Z-1.532
G1 X-121.393 Y-235.227 Z-1.539
G1 X-121.605 Y-235.284 Z-1.547
G1 X-121.82 Y-235.326 Z-1.555
G1 X-122.038 Y-235.353 Z-1.562
G1 X-122.257 Y-235.363 Z-1.57
G1 X-122.477 Y-235.357 Z-1.578
G1 X-122.695 Y-235.336 Z-1.585
G1 X-122.912 Y-235.298 Z-1.593
G1 X-123.125 Y-235.245 Z-1.601
G1 X-123.333 Y-235.177 Z-1.608
G1 X-123.537 Y-235.094 Z-1.616
G1 X-123.733 Y-234.996 Z-1.624
G1 X-123.922 Y-234.884 Z-1.631
G1 X-124.102 Y-234.758 Z-1.639
G1 X-124.273 Y-234.62 Z-1.647
G1 X-124.433 Y-234.47 Z-1.654
G1 X-124.582 Y-234.308 Z-1.662
G1 X-124.718 Y-234.136 Z-1.67
G1 X-124.842 Y-233.955 Z-1.677
G1 X-124.952 Y-233.765 Z-1.685
G1 X-125.048 Y-233.568 Z-1.693
G1 X-125.13 Y-233.364 Z-1.7
G1 X-125.196 Y-233.154 Z-1.708
G1 X-125.247 Y-232.941 Z-1.716
G1 X-125.283 Y-232.724 Z-1.723
G1 X-125.302 Y-232.505 Z-1.731
G1 X-125.306 Y-232.286 Z-1.739
G1 X-125.293 Y-232.067 Z-1.746
G1 X-125.265 Y-231.849 Z-1.754
G1 X-125.221 Y-231.634 Z-1.762
G1 X-125.161 Y-231.422 Z-1.769
G1 X-125.086 Y-231.216 Z-1.777
