(1001)
(T1  D=6.35 CR=0 - ZMIN=-12.7 - FLAT END MILL)
G0 G40 G90 G17
G21

(2D CONTOUR2)
T1 M6
M3 S5000
G0 X4.588 Y0.615
G0 Z6.096
G1 Z4.191 F508.
G1 Z-6.604
G1 X4.534 Y0.688
G1 X4.461 Y0.784
G1 X4.402 Y0.857
G1 X4.33 Y0.944
G1 X4.268 Y1.016
G1 X4.196 Y1.097
G1 X4.13 Y1.169
G1 X4.059 Y1.243
G1 X3.989 Y1.314
G1 X3.919 Y1.384
G1 X3.846 Y1.454
G1 X3.775 Y1.519
G1 X3.699 Y1.587
G1 X3.629 Y1.649
G1 X3.549 Y1.716
G1 X3.478 Y1.775
G1 X3.396 Y1.841
G1 X3.324 Y1.897
G1 X3.239 Y1.96
G1 X3.165 Y2.014
G1 X3.078 Y2.076
G1 X3.003 Y2.128
G1 X2.914 Y2.187
G1 X2.836 Y2.238
G1 X2.745 Y2.294
G1 X2.664 Y2.343
G1 X2.571 Y2.397
G1 X2.487 Y2.445
G1 X2.393 Y2.496
G1 X2.304 Y2.542
G1 X2.209 Y2.59
G1 X2.116 Y2.635
G1 X2.02 Y2.68
G1 X1.921 Y2.724
G1 X1.824 Y2.765
G1 X1.72 Y2.807
G1 X1.622 Y2.844
G1 X1.511 Y2.884
G1 X1.413 Y2.917
G1 X1.294 Y2.955
G1 X1.195 Y2.984
G1 X1.068 Y3.019
G1 X0.97 Y3.044
G1 X0.833 Y3.075
G1 X0.735 Y3.095
G1 X0.588 Y3.122
G1 X0.491 Y3.137
G1 X0.389 Y3.151
G1 X-0.039 Y3.204
G1 X-0.082 Y3.209
G1 X-0.512 Y3.256
G1 X-0.552 Y3.26
G1 X-0.984 Y3.302
G1 X-1.021 Y3.306
G1 X-1.455 Y3.343
G1 X-1.49 Y3.345
G1 X-1.925 Y3.378
G1 X-1.957 Y3.38
G1 X-2.394 Y3.408
G1 X-2.423 Y3.41
G1 X-2.861 Y3.434
G1 X-2.888 Y3.435
G1 X-3.327 Y3.455
G1 X-3.351 Y3.456
G1 X-3.792 Y3.474
G1 X-3.813
G1 X-4.254 Y3.488
G1 X-4.274 Y3.489
G1 X-4.716 Y3.5
G1 X-4.733 Y3.501
G1 X-5.175 Y3.51
G1 X-5.19
G1 X-5.633 Y3.517
G1 X-5.645
G1 X-6.088 Y3.523
G1 X-6.098
G1 X-6.542 Y3.527
G1 X-6.549
G1 X-6.993 Y3.53
G1 X-6.998
G1 X-7.442 Y3.532
G1 X-7.444
G1 X-7.888 Y3.534
G1 X-8.331 Y3.536
G1 X-8.77 Y3.538
G1 X-9.207 Y3.541
G1 X-9.641 Y3.545
G1 X-10.072 Y3.55
G1 X-10.497 Y3.556
G1 X-10.651 Y3.559
G1 X-10.807 Y3.564
G1 X-10.969 Y3.569
G1 X-11.135 Y3.575
G1 X-11.307 Y3.582
G1 X-11.482 Y3.589
G1 X-11.485
G1 X-11.661 Y3.596
G1 X-11.669
G1 X-11.845 Y3.603
G1 X-11.858
G1 X-12.034 Y3.609
G1 X-12.051
G1 X-12.228 Y3.614
G1 X-12.25 Y3.615
G1 X-12.426 Y3.618
G1 X-12.453 Y3.619
G1 X-12.63 Y3.621
G1 X-12.662
G1 X-12.838
G1 X-12.875
G1 X-13.051 Y3.619
G1 X-13.093
G1 X-13.268 Y3.615
G1 X-13.315 Y3.613
G1 X-13.49 Y3.607
G1 X-13.542 Y3.604
G1 X-13.717 Y3.595
G1 X-13.774 Y3.591
G1 X-13.949 Y3.578
G1 X-14.011 Y3.573
G1 X-14.185 Y3.557
G1 X-14.252 Y3.55
G1 X-14.425 Y3.53
G1 X-14.498 Y3.521
G1 X-14.67 Y3.497
G1 X-14.747 Y3.486
G1 X-14.919 Y3.458
G1 X-15.001 Y3.443
G1 X-15.172 Y3.411
G1 X-15.258 Y3.393
G1 X-15.428 Y3.356
G1 X-15.477 Y3.345
G1 X-17.008 Y2.985
G1 X-17.015 Y2.984
G1 X-18.546 Y2.62
G1 X-18.553 Y2.618
G1 X-20.083 Y2.251
G1 X-20.09 Y2.249
G1 X-21.619 Y1.878
G1 X-21.626 Y1.876
G1 X-23.155 Y1.501
G1 X-23.162 Y1.5
G1 X-24.691 Y1.122
G1 X-24.697 Y1.12
G1 X-26.225 Y0.739
G1 X-26.231 Y0.737
G1 X-27.759 Y0.353
G1 X-27.764 Y0.352
G1 X-29.292 Y-0.035
G1 X-29.297 Y-0.037
G1 X-30.824 Y-0.427
G1 X-30.829 Y-0.428
G1 X-32.356 Y-0.82
G1 X-32.36 Y-0.821
G1 X-33.887 Y-1.216
G1 X-33.891 Y-1.217
G1 X-35.417 Y-1.614
G1 X-35.421 Y-1.615
G1 X-36.946 Y-2.015
G1 X-36.95 Y-2.016
G1 X-38.475 Y-2.416
G1 X-38.479 Y-2.417
G1 X-40.003 Y-2.82
G1 X-40.006 Y-2.821
G1 X-41.53 Y-3.225
G1 X-41.533 Y-3.226
G1 X-43.057 Y-3.632
G1 X-43.06 Y-3.633
G1 X-44.583 Y-4.04
G1 X-44.585
G1 X-46.108 Y-4.448
G1 X-46.11 Y-4.449
G1 X-47.632 Y-4.858
G1 X-47.634
G1 X-49.156 Y-5.268
G1 X-49.157 Y-5.269
G1 X-50.679 Y-5.679
G1 X-50.68
G1 X-52.201 Y-6.09
G1 X-55.169 Y-6.893
G1 X-58.136 Y-7.696
G1 X-61.104 Y-8.5
G1 X-64.071 Y-9.305
G1 X-64.072
G1 X-67.039 Y-10.111
G1 X-67.04
G1 X-70.007 Y-10.918
G1 X-70.008
G1 X-72.974 Y-11.726
G1 X-72.976 Y-11.727
G1 X-75.941 Y-12.536
G1 X-75.943 Y-12.537
G1 X-78.908 Y-13.348
G1 X-78.91 Y-13.349
G1 X-81.875 Y-14.161
G1 X-81.877 Y-14.162
G1 X-84.841 Y-14.977
G1 X-84.843
G1 X-87.807 Y-15.794
G1 X-87.809 Y-15.795
G1 X-90.772 Y-16.614
G1 X-90.774
G1 X-93.736 Y-17.435
G1 X-93.739 Y-17.436
G1 X-96.7 Y-18.26
G1 X-96.703 Y-18.261
G1 X-99.664 Y-19.087
G1 X-99.667 Y-19.088
G1 X-102.626 Y-19.917
G1 X-102.63 Y-19.918
G1 X-105.588 Y-20.75
G1 X-105.59
G1 X-108.548 Y-21.585
G1 X-108.552 Y-21.586
G1 X-111.508 Y-22.424
G1 X-111.511 Y-22.425
G1 X-114.467 Y-23.266
G1 X-114.471 Y-23.268
G1 X-117.425 Y-24.112
G1 X-117.429 Y-24.113
G1 X-120.381 Y-24.962
G1 X-120.385 Y-24.963
G1 X-123.336 Y-25.815
G1 X-123.354 Y-25.82
G1 X-123.662 Y-25.911
G1 X-123.698 Y-25.922
G1 X-124.004 Y-26.016
G1 X-124.036 Y-26.026
G1 X-124.342 Y-26.124
G1 X-124.375 Y-26.135
G1 X-124.679 Y-26.236
G1 X-124.708 Y-26.246
G1 X-125.012 Y-26.35
G1 X-125.042 Y-26.36
G1 X-125.345 Y-26.467
G1 X-125.373 Y-26.478
G1 X-125.675 Y-26.588
G1 X-125.706 Y-26.599
G1 X-126.006 Y-26.712
G1 X-126.03 Y-26.721
G1 X-126.33 Y-26.837
G1 X-126.356 Y-26.847
G1 X-126.655 Y-26.965
G1 X-126.68 Y-26.975
G1 X-126.978 Y-27.096
G1 X-127.002 Y-27.106
G1 X-127.299 Y-27.229
G1 X-127.321 Y-27.238
G1 X-127.617 Y-27.364
G1 X-127.636 Y-27.372
G1 X-127.932 Y-27.499
G1 X-127.956 Y-27.51
G1 X-128.25 Y-27.64
G1 X-128.27 Y-27.649
G1 X-128.563 Y-27.781
G1 X-128.579 Y-27.788
G1 X-128.872 Y-27.922
G1 X-128.894 Y-27.932
G1 X-129.185 Y-28.067
G1 X-129.199 Y-28.074
G1 X-129.49 Y-28.211
G1 X-129.506 Y-28.218
G1 X-129.796 Y-28.357
G1 X-129.813 Y-28.365
G1 X-130.102 Y-28.505
G1 X-130.115 Y-28.512
G1 X-130.403 Y-28.654
G1 X-130.418 Y-28.661
G1 X-130.705 Y-28.804
G1 X-130.718 Y-28.81
G1 X-131.004 Y-28.954
G1 X-131.017 Y-28.961
G1 X-131.663 Y-29.29
G1 X-131.679 Y-29.298
G1 X-132.323 Y-29.631
G1 X-132.339 Y-29.639
G1 X-132.981 Y-29.975
G1 X-132.993 Y-29.982
G1 X-133.634 Y-30.321
G1 X-133.648 Y-30.328
G1 X-134.287 Y-30.67
G1 X-134.296 Y-30.675
G1 X-134.935 Y-31.02
G1 X-134.949 Y-31.028
G1 X-135.585 Y-31.375
G1 X-135.592 Y-31.379
G1 X-136.228 Y-31.728
G1 X-136.236 Y-31.733
G1 X-136.871 Y-32.084
G1 X-136.878 Y-32.088
G1 X-137.512 Y-32.441
G1 X-137.517 Y-32.444
G1 X-138.151 Y-32.798
G1 X-138.156 Y-32.801
G1 X-138.789 Y-33.157
G1 X-138.792 Y-33.158
G1 X-139.425 Y-33.514
G1 X-139.429 Y-33.517
G1 X-140.061 Y-33.874
G1 X-140.063
G1 X-140.695 Y-34.232
G1 X-141.325 Y-34.588
G1 X-141.957 Y-34.945
G1 X-142.587 Y-35.3
G1 X-143.217 Y-35.654
G1 X-143.845 Y-36.007
G1 X-144.473 Y-36.357
G1 X-145.101 Y-36.706
G1 X-145.728 Y-37.052
G1 X-146.36 Y-37.397
G1 X-146.374 Y-37.405
G1 X-146.552 Y-37.504
G1 X-146.575 Y-37.517
G1 X-146.753 Y-37.617
G1 X-146.771 Y-37.627
G1 X-146.949 Y-37.729
G1 X-146.97 Y-37.742
G1 X-147.147 Y-37.845
G1 X-147.159 Y-37.852
G1 X-147.336 Y-37.956
G1 X-147.343 Y-37.96
G1 X-147.52 Y-38.065
G1 X-147.525 Y-38.068
G1 X-147.702 Y-38.174
G1 X-147.879 Y-38.279
G1 X-148.052 Y-38.382
G1 X-148.222 Y-38.482
G1 X-148.385 Y-38.578
G1 X-148.546 Y-38.671
G1 X-148.703 Y-38.761
G1 X-148.858 Y-38.847
G1 X-149.006 Y-38.928
G1 X-149.155 Y-39.007
G1 X-149.298 Y-39.082
G1 X-149.434 Y-39.149
G1 X-149.57 Y-39.214
G1 X-149.703 Y-39.275
G1 X-149.828 Y-39.33
G1 X-149.952 Y-39.38
G1 X-150.074 Y-39.427
G1 X-150.192 Y-39.469
G1 X-150.293 Y-39.503
G1 X-150.403 Y-39.536
G1 X-150.512 Y-39.568
G1 X-150.625 Y-39.598
G1 X-150.743 Y-39.628
G1 X-150.861 Y-39.655
G1 X-150.987 Y-39.682
G1 X-151.116 Y-39.707
G1 X-151.244 Y-39.731
G1 X-151.377 Y-39.753
G1 X-151.512 Y-39.774
G1 X-151.65 Y-39.794
G1 X-151.791 Y-39.812
G1 X-151.934 Y-39.829
G1 X-152.08 Y-39.844
G1 X-152.227 Y-39.859
G1 X-152.377 Y-39.872
G1 X-152.528 Y-39.884
G1 X-152.683 Y-39.895
G1 X-152.836 Y-39.905
G1 X-152.993 Y-39.913
G1 X-153.152 Y-39.921
G1 X-153.311 Y-39.928
G1 X-153.461 Y-39.934
G1 X-153.677 Y-39.94
G1 X-153.887 Y-39.943
G1 X-154.101 Y-39.942
G1 X-154.32 Y-39.938
G1 X-154.544 Y-39.932
G1 X-154.772 Y-39.923
G1 X-155.005 Y-39.912
G1 X-155.243 Y-39.899
G1 X-155.485 Y-39.884
G1 X-155.731 Y-39.867
G1 X-155.982 Y-39.849
G1 X-156.236 Y-39.831
G1 X-156.495 Y-39.811
G1 X-156.497
G1 X-156.757 Y-39.792
G1 X-156.763
G1 X-157.024 Y-39.773
G1 X-157.034 Y-39.772
G1 X-157.294 Y-39.755
G1 X-157.309 Y-39.754
G1 X-157.569 Y-39.737
G1 X-157.586 Y-39.736
G1 X-157.845 Y-39.721
G1 X-157.87 Y-39.719
G1 X-158.13 Y-39.706
G1 X-158.157 Y-39.705
G1 X-158.417 Y-39.694
G1 X-158.45 Y-39.693
G1 X-158.709 Y-39.685
G1 X-158.745 Y-39.684
G1 X-159.004 Y-39.679
G1 X-159.046 Y-39.678
G1 X-159.305 Y-39.676
G1 X-159.35
G1 X-159.609 Y-39.678
G1 X-159.642 Y-39.679
G1 X-159.739 Y-39.68
G1 X-159.762 Y-39.681
G1 X-159.859 Y-39.683
G1 X-159.884 Y-39.684
G1 X-159.982 Y-39.687
G1 X-160.007 Y-39.688
G1 X-160.105 Y-39.692
G1 X-160.138 Y-39.694
G1 X-160.236 Y-39.699
G1 X-160.265 Y-39.7
G1 X-160.363 Y-39.706
G1 X-160.393 Y-39.708
G1 X-160.492 Y-39.715
G1 X-160.533 Y-39.718
G1 X-160.631 Y-39.726
G1 X-160.666 Y-39.729
G1 X-160.765 Y-39.739
G1 X-160.809 Y-39.743
G1 X-160.907 Y-39.754
G1 X-160.949 Y-39.758
G1 X-161.047 Y-39.77
G1 X-161.094 Y-39.776
G1 X-161.192 Y-39.79
G1 X-161.241 Y-39.797
G1 X-161.338 Y-39.812
G1 X-161.391 Y-39.82
G1 X-161.488 Y-39.837
G1 X-161.544 Y-39.847
G1 X-161.64 Y-39.865
G1 X-161.693 Y-39.875
G1 X-161.789 Y-39.895
G1 X-161.859 Y-39.91
G1 X-161.953 Y-39.932
G1 X-162.012 Y-39.946
G1 X-162.106 Y-39.97
G1 X-162.176 Y-39.988
G1 X-162.269 Y-40.013
G1 X-162.338 Y-40.033
G1 X-162.43 Y-40.061
G1 X-162.513 Y-40.087
G1 X-162.603 Y-40.116
G1 X-162.669 Y-40.139
G1 X-162.759 Y-40.171
G1 X-162.845 Y-40.203
G1 X-162.933 Y-40.237
G1 X-163.024 Y-40.273
G1 X-163.11 Y-40.309
G1 X-163.178 Y-40.339
G1 X-163.262 Y-40.377
G1 X-163.327 Y-40.407
G1 X-163.411 Y-40.447
G1 X-163.468 Y-40.475
G1 X-163.552 Y-40.518
G1 X-163.611 Y-40.548
G1 X-163.695 Y-40.592
G1 X-163.76 Y-40.628
G1 X-163.843 Y-40.674
G1 X-163.879 Y-40.694
G1 X-163.963 Y-40.743
G1 X-164.041 Y-40.789
G1 X-164.123 Y-40.839
G1 X-164.165 Y-40.866
G1 X-164.247 Y-40.918
G1 X-164.305 Y-40.956
G1 X-164.386 Y-41.01
G1 X-164.424 Y-41.036
G1 X-164.505 Y-41.092
G1 X-164.57 Y-41.138
G1 X-164.649 Y-41.195
G1 X-164.7 Y-41.233
G1 X-164.778 Y-41.292
G1 X-164.825 Y-41.328
G1 X-164.902 Y-41.388
G1 X-164.963 Y-41.438
G1 X-165.038 Y-41.5
G1 X-165.097 Y-41.55
G1 X-165.17 Y-41.613
G1 X-165.21 Y-41.649
G1 X-165.282 Y-41.714
G1 X-165.338 Y-41.765
G1 X-165.408 Y-41.831
G1 X-165.463 Y-41.885
G1 X-165.531 Y-41.952
G1 X-165.582 Y-42.004
G1 X-165.648 Y-42.073
G1 X-165.699 Y-42.127
G1 X-165.763 Y-42.196
G1 X-165.828 Y-42.27
G1 X-165.889 Y-42.34
G1 X-165.936 Y-42.395
G1 X-165.995 Y-42.467
G1 X-166.059 Y-42.547
G1 X-166.115 Y-42.619
G1 X-166.175 Y-42.7
G1 X-166.228 Y-42.773
G1 X-166.281 Y-42.848
G1 X-166.329 Y-42.919
G1 X-166.404 Y-43.035
G1 X-166.449 Y-43.107
G1 X-166.517 Y-43.224
G1 X-166.559 Y-43.299
G1 X-166.607 Y-43.386
G1 X-166.647 Y-43.463
G1 X-166.703 Y-43.578
G1 X-166.74 Y-43.656
G1 X-166.779 Y-43.741
G1 X-166.814 Y-43.822
G1 X-166.847 Y-43.902
G1 X-166.88 Y-43.984
G1 X-166.899 Y-44.032
G1 X-166.931 Y-44.116
G1 X-166.971 Y-44.226
G1 X-167 Y-44.311
G1 X-167.025 Y-44.385
G1 X-167.052 Y-44.471
G1 X-167.065 Y-44.514
G1 X-167.091 Y-44.601
G1 X-167.102 Y-44.64
G1 X-167.127 Y-44.728
G1 X-167.147 Y-44.8
G1 X-167.17 Y-44.888
G1 X-167.179 Y-44.925
G1 X-167.201 Y-45.014
G1 X-167.218 Y-45.083
G1 X-167.238 Y-45.173
G1 Y-45.175
G1 X-167.258 Y-45.265
G1 X-167.272 Y-45.332
G1 X-167.308 Y-45.512
G1 X-167.315 Y-45.545
G1 X-167.332 Y-45.634
G1 X-167.348 Y-45.723
G1 X-167.354 Y-45.754
G1 X-167.37 Y-45.843
G1 X-167.376 Y-45.875
G1 X-167.387 Y-45.944
G1 X-167.4 Y-46.013
G1 X-167.405 Y-46.043
G1 X-167.42 Y-46.13
G1 X-167.426 Y-46.165
G1 X-167.441 Y-46.259
G1 X-167.451 Y-46.327
G1 X-167.464 Y-46.421
G1 X-167.476 Y-46.522
G1 X-167.486 Y-46.616
G1 X-167.493 Y-46.683
G1 X-167.501 Y-46.778
G1 X-167.506 Y-46.845
G1 X-167.512 Y-46.94
G1 X-167.514 Y-46.974
G1 X-167.519 Y-47.07
G1 X-167.521 Y-47.136
G1 X-167.524 Y-47.232
G1 X-167.525 Y-47.265
G1 X-167.527 Y-47.361
G1 X-167.528 Y-47.395
G1 X-167.529 Y-47.491
G1 Y-47.524
G1 Y-47.716
G1 Y-47.749
G1 X-167.528 Y-47.829
G1 Y-48.006
G1 Y-48.085
G1 Y-48.132
G1 X-167.53 Y-48.195
G1 X-167.532 Y-48.257
G1 X-167.535 Y-48.302
G1 X-167.538 Y-48.347
G1 Y-48.358
G1 X-167.54 Y-48.368
G1 X-167.543 Y-48.394
G1 X-167.544 Y-48.4
G1 X-167.55 Y-48.429
G1 X-167.558 Y-48.469
G1 X-167.566 Y-48.516
G1 X-167.576 Y-48.563
G1 Y-48.564
G1 X-167.589 Y-48.629
G1 X-167.604 Y-48.694
G1 X-167.614 Y-48.742
G1 X-167.625 Y-48.789
G1 X-167.641 Y-48.852
G1 X-167.648 Y-48.88
G1 X-167.66 Y-48.925
G1 X-167.673 Y-48.969
G1 X-167.681 Y-48.995
G1 X-167.694 Y-49.036
G1 X-167.707 Y-49.076
G1 X-167.715 Y-49.098
G1 X-167.723 Y-49.119
G1 X-167.737 Y-49.154
G1 Y-49.155
G1 X-167.744 Y-49.17
G1 X-167.755 Y-49.195
G1 X-167.757 Y-49.198
G1 X-167.772 Y-49.223
G1 X-167.826 Y-49.31
G1 X-167.893 Y-49.419
G1 X-167.898 Y-49.428
G1 X-167.964 Y-49.535
G1 X-168.026 Y-49.636
G1 X-168.087 Y-49.734
G1 X-168.148 Y-49.829
G1 X-168.202 Y-49.913
G1 X-168.256 Y-49.994
G1 X-168.315 Y-50.081
G1 X-168.366 Y-50.154
G1 X-168.411 Y-50.217
G1 X-168.46 Y-50.283
G1 X-168.502 Y-50.336
G1 X-168.536 Y-50.379
G1 X-168.575 Y-50.423
G1 X-168.604 Y-50.456
G1 X-168.631 Y-50.484
G1 X-168.655 Y-50.508
G1 X-168.675 Y-50.526
G1 X-168.684 Y-50.534
G1 X-168.703 Y-50.546
G1 X-175.211 Y-54.281
G1 X-181.759 Y-58.026
G1 X-188.312 Y-61.763
G1 X-194.872 Y-65.494
G1 X-201.438 Y-69.22
G1 X-208.006 Y-72.94
G1 X-214.581 Y-76.656
G1 X-221.157 Y-80.368
G1 X-227.737 Y-84.078
G1 X-234.319 Y-87.786
G1 X-240.902 Y-91.492
G1 X-247.487 Y-95.198
G1 X-254.072 Y-98.905
G1 X-260.656 Y-102.612
G1 X-267.24 Y-106.322
G1 X-267.241 Y-106.323
G1 X-273.822 Y-110.035
G1 X-273.823
G1 X-280.401 Y-113.749
G1 X-280.403 Y-113.75
G1 X-286.979 Y-117.469
G1 X-286.981 Y-117.471
G1 X-293.552 Y-121.195
G1 X-293.555 Y-121.196
G1 X-300.122 Y-124.925
G1 X-300.124 Y-124.927
G1 X-306.687 Y-128.662
G1 X-306.691 Y-128.664
G1 X-313.247 Y-132.407
G1 X-313.251 Y-132.409
G1 X-319.802 Y-136.16
G1 X-319.805 Y-136.162
G1 X-326.349 Y-139.921
G1 X-326.402 Y-139.951
G1 X-326.562 Y-140.047
G1 X-326.646 Y-140.1
G1 X-326.803 Y-140.201
G1 X-326.885 Y-140.256
G1 X-327.039 Y-140.362
G1 X-327.108 Y-140.411
G1 X-327.259 Y-140.521
G1 X-327.338 Y-140.58
G1 X-327.486 Y-140.695
G1 X-327.552 Y-140.748
G1 X-327.697 Y-140.867
G1 X-327.753 Y-140.914
G1 X-327.896 Y-141.037
G1 X-327.95 Y-141.084
G1 X-328.09 Y-141.21
G1 X-328.143 Y-141.258
G1 X-328.28 Y-141.387
G1 X-328.331 Y-141.437
G1 X-328.466 Y-141.57
G1 X-328.5 Y-141.604
G1 X-328.633 Y-141.739
G1 X-328.682 Y-141.79
G1 X-328.812 Y-141.928
G1 X-328.828 Y-141.945
G1 X-328.957 Y-142.084
G1 X-328.997 Y-142.127
G1 X-329.124 Y-142.269
G1 X-329.155 Y-142.305
G1 X-329.28 Y-142.449
G1 X-329.296 Y-142.468
G1 X-329.419 Y-142.612
G1 X-329.448 Y-142.646
G1 X-329.57 Y-142.793
G1 X-329.58 Y-142.805
G1 X-329.7 Y-142.951
G1 X-329.721 Y-142.977
G1 X-329.84 Y-143.125
G1 X-329.849 Y-143.136
G1 X-329.967 Y-143.284
G1 X-329.975 Y-143.294
G1 X-330.092 Y-143.442
G1 X-330.1 Y-143.452
G1 X-330.216 Y-143.6
G1 X-330.218 Y-143.603
G1 X-330.448 Y-143.897
G1 X-330.477 Y-143.935
G1 X-330.568 Y-144.055
G1 X-330.613 Y-144.116
G1 X-330.701 Y-144.238
G1 X-330.745 Y-144.3
G1 X-330.83 Y-144.424
G1 X-330.856 Y-144.463
G1 X-330.939 Y-144.588
G1 X-330.977 Y-144.646
G1 X-331.058 Y-144.774
G1 X-331.092 Y-144.829
G1 X-331.17 Y-144.958
G1 X-331.19 Y-144.992
G1 X-331.267 Y-145.123
G1 X-331.291 Y-145.164
G1 X-331.366 Y-145.296
G1 X-331.388 Y-145.336
G1 X-331.461 Y-145.469
G1 X-331.475 Y-145.494
G1 X-331.547 Y-145.628
G1 X-331.56 Y-145.653
G1 X-331.631 Y-145.788
G1 X-331.64 Y-145.804
G1 X-331.71 Y-145.939
G1 X-331.727 Y-145.973
G1 X-331.794 Y-146.106
G1 X-331.86 Y-146.237
G1 X-331.873 Y-146.262
G1 X-331.941 Y-146.399
G1 X-332.009 Y-146.536
G1 X-332.073 Y-146.665
G1 X-332.138 Y-146.794
G1 X-332.146 Y-146.81
G1 X-332.204 Y-146.927
G1 X-332.261 Y-147.038
G1 X-332.324 Y-147.16
G1 X-332.384 Y-147.275
G1 X-332.439 Y-147.376
G1 X-332.501 Y-147.488
G1 X-332.506 Y-147.496
G1 X-332.574 Y-147.619
G1 X-332.603 Y-147.673
G1 X-332.669 Y-147.798
G1 X-332.692 Y-147.842
G1 X-332.756 Y-147.968
G1 X-332.769 Y-147.995
G1 X-332.832 Y-148.122
G1 X-332.837 Y-148.131
G1 X-332.9 Y-148.259
G1 X-332.921 Y-148.304
G1 X-333.043 Y-148.562
G1 X-333.047 Y-148.57
G1 X-333.106 Y-148.696
G1 X-333.165 Y-148.821
G1 X-333.169 Y-148.829
G1 X-333.224 Y-148.946
G1 X-333.278 Y-149.057
G1 X-333.331 Y-149.167
G1 X-333.376 Y-149.259
G1 X-333.42 Y-149.344
G1 X-333.465 Y-149.428
G1 X-333.506 Y-149.502
G1 X-333.537 Y-149.555
G1 X-333.574 Y-149.615
G1 X-333.608 Y-149.669
G1 X-333.63 Y-149.701
G1 X-333.655 Y-149.736
G1 X-333.668 Y-149.753
G1 X-333.681 Y-149.767
G1 X-333.701 Y-149.79
G1 X-333.739 Y-149.829
G1 X-333.787 Y-149.878
G1 X-333.839 Y-149.928
G1 X-333.894 Y-149.979
G1 X-333.945 Y-150.025
G1 X-334.006 Y-150.077
G1 X-334.061 Y-150.122
G1 X-334.124 Y-150.172
G1 X-334.181 Y-150.217
G1 X-334.238 Y-150.258
G1 X-334.295 Y-150.298
G1 X-334.339 Y-150.328
G1 X-334.39 Y-150.36
G1 X-334.445 Y-150.393
G1 X-334.496 Y-150.422
G1 X-334.531 Y-150.44
G1 X-334.56 Y-150.455
G1 X-334.601 Y-150.473
G1 X-334.625 Y-150.483
G1 X-334.629 Y-150.485
G1 X-334.651 Y-150.486
G1 X-334.688 Y-150.485
G1 X-334.729 Y-150.484
G1 X-334.782 Y-150.48
G1 X-334.848 Y-150.473
G1 X-334.917 Y-150.464
G1 X-335 Y-150.452
G1 X-335.1 Y-150.435
G1 X-335.203 Y-150.415
G1 X-335.308 Y-150.394
G1 X-335.419 Y-150.37
G1 X-335.541 Y-150.342
G1 X-335.676 Y-150.31
G1 X-335.806 Y-150.278
G1 X-335.943 Y-150.244
G1 X-336.09 Y-150.206
G1 X-336.238 Y-150.169
G1 X-336.384 Y-150.131
G1 X-336.404 Y-150.127
G1 X-336.553 Y-150.09
G1 X-336.563 Y-150.087
G1 X-336.71 Y-150.051
G1 X-336.745 Y-150.043
G1 X-336.869 Y-150.014
G1 X-336.891 Y-150.008
G1 X-336.902 Y-150.005
G1 X-336.943 Y-149.99
G1 X-336.972 Y-149.979
G1 X-337.032 Y-149.954
G1 X-337.098 Y-149.926
G1 X-337.164 Y-149.897
G1 X-337.247 Y-149.859
G1 X-337.347 Y-149.813
G1 X-337.359 Y-149.807
G1 X-337.453 Y-149.765
G1 X-337.546 Y-149.721
G1 X-337.592 Y-149.7
G1 X-337.697 Y-149.653
G1 X-337.72 Y-149.643
G1 X-337.825 Y-149.597
G1 X-337.848 Y-149.587
G1 X-337.953 Y-149.542
G1 X-338.025 Y-149.512
G1 X-338.13 Y-149.47
G1 X-338.179 Y-149.451
G1 X-338.284 Y-149.411
G1 X-338.359 Y-149.383
G1 X-338.464 Y-149.346
G1 X-338.567 Y-149.312
G1 X-338.672 Y-149.279
G1 X-338.786 Y-149.246
G1 X-338.892 Y-149.217
G1 X-338.995 Y-149.19
G1 X-339.1 Y-149.165
G1 X-339.246 Y-149.134
G1 X-339.352 Y-149.114
G1 X-339.525 Y-149.086
G1 X-339.631 Y-149.072
G1 X-339.781 Y-149.056
G1 X-339.888 Y-149.047
G1 X-340.048 Y-149.038
G1 X-340.138 Y-149.035
G1 X-340.244 Y-149.033
G1 X-340.334
G1 X-340.473 Y-149.036
G1 X-340.564 Y-149.04
G1 X-340.666 Y-149.046
G1 X-340.758 Y-149.053
G1 X-340.86 Y-149.063
G1 X-340.952 Y-149.073
G1 X-341.053 Y-149.085
G1 X-341.145 Y-149.098
G1 X-341.239 Y-149.113
G1 X-341.332 Y-149.129
G1 X-341.43 Y-149.147
G1 X-341.523 Y-149.166
G1 X-341.594 Y-149.182
G1 X-341.686 Y-149.203
G1 X-341.772 Y-149.224
G1 X-341.865 Y-149.248
G1 X-341.927 Y-149.264
G1 X-342.02 Y-149.29
G1 X-342.089 Y-149.311
G1 X-342.181 Y-149.339
G1 X-342.261 Y-149.364
G1 X-342.354 Y-149.395
G1 X-342.403 Y-149.412
G1 X-342.494 Y-149.444
G1 X-342.57 Y-149.471
G1 X-342.662 Y-149.506
G1 X-342.712 Y-149.526
G1 X-342.802 Y-149.562
G1 X-342.83 Y-149.573
G1 X-342.92 Y-149.61
G1 X-343.015 Y-149.651
G1 X-343.193 Y-149.731
G1 X-343.271 Y-149.768
G1 X-343.358 Y-149.81
G1 X-343.398 Y-149.829
G1 X-343.484 Y-149.872
G1 X-343.524 Y-149.892
G1 X-343.609 Y-149.936
G1 X-343.648 Y-149.957
G1 X-343.732 Y-150.002
G1 X-343.772 Y-150.024
G1 X-343.855 Y-150.07
G1 X-343.874 Y-150.081
G1 X-349.286 Y-153.129
G1 X-354.7 Y-156.179
G1 X-360.113 Y-159.23
G1 X-365.526 Y-162.282
G1 X-370.938 Y-165.336
G1 X-376.351 Y-168.391
G1 X-381.763 Y-171.447
G1 X-387.174 Y-174.505
G1 X-387.175
G1 X-397.995 Y-180.625
G1 X-397.997 Y-180.626
G1 X-403.405 Y-183.689
G1 X-403.406 Y-183.69
G1 X-408.813 Y-186.755
G1 X-414.22 Y-189.821
G1 X-414.222 Y-189.822
G1 X-419.627 Y-192.891
G1 X-419.628 Y-192.892
G1 X-425.031 Y-195.963
G1 X-430.435 Y-199.036
G1 X-430.436 Y-199.037
G1 X-435.837 Y-202.113
G1 X-441.237 Y-205.191
G1 X-441.239 Y-205.192
G1 X-446.636 Y-208.273
G1 X-446.637
G1 X-452.033 Y-211.356
G1 X-452.035 Y-211.357
G1 X-457.428 Y-214.443
G1 X-457.429 Y-214.444
G1 X-462.821 Y-217.532
G1 X-462.823 Y-217.533
G1 X-468.212 Y-220.624
G1 X-468.214 Y-220.625
G1 X-473.601 Y-223.72
G1 X-473.606 Y-223.723
G1 X-473.852 Y-223.865
G1 X-473.895 Y-223.89
G1 X-474.139 Y-224.036
G1 X-474.152 Y-224.044
G1 X-474.395 Y-224.191
G1 X-474.433 Y-224.214
G1 X-474.675 Y-224.365
G1 X-474.693 Y-224.377
G1 X-474.933 Y-224.529
G1 X-474.969 Y-224.552
G1 X-475.208 Y-224.708
G1 X-475.226 Y-224.72
G1 X-475.463 Y-224.877
G1 X-475.492 Y-224.896
G1 X-475.728 Y-225.056
G1 X-475.753 Y-225.074
G1 X-475.987 Y-225.236
G1 X-476.015 Y-225.255
G1 X-476.248 Y-225.42
G1 X-476.273 Y-225.438
G1 X-476.504 Y-225.605
G1 X-476.524 Y-225.619
G1 X-476.754 Y-225.788
G1 X-476.779 Y-225.807
G1 X-477.007 Y-225.978
G1 X-477.032 Y-225.997
G1 X-477.258 Y-226.17
G1 X-477.29 Y-226.194
G1 X-477.514 Y-226.37
G1 X-477.533 Y-226.386
G1 X-477.756 Y-226.564
G1 X-477.78 Y-226.583
G1 X-478.001 Y-226.763
G1 X-478.025 Y-226.783
G1 X-478.244 Y-226.965
G1 X-478.268 Y-226.985
G1 X-478.485 Y-227.169
G1 X-478.509 Y-227.19
G1 X-478.724 Y-227.376
G1 X-478.748 Y-227.397
G1 X-478.961 Y-227.585
G1 X-478.991 Y-227.611
G1 X-479.202 Y-227.802
G1 X-479.219 Y-227.818
G1 X-479.428 Y-228.01
G1 X-479.451 Y-228.031
G1 X-479.658 Y-228.225
G1 X-479.671 Y-228.238
G1 X-480.953 Y-229.453
G1 X-480.959 Y-229.458
G1 X-482.239 Y-230.677
G1 X-482.242 Y-230.68
G1 X-483.52 Y-231.901
G1 X-483.523 Y-231.904
G1 X-484.8 Y-233.127
G1 X-484.806 Y-233.132
G1 X-486.08 Y-234.358
G1 X-486.082 Y-234.361
G1 X-487.355 Y-235.589
G1 X-487.359 Y-235.592
G1 X-488.63 Y-236.822
G1 X-488.634 Y-236.826
G1 X-489.903 Y-238.058
G1 X-489.907 Y-238.062
G1 X-491.174 Y-239.297
G1 X-491.177 Y-239.3
G1 X-492.443 Y-240.537
G1 X-492.447 Y-240.541
G1 X-493.71 Y-241.779
G1 X-493.713 Y-241.782
G1 X-494.975 Y-243.023
G1 X-494.978 Y-243.026
G1 X-496.238 Y-244.268
G1 X-496.242 Y-244.272
G1 X-497.5 Y-245.517
G1 X-497.502 Y-245.519
G1 X-498.759 Y-246.765
G1 X-498.763 Y-246.769
G1 X-500.017 Y-248.016
G1 X-500.019 Y-248.018
G1 X-501.272 Y-249.267
G1 X-501.276 Y-249.271
G1 X-502.527 Y-250.522
G1 X-502.529 Y-250.524
G1 X-503.779 Y-251.776
G1 X-503.782 Y-251.779
G1 X-505.029 Y-253.032
G1 X-505.032 Y-253.035
G1 X-506.278 Y-254.29
G1 X-506.28 Y-254.292
G1 X-507.524 Y-255.547
G1 X-507.527 Y-255.55
G1 X-508.77 Y-256.807
G1 X-508.772 Y-256.81
G1 X-510.012 Y-258.068
G1 X-510.026 Y-258.082
G1 X-510.174 Y-258.234
G1 X-510.218 Y-258.28
G1 X-510.363 Y-258.435
G1 X-510.392 Y-258.467
G1 X-510.534 Y-258.623
G1 X-510.561 Y-258.653
G1 X-510.702 Y-258.812
G1 X-510.731 Y-258.845
G1 X-510.869 Y-259.005
G1 X-510.903 Y-259.045
G1 X-511.039 Y-259.208
G1 X-511.06 Y-259.233
G1 X-511.194 Y-259.397
G1 X-511.213 Y-259.421
G1 X-511.346 Y-259.587
G1 X-511.373 Y-259.622
G1 X-511.503 Y-259.789
G1 X-511.522 Y-259.813
G1 X-511.651 Y-259.982
G1 X-511.676 Y-260.015
G1 X-511.803 Y-260.186
G1 X-511.81 Y-260.196
G1 X-511.936 Y-260.367
G1 X-511.961 Y-260.4
G1 X-512.085 Y-260.573
G1 X-512.092 Y-260.583
G1 X-512.215 Y-260.756
G1 X-512.232 Y-260.78
G1 X-512.354 Y-260.955
G1 X-512.361 Y-260.965
G1 X-512.482 Y-261.14
G1 X-512.5 Y-261.168
G1 X-512.619 Y-261.344
G1 X-512.624 Y-261.351
G1 X-512.743 Y-261.528
G1 X-512.757 Y-261.548
G1 X-512.874 Y-261.725
G1 X-512.878 Y-261.732
G1 X-512.995 Y-261.91
G1 X-513.002 Y-261.921
G1 X-513.234 Y-262.277
G1 X-513.241 Y-262.287
G1 X-513.356 Y-262.465
G1 X-513.363 Y-262.476
G1 X-513.475 Y-262.652
G1 X-513.731 Y-263.05
G1 X-513.734 Y-263.055
G1 X-513.99 Y-263.454
G1 X-513.992 Y-263.458
G1 X-514.248 Y-263.859
G1 X-514.251 Y-263.863
G1 X-514.506 Y-264.264
G1 X-514.508 Y-264.267
G1 X-514.763 Y-264.669
G1 X-514.768 Y-264.677
G1 X-515.022 Y-265.08
G1 X-515.276 Y-265.483
G1 X-515.284 Y-265.496
G1 X-515.536 Y-265.9
G1 X-515.539 Y-265.904
G1 X-515.79 Y-266.308
G1 X-515.795 Y-266.316
G1 X-516.045 Y-266.721
G1 X-516.051 Y-266.732
G1 X-516.3 Y-267.139
G1 X-516.302 Y-267.141
G1 X-516.549 Y-267.547
G1 X-516.559 Y-267.563
G1 X-516.805 Y-267.971
G1 X-516.813 Y-267.983
G1 X-517.057 Y-268.392
G1 X-517.063 Y-268.402
G1 X-517.305 Y-268.811
G1 X-517.309 Y-268.819
G1 X-517.55 Y-269.229
G1 X-517.562 Y-269.25
G1 X-517.8 Y-269.662
G1 X-517.806 Y-269.672
G1 X-518.042 Y-270.084
G1 X-518.049 Y-270.097
G1 X-518.283 Y-270.51
G1 X-518.292 Y-270.526
G1 X-518.524 Y-270.941
G1 X-518.533 Y-270.956
G1 X-518.762 Y-271.371
G1 X-518.772 Y-271.389
G1 X-518.998 Y-271.805
G1 X-519.006 Y-271.821
G1 X-519.231 Y-272.239
G1 X-519.24 Y-272.258
G1 X-519.461 Y-272.677
G1 X-519.475 Y-272.703
G1 X-519.557 Y-272.862
G1 X-519.64 Y-273.023
G1 X-519.658 Y-273.058
G1 X-519.739 Y-273.22
G1 X-519.742 Y-273.227
G1 X-519.823 Y-273.39
G1 X-519.844 Y-273.432
G1 X-519.923 Y-273.597
G1 X-519.926 Y-273.604
G1 X-520.005 Y-273.77
G1 X-520.024 Y-273.811
G1 X-520.101 Y-273.979
G1 X-520.121 Y-274.022
G1 X-520.195 Y-274.19
G1 X-520.204 Y-274.211
G1 X-520.277 Y-274.38
G1 X-520.292 Y-274.415
G1 X-520.363 Y-274.585
G1 X-520.383 Y-274.636
G1 X-520.451 Y-274.807
G1 X-520.471 Y-274.858
G1 X-520.536 Y-275.03
G1 X-520.547 Y-275.06
G1 X-520.61 Y-275.232
G1 X-520.632 Y-275.294
G1 X-520.691 Y-275.466
G1 X-520.709 Y-275.518
G1 X-520.765 Y-275.691
G1 X-520.786 Y-275.76
G1 X-520.838 Y-275.934
G1 X-520.855 Y-275.994
G1 X-520.903 Y-276.167
G1 X-520.921 Y-276.233
G1 X-520.965 Y-276.406
G1 X-520.982 Y-276.478
G1 X-521.022 Y-276.652
G1 X-521.04 Y-276.733
G1 X-521.075 Y-276.906
G1 X-521.092 Y-276.997
G1 X-521.122 Y-277.171
G1 X-521.135 Y-277.253
G1 X-521.16 Y-277.425
G1 X-521.174 Y-277.535
G1 X-521.193 Y-277.708
G1 X-521.202 Y-277.797
G1 X-521.216 Y-277.969
G1 X-521.222 Y-278.06
G1 X-521.23 Y-278.212
G1 X-521.233 Y-278.297
G1 X-521.237 Y-278.451
G1 X-521.238 Y-278.553
G1 X-521.237 Y-278.709
G1 X-521.236 Y-278.77
G1 X-521.232 Y-278.927
G1 X-521.228 Y-279.027
G1 X-521.219 Y-279.185
G1 X-521.213 Y-279.263
G1 X-521.2 Y-279.422
G1 X-521.193 Y-279.501
G1 X-521.176 Y-279.66
G1 X-521.167 Y-279.735
G1 X-521.146 Y-279.895
G1 X-521.135 Y-279.972
G1 X-521.11 Y-280.132
G1 X-521.1 Y-280.189
G1 X-521.072 Y-280.349
G1 X-521.054 Y-280.447
G1 X-521.021 Y-280.606
G1 X-521.01 Y-280.658
G1 X-520.974 Y-280.818
G1 X-520.954 Y-280.9
G1 X-520.914 Y-281.058
G1 X-520.895 Y-281.131
G1 X-520.851 Y-281.289
G1 X-520.832 Y-281.353
G1 X-520.785 Y-281.509
G1 X-520.761 Y-281.585
G1 X-520.71 Y-281.74
G1 X-520.684 Y-281.816
G1 X-520.629 Y-281.97
G1 X-520.605 Y-282.034
G1 X-520.547 Y-282.186
G1 X-520.519 Y-282.257
G1 X-520.458 Y-282.406
G1 X-520.427 Y-282.48
G1 X-520.362 Y-282.628
G1 X-520.322 Y-282.715
G1 X-520.253 Y-282.86
G1 X-520.23 Y-282.908
G1 X-520.159 Y-283.051
G1 X-520.109 Y-283.147
G1 X-520.034 Y-283.286
G1 X-519.99 Y-283.364
G1 X-519.911 Y-283.501
G1 X-519.887 Y-283.542
G1 X-519.456 Y-284.264
G1 X-519.448 Y-284.278
G1 X-519.012 Y-285
G1 X-519.003 Y-285.015
G1 X-518.563 Y-285.735
G1 X-518.553 Y-285.752
G1 X-518.108 Y-286.47
G1 X-518.099 Y-286.483
G1 X-517.649 Y-287.201
G1 X-517.641 Y-287.214
G1 X-517.188 Y-287.929
G1 X-517.18 Y-287.942
G1 X-516.723 Y-288.656
G1 X-516.715 Y-288.668
G1 X-516.254 Y-289.381
G1 X-516.245 Y-289.395
G1 X-515.78 Y-290.106
G1 X-515.773 Y-290.117
G1 X-515.305 Y-290.826
G1 X-515.298 Y-290.836
G1 X-514.827 Y-291.544
G1 X-514.82 Y-291.555
G1 X-514.346 Y-292.261
G1 X-514.338 Y-292.273
G1 X-513.86 Y-292.978
G1 X-513.856 Y-292.984
G1 X-513.377 Y-293.687
G1 X-513.367 Y-293.7
G1 X-512.884 Y-294.401
G1 X-512.879 Y-294.41
G1 X-512.394 Y-295.109
G1 X-512.391 Y-295.113
G1 X-511.905 Y-295.811
G1 X-511.896 Y-295.824
G1 X-511.407 Y-296.519
G1 X-511.402 Y-296.526
G1 X-510.911 Y-297.22
G1 X-510.907 Y-297.226
G1 X-510.415 Y-297.918
G1 X-510.409 Y-297.926
G1 X-509.915 Y-298.616
G1 X-509.912 Y-298.621
G1 X-509.417 Y-299.31
G1 X-509.409 Y-299.32
G1 X-508.912 Y-300.006
G1 X-508.91 Y-300.009
G1 X-508.413 Y-300.693
G1 X-508.395 Y-300.718
G1 X-508.266 Y-300.892
G1 X-508.216 Y-300.957
G1 X-508.083 Y-301.127
G1 X-508.043 Y-301.178
G1 X-507.906 Y-301.346
G1 X-507.872 Y-301.386
G1 X-507.732 Y-301.552
G1 X-507.699 Y-301.591
G1 X-507.557 Y-301.754
G1 X-507.515 Y-301.801
G1 X-507.369 Y-301.962
G1 X-507.341 Y-301.992
G1 X-507.193 Y-302.151
G1 X-507.158 Y-302.189
G1 X-507.008 Y-302.345
G1 X-506.979 Y-302.374
G1 X-506.826 Y-302.529
G1 X-506.804 Y-302.551
G1 X-506.649 Y-302.705
G1 X-506.627 Y-302.727
G1 X-506.471 Y-302.879
G1 X-506.441 Y-302.908
G1 X-506.283 Y-303.058
G1 X-506.276 Y-303.064
G1 X-506.117 Y-303.214
G1 X-506.087 Y-303.242
G1 X-505.765 Y-303.538
G1 X-505.742 Y-303.56
G1 X-505.58 Y-303.705
G1 X-505.417 Y-303.852
G1 X-505.409 Y-303.86
G1 X-505.247 Y-304.004
G1 X-504.921 Y-304.296
G1 X-504.913 Y-304.303
G1 X-504.758 Y-304.441
G1 X-504.607 Y-304.577
G1 X-504.454 Y-304.716
G1 X-504.303 Y-304.854
G1 X-504.141 Y-305.004
G1 X-504.12 Y-305.023
G1 X-503.957 Y-305.171
G1 X-503.795 Y-305.319
G1 X-503.781 Y-305.332
G1 X-503.611 Y-305.486
G1 X-503.604 Y-305.492
G1 X-503.436 Y-305.643
G1 X-503.27 Y-305.794
G1 X-503.248 Y-305.813
G1 X-503.076 Y-305.966
G1 X-503.075 Y-305.967
G1 X-502.904 Y-306.119
G1 X-502.891 Y-306.131
G1 X-502.545 Y-306.435
G1 X-502.529 Y-306.449
G1 X-502.356 Y-306.599
G1 X-502.349 Y-306.605
G1 X-502.175 Y-306.755
G1 X-502.168 Y-306.761
G1 X-501.993 Y-306.911
G1 X-501.977 Y-306.924
G1 X-501.802 Y-307.072
G1 X-501.787 Y-307.085
G1 X-501.435 Y-307.379
G1 X-501.414 Y-307.397
G1 X-501.236 Y-307.543
G1 X-501.219 Y-307.556
G1 X-500.863 Y-307.844
G1 X-500.832 Y-307.869
G1 X-500.652 Y-308.011
G1 X-500.644 Y-308.017
G1 X-500.464 Y-308.158
G1 X-500.449 Y-308.17
G1 X-500.268 Y-308.31
G1 X-500.252 Y-308.322
G1 X-500.07 Y-308.461
G1 X-500.046 Y-308.48
G1 X-499.864 Y-308.616
G1 X-499.757 Y-308.696
G1 X-499.746 Y-308.704
G1 X-499.639 Y-308.784
G1 X-499.531 Y-308.865
G1 X-499.505 Y-308.884
G1 X-499.394 Y-308.965
G1 X-499.172 Y-309.127
G1 X-499.135 Y-309.153
G1 X-498.909 Y-309.313
G1 X-498.878 Y-309.335
G1 X-498.765 Y-309.413
G1 X-498.743 Y-309.428
G1 X-498.628 Y-309.506
G1 X-498.58 Y-309.537
G1 X-498.465 Y-309.612
G1 X-498.455 Y-309.619
G1 X-498.339 Y-309.694
G1 X-498.279 Y-309.732
G1 X-498.162 Y-309.804
G1 X-498.145 Y-309.814
G1 X-498.028 Y-309.885
G1 X-497.984 Y-309.912
G1 X-497.866 Y-309.981
G1 X-497.803 Y-310.017
G1 X-497.684 Y-310.083
G1 X-497.62 Y-310.117
G1 X-497.5 Y-310.18
G1 X-497.453 Y-310.204
G1 X-497.332 Y-310.265
G1 X-497.275 Y-310.293
G1 X-497.154 Y-310.351
G1 X-497.087 Y-310.382
G1 X-496.965 Y-310.437
G1 X-496.896 Y-310.467
G1 X-496.773 Y-310.519
G1 X-496.683 Y-310.556
G1 X-496.559 Y-310.604
G1 X-496.488 Y-310.63
G1 X-496.363 Y-310.675
G1 X-496.256 Y-310.712
G1 X-496.131 Y-310.752
G1 X-496.044 Y-310.778
G1 X-495.909 Y-310.817
G1 X-495.861 Y-310.831
G1 X-495.725 Y-310.868
G1 X-495.636 Y-310.891
G1 X-495.499 Y-310.924
G1 X-495.425 Y-310.941
G1 X-495.286 Y-310.971
G1 X-495.217 Y-310.985
G1 X-495.077 Y-311.012
G1 X-495.005 Y-311.025
G1 X-494.863 Y-311.049
G1 X-494.82 Y-311.056
G1 X-494.678 Y-311.078
G1 X-494.589 Y-311.09
G1 X-494.446 Y-311.108
G1 X-494.421 Y-311.111
G1 X-494.277 Y-311.128
G1 X-494.21 Y-311.135
G1 X-494.065 Y-311.149
G1 X-494.022 Y-311.153
G1 X-493.877 Y-311.165
G1 X-493.812 Y-311.17
G1 X-493.667 Y-311.179
G1 X-493.622 Y-311.181
G1 X-493.476 Y-311.188
G1 X-493.453 Y-311.189
G1 X-493.306 Y-311.195
G1 X-493.242 Y-311.197
G1 X-493.096 Y-311.2
G1 X-493.053 Y-311.201
G1 X-492.907 Y-311.202
G1 X-492.885
G1 X-492.739
G1 X-492.696
G1 X-492.549 Y-311.2
G1 X-492.506 Y-311.199
G1 X-492.36 Y-311.195
G1 X-492.338 Y-311.194
G1 X-492.193 Y-311.189
G1 X-492.17 Y-311.188
G1 X-492.026 Y-311.182
G1 X-491.982 Y-311.18
G1 X-491.838 Y-311.172
G1 X-491.815 Y-311.171
G1 X-491.672 Y-311.162
G1 X-491.648 Y-311.16
G1 X-491.506 Y-311.15
G1 X-491.433 Y-311.144
G1 X-491.294 Y-311.131
G1 X-491.182 Y-311.119
G1 X-491.043 Y-311.101
G1 X-490.951 Y-311.087
G1 X-490.813 Y-311.065
G1 X-490.725 Y-311.05
G1 X-490.587 Y-311.024
G1 X-490.522 Y-311.011
G1 X-490.384 Y-310.982
G1 X-490.32 Y-310.968
G1 X-490.182 Y-310.936
G1 X-490.113 Y-310.919
G1 X-489.976 Y-310.884
G1 X-489.934 Y-310.873
G1 X-489.797 Y-310.836
G1 X-489.762 Y-310.826
G1 X-489.624 Y-310.787
G1 X-489.597 Y-310.78
G1 X-489.46 Y-310.74
G1 X-489.44 Y-310.734
G1 X-489.303 Y-310.693
G1 X-489.297 Y-310.691
G1 X-489.161 Y-310.65
G1 X-489.146 Y-310.646
G1 X-489.02 Y-310.607
G1 X-488.893 Y-310.569
G1 X-488.769 Y-310.532
G1 X-488.662 Y-310.501
G1 X-488.563 Y-310.473
G1 X-488.471 Y-310.449
G1 X-488.388 Y-310.429
G1 X-488.325 Y-310.414
G1 X-488.254 Y-310.401
G1 X-488.194 Y-310.39
G1 X-488.165 Y-310.386
G1 X-488.102 Y-310.379
G1 X-488.009 Y-310.37
G1 X-487.92 Y-310.363
G1 X-487.805 Y-310.355
G1 X-487.804
G1 X-487.702 Y-310.349
G1 X-487.599 Y-310.344
G1 X-487.495 Y-310.34
G1 X-487.402 Y-310.337
G1 X-487.286 Y-310.336
G1 X-487.181 Y-310.335
G1 X-487.075 Y-310.336
G1 X-486.971 Y-310.337
G1 X-486.877 Y-310.34
G1 X-486.772 Y-310.345
G1 X-486.667 Y-310.35
G1 X-486.563 Y-310.357
G1 X-486.47 Y-310.363
G1 X-486.378 Y-310.372
G1 X-486.264 Y-310.384
G1 X-486.174 Y-310.393
G1 X-486.083 Y-310.405
G1 X-485.985 Y-310.419
G1 X-485.897 Y-310.433
G1 X-485.809 Y-310.448
G1 X-485.704 Y-310.467
G1 X-485.603 Y-310.486
G1 X-485.504 Y-310.506
G1 X-485.405 Y-310.526
G1 X-485.311 Y-310.546
G1 X-485.227 Y-310.564
G1 X-485.128 Y-310.587
G1 X-485.045 Y-310.606
G1 X-484.973 Y-310.625
G1 X-484.892 Y-310.647
G1 X-484.827 Y-310.665
G1 X-484.764 Y-310.685
G1 X-484.701 Y-310.705
G1 X-484.639 Y-310.726
G1 X-484.599 Y-310.741
G1 X-484.572 Y-310.752
G1 X-484.542 Y-310.765
G1 X-484.508 Y-310.781
G1 X-484.434 Y-310.846
G1 X-484.321 Y-310.951
G1 X-484.203 Y-311.063
G1 X-484.088 Y-311.175
G1 X-483.977 Y-311.285
G1 X-483.863 Y-311.403
G1 X-483.753 Y-311.519
G1 X-483.652 Y-311.63
G1 X-483.545 Y-311.752
G1 X-483.446 Y-311.867
G1 X-483.35 Y-311.985
G1 X-483.253 Y-312.107
G1 X-483.165 Y-312.223
G1 X-483.086 Y-312.332
G1 X-483.005 Y-312.449
G1 X-482.926 Y-312.567
G1 X-482.858 Y-312.676
G1 X-482.788 Y-312.793
G1 X-482.732 Y-312.893
G1 X-482.678 Y-312.996
G1 X-482.624 Y-313.105
G1 X-482.582 Y-313.198
G1 X-482.545 Y-313.287
G1 X-482.509 Y-313.384
G1 X-482.365 Y-313.8
G1 X-482.228 Y-314.228
G1 X-482.097 Y-314.669
G1 X-481.972 Y-315.12
G1 X-481.855 Y-315.576
G1 X-481.742 Y-316.046
G1 X-481.632 Y-316.526
G1 X-481.528 Y-317.009
G1 X-481.426 Y-317.505
G1 X-481.325 Y-318.01
G1 X-481.226 Y-318.517
G1 X-481.129 Y-319.031
G1 X-480.931 Y-320.078
G1 X-480.929 Y-320.09
G1 X-480.828 Y-320.614
G1 X-480.826 Y-320.621
G1 X-480.724 Y-321.144
G1 X-480.719 Y-321.169
G1 X-480.613 Y-321.69
G1 X-480.608 Y-321.714
G1 X-480.498 Y-322.234
G1 X-480.493 Y-322.259
G1 X-480.379 Y-322.777
G1 X-480.369 Y-322.82
G1 X-480.248 Y-323.336
G1 X-480.239 Y-323.374
G1 X-480.112 Y-323.887
G1 X-480.099 Y-323.938
G1 X-479.964 Y-324.447
G1 X-479.949 Y-324.502
G1 X-479.805 Y-325.008
G1 X-479.786 Y-325.07
G1 X-479.632 Y-325.572
G1 X-479.614 Y-325.63
G1 X-479.554 Y-325.813
G1 X-479.534 Y-325.872
G1 X-479.47 Y-326.055
G1 X-479.449 Y-326.113
G1 X-479.381 Y-326.296
G1 X-479.361 Y-326.349
G1 X-479.29 Y-326.53
G1 X-479.267 Y-326.586
G1 X-479.192 Y-326.767
G1 X-479.172 Y-326.814
G1 X-479.094 Y-326.994
G1 X-479.074 Y-327.041
G1 X-478.993 Y-327.22
G1 X-478.965 Y-327.279
G1 X-478.88 Y-327.457
G1 X-478.861 Y-327.496
G1 X-478.774 Y-327.672
G1 X-478.745 Y-327.73
G1 X-478.654 Y-327.905
G1 X-478.637 Y-327.937
G1 X-478.544 Y-328.111
G1 X-478.52 Y-328.155
G1 X-478.424 Y-328.328
G1 X-478.392 Y-328.385
G1 X-478.293 Y-328.555
G1 X-478.272 Y-328.591
G1 X-478.17 Y-328.761
G1 X-478.142 Y-328.805
G1 X-478.038 Y-328.972
G1 X-478.019 Y-329.003
G1 X-477.913 Y-329.169
G1 X-477.876 Y-329.225
G1 X-477.767 Y-329.388
G1 X-477.747 Y-329.418
G1 X-477.636 Y-329.58
G1 X-477.61 Y-329.617
G1 X-477.497 Y-329.777
G1 X-477.463 Y-329.824
G1 X-477.347 Y-329.982
G1 X-477.322 Y-330.016
G1 X-477.205 Y-330.171
G1 X-477.177 Y-330.207
G1 X-477.058 Y-330.36
G1 X-477.03 Y-330.396
G1 X-476.909 Y-330.547
G1 X-476.873 Y-330.591
G1 X-476.75 Y-330.739
G1 X-476.728 Y-330.766
G1 X-476.57 Y-330.952
G1 X-476.544 Y-330.981
G1 X-476.382 Y-331.167
G1 X-476.364 Y-331.188
G1 X-476.2 Y-331.373
G1 X-476.176 Y-331.4
G1 X-476.01 Y-331.583
G1 X-475.991 Y-331.604
G1 X-475.822 Y-331.787
G1 X-475.791 Y-331.82
G1 X-475.62 Y-332
G1 X-475.601 Y-332.02
G1 X-475.427 Y-332.2
G1 X-475.389 Y-332.238
G1 X-475.212 Y-332.415
G1 X-475.199 Y-332.428
G1 X-475.021 Y-332.604
G1 X-474.983 Y-332.641
G1 X-474.802 Y-332.814
G1 X-474.782 Y-332.833
G1 X-474.599 Y-333.005
G1 X-474.56 Y-333.041
G1 X-474.374 Y-333.21
G1 X-474.347 Y-333.234
G1 X-474.16 Y-333.4
G1 X-474.127 Y-333.429
G1 X-473.937 Y-333.593
G1 X-473.902 Y-333.623
G1 X-473.71 Y-333.784
G1 X-473.675 Y-333.813
G1 X-473.481 Y-333.971
G1 X-473.445 Y-333.999
G1 X-473.249 Y-334.154
G1 X-473.22 Y-334.178
G1 X-473.023 Y-334.33
G1 X-472.98 Y-334.362
G1 X-472.78 Y-334.511
G1 X-472.734 Y-334.544
G1 X-472.532 Y-334.689
G1 X-472.492 Y-334.718
G1 X-472.289 Y-334.859
G1 X-472.251 Y-334.885
G1 X-472.046 Y-335.023
G1 X-471.989 Y-335.06
G1 X-471.782 Y-335.193
G1 X-471.749 Y-335.214
G1 X-471.541 Y-335.344
G1 X-471.471 Y-335.387
G1 X-471.164 Y-335.568
G1 X-471.104 Y-335.602
G1 X-470.792 Y-335.777
G1 X-470.733 Y-335.809
G1 X-470.418 Y-335.977
G1 X-470.362 Y-336.007
G1 X-470.043 Y-336.169
G1 X-469.993 Y-336.194
G1 X-469.67 Y-336.351
G1 X-469.634 Y-336.368
G1 X-469.309 Y-336.521
G1 X-469.263 Y-336.542
G1 X-468.935 Y-336.69
G1 X-468.896 Y-336.707
G1 X-468.565 Y-336.851
G1 X-468.536 Y-336.864
G1 X-468.203 Y-337.005
G1 X-468.185 Y-337.012
G1 X-467.851 Y-337.151
G1 X-467.833 Y-337.159
G1 X-467.498 Y-337.296
G1 X-467.477 Y-337.304
G1 X-466.803 Y-337.574
G1 X-466.795 Y-337.577
G1 X-466.462 Y-337.71
G1 X-466.129 Y-337.843
G1 X-465.801 Y-337.975
G1 X-465.483 Y-338.104
G1 X-465.167 Y-338.235
G1 X-464.861 Y-338.365
G1 X-464.562 Y-338.496
G1 X-464.266 Y-338.628
G1 X-463.98 Y-338.761
G1 X-463.703 Y-338.896
G1 X-463.423 Y-339.037
G1 X-463.311 Y-339.095
G1 X-463.197 Y-339.156
G1 X-463.072 Y-339.225
G1 X-462.95 Y-339.291
G1 X-462.849 Y-339.348
G1 X-462.609 Y-339.488
G1 X-462.504 Y-339.551
G1 X-462.389 Y-339.622
G1 X-462.283 Y-339.688
G1 X-462.177 Y-339.757
G1 X-462.072 Y-339.825
G1 X-461.968 Y-339.896
G1 X-461.865 Y-339.967
G1 X-461.762 Y-340.041
G1 X-461.67 Y-340.107
G1 X-461.577 Y-340.178
G1 X-461.482 Y-340.25
G1 X-461.389 Y-340.324
G1 X-461.297 Y-340.399
G1 X-461.218 Y-340.466
G1 X-461.129 Y-340.543
G1 X-461.045 Y-340.618
G1 X-460.962 Y-340.694
G1 X-460.437 Y-341.191
G1 X-459.911 Y-341.696
G1 X-459.386 Y-342.21
G1 X-458.863 Y-342.728
G1 X-458.339 Y-343.254
G1 X-457.816 Y-343.784
G1 X-457.295 Y-344.317
G1 X-456.772 Y-344.856
G1 X-456.247 Y-345.399
G1 X-455.724 Y-345.943
G1 X-455.2 Y-346.49
G1 X-454.675 Y-347.038
G1 X-454.67 Y-347.042
G1 X-454.143 Y-347.59
G1 X-454.141 Y-347.592
G1 X-453.614 Y-348.139
G1 X-453.608 Y-348.145
G1 X-453.08 Y-348.69
G1 X-453.074 Y-348.697
G1 X-452.545 Y-349.24
G1 X-452.535 Y-349.25
G1 X-452.004 Y-349.79
G1 X-451.996 Y-349.799
G1 X-451.464 Y-350.336
G1 X-451.447 Y-350.352
G1 X-450.912 Y-350.884
G1 X-450.897 Y-350.899
G1 X-450.359 Y-351.427
G1 X-450.344 Y-351.442
G1 X-449.804 Y-351.965
G1 X-449.784 Y-351.983
G1 X-449.24 Y-352.501
G1 X-449.216 Y-352.524
G1 X-448.668 Y-353.035
G1 X-448.646 Y-353.056
G1 X-448.095 Y-353.56
G1 X-448.001 Y-353.642
G1 X-447.943 Y-353.691
G1 X-447.799 Y-353.806
G1 X-447.739 Y-353.851
G1 X-447.624 Y-353.933
G1 X-447.561 Y-353.976
G1 X-447.417 Y-354.069
G1 X-447.351 Y-354.109
G1 X-447.222 Y-354.183
G1 X-447.154 Y-354.22
G1 X-446.991 Y-354.303
G1 X-446.921 Y-354.336
G1 X-446.808 Y-354.386
G1 X-446.735 Y-354.417
G1 X-446.618 Y-354.465
G1 X-446.544 Y-354.493
G1 X-446.412 Y-354.539
G1 X-446.336 Y-354.564
G1 X-446.253 Y-354.59
G1 X-446.176 Y-354.613
G1 X-446.018 Y-354.656
G1 X-445.94 Y-354.675
G1 X-445.857 Y-354.694
G1 X-445.778 Y-354.711
G1 X-445.657 Y-354.734
G1 X-445.577 Y-354.748
G1 X-445.462 Y-354.766
G1 X-445.383 Y-354.777
G1 X-445.301 Y-354.788
G1 X-445.22 Y-354.797
G1 X-445.106 Y-354.807
G1 X-445.026 Y-354.813
G1 X-444.908 Y-354.82
G1 X-444.828 Y-354.823
G1 X-444.709 Y-354.825
G1 X-444.629
G1 X-444.549 Y-354.824
G1 X-444.47 Y-354.822
G1 X-444.349 Y-354.817
G1 X-444.27 Y-354.812
G1 X-444.184 Y-354.805
G1 X-444.107 Y-354.798
G1 X-443.98 Y-354.784
G1 X-443.904 Y-354.774
G1 X-443.769 Y-354.753
G1 X-443.695 Y-354.74
G1 X-443.646 Y-354.731
G1 X-443.573 Y-354.717
G1 X-443.404 Y-354.68
G1 X-443.195 Y-354.628
G1 X-443.082 Y-354.598
G1 X-442.874 Y-354.538
G1 X-442.772 Y-354.506
G1 X-442.563 Y-354.438
G1 X-442.481 Y-354.41
G1 X-442.273 Y-354.336
G1 X-442.21 Y-354.313
G1 X-442.002 Y-354.234
G1 X-441.928 Y-354.205
G1 X-441.72 Y-354.12
G1 X-441.655 Y-354.093
G1 X-441.448 Y-354.003
G1 X-441.424 Y-353.992
G1 X-441.217 Y-353.9
G1 X-441.171 Y-353.879
G1 X-440.964 Y-353.783
G1 X-440.953 Y-353.778
G1 X-440.746 Y-353.681
G1 X-440.734 Y-353.676
G1 X-440.527 Y-353.578
G1 X-440.511 Y-353.57
G1 X-440.31 Y-353.473
G1 X-440.118 Y-353.382
G1 X-439.934 Y-353.296
G1 X-439.752 Y-353.213
G1 X-439.576 Y-353.134
G1 X-439.427 Y-353.069
G1 X-439.426
G1 X-439.416 Y-353.078
G1 X-439.068 Y-353.425
G1 X-438.722 Y-353.776
G1 X-438.382 Y-354.128
G1 X-438.038 Y-354.491
G1 X-437.692 Y-354.86
G1 X-437.347 Y-355.233
G1 X-437.001 Y-355.611
G1 X-436.656 Y-355.99
G1 X-436.308 Y-356.375
G1 X-435.958 Y-356.763
G1 X-435.608 Y-357.152
G1 X-435.606 Y-357.155
G1 X-435.255 Y-357.545
G1 X-434.904 Y-357.935
G1 X-434.893 Y-357.948
G1 X-434.539 Y-358.338
G1 X-434.533 Y-358.344
G1 X-434.178 Y-358.733
G1 X-434.17 Y-358.743
G1 X-433.814 Y-359.13
G1 X-433.805 Y-359.139
G1 X-433.447 Y-359.525
G1 X-433.43 Y-359.544
G1 X-433.07 Y-359.926
G1 X-433.055 Y-359.941
G1 X-432.692 Y-360.321
G1 X-432.674 Y-360.34
G1 X-432.308 Y-360.717
G1 X-432.284 Y-360.741
G1 X-431.915 Y-361.113
G1 X-431.897 Y-361.131
G1 X-431.525 Y-361.5
G1 X-431.494 Y-361.53
G1 X-431.117 Y-361.894
G1 X-431.1 Y-361.91
G1 X-430.898 Y-362.103
G1 X-430.696 Y-362.296
G1 X-430.685 Y-362.306
G1 X-430.478 Y-362.502
G1 X-430.467 Y-362.513
G1 X-430.259 Y-362.708
G1 X-430.253 Y-362.713
G1 X-430.043 Y-362.909
G1 X-430.031 Y-362.92
G1 X-429.821 Y-363.114
G1 X-429.81 Y-363.124
G1 X-429.598 Y-363.318
G1 X-429.581 Y-363.334
G1 X-429.368 Y-363.526
G1 X-429.351 Y-363.542
G1 X-429.136 Y-363.733
G1 X-429.106 Y-363.759
G1 X-428.889 Y-363.947
G1 X-428.871 Y-363.962
G1 X-428.653 Y-364.148
G1 X-428.629 Y-364.168
G1 X-428.409 Y-364.352
G1 X-428.378 Y-364.378
G1 X-428.156 Y-364.559
G1 X-428.118 Y-364.589
G1 X-427.894 Y-364.766
G1 X-427.868 Y-364.787
G1 X-427.643 Y-364.961
G1 X-427.606 Y-364.989
G1 X-427.378 Y-365.16
G1 X-427.336 Y-365.191
G1 X-427.107 Y-365.357
G1 X-427.054 Y-365.394
G1 X-426.822 Y-365.555
G1 X-426.781 Y-365.584
G1 X-426.547 Y-365.741
G1 X-426.492 Y-365.777
G1 X-426.255 Y-365.929
G1 X-426.196 Y-365.965
G1 X-425.957 Y-366.111
G1 X-425.905 Y-366.142
G1 X-425.664 Y-366.283
G1 X-425.603 Y-366.318
G1 X-425.36 Y-366.453
G1 X-425.279 Y-366.497
G1 X-425.032 Y-366.625
G1 X-424.958 Y-366.662
G1 X-424.711 Y-366.782
G1 X-424.651 Y-366.81
G1 X-424.401 Y-366.925
G1 X-424.302 Y-366.969
G1 X-424.047 Y-367.076
G1 X-424 Y-367.095
G1 X-423.743 Y-367.198
G1 X-423.662 Y-367.229
G1 X-423.402 Y-367.325
G1 X-423.35 Y-367.344
G1 X-423.087 Y-367.436
G1 X-423.026 Y-367.457
G1 X-422.76 Y-367.544
G1 X-422.702 Y-367.562
G1 X-422.434 Y-367.644
G1 X-422.386 Y-367.658
G1 X-422.116 Y-367.736
G1 X-422.068 Y-367.75
G1 X-421.796 Y-367.824
G1 X-421.762 Y-367.833
G1 X-421.489 Y-367.904
G1 X-421.452 Y-367.913
G1 X-421.177 Y-367.981
G1 X-421.143 Y-367.989
G1 X-420.867 Y-368.054
G1 X-420.832 Y-368.062
G1 X-420.555 Y-368.124
G1 X-420.532 Y-368.13
G1 X-420.254 Y-368.19
G1 X-420.243 Y-368.192
G1 X-419.965 Y-368.251
G1 X-419.942 Y-368.256
G1 X-419.663 Y-368.313
G1 X-419.641 Y-368.317
G1 X-419.362 Y-368.372
G1 X-419.084 Y-368.427
G1 X-418.807 Y-368.482
G1 X-418.799 Y-368.483
G1 X-418.522 Y-368.537
G1 X-418.251 Y-368.59
G1 X-417.988 Y-368.642
G1 X-417.721 Y-368.697
G1 X-417.43 Y-368.756
G1 X-417.408 Y-368.761
G1 X-416.82 Y-368.877
G1 X-416.799 Y-368.881
G1 X-416.505 Y-368.937
G1 X-416.493 Y-368.939
G1 X-416.198 Y-368.994
G1 X-416.186 Y-368.996
G1 X-415.89 Y-369.05
G1 X-415.871 Y-369.054
G1 X-415.576 Y-369.106
G1 X-415.564 Y-369.108
G1 X-415.268 Y-369.159
G1 X-415.246 Y-369.163
G1 X-414.949 Y-369.212
G1 X-414.94 Y-369.213
G1 X-414.644 Y-369.261
G1 X-414.622 Y-369.265
G1 X-414.325 Y-369.311
G1 X-414.304 Y-369.314
G1 X-414.007 Y-369.358
G1 X-413.995 Y-369.359
G1 X-413.697 Y-369.402
G1 X-413.678 Y-369.405
G1 X-413.381 Y-369.446
G1 X-413.359 Y-369.449
G1 X-413.061 Y-369.488
G1 X-413.051 Y-369.49
G1 X-412.753 Y-369.527
G1 X-412.721 Y-369.531
G1 X-412.423 Y-369.566
G1 X-412.413 Y-369.568
G1 X-412.115 Y-369.602
G1 X-412.084 Y-369.605
G1 X-411.786 Y-369.636
G1 X-411.775 Y-369.637
G1 X-411.477 Y-369.667
G1 X-411.445 Y-369.67
G1 X-411.146 Y-369.697
G1 X-411.125 Y-369.699
G1 X-410.827 Y-369.724
G1 X-410.806 Y-369.726
G1 X-410.507 Y-369.749
G1 X-410.476 Y-369.751
G1 X-410.178 Y-369.771
G1 X-410.163 Y-369.772
G1 X-409.809 Y-369.794
G1 X-409.782 Y-369.795
G1 X-409.428 Y-369.814
G1 X-409.401 Y-369.816
G1 X-409.047 Y-369.832
G1 X-409.029 Y-369.833
G1 X-408.674 Y-369.847
G1 X-408.657
G1 X-408.303 Y-369.859
G1 X-408.275 Y-369.86
G1 X-407.92 Y-369.869
G1 X-407.903
G1 X-407.548 Y-369.876
G1 X-407.539 Y-369.877
G1 X-407.184 Y-369.883
G1 X-407.157
G1 X-406.802 Y-369.886
G1 X-406.784
G1 X-406.429 Y-369.887
G1 X-406.42
G1 X-406.064
G1 X-406.046
G1 X-405.691 Y-369.885
G1 X-405.682
G1 X-405.326 Y-369.882
G1 X-405.308
G1 X-404.953 Y-369.877
G1 X-404.944
G1 X-404.589 Y-369.871
G1 X-404.579 Y-369.87
G1 X-404.224 Y-369.863
G1 X-404.216
G1 X-403.86 Y-369.855
G1 X-403.851
G1 X-403.496 Y-369.846
G1 X-403.487
G1 X-403.131 Y-369.836
G1 X-403.122 Y-369.835
G1 X-402.412 Y-369.813
G1 X-402.403
G1 X-401.693 Y-369.789
G1 X-401.684
G1 X-401.334 Y-369.776
G1 X-400.951 Y-369.763
G1 X-400.943
G1 X-400.556 Y-369.749
G1 X-400.548
G1 X-400.164 Y-369.734
G1 X-399.781 Y-369.72
G1 X-399.764 Y-369.719
G1 X-399.377 Y-369.703
G1 X-398.989 Y-369.687
G1 X-398.601 Y-369.671
G1 X-398.585
G1 X-398.197 Y-369.653
G1 X-398.188 Y-369.652
G1 X-397.802 Y-369.633
G1 X-397.414 Y-369.614
G1 X-397.389 Y-369.613
G1 X-397.001 Y-369.591
G1 X-396.614 Y-369.569
G1 X-396.598 Y-369.568
G1 X-396.21 Y-369.544
G1 X-396.193 Y-369.543
G1 X-395.806 Y-369.517
G1 X-395.79 Y-369.516
G1 X-395.403 Y-369.488
G1 X-395.387 Y-369.487
G1 X-395 Y-369.457
G1 X-394.983 Y-369.455
G1 X-394.597 Y-369.423
G1 X-394.58 Y-369.422
G1 X-394.194 Y-369.388
G1 X-394.178 Y-369.386
G1 X-393.792 Y-369.35
G1 X-393.768 Y-369.348
G1 X-393.382 Y-369.309
G1 X-393.365 Y-369.307
G1 X-392.98 Y-369.266
G1 X-392.955 Y-369.263
G1 X-392.57 Y-369.219
G1 X-392.545 Y-369.216
G1 X-392.161 Y-369.169
G1 X-392.137 Y-369.166
G1 X-391.753 Y-369.116
G1 X-391.729 Y-369.113
G1 X-391.048 Y-369.019
G1 X-391.039 Y-369.018
G1 X-390.358 Y-368.922
G1 X-390.339 Y-368.919
G1 X-389.659 Y-368.819
G1 X-389.646 Y-368.817
G1 X-388.966 Y-368.714
G1 X-388.952 Y-368.712
G1 X-388.272 Y-368.606
G1 X-388.258 Y-368.604
G1 X-387.579 Y-368.495
G1 X-387.57 Y-368.493
G1 X-386.891 Y-368.382
G1 X-386.877 Y-368.38
G1 X-386.198 Y-368.266
G1 X-386.193 Y-368.265
G1 X-385.515 Y-368.15
G1 X-385.506 Y-368.149
G1 X-384.828 Y-368.032
G1 X-384.819 Y-368.03
G1 X-384.141 Y-367.911
G1 X-384.132 Y-367.91
G1 X-383.454 Y-367.789
G1 X-383.45 Y-367.788
G1 X-382.772 Y-367.666
G1 X-382.766 Y-367.665
G1 X-382.089 Y-367.542
G1 X-382.085 Y-367.541
G1 X-381.408 Y-367.417
G1 X-380.731 Y-367.293
G1 X-380.726 Y-367.292
G1 X-380.049 Y-367.167
G1 X-380.044 Y-367.166
G1 X-379.367 Y-367.04
G1 X-378.692 Y-366.915
G1 X-376.664 Y-366.54
G1 X-375.991 Y-366.416
G1 X-375.318 Y-366.294
G1 X-375.316 Y-366.293
G1 X-374.505 Y-366.145
G1 X-374.498 Y-366.144
G1 X-373.686 Y-365.994
G1 X-373.678 Y-365.993
G1 X-372.867 Y-365.841
G1 X-372.863 Y-365.84
G1 X-372.053 Y-365.687
G1 X-372.046 Y-365.686
G1 X-371.235 Y-365.531
G1 X-371.231 Y-365.53
G1 X-370.421 Y-365.374
G1 X-369.611 Y-365.218
G1 X-369.607 Y-365.217
G1 X-368.797 Y-365.06
G1 X-368.793 Y-365.059
G1 X-367.173 Y-364.743
G1 X-367.169
G1 X-366.361 Y-364.584
G1 X-364.743 Y-364.268
G1 X-363.935 Y-364.111
G1 X-363.129 Y-363.954
G1 X-362.322 Y-363.799
G1 X-361.516 Y-363.645
G1 X-360.71 Y-363.492
G1 X-359.904 Y-363.34
G1 X-359.101 Y-363.19
G1 X-358.295 Y-363.042
G1 X-357.491 Y-362.896
G1 X-356.687 Y-362.752
G1 X-355.888 Y-362.61
G1 X-355.172 Y-362.489
G1 X-354.453 Y-362.371
G1 X-353.731 Y-362.256
G1 X-353.009 Y-362.146
G1 X-352.28 Y-362.039
G1 X-351.546 Y-361.933
G1 X-350.81 Y-361.829
G1 X-350.071 Y-361.726
G1 X-349.332 Y-361.623
G1 X-348.591 Y-361.522
G1 X-347.847 Y-361.419
G1 X-347.842
G1 X-347.1 Y-361.316
G1 X-347.096 Y-361.315
G1 X-346.354 Y-361.211
G1 X-346.345 Y-361.21
G1 X-345.604 Y-361.104
G1 X-345.595 Y-361.103
G1 X-344.856 Y-360.995
G1 X-344.843 Y-360.993
G1 X-344.105 Y-360.882
G1 X-344.092 Y-360.88
G1 X-343.355 Y-360.766
G1 X-343.332 Y-360.762
G1 X-342.598 Y-360.643
G1 X-342.58 Y-360.64
G1 X-341.848 Y-360.517
G1 X-341.826 Y-360.513
G1 X-341.096 Y-360.385
G1 X-341.072 Y-360.381
G1 X-340.346 Y-360.248
G1 X-340.315 Y-360.242
G1 X-339.591 Y-360.102
G1 X-339.564 Y-360.097
G1 X-338.843 Y-359.951
G1 X-338.807 Y-359.943
G1 X-338.089 Y-359.789
G1 X-337.976 Y-359.763
G1 X-337.897 Y-359.743
G1 X-337.729 Y-359.695
G1 X-337.649 Y-359.67
G1 X-337.493 Y-359.617
G1 X-337.412 Y-359.587
G1 X-337.273 Y-359.532
G1 X-337.193 Y-359.498
G1 X-337.058 Y-359.437
G1 X-336.977 Y-359.398
G1 X-336.824 Y-359.319
G1 X-336.744 Y-359.275
G1 X-336.635 Y-359.212
G1 X-336.557 Y-359.165
G1 X-336.458 Y-359.103
G1 X-336.38 Y-359.052
G1 X-336.257 Y-358.967
G1 X-336.181 Y-358.912
G1 X-336.063 Y-358.823
G1 X-335.989 Y-358.764
G1 X-335.913 Y-358.701
G1 X-335.84 Y-358.639
G1 X-335.718 Y-358.53
G1 X-335.649 Y-358.465
G1 X-335.598 Y-358.416
G1 X-335.53 Y-358.349
G1 X-335.4 Y-358.213
G1 X-335.336 Y-358.142
G1 X-335.241 Y-358.032
G1 X-335.181 Y-357.959
G1 X-335.094 Y-357.848
G1 X-335.037 Y-357.772
G1 X-334.951 Y-357.651
G1 X-334.898 Y-357.573
G1 X-334.826 Y-357.463
G1 X-334.777 Y-357.384
G1 X-334.692 Y-357.237
G1 X-334.647 Y-357.155
G1 X-334.556 Y-356.978
G1 X-334.517 Y-356.895
G1 X-334.443 Y-356.724
G1 X-334.409 Y-356.639
G1 X-334.348 Y-356.475
G1 X-334.319 Y-356.389
G1 X-334.258 Y-356.185
G1 X-334.235 Y-356.098
G1 X-334.188 Y-355.889
G1 X-334.171 Y-355.801
G1 X-334.139 Y-355.603
G1 X-334.129 Y-355.525
G1 X-334.12 Y-355.453
G1 X-334.116 Y-355.415
G1 X-334.108 Y-355.327
G1 X-334.105 Y-355.288
G1 X-334.1 Y-355.207
G1 X-334.098 Y-355.168
G1 X-334.096 Y-355.131
G1 X-334.094 Y-355.095
G1 X-334.09 Y-354.93
G1 X-334.089 Y-354.85
G1 Y-354.817
G1 X-334.075 Y-354.809
G1 X-333.795 Y-354.668
G1 X-333.5 Y-354.528
G1 X-333.194 Y-354.389
G1 X-332.874 Y-354.249
G1 X-332.547 Y-354.112
G1 X-332.208 Y-353.975
G1 X-331.861 Y-353.837
G1 X-331.508 Y-353.7
G1 X-331.14 Y-353.56
G1 X-330.77 Y-353.418
G1 X-330.399 Y-353.277
G1 X-330.392 Y-353.275
G1 X-330.018 Y-353.132
G1 X-330.009 Y-353.128
G1 X-329.636 Y-352.984
G1 X-329.612 Y-352.975
G1 X-329.24 Y-352.828
G1 X-329.218 Y-352.819
G1 X-328.849 Y-352.67
G1 X-328.82 Y-352.658
G1 X-328.454 Y-352.506
G1 X-328.412 Y-352.488
G1 X-328.049 Y-352.331
G1 X-328.003 Y-352.311
G1 X-327.644 Y-352.149
G1 X-327.595 Y-352.127
G1 X-327.241 Y-351.96
G1 X-327.189 Y-351.934
G1 X-326.839 Y-351.761
G1 X-326.771 Y-351.726
G1 X-326.428 Y-351.546
G1 X-326.36 Y-351.51
G1 X-326.022 Y-351.322
G1 X-325.904 Y-351.253
G1 X-325.816 Y-351.199
G1 X-325.681 Y-351.111
G1 X-325.595 Y-351.052
G1 X-325.486 Y-350.974
G1 X-325.402 Y-350.911
G1 X-325.283 Y-350.818
G1 X-325.202 Y-350.751
G1 X-325.089 Y-350.652
G1 X-325.011 Y-350.581
G1 X-324.933 Y-350.508
G1 X-324.857 Y-350.434
G1 X-324.769 Y-350.344
G1 X-324.695 Y-350.266
G1 X-324.625 Y-350.19
G1 X-324.553 Y-350.109
G1 X-324.484 Y-350.03
G1 X-324.415 Y-349.947
G1 X-324.352 Y-349.868
G1 X-324.285 Y-349.782
G1 X-324.226 Y-349.704
G1 X-324.161 Y-349.615
G1 X-324.124 Y-349.563
G1 X-324.061 Y-349.473
G1 X-324.029 Y-349.426
G1 X-323.967 Y-349.334
G1 X-323.919 Y-349.261
G1 X-323.86 Y-349.168
G1 X-323.818 Y-349.101
G1 X-323.761 Y-349.006
G1 X-323.749 Y-348.984
G1 X-323.693 Y-348.889
G1 X-323.661 Y-348.834
G1 X-323.607 Y-348.738
G1 X-323.576 Y-348.681
G1 X-323.524 Y-348.584
G1 X-323.518 Y-348.574
G1 X-323.467 Y-348.478
G1 X-323.437 Y-348.42
G1 X-323.388 Y-348.323
G1 X-323.382 Y-348.311
G1 X-323.334 Y-348.215
G1 X-323.316 Y-348.179
G1 X-323.27 Y-348.084
G1 X-323.259 Y-348.059
G1 X-323.214 Y-347.964
G1 X-323.213 Y-347.963
G1 X-323.169 Y-347.87
G1 X-323.095 Y-347.7
G1 X-323.072 Y-347.643
G3 X-322.979 Y-347.382 I-2.944 J1.188
G1 X-322.961 Y-347.322
G3 X-322.893 Y-347.058 I-3.037 J0.926
G1 X-322.88 Y-346.997
G1 X-322.842 Y-346.784
G1 X-322.833 Y-346.721
G1 X-322.811 Y-346.519
G1 X-322.806 Y-346.455
G1 X-322.797 Y-346.304
G1 X-322.795 Y-346.238
G1 X-322.794 Y-346.16
G1 X-322.759 Y-346.124
G1 X-322.71 Y-346.076
G1 X-322.66 Y-346.029
G1 X-322.597 Y-345.972
G1 X-322.544 Y-345.926
G1 X-322.492 Y-345.883
G1 X-322.44 Y-345.841
G1 X-322.38 Y-345.795
G1 X-322.327 Y-345.756
G1 X-322.282 Y-345.724
G1 X-322.231 Y-345.69
G1 X-322.181 Y-345.658
G1 X-322.132 Y-345.629
G1 X-322.075 Y-345.596
G1 X-321.181 Y-345.108
G1 X-320.266 Y-344.613
G1 X-319.349 Y-344.124
G1 X-318.427 Y-343.638
G1 X-317.5 Y-343.155
G1 X-316.57 Y-342.674
G1 X-315.637 Y-342.196
G1 X-314.701 Y-341.72
G1 X-313.763 Y-341.245
G1 X-312.822 Y-340.772
G1 X-311.878 Y-340.3
G1 X-310.93 Y-339.827
G1 X-309.984 Y-339.355
G1 X-308.086 Y-338.412
G1 X-308.083 Y-338.411
G1 X-307.134 Y-337.938
G1 X-307.132 Y-337.937
G1 X-306.182 Y-337.463
G1 X-306.178 Y-337.461
G1 X-305.23 Y-336.986
G1 X-305.227 Y-336.984
G1 X-304.279 Y-336.508
G1 X-304.272 Y-336.505
G1 X-303.326 Y-336.027
G1 X-303.318 Y-336.023
G1 X-302.373 Y-335.542
G1 X-302.367 Y-335.539
G1 X-301.423 Y-335.056
G1 X-301.412 Y-335.05
G1 X-300.471 Y-334.564
G1 X-300.459 Y-334.558
G1 X-299.52 Y-334.068
G1 X-299.508 Y-334.061
G1 X-298.799 Y-333.687
G1 X-298.783 Y-333.679
G1 X-298.076 Y-333.301
G1 X-298.065 Y-333.295
G1 X-297.359 Y-332.914
G1 X-297.347 Y-332.907
G1 X-296.643 Y-332.523
G1 X-296.632 Y-332.517
G1 X-295.929 Y-332.13
G1 X-295.923 Y-332.127
G1 X-295.22 Y-331.738
G1 X-295.213 Y-331.735
G1 X-294.512 Y-331.345
G1 X-294.506 Y-331.341
G1 X-293.805 Y-330.949
G1 X-293.804 Y-330.948
G1 X-293.104 Y-330.556
G1 X-293.101 Y-330.555
G1 X-292.402 Y-330.162
G1 X-291.702 Y-329.77
G1 X-291.004 Y-329.379
G1 X-290.308 Y-328.99
G1 X-289.613 Y-328.604
G1 X-288.919 Y-328.22
G1 X-288.224 Y-327.839
G1 X-287.531 Y-327.461
G1 X-286.839 Y-327.087
G1 X-286.148 Y-326.719
G1 X-285.455 Y-326.354
G1 X-284.763 Y-325.995
G1 X-284.07 Y-325.64
G1 X-283.378 Y-325.293
G1 X-282.697 Y-324.957
G1 X-282.612 Y-324.917
G1 X-282.542 Y-324.886
G1 X-282.458 Y-324.851
G1 X-282.37 Y-324.817
G1 X-282.285 Y-324.785
G1 X-282.198 Y-324.755
G1 X-282.11 Y-324.727
G1 X-282.008 Y-324.697
G1 X-281.904 Y-324.668
G1 X-281.802 Y-324.64
G1 X-281.698 Y-324.615
G1 X-281.591 Y-324.59
G1 X-281.475 Y-324.566
G1 X-281.359 Y-324.542
G1 X-281.251 Y-324.522
G1 X-281.124 Y-324.5
G1 X-280.995 Y-324.479
G1 X-280.876 Y-324.461
G1 X-280.747 Y-324.443
G1 X-280.617 Y-324.426
G1 X-280.49 Y-324.41
G1 X-280.361 Y-324.396
G1 X-280.223 Y-324.382
G1 X-280.221 Y-324.381
G1 X-280.097 Y-324.369
G1 X-279.925 Y-324.355
G1 X-279.749 Y-324.343
G1 X-279.579 Y-324.335
G1 X-279.402 Y-324.33
G1 X-279.21 Y-324.328
G1 X-279.011
G1 X-278.812 Y-324.33
G1 X-278.611 Y-324.334
G1 X-278.398 Y-324.34
G1 X-278.178 Y-324.348
G1 X-277.958 Y-324.356
G1 X-277.729 Y-324.366
G1 X-277.262 Y-324.386
G1 X-277.248 Y-324.387
G1 X-277.014 Y-324.396
G1 X-277
G1 X-276.766 Y-324.404
G1 X-276.753 Y-324.405
G1 X-276.519 Y-324.412
G1 X-276.478 Y-324.413
G1 X-276.244 Y-324.417
G1 X-276.231
G1 X-275.998 Y-324.42
G1 X-275.943
G1 X-275.709 Y-324.419
G1 X-275.682
G1 X-275.449 Y-324.416
G1 X-275.394 Y-324.415
G1 X-275.162 Y-324.408
G1 X-275.108 Y-324.405
G1 X-274.875 Y-324.394
G1 X-274.806 Y-324.39
G1 X-274.575 Y-324.374
G1 X-274.533 Y-324.371
G1 X-274.351 Y-324.356
G1 X-274.334 Y-324.355
G1 X-274.152 Y-324.339
G1 X-274.118 Y-324.336
G1 X-273.936 Y-324.318
G1 X-273.917 Y-324.316
G1 X-273.736 Y-324.297
G1 X-273.686 Y-324.291
G1 X-273.322 Y-324.247
G1 X-273.288 Y-324.243
G1 X-273.106 Y-324.219
G1 X-273.07 Y-324.214
G1 X-272.889 Y-324.188
G1 X-272.874 Y-324.186
G1 X-272.692 Y-324.159
G1 X-272.656 Y-324.153
G1 X-272.475 Y-324.124
G1 X-272.458 Y-324.121
G1 X-272.277 Y-324.091
G1 X-272.26 Y-324.088
G1 X-272.079 Y-324.057
G1 X-272.042 Y-324.051
G1 X-271.862 Y-324.018
G1 X-271.849 Y-324.015
G1 X-271.668 Y-323.981
G1 X-271.631 Y-323.974
G1 X-271.451 Y-323.938
G1 X-271.435 Y-323.935
G1 X-271.255 Y-323.898
G1 X-271.235 Y-323.894
G1 X-271.056 Y-323.856
G1 X-271.023 Y-323.849
G1 X-270.844 Y-323.809
G1 X-270.827 Y-323.805
G1 X-270.648 Y-323.764
G1 X-270.611 Y-323.755
G1 X-270.433 Y-323.712
G1 X-270.255 Y-323.669
G1 X-270.219 Y-323.66
G1 X-270.042 Y-323.615
G1 X-270.025 Y-323.611
G1 X-269.848 Y-323.565
G1 X-269.816 Y-323.556
G1 X-269.639 Y-323.508
G1 X-269.633 Y-323.507
G1 X-269.227 Y-323.396
G1 X-269.215 Y-323.392
G1 X-268.808 Y-323.279
G1 X-268.792 Y-323.275
G1 X-267.98 Y-323.045
G1 X-267.966 Y-323.041
G1 X-267.56 Y-322.924
G1 X-267.551 Y-322.921
G1 X-267.146 Y-322.803
G1 X-267.132 Y-322.799
G1 X-266.727 Y-322.679
G1 X-266.72 Y-322.677
G1 X-266.315 Y-322.556
G1 X-266.306 Y-322.553
G1 X-265.902 Y-322.431
G1 X-265.891 Y-322.428
G1 X-265.486 Y-322.304
G1 X-265.474 Y-322.3
G1 X-265.071 Y-322.175
G1 X-265.06 Y-322.172
G1 X-264.656 Y-322.045
G1 X-264.647 Y-322.042
G1 X-264.244 Y-321.914
G1 X-264.235 Y-321.911
G1 X-263.833 Y-321.782
G1 X-263.826 Y-321.78
G1 X-263.424 Y-321.65
G1 X-263.41 Y-321.646
G1 X-263.008 Y-321.514
G1 X-262.999 Y-321.511
G1 X-262.598 Y-321.378
G1 X-262.583 Y-321.372
G1 X-262.183 Y-321.237
G1 X-262.176 Y-321.235
G1 X-261.776 Y-321.099
G1 X-261.769 Y-321.097
G1 X-261.369 Y-320.96
G1 X-261.353 Y-320.954
G1 X-260.954 Y-320.815
G1 X-260.945 Y-320.812
G1 X-260.547 Y-320.672
G1 X-260.534 Y-320.667
G1 X-260.136 Y-320.525
G1 X-260.127 Y-320.522
G1 X-259.73 Y-320.379
G1 X-259.71 Y-320.372
G1 X-259.302 Y-320.222
G1 X-259.259 Y-320.206
G1 X-258.853 Y-320.05
G1 X-258.819 Y-320.036
G1 X-258.414 Y-319.875
G1 X-258.384 Y-319.863
G1 X-257.981 Y-319.698
G1 X-257.962 Y-319.691
G1 X-257.559 Y-319.523
G1 X-257.536 Y-319.513
G1 X-257.135 Y-319.342
G1 X-257.116 Y-319.334
G1 X-256.715 Y-319.16
G1 X-256.7 Y-319.153
G1 X-256.3 Y-318.977
G1 X-256.292 Y-318.973
G1 X-255.893 Y-318.796
G1 X-255.886 Y-318.794
G1 X-255.487 Y-318.616
G1 X-255.481 Y-318.613
G1 X-255.088 Y-318.437
G1 X-254.696 Y-318.262
G1 X-254.689 Y-318.26
G1 X-254.3 Y-318.086
G1 X-253.914 Y-317.917
G1 X-253.528 Y-317.748
G1 X-253.149 Y-317.586
G1 X-252.768 Y-317.427
G1 X-252.392 Y-317.273
G1 X-252.024 Y-317.127
G1 X-251.655 Y-316.985
G1 X-251.285 Y-316.849
G1 X-250.921 Y-316.719
G1 X-250.561 Y-316.598
G1 X-250.207 Y-316.485
G1 X-250.096 Y-316.452
G1 X-249.987 Y-316.421
G1 X-249.876 Y-316.393
G1 X-249.752 Y-316.365
G1 X-249.637 Y-316.34
G1 X-249.522 Y-316.318
G1 X-249.387 Y-316.295
G1 X-249.26 Y-316.275
G1 X-249.138 Y-316.258
G1 X-249.008 Y-316.242
G1 X-248.878 Y-316.229
G1 X-248.748 Y-316.217
G1 X-248.607 Y-316.207
G1 X-248.475 Y-316.199
G1 X-248.343 Y-316.194
G1 X-248.195 Y-316.19
G1 X-248.064 Y-316.188
G1 X-247.934 Y-316.189
G1 X-247.787 Y-316.191
G1 X-247.649 Y-316.195
G1 X-247.521 Y-316.201
G1 X-247.387 Y-316.209
G1 X-247.244 Y-316.219
G1 X-247.112 Y-316.23
G1 X-246.998 Y-316.242
G1 X-246.875 Y-316.257
G1 X-246.752 Y-316.273
G1 X-246.637 Y-316.29
G1 X-246.522 Y-316.309
G1 X-246.405 Y-316.33
G1 X-246.279 Y-316.355
G1 X-246.158 Y-316.381
G1 X-246.042 Y-316.408
G1 X-245.918 Y-316.439
G1 X-245.796 Y-316.471
G1 X-245.673 Y-316.506
G1 X-245.554 Y-316.541
G1 X-245.441 Y-316.576
G1 X-245.322 Y-316.616
G1 X-245.208 Y-316.655
G1 X-245.092 Y-316.698
G1 X-244.976 Y-316.743
G1 X-244.868 Y-316.786
G1 X-244.752 Y-316.836
G1 X-244.644 Y-316.883
G1 X-244.549 Y-316.928
G1 X-244.437 Y-316.982
G1 X-244.331 Y-317.035
G1 X-244.103 Y-317.157
G1 X-243.865 Y-317.288
G1 X-243.627 Y-317.425
G1 X-243.381 Y-317.572
G1 X-243.138 Y-317.721
G1 X-242.897 Y-317.874
G1 X-242.645 Y-318.038
G1 X-242.394 Y-318.203
G1 X-242.143 Y-318.372
G1 X-241.888 Y-318.547
G1 X-241.628 Y-318.727
G1 X-241.363 Y-318.912
G1 X-241.101 Y-319.096
G1 X-240.837 Y-319.283
G1 X-240.832 Y-319.286
G1 X-240.561 Y-319.477
G1 X-240.559 Y-319.479
G1 X-240.289 Y-319.669
G1 X-240.28 Y-319.675
G1 X-240.008 Y-319.865
G1 X-240.006 Y-319.866
G1 X-239.735 Y-320.055
G1 X-239.713 Y-320.07
G1 X-239.44 Y-320.257
G1 X-239.423 Y-320.269
G1 X-239.149 Y-320.454
G1 X-239.135 Y-320.463
G1 X-238.861 Y-320.646
G1 X-238.828 Y-320.668
G1 X-238.551 Y-320.848
G1 X-238.531 Y-320.861
G1 X-238.254 Y-321.038
G1 X-238.22 Y-321.06
G1 X-237.94 Y-321.234
G1 X-237.921 Y-321.245
G1 X-237.762 Y-321.342
G1 X-237.61 Y-321.438
G1 X-237.445 Y-321.541
G1 X-237.281 Y-321.645
G1 X-237.117 Y-321.749
G1 X-236.947 Y-321.857
G1 X-236.928 Y-321.868
G1 X-236.759 Y-321.974
G1 X-236.589 Y-322.081
G1 X-236.574 Y-322.091
G1 X-236.403 Y-322.197
G1 X-236.396 Y-322.201
G1 X-236.224 Y-322.307
G1 X-236.194 Y-322.325
G1 X-236.021 Y-322.429
G1 X-236.009 Y-322.436
G1 X-235.836 Y-322.539
G1 X-235.806 Y-322.557
G1 X-235.632 Y-322.658
G1 X-235.601 Y-322.675
G1 X-235.426 Y-322.774
G1 X-235.39 Y-322.795
G1 X-235.215 Y-322.891
G1 X-235.184 Y-322.908
G1 X-235.008 Y-323.002
G1 X-234.964 Y-323.025
G1 X-234.787 Y-323.116
G1 X-234.742 Y-323.138
G1 X-234.564 Y-323.226
G1 X-234.519 Y-323.248
G1 X-234.34 Y-323.333
G1 X-234.267 Y-323.366
G1 X-234.087 Y-323.446
G1 X-234.041 Y-323.467
G1 X-233.86 Y-323.544
G1 X-233.799 Y-323.569
G1 X-233.617 Y-323.642
G1 X-233.541 Y-323.671
G1 X-233.358 Y-323.739
G1 X-233.28 Y-323.767
G1 X-233.096 Y-323.83
G1 X-233.006 Y-323.859
G1 X-232.867 Y-323.902
G1 X-232.755 Y-323.935
G1 X-232.614 Y-323.973
G1 X-232.527 Y-323.995
G1 X-232.385 Y-324.029
G1 X-232.319 Y-324.044
G1 X-232.176 Y-324.075
G1 X-232.063 Y-324.097
G1 X-231.918 Y-324.123
G1 X-231.852 Y-324.134
G1 X-231.706 Y-324.157
G1 X-231.619 Y-324.17
G1 X-231.472 Y-324.189
G1 X-231.427 Y-324.194
G1 X-231.279 Y-324.211
G1 X-231.193 Y-324.22
G1 X-231.044 Y-324.233
G1 X-231.002 Y-324.236
G1 X-230.853 Y-324.247
G1 X-230.788 Y-324.251
G1 X-230.638 Y-324.259
G1 X-230.595 Y-324.262
G1 X-230.444 Y-324.267
G1 X-230.423 Y-324.268
G1 X-230.272 Y-324.273
G1 X-230.209 Y-324.275
G1 X-230.057 Y-324.277
G1 X-230.036
G1 X-229.885 Y-324.278
G1 X-229.864
G1 X-229.712
G1 X-229.67
G1 X-229.518 Y-324.276
G1 X-229.367 Y-324.274
G1 X-229.346 Y-324.273
G1 X-229.194 Y-324.27
G1 X-229.043 Y-324.267
G1 X-229.021
G1 X-228.882 Y-324.263
G1 X-228.742 Y-324.26
G1 X-228.592 Y-324.257
G1 X-228.452 Y-324.255
G1 X-228.055 Y-324.249
G1 X-227.854 Y-324.247
G1 X-227.838
G1 X-227.63 Y-324.244
G1 X-227.421 Y-324.241
G1 X-227.406 Y-324.24
G1 X-227.197 Y-324.236
G1 X-226.988 Y-324.232
G1 X-226.957
G1 X-226.748 Y-324.226
G1 X-226.538 Y-324.22
G1 X-226.508 Y-324.219
G1 X-226.299 Y-324.211
G1 X-226.284 Y-324.21
G1 X-226.074 Y-324.201
G1 X-226.058 Y-324.2
G1 X-225.849 Y-324.19
G1 X-225.803 Y-324.188
G1 X-225.595 Y-324.175
G1 X-225.58 Y-324.174
G1 X-225.372 Y-324.16
G1 X-225.326 Y-324.156
G1 X-225.118 Y-324.139
G1 X-225.087 Y-324.137
G1 X-224.88 Y-324.118
G1 X-224.848 Y-324.115
G1 X-224.642 Y-324.094
G1 X-224.597 Y-324.089
G1 X-224.391 Y-324.065
G1 X-224.326 Y-324.057
G1 X-224.122 Y-324.029
G1 X-224.092 Y-324.024
G1 X-223.888 Y-323.994
G1 X-223.838 Y-323.986
G1 X-223.636 Y-323.953
G1 X-223.573 Y-323.943
G1 X-223.372 Y-323.906
G1 X-223.324 Y-323.896
G1 X-223.124 Y-323.856
G1 X-223.062 Y-323.843
G1 X-222.863 Y-323.799
G1 X-222.748 Y-323.771
G1 X-222.629 Y-323.74
G1 X-222.557 Y-323.721
G1 X-222.438 Y-323.687
G1 X-222.306 Y-323.646
G1 X-222.189 Y-323.607
G1 X-222.089 Y-323.572
G1 X-221.973 Y-323.529
G1 X-221.898 Y-323.5
G1 X-221.783 Y-323.454
G1 X-221.708 Y-323.423
G1 X-221.594 Y-323.374
G1 X-221.509 Y-323.336
G1 X-221.395 Y-323.283
G1 X-221.334 Y-323.254
G1 X-221.222 Y-323.199
G1 X-221.162 Y-323.168
G1 X-221.05 Y-323.11
G1 X-221 Y-323.084
G1 X-220.889 Y-323.024
G1 X-220.851 Y-323.003
G1 X-220.74 Y-322.941
G1 X-220.691 Y-322.913
G1 X-220.581 Y-322.849
G1 X-220.563 Y-322.838
G1 X-220.453 Y-322.773
G1 X-220.423 Y-322.756
G1 X-220.314 Y-322.69
G1 X-220.278 Y-322.668
G1 X-220.169 Y-322.6
G1 X-220.158 Y-322.593
G1 X-220.05 Y-322.525
G1 X-220.033 Y-322.514
G1 X-219.933 Y-322.45
G1 X-219.834 Y-322.388
G1 X-219.817 Y-322.377
G1 X-219.717 Y-322.313
G1 X-219.618 Y-322.251
G1 X-219.528 Y-322.194
G1 X-219.438 Y-322.139
G1 X-219.349 Y-322.084
G1 X-219.268 Y-322.037
G1 X-219.12 Y-321.95
G1 X-218.964 Y-321.862
G1 X-218.802 Y-321.77
G1 X-218.635 Y-321.677
G1 X-218.623 Y-321.67
G1 X-218.453 Y-321.575
G1 X-218.287 Y-321.482
G1 X-218.113 Y-321.386
G1 X-218.106 Y-321.382
G1 X-217.93 Y-321.284
G1 X-217.918 Y-321.277
G1 X-217.566 Y-321.079
G1 X-217.548 Y-321.069
G1 X-217.373 Y-320.969
G1 X-217.354 Y-320.958
G1 X-217.18 Y-320.857
G1 X-217.168 Y-320.85
G1 X-216.994 Y-320.748
G1 X-216.957 Y-320.726
G1 X-216.785 Y-320.622
G1 X-216.767 Y-320.611
G1 X-216.596 Y-320.506
G1 X-216.559 Y-320.483
G1 X-216.39 Y-320.376
G1 X-216.371 Y-320.364
G1 X-216.203 Y-320.256
G1 X-216.155 Y-320.224
G1 X-215.989 Y-320.113
G1 X-215.953 Y-320.088
G1 X-215.789 Y-319.975
G1 X-215.745 Y-319.945
G1 X-215.584 Y-319.83
G1 X-215.537 Y-319.796
G1 X-215.378 Y-319.678
G1 X-215.332 Y-319.643
G1 X-215.175 Y-319.522
G1 X-215.122 Y-319.48
G1 X-214.968 Y-319.356
G1 X-214.925 Y-319.321
G1 X-214.774 Y-319.195
G1 X-214.703 Y-319.133
G1 X-214.589 Y-319.032
G1 X-214.534 Y-318.983
G1 X-214.422 Y-318.879
G1 X-214.368 Y-318.828
G1 X-214.258 Y-318.721
G1 X-214.217 Y-318.68
G1 X-214.109 Y-318.571
G1 X-214.048 Y-318.508
G1 X-213.943 Y-318.396
G1 X-213.913 Y-318.364
G1 X-213.809 Y-318.25
G1 X-213.762 Y-318.196
G1 X-213.66 Y-318.079
G1 X-213.631 Y-318.046
G1 X-213.531 Y-317.928
G1 X-213.494 Y-317.883
G1 X-213.396 Y-317.763
G1 X-213.37 Y-317.731
G1 X-213.273 Y-317.609
G1 X-213.238 Y-317.564
G1 X-213.143 Y-317.44
G1 X-213.125 Y-317.417
G1 X-213.031 Y-317.292
G1 X-213.014 Y-317.269
G1 X-212.921 Y-317.143
G1 X-212.895 Y-317.107
G1 X-212.804 Y-316.98
G1 X-212.788 Y-316.957
G1 X-212.698 Y-316.829
G1 X-212.682 Y-316.806
G1 X-212.593 Y-316.677
G1 X-212.577 Y-316.654
G1 X-212.401 Y-316.394
G1 X-212.376 Y-316.356
G1 X-212.293 Y-316.23
G1 X-212.21 Y-316.105
G1 X-212.195 Y-316.081
G1 X-212.113 Y-315.955
G1 X-212.031 Y-315.83
G1 X-212.021 Y-315.815
G1 X-211.937 Y-315.685
G1 X-211.853 Y-315.555
G1 X-211.85 Y-315.55
G1 X-211.749 Y-315.393
G1 X-211.724 Y-315.353
G1 X-211.625 Y-315.194
G1 X-211.617 Y-315.182
G1 X-211.519 Y-315.023
G1 X-211.499 Y-314.991
G1 X-211.403 Y-314.831
G1 X-211.392 Y-314.81
G1 X-211.297 Y-314.65
G1 X-211.285 Y-314.629
G1 X-211.191 Y-314.467
G1 X-211.172 Y-314.435
G1 X-211.08 Y-314.272
G1 X-211.076 Y-314.264
G1 X-210.984 Y-314.1
G1 X-210.97 Y-314.074
G1 X-210.88 Y-313.91
G1 X-210.79 Y-313.746
G1 X-210.775 Y-313.719
G1 X-210.686 Y-313.553
G1 X-210.683 Y-313.547
G1 X-210.595 Y-313.382
G1 X-210.584 Y-313.362
G1 X-210.5 Y-313.202
G1 X-210.416 Y-313.043
G1 X-210.398 Y-313.01
G1 X-210.316 Y-312.849
G1 X-210.232 Y-312.689
G1 X-210.229 Y-312.683
G1 X-210.143 Y-312.517
G1 X-210.139 Y-312.51
G1 X-209.881 Y-312.009
G1 X-209.797 Y-311.845
G1 X-209.716 Y-311.689
G1 X-209.546 Y-311.364
G1 X-209.479 Y-311.237
G1 X-209.443 Y-311.166
G1 X-209.38 Y-311.038
G1 X-209.317 Y-310.91
G1 X-209.296 Y-310.865
G1 X-209.235 Y-310.736
G1 X-209.174 Y-310.607
G1 X-209.149 Y-310.554
G1 X-209.092 Y-310.427
G1 X-209.035 Y-310.301
G1 X-209.023 Y-310.274
G1 X-208.969 Y-310.153
G1 X-208.914 Y-310.031
G1 X-208.906 Y-310.012
G1 X-208.85 Y-309.885
G1 X-208.796 Y-309.765
G1 X-208.741 Y-309.643
G1 X-208.69 Y-309.531
G1 X-208.64 Y-309.424
G1 X-208.59 Y-309.318
G1 X-208.545 Y-309.226
G1 X-208.495 Y-309.125
G1 X-208.449 Y-309.035
G1 X-208.406 Y-308.954
G1 X-208.365 Y-308.879
G1 X-208.326 Y-308.814
G1 X-208.282 Y-308.741
G1 X-208.246 Y-308.682
G1 X-208.206 Y-308.623
G1 X-208.163 Y-308.56
G1 X-208.119 Y-308.498
G1 X-208.075 Y-308.439
G1 X-208.018 Y-308.364
G1 X-207.964 Y-308.294
G1 X-207.921 Y-308.239
G1 X-207.866 Y-308.172
G1 X-207.803 Y-308.097
G1 X-207.752 Y-308.037
G1 X-207.699 Y-307.977
G1 X-207.645 Y-307.917
G1 X-207.584 Y-307.852
G1 X-207.523 Y-307.787
G1 X-207.467 Y-307.73
G1 X-207.404 Y-307.667
G1 X-207.347 Y-307.611
G1 X-207.289 Y-307.556
G1 X-207.231 Y-307.503
G1 X-207.165 Y-307.444
G1 X-207.1 Y-307.387
G1 X-207.049 Y-307.343
G1 X-206.989 Y-307.294
G1 X-206.922 Y-307.24
G1 X-206.854 Y-307.187
G1 X-206.778 Y-307.129
G1 X-206.692 Y-307.065
G1 X-206.606 Y-307.002
G1 X-206.523 Y-306.943
G1 X-206.439 Y-306.885
G1 X-206.348 Y-306.824
G1 X-206.26 Y-306.765
G1 X-206.181 Y-306.714
G1 X-206.087 Y-306.655
G1 X-205.989 Y-306.595
G1 X-205.902 Y-306.543
G1 X-205.828 Y-306.5
G1 X-205.735 Y-306.448
G1 X-205.643 Y-306.396
G1 X-205.558 Y-306.352
G1 X-205.463 Y-306.303
G1 X-205.378 Y-306.26
G1 X-205.296 Y-306.221
G1 X-205.21 Y-306.181
G1 X-205.124 Y-306.143
G1 X-205.031 Y-306.103
G1 X-204.944 Y-306.067
G1 X-204.863 Y-306.035
G1 X-204.771 Y-306.001
G1 X-204.396 Y-305.864
G1 X-204.008 Y-305.727
G1 X-203.618 Y-305.591
G1 X-203.224 Y-305.456
G1 X-202.833 Y-305.324
G1 X-202.438 Y-305.194
G1 X-202.04 Y-305.064
G1 X-201.643 Y-304.937
G1 X-201.241 Y-304.811
G1 X-200.839 Y-304.685
G1 X-200.441 Y-304.563
G1 X-200.037 Y-304.441
G1 X-199.628 Y-304.319
G1 X-199.221 Y-304.198
G1 X-198.813 Y-304.079
G1 X-198.408 Y-303.961
G1 X-197.999 Y-303.844
G1 X-197.997
G1 X-197.585 Y-303.726
G1 X-196.758 Y-303.492
G1 X-196.349 Y-303.377
G1 X-195.519 Y-303.146
G1 X-195.517 Y-303.145
G1 X-195.106 Y-303.031
G1 X-194.966 Y-302.992
G1 X-194.827 Y-302.955
G1 X-194.692 Y-302.919
G1 X-194.548 Y-302.883
G1 X-194.543 Y-302.882
G1 X-194.407 Y-302.847
G1 X-194.121 Y-302.778
G1 X-193.983 Y-302.746
G1 X-193.854 Y-302.717
G1 X-193.564 Y-302.655
G1 X-193.424 Y-302.626
G1 X-193.295 Y-302.6
G1 X-193.156 Y-302.574
G1 X-193.152 Y-302.573
G1 X-193.014 Y-302.547
G1 X-192.734 Y-302.498
G1 X-192.604 Y-302.477
G1 X-192.462 Y-302.455
G1 X-192.32 Y-302.433
G1 X-192.19 Y-302.415
G1 X-192.049 Y-302.396
G1 X-192.047
G1 X-191.907 Y-302.378
G1 X-191.779 Y-302.363
G1 X-191.466 Y-302.328
G1 X-191.312 Y-302.311
G1 X-191.158 Y-302.295
G1 X-191.004 Y-302.279
G1 X-190.859 Y-302.265
G1 X-190.723 Y-302.253
G1 X-190.577 Y-302.241
G1 X-190.421 Y-302.229
G1 X-190.284 Y-302.219
G1 X-190.148 Y-302.211
G1 X-190.011 Y-302.203
G1 X-189.884 Y-302.198
G1 X-189.747 Y-302.194
G1 X-189.611 Y-302.191
G1 X-189.485 Y-302.189
G1 X-189.368
G1 X-189.243 Y-302.191
G1 X-189.117 Y-302.194
G1 X-189.002 Y-302.199
G1 X-188.888 Y-302.206
G1 X-188.784 Y-302.213
G1 X-188.671 Y-302.224
G1 X-188.555 Y-302.236
G1 X-188.443 Y-302.249
G1 X-188.323 Y-302.266
G1 X-188.204 Y-302.283
G1 X-188.086 Y-302.302
G1 X-187.955 Y-302.324
G1 X-187.838 Y-302.345
G1 X-187.719 Y-302.368
G1 X-187.599 Y-302.393
G1 X-187.481 Y-302.419
G1 X-187.364 Y-302.446
G1 X-187.257 Y-302.473
G1 X-187.128 Y-302.506
G1 X-187.011 Y-302.538
G1 X-186.907 Y-302.568
G1 X-186.804 Y-302.6
G1 X-186.692 Y-302.636
G1 X-186.582 Y-302.673
G1 X-186.481 Y-302.709
G1 X-186.381 Y-302.747
G1 X-186.273 Y-302.789
G1 X-186.17 Y-302.831
G1 X-186.085 Y-302.868
G1 X-185.992 Y-302.91
G1 X-185.891 Y-302.958
G1 X-185.553 Y-303.124
G1 X-185.211 Y-303.296
G1 X-184.87 Y-303.472
G1 X-184.532 Y-303.65
G1 X-184.189 Y-303.835
G1 X-183.844 Y-304.024
G1 X-183.502 Y-304.215
G1 X-183.157 Y-304.41
G1 X-182.811 Y-304.609
G1 X-182.466 Y-304.809
G1 X-182.119 Y-305.013
G1 X-181.769 Y-305.22
G1 X-181.418 Y-305.429
G1 X-181.068 Y-305.639
G1 X-180.714 Y-305.852
G1 X-180.361 Y-306.064
G1 X-180.01 Y-306.277
G1 X-180.001 Y-306.283
G1 X-179.648 Y-306.495
G1 X-179.297 Y-306.708
G1 X-179.288 Y-306.714
G1 X-178.931 Y-306.929
G1 X-178.925 Y-306.932
G1 X-178.568 Y-307.146
G1 X-178.563 Y-307.15
G1 X-178.206 Y-307.363
G1 X-178.197 Y-307.368
G1 X-177.839 Y-307.58
G1 X-177.827 Y-307.587
G1 X-177.48 Y-307.791
G1 X-177.329 Y-307.881
G1 X-177.198 Y-307.961
G1 X-177.059 Y-308.05
G1 X-176.911 Y-308.145
G1 X-176.768 Y-308.241
G1 X-176.605 Y-308.352
G1 X-176.445 Y-308.46
G1 X-176.288 Y-308.569
G1 X-176.121 Y-308.684
G1 X-176.104 Y-308.696
G1 X-175.936 Y-308.811
G1 X-175.77 Y-308.925
G1 X-175.752 Y-308.938
G1 X-175.581 Y-309.053
G1 X-175.564 Y-309.065
G1 X-175.392 Y-309.18
G1 X-175.37 Y-309.195
G1 X-175.198 Y-309.308
G1 X-175.17 Y-309.326
G1 X-174.997 Y-309.437
G1 X-174.963 Y-309.458
G1 X-174.79 Y-309.566
G1 X-174.754 Y-309.589
G1 X-174.579 Y-309.695
G1 X-174.526 Y-309.726
G1 X-174.35 Y-309.828
G1 X-174.289 Y-309.862
G1 X-174.111 Y-309.96
G1 X-174.056 Y-309.99
G1 X-173.877 Y-310.084
G1 X-173.815 Y-310.116
G1 X-173.634 Y-310.206
G1 X-173.564 Y-310.24
G1 X-173.382 Y-310.325
G1 X-173.285 Y-310.368
G1 X-173.1 Y-310.447
G1 X-173.027 Y-310.477
G1 X-172.841 Y-310.551
G1 X-172.751 Y-310.585
G1 X-172.572 Y-310.65
G1 X-172.502 Y-310.675
G1 X-172.321 Y-310.736
G1 X-172.271 Y-310.752
G1 X-172.089 Y-310.81
G1 X-172.015 Y-310.833
G1 X-171.83 Y-310.887
G1 X-171.78 Y-310.901
G1 X-171.594 Y-310.952
G1 X-171.528 Y-310.969
G1 X-171.341 Y-311.016
G1 X-171.287 Y-311.029
G1 X-171.098 Y-311.073
G1 X-171.051 Y-311.084
G1 X-170.862 Y-311.125
G1 X-170.809 Y-311.136
G1 X-170.618 Y-311.174
G1 X-170.583 Y-311.181
G1 X-170.391 Y-311.217
G1 X-170.325 Y-311.228
G1 X-170.132 Y-311.26
G1 X-170.098 Y-311.266
G1 X-169.904 Y-311.296
G1 X-169.873 Y-311.3
G1 X-169.679 Y-311.328
G1 X-169.631 Y-311.335
G1 X-169.437 Y-311.36
G1 X-169.419 Y-311.362
G1 X-169.224 Y-311.386
G1 X-169.176 Y-311.392
G1 X-168.981 Y-311.413
G1 X-168.949 Y-311.416
G1 X-168.754 Y-311.435
G1 X-168.722 Y-311.438
G1 X-168.527 Y-311.455
G1 X-168.511 Y-311.456
G1 X-168.316 Y-311.472
G1 X-168.283 Y-311.475
G1 X-168.088 Y-311.489
G1 X-168.057 Y-311.491
G1 X-167.863 Y-311.503
G1 X-167.848 Y-311.504
G1 X-167.655 Y-311.515
G1 X-167.638 Y-311.516
G1 X-167.445 Y-311.526
G1 X-167.43 Y-311.527
G1 X-167.238 Y-311.536
G1 X-167.198 Y-311.537
G1 X-167.024 Y-311.543
G1 X-167.006 Y-311.544
G1 X-166.831 Y-311.549
G1 X-166.776 Y-311.55
G1 X-166.601 Y-311.552
G1 X-166.565
G1 X-166.389
G1 X-166.335
G1 X-166.16 Y-311.549
G1 X-166.142 Y-311.548
G1 X-165.966 Y-311.544
G1 X-165.93 Y-311.543
G1 X-165.754 Y-311.537
G1 X-165.718 Y-311.536
G1 X-165.542 Y-311.528
G1 X-165.489 Y-311.525
G1 X-165.312 Y-311.514
G1 X-165.293 Y-311.513
G1 X-165.117 Y-311.501
G1 X-165.081 Y-311.498
G1 X-164.905 Y-311.484
G1 X-164.871 Y-311.481
G1 X-164.694 Y-311.465
G1 X-164.675 Y-311.463
G1 X-164.499 Y-311.446
G1 X-164.443 Y-311.44
G1 X-164.268 Y-311.42
G1 X-164.253 Y-311.419
G1 X-164.077 Y-311.398
G1 X-164.039 Y-311.393
G1 X-163.864 Y-311.37
G1 X-163.829 Y-311.365
G1 X-163.654 Y-311.34
G1 X-163.636 Y-311.338
G1 X-163.461 Y-311.312
G1 X-163.441 Y-311.308
G1 X-163.267 Y-311.281
G1 X-163.215 Y-311.273
G1 X-163.041 Y-311.243
G1 X-163.034 Y-311.242
G1 X-162.862 Y-311.212
G1 X-162.813 Y-311.203
G1 X-162.64 Y-311.17
G1 X-162.637 Y-311.169
G1 X-162.465 Y-311.136
G1 X-162.426 Y-311.129
G1 X-162.255 Y-311.094
G1 X-162.224 Y-311.087
G1 X-162.068 Y-311.053
G1 X-161.913 Y-311.02
G1 X-161.755 Y-310.987
G1 X-161.718 Y-310.979
G1 X-161.398 Y-310.907
G1 X-161.366 Y-310.899
G1 X-161.205 Y-310.861
G1 X-161.187 Y-310.857
G1 X-161.026 Y-310.818
G1 X-161.003 Y-310.812
G1 X-160.843 Y-310.772
G1 X-160.807 Y-310.763
G1 X-160.647 Y-310.721
G1 X-160.611 Y-310.711
G1 X-160.451 Y-310.667
G1 X-160.405 Y-310.654
G1 X-160.247 Y-310.608
G1 X-160.217 Y-310.6
G1 X-160.058 Y-310.552
G1 X-159.995 Y-310.532
G1 X-159.838 Y-310.481
G1 X-159.809 Y-310.471
G1 X-159.654 Y-310.419
G1 X-159.585 Y-310.395
G1 X-159.43 Y-310.339
G1 X-159.384 Y-310.322
G1 X-159.231 Y-310.264
G1 X-159.167 Y-310.239
G1 X-159.016 Y-310.178
G1 X-158.959 Y-310.154
G1 X-158.809 Y-310.09
G1 X-158.722 Y-310.052
G1 X-158.575 Y-309.984
G1 X-158.535 Y-309.965
G1 X-158.389 Y-309.895
G1 X-158.287 Y-309.844
G1 X-158.144 Y-309.769
G1 X-158.082 Y-309.735
G1 X-157.941 Y-309.657
G1 X-157.856 Y-309.608
G1 X-157.718 Y-309.526
G1 X-157.634 Y-309.475
G1 X-157.499 Y-309.389
G1 X-157.444 Y-309.353
G1 X-157.144 Y-309.153
G1 X-157.111 Y-309.131
G1 X-156.813 Y-308.927
G1 X-156.786 Y-308.908
G1 X-156.489 Y-308.7
G1 X-156.463 Y-308.681
G1 X-156.168 Y-308.47
G1 X-156.137 Y-308.448
G1 X-155.844 Y-308.233
G1 X-155.823 Y-308.217
G1 X-155.531 Y-307.999
G1 X-155.5 Y-307.976
G1 X-155.21 Y-307.754
G1 X-155.191 Y-307.739
G1 X-154.903 Y-307.515
G1 X-154.877 Y-307.495
G1 X-154.59 Y-307.267
G1 X-154.571 Y-307.252
G1 X-154.286 Y-307.022
G1 X-154.262 Y-307.002
G1 X-153.979 Y-306.769
G1 X-153.964 Y-306.757
G1 X-153.682 Y-306.522
G1 X-153.659 Y-306.502
G1 X-153.379 Y-306.264
G1 X-153.36 Y-306.248
G1 X-153.082 Y-306.008
G1 X-153.068 Y-305.996
G1 X-152.791 Y-305.754
G1 X-152.773 Y-305.738
G1 X-152.498 Y-305.494
G1 X-152.489 Y-305.486
G1 X-152.215 Y-305.241
G1 X-152.188 Y-305.216
G1 X-151.917 Y-304.968
G1 X-151.908 Y-304.96
G1 X-151.638 Y-304.711
G1 X-151.629 Y-304.703
G1 X-151.36 Y-304.453
G1 X-151.342 Y-304.436
G1 X-151.076 Y-304.185
G1 X-151.063 Y-304.172
G1 X-150.798 Y-303.919
G1 X-150.789 Y-303.911
G1 X-150.526 Y-303.658
G1 X-150.517 Y-303.65
G1 X-150.255 Y-303.396
G1 X-150.234 Y-303.375
G1 X-149.819 Y-302.965
G1 X-149.794 Y-302.94
G1 X-149.383 Y-302.525
G1 X-149.367 Y-302.509
G1 X-148.959 Y-302.091
G1 X-148.938 Y-302.069
G1 X-148.534 Y-301.647
G1 X-148.512 Y-301.624
G1 X-148.112 Y-301.198
G1 X-148.102 Y-301.187
G1 X-147.704 Y-300.759
G1 X-147.691 Y-300.745
G1 X-147.295 Y-300.314
G1 X-147.285 Y-300.303
G1 X-146.891 Y-299.87
G1 X-146.88 Y-299.858
G1 X-146.488 Y-299.423
G1 X-146.481 Y-299.415
G1 X-146.091 Y-298.979
G1 X-146.088 Y-298.976
G1 X-145.698 Y-298.539
G1 X-145.693 Y-298.533
G1 X-145.304 Y-298.095
G1 X-145.301 Y-298.092
G1 X-144.915 Y-297.656
G1 X-144.528 Y-297.221
G1 X-144.141 Y-296.786
G1 X-143.756 Y-296.354
G1 X-143.373 Y-295.928
G1 X-142.986 Y-295.501
G1 X-142.604 Y-295.081
G1 X-142.221 Y-294.667
G1 X-141.834 Y-294.253
G1 X-141.451 Y-293.849
G1 X-141.065 Y-293.449
G1 X-140.671 Y-293.049
G1 X-140.458 Y-292.835
G1 X-140.238 Y-292.618
G1 X-140.02 Y-292.404
G1 X-139.8 Y-292.192
G1 X-139.576 Y-291.978
G1 X-139.351 Y-291.765
G1 X-139.123 Y-291.552
G1 X-138.895 Y-291.341
G1 X-138.667 Y-291.132
G1 X-138.44 Y-290.927
G1 X-138.206 Y-290.718
G1 X-137.967 Y-290.506
G1 X-137.735 Y-290.3
G1 X-137.504 Y-290.099
G1 X-137.265 Y-289.893
G1 X-137.022 Y-289.684
G1 X-136.785 Y-289.481
G1 X-136.545 Y-289.279
G1 X-136.3 Y-289.073
G1 X-136.06 Y-288.872
G1 X-135.819 Y-288.673
G1 X-135.572 Y-288.47
G1 X-135.324 Y-288.268
G1 X-135.082 Y-288.07
G1 X-134.735 Y-287.792
G1 X-134.384 Y-287.513
G1 X-134.032 Y-287.235
G1 X-133.679 Y-286.961
G1 X-133.32 Y-286.685
G1 X-132.961 Y-286.411
G1 X-132.6 Y-286.138
G1 X-132.236 Y-285.864
G1 X-131.499 Y-285.316
G1 X-130.758 Y-284.766
G1 X-130.386 Y-284.492
G1 X-130.385 Y-284.491
G1 X-130.01 Y-284.214
G1 X-129.637 Y-283.939
G1 X-129.636 Y-283.938
G1 X-129.261 Y-283.661
G1 X-129.257 Y-283.658
G1 X-128.883 Y-283.381
G1 X-128.876 Y-283.376
G1 X-128.13 Y-282.82
G1 X-128.118 Y-282.811
G1 X-127.746 Y-282.531
G1 X-127.742 Y-282.528
G1 X-127.371 Y-282.248
G1 X-127.359 Y-282.239
G1 X-126.989 Y-281.957
G1 X-126.978 Y-281.948
G1 X-126.609 Y-281.664
G1 X-126.598 Y-281.656
G1 X-126.231 Y-281.371
G1 X-126.224 Y-281.365
G1 X-125.192 Y-280.559
G1 X-125.186 Y-280.555
G1 X-124.156 Y-279.747
G1 X-124.154 Y-279.745
G1 X-123.125 Y-278.936
G1 X-123.123 Y-278.935
G1 X-122.094 Y-278.125
G1 X-122.09 Y-278.122
G1 X-121.063 Y-277.311
G1 X-121.062 Y-277.31
G1 X-120.035 Y-276.498
G1 X-120.032 Y-276.495
G1 X-119.006 Y-275.682
G1 X-119.005 Y-275.681
G1 X-117.979 Y-274.868
G1 X-116.954 Y-274.055
G1 X-116.95 Y-274.052
G1 X-115.926 Y-273.238
G1 X-113.877 Y-271.611
G1 X-112.852 Y-270.797
G1 X-112.85 Y-270.796
G1 X-111.826 Y-269.983
G1 X-110.802 Y-269.17
G1 X-109.778 Y-268.36
G1 X-108.752 Y-267.549
G1 X-107.727 Y-266.739
G1 X-106.703 Y-265.932
G1 X-105.676 Y-265.126
G1 X-104.648 Y-264.32
G1 X-103.622 Y-263.517
G1 X-102.593 Y-262.716
G1 X-101.563 Y-261.915
G1 X-101.139 Y-261.587
G1 X-101.128 Y-261.578
G1 X-100.991 Y-261.472
G1 X-100.859 Y-261.369
G1 X-100.72 Y-261.263
G1 X-100.587 Y-261.16
G1 X-100.458 Y-261.063
G1 X-100.33 Y-260.966
G1 X-100.201 Y-260.871
G1 X-100.071 Y-260.776
G1 X-99.945 Y-260.686
G1 X-99.824 Y-260.6
G1 X-99.702 Y-260.516
G1 X-99.586 Y-260.437
G1 X-99.473 Y-260.363
G1 X-99.354 Y-260.288
G1 X-99.235 Y-260.214
G1 X-99.122 Y-260.146
G1 X-99.019 Y-260.086
G1 X-98.904 Y-260.023
G1 X-98.795 Y-259.964
G1 X-98.689 Y-259.91
G1 X-98.569 Y-259.851
G1 X-96.401 Y-258.824
G1 X-94.211 Y-257.794
G1 X-92.019 Y-256.768
G1 X-89.824 Y-255.747
G1 X-87.625 Y-254.729
G1 X-85.424 Y-253.714
G1 X-83.221 Y-252.702
G1 X-81.015 Y-251.692
G1 X-78.808 Y-250.683
G1 X-76.599 Y-249.676
G1 X-74.389 Y-248.67
G1 X-72.179 Y-247.664
G1 X-72.178 Y-247.663
G1 X-69.967 Y-246.657
G1 X-67.757 Y-245.651
G1 X-67.755 Y-245.65
G1 X-65.545 Y-244.643
G1 X-65.542 Y-244.642
G1 X-63.333 Y-243.633
G1 X-63.332 Y-243.632
G1 X-61.124 Y-242.622
G1 X-61.12 Y-242.62
G1 X-58.913 Y-241.607
G1 X-58.91 Y-241.606
G1 X-56.706 Y-240.591
G1 X-56.701 Y-240.589
G1 X-54.499 Y-239.571
G1 X-54.494 Y-239.568
G1 X-52.294 Y-238.546
G1 X-52.289 Y-238.544
G1 X-50.092 Y-237.519
G1 X-50.084 Y-237.516
G1 X-47.89 Y-236.485
G1 X-47.884 Y-236.482
G1 X-45.693 Y-235.447
G1 X-45.663 Y-235.432
G1 X-45.605 Y-235.404
G1 X-45.458 Y-235.328
G1 X-45.4 Y-235.296
G1 X-45.361 Y-235.274
G1 X-45.304 Y-235.241
G1 X-45.197 Y-235.178
G1 X-45.139 Y-235.142
G1 X-45.034 Y-235.073
G1 X-44.976 Y-235.034
G1 X-44.932 Y-235.004
G1 X-44.876 Y-234.964
G1 X-44.77 Y-234.886
G1 X-44.714 Y-234.843
G1 X-44.662 Y-234.802
G1 X-44.607 Y-234.758
G1 X-44.525 Y-234.69
G1 X-44.471 Y-234.644
G1 X-44.412 Y-234.592
G1 X-44.36 Y-234.545
G1 X-44.276 Y-234.467
G1 X-44.226 Y-234.418
G1 X-44.138 Y-234.329
G1 X-44.09 Y-234.278
G1 X-44.04 Y-234.225
G1 X-43.993 Y-234.174
G1 X-43.92 Y-234.091
G1 X-43.876 Y-234.039
G1 X-43.782 Y-233.923
G1 X-43.741 Y-233.869
G1 X-43.677 Y-233.784
G1 X-43.639 Y-233.73
G1 X-43.556 Y-233.609
G1 X-43.52 Y-233.554
G1 X-43.45 Y-233.441
G1 X-43.417 Y-233.386
G1 X-43.333 Y-233.235
G1 X-43.304 Y-233.179
G1 X-43.232 Y-233.031
G1 X-43.206 Y-232.975
G1 X-43.135 Y-232.807
G1 X-43.113 Y-232.751
G1 X-43.045 Y-232.556
G1 X-43.027 Y-232.5
G1 X-42.995 Y-232.391
G1 X-42.967 Y-232.282
G1 X-42.953 Y-232.226
G1 X-42.928 Y-232.113
G1 X-42.908 Y-232
G1 X-42.899 Y-231.945
G1 X-42.882 Y-231.833
G1 X-42.87 Y-231.72
G1 X-42.863 Y-231.642
G1 X-42.852 Y-231.477
G1 X-42.849 Y-231.397
G1 X-42.847 Y-231.247
G1 X-42.848 Y-231.165
G1 X-42.852 Y-231.016
G1 X-42.857 Y-230.933
G1 X-42.866 Y-230.808
G1 X-42.875 Y-230.723
G1 X-42.888 Y-230.603
G1 X-42.9 Y-230.517
G1 X-42.917 Y-230.402
G1 X-42.932 Y-230.315
G1 X-42.95 Y-230.218
G1 X-42.968 Y-230.13
G1 X-42.991 Y-230.026
G1 X-43.012 Y-229.938
G1 X-43.033 Y-229.855
G1 X-43.057 Y-229.766
G1 X-43.08 Y-229.683
G1 X-43.107 Y-229.594
G1 X-43.132 Y-229.513
G1 X-43.161 Y-229.424
G1 X-43.185 Y-229.355
G1 X-43.216 Y-229.266
G1 X-43.241 Y-229.198
G1 X-43.274 Y-229.109
G1 X-43.297 Y-229.051
G1 X-43.332 Y-228.962
G1 X-43.365 Y-228.884
G1 X-43.402 Y-228.797
G1 X-43.423 Y-228.75
G1 X-43.462 Y-228.663
G1 X-43.49 Y-228.603
G1 X-43.531 Y-228.517
G1 X-43.555 Y-228.466
G1 X-43.598 Y-228.381
G1 X-43.629 Y-228.319
G1 X-43.673 Y-228.236
G1 X-43.696 Y-228.193
G1 X-43.741 Y-228.111
G1 X-43.772 Y-228.056
G1 X-43.817 Y-227.976
G1 X-43.847 Y-227.925
G1 X-43.893 Y-227.847
G1 X-43.925 Y-227.795
G1 X-43.972 Y-227.719
G1 X-43.995 Y-227.683
G1 X-44.598 Y-226.743
G1 X-44.61 Y-226.724
G1 X-45.221 Y-225.786
G1 X-45.234 Y-225.767
G1 X-45.851 Y-224.833
G1 X-45.861 Y-224.819
G1 X-46.485 Y-223.887
G1 X-46.493 Y-223.874
G1 X-47.122 Y-222.944
G1 X-47.13 Y-222.933
G1 X-47.763 Y-222.005
G1 X-47.77 Y-221.996
G1 X-48.406 Y-221.07
G1 X-48.411 Y-221.064
G1 X-49.05 Y-220.139
G1 X-49.054 Y-220.134
G1 X-49.695 Y-219.21
G1 X-49.696 Y-219.208
G1 X-50.338 Y-218.284
G1 X-50.98 Y-217.36
G1 X-51.619 Y-216.44
G1 X-52.255 Y-215.521
G1 X-52.887 Y-214.603
G1 X-53.515 Y-213.685
G1 X-54.136 Y-212.768
G1 X-54.751 Y-211.852
G1 X-55.359 Y-210.935
G1 X-55.958 Y-210.018
G1 X-56.548 Y-209.101
G1 X-57.129 Y-208.182
G1 X-57.699 Y-207.263
G1 X-58.257 Y-206.341
G1 X-58.79 Y-205.438
G1 X-58.818 Y-205.388
G1 X-58.836 Y-205.352
G1 X-58.856 Y-205.309
G1 X-58.876 Y-205.258
G1 X-58.897 Y-205.199
G1 X-58.918 Y-205.131
G1 X-58.939 Y-205.057
G1 X-58.959 Y-204.975
G1 X-58.978 Y-204.887
G1 X-58.996 Y-204.793
G1 X-59.011 Y-204.693
G1 X-59.025 Y-204.588
G1 X-59.037 Y-204.478
G1 X-59.047 Y-204.365
G1 X-59.054 Y-204.248
G1 X-59.059 Y-204.129
G1 X-59.062 Y-204.006
G1 Y-203.884
G1 X-59.061 Y-203.759
G1 X-59.057 Y-203.633
G1 X-59.051 Y-203.508
G1 X-59.043 Y-203.383
G1 X-59.033 Y-203.26
G1 X-59.03 Y-203.226
G1 X-58.75 Y-203.046
G1 X-58.317 Y-202.778
G1 X-57.877 Y-202.515
G1 X-57.429 Y-202.256
G1 X-56.968 Y-201.998
G1 X-56.5 Y-201.741
G1 X-56.029 Y-201.489
G1 X-55.547 Y-201.236
G1 X-55.057 Y-200.983
G1 X-54.564 Y-200.731
G1 X-54.065 Y-200.479
G1 X-53.561 Y-200.226
G1 X-53.054 Y-199.972
G1 X-53.05 Y-199.97
G1 X-52.539 Y-199.714
G1 X-52.534 Y-199.712
G1 X-52.024 Y-199.455
G1 X-52.017 Y-199.452
G1 X-51.508 Y-199.194
G1 X-51.496 Y-199.188
G1 X-50.988 Y-198.928
G1 X-50.975 Y-198.921
G1 X-50.468 Y-198.659
G1 X-50.445 Y-198.647
G1 X-49.941 Y-198.381
G1 X-49.917 Y-198.368
G1 X-49.416 Y-198.098
G1 X-49.391 Y-198.084
G1 X-48.893 Y-197.81
G1 X-48.863 Y-197.793
G1 X-48.369 Y-197.514
G1 X-48.333 Y-197.494
G1 X-47.843 Y-197.209
G1 X-47.806 Y-197.187
G1 X-47.322 Y-196.896
G1 X-47.316 Y-196.892
G1 X-47.131 Y-196.781
G1 X-46.956 Y-196.675
G1 X-46.775 Y-196.569
G1 X-46.774 Y-196.568
G1 X-46.583 Y-196.456
G1 X-46.392 Y-196.343
G1 X-46.373 Y-196.332
G1 X-46.179 Y-196.216
G1 X-46.178 Y-196.215
G1 X-45.984 Y-196.099
G1 X-45.948 Y-196.077
G1 X-45.755 Y-195.958
G1 X-45.726 Y-195.94
G1 X-45.534 Y-195.819
G1 X-45.502 Y-195.799
G1 X-45.312 Y-195.676
G1 X-45.277 Y-195.653
G1 X-45.089 Y-195.528
G1 X-45.031 Y-195.488
G1 X-44.846 Y-195.359
G1 X-44.795 Y-195.322
G1 X-44.614 Y-195.19
G1 X-44.558 Y-195.148
G1 X-44.382 Y-195.013
G1 X-44.306 Y-194.954
G1 X-44.133 Y-194.814
G1 X-44.071 Y-194.761
G1 X-43.904 Y-194.618
G1 X-43.814 Y-194.539
G1 X-43.653 Y-194.39
G1 X-43.576 Y-194.316
G1 X-43.422 Y-194.163
G1 X-43.336 Y-194.076
G1 X-43.188 Y-193.918
G1 X-43.101 Y-193.821
G1 X-42.961 Y-193.658
G1 X-42.861 Y-193.537
G1 X-42.729 Y-193.367
G1 X-42.642 Y-193.251
G1 X-42.518 Y-193.076
G1 X-42.425 Y-192.936
G1 X-42.31 Y-192.754
G1 X-42.22 Y-192.603
G1 X-42.115 Y-192.414
G1 X-42.07 Y-192.331
G1 X-40.941 Y-190.156
G1 X-40.933 Y-190.142
G1 X-39.814 Y-187.959
G1 X-39.807 Y-187.946
G1 X-38.696 Y-185.756
G1 X-38.69 Y-185.743
G1 X-37.587 Y-183.545
G1 X-37.582 Y-183.535
G1 X-36.488 Y-181.332
G1 X-36.482 Y-181.321
G1 X-35.395 Y-179.111
G1 X-35.39 Y-179.101
G1 X-34.31 Y-176.886
G1 X-34.305 Y-176.876
G1 X-33.231 Y-174.655
G1 X-33.227 Y-174.647
G1 X-32.159 Y-172.422
G1 X-32.156 Y-172.415
G1 X-31.092 Y-170.187
G1 X-31.089 Y-170.18
G1 X-30.031 Y-167.947
G1 X-30.028 Y-167.941
G1 X-28.974 Y-165.706
G1 X-28.971 Y-165.701
G1 X-27.921 Y-163.462
G1 X-27.919 Y-163.458
G1 X-26.871 Y-161.218
G1 X-26.87 Y-161.214
G1 X-25.825 Y-158.972
G1 X-25.824 Y-158.97
G1 X-24.781 Y-156.727
G1 X-24.78 Y-156.725
G1 X-23.739 Y-154.482
G1 X-23.738 Y-154.48
G1 X-22.698 Y-152.236
G1 X-21.658 Y-149.992
G1 X-20.619 Y-147.75
G1 X-19.579 Y-145.511
G1 X-18.539 Y-143.273
G1 X-17.497 Y-141.038
G1 X-16.453 Y-138.806
G1 X-16.313 Y-138.507
G1 X-16.309 Y-138.499
G1 X-16.17 Y-138.199
G1 X-16.165 Y-138.189
G1 X-16.026 Y-137.888
G1 X-16.024 Y-137.882
G1 X-15.886 Y-137.581
G1 X-15.882 Y-137.572
G1 X-15.745 Y-137.271
G1 X-15.738 Y-137.255
G1 X-15.602 Y-136.952
G1 X-15.598 Y-136.942
G1 X-15.464 Y-136.639
G1 X-15.458 Y-136.627
G1 X-15.325 Y-136.324
G1 X-15.319 Y-136.309
G1 X-15.187 Y-136.005
G1 X-15.18 Y-135.988
G1 X-15.05 Y-135.683
G1 X-15.043 Y-135.665
G1 X-14.915 Y-135.359
G1 X-14.908 Y-135.343
G1 X-14.782 Y-135.037
G1 X-14.774 Y-135.017
G1 X-14.65 Y-134.71
G1 X-14.641 Y-134.688
G1 X-14.519 Y-134.38
G1 X-14.511 Y-134.358
G1 X-14.391 Y-134.049
G1 X-14.382 Y-134.025
G1 X-14.265 Y-133.715
G1 X-14.257 Y-133.693
G1 X-14.143 Y-133.383
G1 X-14.133 Y-133.357
G1 X-14.021 Y-133.046
G1 X-14.012 Y-133.019
G1 X-13.903 Y-132.707
G1 X-13.892 Y-132.676
G1 X-13.786 Y-132.362
G1 X-13.777 Y-132.334
G1 X-13.674 Y-132.02
G1 X-13.664 Y-131.989
G1 X-13.565 Y-131.674
G1 X-13.555 Y-131.643
G1 X-13.459 Y-131.327
G1 X-13.449 Y-131.292
G1 X-13.356 Y-130.975
G1 X-13.35 Y-130.955
G1 X-12.749 Y-128.845
G1 X-12.747 Y-128.84
G1 X-12.15 Y-126.729
G1 X-12.148 Y-126.724
G1 X-11.554 Y-124.612
G1 X-11.553 Y-124.606
G1 X-10.962 Y-122.492
G1 X-10.961 Y-122.488
G1 X-10.374 Y-120.374
G1 X-10.372 Y-120.369
G1 X-9.788 Y-118.253
G1 X-9.787 Y-118.249
G1 X-9.206 Y-116.132
G1 X-9.204 Y-116.128
G1 X-8.626 Y-114.01
G1 X-8.625 Y-114.006
G1 X-8.049 Y-111.888
G1 X-8.048 Y-111.884
G1 X-7.474 Y-109.764
G1 Y-109.761
G1 X-6.902 Y-107.641
G1 X-6.901 Y-107.638
G1 X-6.332 Y-105.517
G1 X-6.331 Y-105.514
G1 X-5.764 Y-103.393
G1 X-5.763 Y-103.391
G1 X-5.198 Y-101.269
G1 X-5.197 Y-101.266
G1 X-4.633 Y-99.144
G1 Y-99.142
G1 X-4.07 Y-97.02
G1 Y-97.018
G1 X-3.508 Y-94.895
G1 Y-94.893
G1 X-2.948 Y-92.77
G1 Y-92.769
G1 X-2.388 Y-90.646
G1 Y-90.645
G1 X-1.829 Y-88.521
G1 X-1.271 Y-86.397
G1 X-0.714 Y-84.273
G1 X-0.156 Y-82.15
G1 X0.401 Y-80.027
G1 Y-80.025
G1 X0.459 Y-79.806
G1 X0.46 Y-79.801
G1 X0.517 Y-79.581
G1 X0.519 Y-79.574
G1 X0.575 Y-79.354
G1 X0.577 Y-79.346
G1 X0.634 Y-79.126
G1 X0.636 Y-79.115
G1 X0.692 Y-78.895
G1 X0.695 Y-78.883
G1 X0.749 Y-78.662
G1 X0.752 Y-78.648
G1 X0.806 Y-78.427
G1 X0.81 Y-78.412
G1 X0.862 Y-78.19
G1 X0.866 Y-78.173
G1 X0.917 Y-77.951
G1 X0.922 Y-77.931
G1 X0.971 Y-77.709
G1 X0.976 Y-77.689
G1 X1.024 Y-77.467
G1 X1.029 Y-77.443
G1 X1.076 Y-77.221
G1 X1.081 Y-77.196
G1 X1.125 Y-76.973
G1 X1.131 Y-76.947
G1 X1.173 Y-76.724
G1 X1.179 Y-76.695
G1 X1.219 Y-76.472
G1 X1.225 Y-76.441
G1 X1.263 Y-76.217
G1 X1.269 Y-76.185
G1 X1.305 Y-75.961
G1 X1.31 Y-75.927
G1 X1.344 Y-75.703
G1 X1.349 Y-75.666
G1 X1.38 Y-75.442
G1 X1.385 Y-75.404
G1 X1.414 Y-75.179
G1 X1.419 Y-75.139
G1 X1.444 Y-74.914
G1 X1.449 Y-74.872
G1 X1.471 Y-74.646
G1 X1.475 Y-74.602
G1 X1.494 Y-74.377
G1 X1.498 Y-74.331
G1 X1.514 Y-74.105
G1 X1.516 Y-74.079
G1 X1.701 Y-71.131
G1 Y-71.127
G1 X1.882 Y-68.179
G1 X1.883 Y-68.175
G1 X2.06 Y-65.226
G1 X2.061 Y-65.222
G1 X2.235 Y-62.272
G1 Y-62.269
G1 X2.407 Y-59.319
G1 Y-59.316
G1 X2.575 Y-56.365
G1 X2.576 Y-56.363
G1 X2.741 Y-53.412
G1 Y-53.409
G1 X2.905 Y-50.458
G1 Y-50.455
G1 X3.066 Y-47.504
G1 Y-47.502
G1 X3.224 Y-44.55
G1 Y-44.548
G1 X3.381 Y-41.596
G1 Y-41.594
G1 X3.536 Y-38.642
G1 Y-38.641
G1 X3.69 Y-35.689
G1 Y-35.687
G1 X3.842 Y-32.735
G1 Y-32.734
G1 X3.993 Y-29.782
G1 Y-29.781
G1 X4.143 Y-26.828
G1 X4.292 Y-23.875
G1 X4.441 Y-20.922
G1 X4.59 Y-17.97
G1 X4.738 Y-15.017
G1 X4.886 Y-12.066
G1 X5.034 Y-9.114
G1 X5.183 Y-6.163
G1 X5.332 Y-3.224
G1 X5.335 Y-3.18
G1 X5.338 Y-3.135
G1 X5.342 Y-3.079
G1 X5.348 Y-3.012
G1 X5.354 Y-2.936
G1 X5.355 Y-2.934
G1 X5.361 Y-2.854
G1 X5.362 Y-2.843
G1 X5.369 Y-2.762
G1 X5.37 Y-2.741
G1 X5.377 Y-2.661
G1 X5.379 Y-2.631
G1 X5.384 Y-2.551
G1 X5.386 Y-2.512
G1 X5.391 Y-2.431
G1 X5.393 Y-2.382
G1 X5.396 Y-2.302
G1 X5.398 Y-2.243
G1 X5.399 Y-2.164
G1 X5.4 Y-2.093
G1 Y-2.015
G1 X5.398 Y-1.933
G1 X5.396 Y-1.855
G1 X5.392 Y-1.759
G1 X5.387 Y-1.683
G1 X5.379 Y-1.575
G1 X5.372 Y-1.5
G1 X5.358 Y-1.375
G1 X5.348 Y-1.302
G1 X5.327 Y-1.163
G1 X5.314 Y-1.091
G1 X5.282 Y-0.935
G1 X5.266 Y-0.865
G1 X5.221 Y-0.692
G1 X5.201 Y-0.625
G1 X5.139 Y-0.436
G1 X5.116 Y-0.371
G1 X5.034 Y-0.167
G1 X5.007 Y-0.105
G1 X4.956 Y0.005
G1 X4.901 Y0.112
G1 X4.87 Y0.171
G3 X4.738 Y0.395 I-2.799 J-1.498
G1 X4.702 Y0.451
G1 X4.588 Y0.615
G1 Z-12.7
G1 X4.534 Y0.688
G1 X4.461 Y0.784
G1 X4.402 Y0.857
G1 X4.33 Y0.944
G1 X4.268 Y1.016
G1 X4.196 Y1.097
G1 X4.13 Y1.169
G1 X4.059 Y1.243
G1 X3.989 Y1.314
G1 X3.919 Y1.384
G1 X3.846 Y1.454
G1 X3.775 Y1.519
G1 X3.699 Y1.587
G1 X3.629 Y1.649
G1 X3.549 Y1.716
G1 X3.478 Y1.775
G1 X3.396 Y1.841
G1 X3.324 Y1.897
G1 X3.239 Y1.96
G1 X3.165 Y2.014
G1 X3.078 Y2.076
G1 X3.003 Y2.128
G1 X2.914 Y2.187
G1 X2.836 Y2.238
G1 X2.745 Y2.294
G1 X2.664 Y2.343
G1 X2.571 Y2.397
G1 X2.487 Y2.445
G1 X2.393 Y2.496
G1 X2.304 Y2.542
G1 X2.209 Y2.59
G1 X2.116 Y2.635
G1 X2.02 Y2.68
G1 X1.921 Y2.724
G1 X1.824 Y2.765
G1 X1.72 Y2.807
G1 X1.622 Y2.844
G1 X1.511 Y2.884
G1 X1.413 Y2.917
G1 X1.294 Y2.955
G1 X1.195 Y2.984
G1 X1.068 Y3.019
G1 X0.97 Y3.044
G1 X0.833 Y3.075
G1 X0.735 Y3.095
G1 X0.588 Y3.122
G1 X0.491 Y3.137
G1 X0.389 Y3.151
G1 X-0.039 Y3.204
G1 X-0.082 Y3.209
G1 X-0.512 Y3.256
G1 X-0.552 Y3.26
G1 X-0.984 Y3.302
G1 X-1.021 Y3.306
G1 X-1.455 Y3.343
G1 X-1.49 Y3.345
G1 X-1.925 Y3.378
G1 X-1.957 Y3.38
G1 X-2.394 Y3.408
G1 X-2.423 Y3.41
G1 X-2.861 Y3.434
G1 X-2.888 Y3.435
G1 X-3.327 Y3.455
G1 X-3.351 Y3.456
G1 X-3.792 Y3.474
G1 X-3.813
G1 X-4.254 Y3.488
G1 X-4.274 Y3.489
G1 X-4.716 Y3.5
G1 X-4.733 Y3.501
G1 X-5.175 Y3.51
G1 X-5.19
G1 X-5.633 Y3.517
G1 X-5.645
G1 X-6.088 Y3.523
G1 X-6.098
G1 X-6.542 Y3.527
G1 X-6.549
G1 X-6.993 Y3.53
G1 X-6.998
G1 X-7.442 Y3.532
G1 X-7.444
G1 X-7.888 Y3.534
G1 X-8.331 Y3.536
G1 X-8.77 Y3.538
G1 X-9.207 Y3.541
G1 X-9.641 Y3.545
G1 X-10.072 Y3.55
G1 X-10.497 Y3.556
G1 X-10.651 Y3.559
G1 X-10.807 Y3.564
G1 X-10.969 Y3.569
G1 X-11.135 Y3.575
G1 X-11.307 Y3.582
G1 X-11.482 Y3.589
G1 X-11.485
G1 X-11.661 Y3.596
G1 X-11.669
G1 X-11.845 Y3.603
G1 X-11.858
G1 X-12.034 Y3.609
G1 X-12.051
G1 X-12.228 Y3.614
G1 X-12.25 Y3.615
G1 X-12.426 Y3.618
G1 X-12.453 Y3.619
G1 X-12.63 Y3.621
G1 X-12.662
G1 X-12.838
G1 X-12.875
G1 X-13.051 Y3.619
G1 X-13.093
G1 X-13.268 Y3.615
G1 X-13.315 Y3.613
G1 X-13.49 Y3.607
G1 X-13.542 Y3.604
G1 X-13.717 Y3.595
G1 X-13.774 Y3.591
G1 X-13.949 Y3.578
G1 X-14.011 Y3.573
G1 X-14.185 Y3.557
G1 X-14.252 Y3.55
G1 X-14.425 Y3.53
G1 X-14.498 Y3.521
G1 X-14.67 Y3.497
G1 X-14.747 Y3.486
G1 X-14.919 Y3.458
G1 X-15.001 Y3.443
G1 X-15.172 Y3.411
G1 X-15.258 Y3.393
G1 X-15.428 Y3.356
G1 X-15.477 Y3.345
G1 X-17.008 Y2.985
G1 X-17.015 Y2.984
G1 X-18.546 Y2.62
G1 X-18.553 Y2.618
G1 X-20.083 Y2.251
G1 X-20.09 Y2.249
G1 X-21.619 Y1.878
G1 X-21.626 Y1.876
G1 X-23.155 Y1.501
G1 X-23.162 Y1.5
G1 X-24.691 Y1.122
G1 X-24.697 Y1.12
G1 X-26.225 Y0.739
G1 X-26.231 Y0.737
G1 X-27.759 Y0.353
G1 X-27.764 Y0.352
G1 X-29.292 Y-0.035
G1 X-29.297 Y-0.037
G1 X-30.824 Y-0.427
G1 X-30.829 Y-0.428
G1 X-32.356 Y-0.82
G1 X-32.36 Y-0.821
G1 X-33.887 Y-1.216
G1 X-33.891 Y-1.217
G1 X-35.417 Y-1.614
G1 X-35.421 Y-1.615
G1 X-36.946 Y-2.015
G1 X-36.95 Y-2.016
G1 X-38.475 Y-2.416
G1 X-38.479 Y-2.417
G1 X-40.003 Y-2.82
G1 X-40.006 Y-2.821
G1 X-41.53 Y-3.225
G1 X-41.533 Y-3.226
G1 X-43.057 Y-3.632
G1 X-43.06 Y-3.633
G1 X-44.583 Y-4.04
G1 X-44.585
G1 X-46.108 Y-4.448
G1 X-46.11 Y-4.449
G1 X-47.632 Y-4.858
G1 X-47.634
G1 X-49.156 Y-5.268
G1 X-49.157 Y-5.269
G1 X-50.679 Y-5.679
G1 X-50.68
G1 X-52.201 Y-6.09
G1 X-55.169 Y-6.893
G1 X-58.136 Y-7.696
G1 X-61.104 Y-8.5
G1 X-64.071 Y-9.305
G1 X-64.072
G1 X-67.039 Y-10.111
G1 X-67.04
G1 X-70.007 Y-10.918
G1 X-70.008
G1 X-72.974 Y-11.726
G1 X-72.976 Y-11.727
G1 X-75.941 Y-12.536
G1 X-75.943 Y-12.537
G1 X-78.908 Y-13.348
G1 X-78.91 Y-13.349
G1 X-81.875 Y-14.161
G1 X-81.877 Y-14.162
G1 X-84.841 Y-14.977
G1 X-84.843
G1 X-87.807 Y-15.794
G1 X-87.809 Y-15.795
G1 X-90.772 Y-16.614
G1 X-90.774
G1 X-93.736 Y-17.435
G1 X-93.739 Y-17.436
G1 X-96.7 Y-18.26
G1 X-96.703 Y-18.261
G1 X-99.664 Y-19.087
G1 X-99.667 Y-19.088
G1 X-102.626 Y-19.917
G1 X-102.63 Y-19.918
G1 X-105.588 Y-20.75
G1 X-105.59
G1 X-108.548 Y-21.585
G1 X-108.552 Y-21.586
G1 X-111.508 Y-22.424
G1 X-111.511 Y-22.425
G1 X-114.467 Y-23.266
G1 X-114.471 Y-23.268
G1 X-117.425 Y-24.112
G1 X-117.429 Y-24.113
G1 X-120.381 Y-24.962
G1 X-120.385 Y-24.963
G1 X-123.336 Y-25.815
G1 X-123.354 Y-25.82
G1 X-123.662 Y-25.911
G1 X-123.698 Y-25.922
G1 X-124.004 Y-26.016
G1 X-124.036 Y-26.026
G1 X-124.342 Y-26.124
G1 X-124.375 Y-26.135
G1 X-124.679 Y-26.236
G1 X-124.708 Y-26.246
G1 X-125.012 Y-26.35
G1 X-125.042 Y-26.36
G1 X-125.345 Y-26.467
G1 X-125.373 Y-26.478
G1 X-125.675 Y-26.588
G1 X-125.706 Y-26.599
G1 X-126.006 Y-26.712
G1 X-126.03 Y-26.721
G1 X-126.33 Y-26.837
G1 X-126.356 Y-26.847
G1 X-126.655 Y-26.965
G1 X-126.68 Y-26.975
G1 X-126.978 Y-27.096
G1 X-127.002 Y-27.106
G1 X-127.299 Y-27.229
G1 X-127.321 Y-27.238
G1 X-127.617 Y-27.364
G1 X-127.636 Y-27.372
G1 X-127.932 Y-27.499
G1 X-127.956 Y-27.51
G1 X-128.25 Y-27.64
G1 X-128.27 Y-27.649
G1 X-128.563 Y-27.781
G1 X-128.579 Y-27.788
G1 X-128.872 Y-27.922
G1 X-128.894 Y-27.932
G1 X-129.185 Y-28.067
G1 X-129.199 Y-28.074
G1 X-129.49 Y-28.211
G1 X-129.506 Y-28.218
G1 X-129.796 Y-28.357
G1 X-129.813 Y-28.365
G1 X-130.102 Y-28.505
G1 X-130.115 Y-28.512
G1 X-130.403 Y-28.654
G1 X-130.418 Y-28.661
G1 X-130.705 Y-28.804
G1 X-130.718 Y-28.81
G1 X-131.004 Y-28.954
G1 X-131.017 Y-28.961
G1 X-131.663 Y-29.29
G1 X-131.679 Y-29.298
G1 X-132.323 Y-29.631
G1 X-132.339 Y-29.639
G1 X-132.981 Y-29.975
G1 X-132.993 Y-29.982
G1 X-133.634 Y-30.321
G1 X-133.648 Y-30.328
G1 X-134.287 Y-30.67
G1 X-134.296 Y-30.675
G1 X-134.935 Y-31.02
G1 X-134.949 Y-31.028
G1 X-135.585 Y-31.375
