(1001)
(T1  D=6.35 CR=0 - ZMIN=-7.62 - FLAT END MILL)
G0 G40 G90 G17
G21

(2D CONTOUR2)
T1 M6
M3 S5000
G0 X0.211 Y-51.919
G0 Z6.096
G1 Z4.191 F508.
G1 Z-4.064
G1 X0.214 Y-51.906
G1 X0.244 Y-51.75
G1 X0.249 Y-51.721
G1 X0.277 Y-51.565
G1 X0.283 Y-51.534
G1 X0.31 Y-51.378
G1 X0.315 Y-51.345
G1 X0.341 Y-51.189
G1 X0.346 Y-51.154
G1 X0.369 Y-50.997
G1 X0.375 Y-50.961
G1 X0.397 Y-50.804
G1 X0.402 Y-50.766
G1 X0.421 Y-50.608
G1 X0.426 Y-50.568
G1 X0.444 Y-50.41
G1 X0.449 Y-50.369
G1 X0.464 Y-50.211
G1 X0.468 Y-50.166
G1 X0.482 Y-50.009
G1 X0.485 Y-49.962
G1 X0.497 Y-49.804
G1 X0.498 Y-49.779
G1 X0.628 Y-47.715
G1 Y-47.711
G1 X0.755 Y-45.647
G1 Y-45.643
G1 X0.88 Y-43.579
G1 Y-43.575
G1 X1.002 Y-41.511
G1 Y-41.507
G1 X1.122 Y-39.442
G1 X1.123 Y-39.439
G1 X1.24 Y-37.374
G1 X1.241 Y-37.371
G1 X1.357 Y-35.305
G1 Y-35.303
G1 X1.471 Y-33.237
G1 Y-33.234
G1 X1.584 Y-31.168
G1 Y-31.166
G1 X1.695 Y-29.1
G1 Y-29.098
G1 X1.805 Y-27.032
G1 Y-27.03
G1 X1.913 Y-24.963
G1 Y-24.962
G1 X2.021 Y-22.895
G1 Y-22.894
G1 X2.127 Y-20.827
G1 X2.128 Y-20.826
G1 X2.233 Y-18.759
G1 Y-18.758
G1 X2.338 Y-16.692
G1 X2.443 Y-14.624
G1 X2.547 Y-12.557
G1 X2.651 Y-10.49
G1 X2.754 Y-8.424
G1 X2.858 Y-6.357
G1 X2.962 Y-4.292
G1 X3.066 Y-2.226
G1 X3.17 Y-0.172
G1 X3.172 Y-0.15
G1 X3.173 Y-0.129
G1 X3.176 Y-0.096
G1 X3.179 Y-0.053
G1 X3.184 Y-0.001
G1 Y0.001
G1 X3.189 Y0.058
G1 X3.19 Y0.069
G1 X3.194 Y0.125
G1 X3.196 Y0.146
G1 X3.2 Y0.202
G1 X3.202 Y0.232
G1 X3.206 Y0.288
G1 X3.208 Y0.327
G1 X3.211 Y0.383
G1 X3.214 Y0.432
G1 X3.216 Y0.488
G1 X3.217 Y0.547
G1 X3.218 Y0.603
G1 X3.219 Y0.673
G1 Y0.728
G1 X3.218 Y0.811
G1 X3.216 Y0.865
G1 X3.212 Y0.96
G1 X3.209 Y1.014
G1 X3.201 Y1.123
G1 X3.196 Y1.175
G1 X3.182 Y1.299
G1 X3.175 Y1.35
G1 X3.153 Y1.49
G1 X3.144 Y1.54
G1 X3.112 Y1.696
G1 X3.101 Y1.745
G1 X3.056 Y1.918
G1 X3.042 Y1.965
G1 X2.98 Y2.155
G1 X2.964 Y2.2
G1 X2.882 Y2.404
G1 X2.863 Y2.448
G1 X2.812 Y2.557
G1 X2.758 Y2.664
G1 X2.736 Y2.705
G3 X2.603 Y2.93 I-2.799 J-1.498
G1 X2.578 Y2.969
G1 X2.465 Y3.133
G1 X2.427 Y3.184
G1 X2.353 Y3.28
G1 X2.312 Y3.331
G1 X2.24 Y3.418
G1 X2.196 Y3.469
G1 X2.125 Y3.549
G1 X2.078 Y3.6
G1 X2.008 Y3.674
G1 X1.959 Y3.724
G1 X1.888 Y3.793
G1 X1.837 Y3.842
G1 X1.767 Y3.907
G1 X1.713 Y3.955
G1 X1.643 Y4.017
G1 X1.587 Y4.064
G1 X1.516 Y4.123
G1 X1.459 Y4.169
G1 X1.386 Y4.225
G1 X1.327 Y4.269
G1 X1.253 Y4.323
G1 X1.192 Y4.367
G1 X1.117 Y4.419
G1 X1.054 Y4.46
G1 X0.976 Y4.51
G1 X0.913 Y4.55
G1 X0.832 Y4.599
G1 X0.767 Y4.637
G1 X0.682 Y4.685
G1 X0.617 Y4.72
G1 X0.528 Y4.767
G1 X0.462 Y4.8
G1 X0.368 Y4.845
G1 X0.301 Y4.876
G1 X0.203 Y4.92
G1 X0.135 Y4.949
G1 X0.03 Y4.991
G1 X-0.038 Y5.017
G1 X-0.15 Y5.057
G1 X-0.218 Y5.08
G1 X-0.337 Y5.118
G1 X-0.406 Y5.139
G1 X-0.533 Y5.173
G1 X-0.602 Y5.191
G1 X-0.739 Y5.222
G1 X-0.807 Y5.236
G1 X-0.955 Y5.263
G1 X-1.023 Y5.273
G1 X-1.124 Y5.287
G1 X-1.424 Y5.324
G1 X-1.467 Y5.329
G1 X-1.768 Y5.362
G1 X-1.808 Y5.367
G1 X-2.11 Y5.396
G1 X-2.147 Y5.399
G1 X-2.451 Y5.425
G1 X-2.485 Y5.428
G1 X-2.79 Y5.451
G1 X-2.822 Y5.453
G1 X-3.128 Y5.472
G1 X-3.157 Y5.474
G1 X-3.464 Y5.491
G1 X-3.491 Y5.492
G1 X-3.798 Y5.507
G1 X-3.822 Y5.508
G1 X-4.13 Y5.52
G1 X-4.152
G1 X-4.461 Y5.53
G1 X-4.48 Y5.531
G1 X-4.79 Y5.539
G1 X-4.807
G1 X-5.116 Y5.545
G1 X-5.131 Y5.546
G1 X-5.441 Y5.551
G1 X-5.453
G1 X-5.763 Y5.555
G1 X-5.773
G1 X-6.084 Y5.557
G1 X-6.091 Y5.558
G1 X-6.402 Y5.56
G1 X-6.407
G1 X-6.717 Y5.561
G1 X-6.72
G1 X-7.031 Y5.563
G1 X-7.34 Y5.564
G1 X-7.647 Y5.565
G1 X-7.951 Y5.567
G1 X-8.253 Y5.57
G1 X-8.551 Y5.573
G1 X-8.843 Y5.578
G1 X-8.946 Y5.58
G1 X-9.049 Y5.583
G1 X-9.158 Y5.587
G1 X-9.271 Y5.591
G1 X-9.39 Y5.595
G1 X-9.513 Y5.6
G1 X-9.516
G1 X-9.639 Y5.605
G1 X-9.647 Y5.606
G1 X-9.77 Y5.61
G1 X-9.782
G1 X-9.906 Y5.615
G1 X-9.923
G1 X-10.047 Y5.618
G1 X-10.069 Y5.619
G1 X-10.192 Y5.621
G1 X-10.219 Y5.622
G1 X-10.343 Y5.623
G1 X-10.375 Y5.624
G1 X-10.498
G1 X-10.535
G1 X-10.658 Y5.622
G1 X-10.7
G1 X-10.823 Y5.619
G1 X-10.87 Y5.617
G1 X-10.993 Y5.613
G1 X-11.045 Y5.61
G1 X-11.167 Y5.604
G1 X-11.225 Y5.6
G1 X-11.346 Y5.591
G1 X-11.409 Y5.586
G1 X-11.53 Y5.575
G1 X-11.598 Y5.568
G1 X-11.719 Y5.554
G1 X-11.792 Y5.545
G1 X-11.912 Y5.528
G1 X-11.989 Y5.516
G1 X-12.109 Y5.497
G1 X-12.191 Y5.482
G1 X-12.311 Y5.46
G1 X-12.397 Y5.442
G1 X-12.516 Y5.416
G1 X-12.565 Y5.405
G1 X-13.636 Y5.153
G1 X-13.644 Y5.151
G1 X-14.715 Y4.897
G1 X-14.723 Y4.895
G1 X-15.794 Y4.638
G1 X-15.801 Y4.636
G1 X-16.872 Y4.376
G1 X-16.878 Y4.375
G1 X-17.949 Y4.112
G1 X-17.955 Y4.111
G1 X-19.025 Y3.846
G1 X-19.032 Y3.845
G1 X-20.101 Y3.578
G1 X-20.107 Y3.576
G1 X-21.177 Y3.307
G1 X-21.182 Y3.306
G1 X-22.252 Y3.035
G1 X-22.257 Y3.033
G1 X-23.326 Y2.761
G1 X-23.331 Y2.759
G1 X-24.399 Y2.485
G1 X-24.404 Y2.483
G1 X-25.472 Y2.207
G1 X-25.477 Y2.206
G1 X-26.545 Y1.928
G1 X-26.549 Y1.927
G1 X-27.617 Y1.648
G1 X-27.621 Y1.647
G1 X-28.688 Y1.366
G1 X-28.691 Y1.365
G1 X-29.759 Y1.083
G1 X-29.762 Y1.082
G1 X-30.829 Y0.799
G1 X-30.832 Y0.798
G1 X-31.898 Y0.514
G1 X-31.901
G1 X-32.967 Y0.229
G1 X-32.969 Y0.228
G1 X-34.035 Y-0.057
G1 X-34.037 Y-0.058
G1 X-35.103 Y-0.344
G1 X-35.105 Y-0.345
G1 X-36.17 Y-0.632
G1 X-36.172
G1 X-37.237 Y-0.92
G1 X-37.238
G1 X-38.302 Y-1.208
G1 X-40.38 Y-1.769
G1 X-42.457 Y-2.332
G1 X-44.535 Y-2.894
G1 X-46.612 Y-3.458
G1 X-46.613
G1 X-48.69 Y-4.022
G1 X-48.691
G1 X-50.768 Y-4.587
G1 X-50.769 Y-4.588
G1 X-52.845 Y-5.153
G1 X-52.847 Y-5.154
G1 X-54.923 Y-5.72
G1 X-54.925 Y-5.721
G1 X-57 Y-6.289
G1 X-57.002
G1 X-59.077 Y-6.858
G1 X-59.079 Y-6.859
G1 X-61.154 Y-7.429
G1 X-61.156 Y-7.43
G1 X-63.231 Y-8.001
G1 X-63.233 Y-8.002
G1 X-65.307 Y-8.575
G1 X-65.31 Y-8.576
G1 X-67.383 Y-9.151
G1 X-67.386
G1 X-69.459 Y-9.728
G1 X-69.462 Y-9.729
G1 X-71.534 Y-10.307
G1 X-71.537 Y-10.308
G1 X-73.608 Y-10.888
G1 X-73.611 Y-10.889
G1 X-75.682 Y-11.471
G1 X-75.686 Y-11.472
G1 X-77.756 Y-12.057
G1 X-77.759 Y-12.058
G1 X-79.829 Y-12.644
G1 X-79.832 Y-12.645
G1 X-81.901 Y-13.234
G1 X-81.904 Y-13.235
G1 X-83.972 Y-13.827
G1 X-83.976 Y-13.828
G1 X-86.043 Y-14.421
G1 X-86.047 Y-14.423
G1 X-88.113 Y-15.019
G1 X-88.131 Y-15.025
G1 X-88.347 Y-15.088
G1 X-88.382 Y-15.099
G1 X-88.597 Y-15.165
G1 X-88.629 Y-15.175
G1 X-88.843 Y-15.243
G1 X-88.874 Y-15.254
G1 X-89.087 Y-15.324
G1 X-89.119 Y-15.335
G1 X-89.332 Y-15.408
G1 X-89.361 Y-15.418
G1 X-89.573 Y-15.493
G1 X-89.602 Y-15.504
G1 X-89.813 Y-15.581
G1 X-89.84 Y-15.591
G1 X-90.051 Y-15.67
G1 X-90.078 Y-15.68
G1 X-90.288 Y-15.761
G1 X-90.312 Y-15.77
G1 X-90.521 Y-15.853
G1 X-90.547 Y-15.864
G1 X-90.756 Y-15.948
G1 X-90.779 Y-15.958
G1 X-90.987 Y-16.044
G1 X-91.01 Y-16.054
G1 X-91.217 Y-16.142
G1 X-91.238 Y-16.15
G1 X-91.445 Y-16.24
G1 X-91.466 Y-16.249
G1 X-91.672 Y-16.34
G1 X-91.691 Y-16.348
G1 X-91.896 Y-16.441
G1 X-91.916 Y-16.449
G1 X-92.121 Y-16.543
G1 X-92.14 Y-16.552
G1 X-92.344 Y-16.647
G1 X-92.36 Y-16.654
G1 X-92.563 Y-16.75
G1 X-92.579 Y-16.758
G1 X-92.782 Y-16.855
G1 X-92.798 Y-16.862
G1 X-93 Y-16.961
G1 X-93.014 Y-16.968
G1 X-93.216 Y-17.067
G1 X-93.23 Y-17.073
G1 X-93.431 Y-17.173
G1 X-93.443 Y-17.18
G1 X-93.643 Y-17.28
G1 X-93.658 Y-17.288
G1 X-94.11 Y-17.518
G1 X-94.126 Y-17.526
G1 X-94.577 Y-17.759
G1 X-94.592 Y-17.767
G1 X-95.041 Y-18.002
G1 X-95.055 Y-18.009
G1 X-95.503 Y-18.247
G1 X-95.516 Y-18.253
G1 X-95.963 Y-18.493
G1 X-95.975 Y-18.499
G1 X-96.422 Y-18.741
G1 X-96.432 Y-18.746
G1 X-96.878 Y-18.989
G1 X-96.887 Y-18.994
G1 X-97.332 Y-19.239
G1 X-97.34 Y-19.243
G1 X-97.784 Y-19.489
G1 X-97.791 Y-19.493
G1 X-98.235 Y-19.74
G1 X-98.241 Y-19.743
G1 X-98.684 Y-19.991
G1 X-98.689 Y-19.994
G1 X-99.132 Y-20.243
G1 X-99.136 Y-20.245
G1 X-99.578 Y-20.494
G1 X-99.582 Y-20.496
G1 X-100.024 Y-20.746
G1 X-100.467 Y-20.996
G1 X-100.91 Y-21.246
G1 X-101.351 Y-21.495
G1 X-101.792 Y-21.744
G1 X-102.232 Y-21.991
G1 X-102.67 Y-22.237
G1 X-103.108 Y-22.481
G1 X-103.545 Y-22.724
G1 X-103.983 Y-22.965
G1 X-104.424 Y-23.208
G1 X-104.432 Y-23.212
G1 X-104.557 Y-23.281
G1 X-104.581 Y-23.294
G1 X-104.706 Y-23.365
G1 X-104.732 Y-23.38
G1 X-104.856 Y-23.451
G1 X-104.871 Y-23.46
G1 X-104.995 Y-23.532
G1 X-105.007 Y-23.539
G1 X-105.131 Y-23.612
G1 X-105.137 Y-23.615
G1 X-105.261 Y-23.689
G1 X-105.268 Y-23.693
G1 X-105.392 Y-23.767
G1 X-105.516 Y-23.84
G1 X-105.524 Y-23.845
G1 X-105.639 Y-23.914
G1 X-105.747 Y-23.978
G1 X-105.861 Y-24.044
G1 X-105.971 Y-24.108
G1 X-106.074 Y-24.167
G1 X-106.177 Y-24.225
G1 X-106.268 Y-24.275
G1 X-106.362 Y-24.324
G1 X-106.451 Y-24.371
G1 X-106.533 Y-24.411
G1 X-106.62 Y-24.452
G1 X-106.694 Y-24.487
G1 X-106.761 Y-24.516
G1 X-106.832 Y-24.545
G1 X-106.895 Y-24.569
G1 X-106.957 Y-24.591
G1 X-107.01 Y-24.609
G1 X-107.067 Y-24.626
G1 X-107.129 Y-24.644
G1 X-107.191 Y-24.661
G1 X-107.253 Y-24.676
G1 X-107.324 Y-24.693
G1 X-107.397 Y-24.708
G1 X-107.471 Y-24.723
G1 X-107.549 Y-24.737
G1 X-107.63 Y-24.751
G1 X-107.711 Y-24.763
G1 X-107.796 Y-24.775
G1 X-107.883 Y-24.787
G1 X-107.974 Y-24.797
G1 X-108.067 Y-24.807
G1 X-108.16 Y-24.816
G1 X-108.257 Y-24.825
G1 X-108.354 Y-24.832
G1 X-108.454 Y-24.84
G1 X-108.556 Y-24.846
G1 X-108.659 Y-24.852
G1 X-108.765 Y-24.857
G1 X-108.871 Y-24.862
G1 X-108.968 Y-24.866
G1 X-109.106 Y-24.869
G1 X-109.238 Y-24.871
G1 X-109.375
G1 X-109.516 Y-24.868
G1 X-109.663 Y-24.864
G1 X-109.813 Y-24.858
G1 X-109.967 Y-24.851
G1 X-110.127 Y-24.842
G1 X-110.291 Y-24.832
G1 X-110.459 Y-24.82
G1 X-110.631 Y-24.808
G1 X-110.809 Y-24.795
G1 X-110.989 Y-24.782
G1 X-110.992
G1 X-111.175 Y-24.768
G1 X-111.179
G1 X-111.361 Y-24.755
G1 X-111.373 Y-24.754
G1 X-111.555 Y-24.742
G1 X-111.567 Y-24.741
G1 X-111.749 Y-24.729
G1 X-111.769 Y-24.728
G1 X-111.95 Y-24.717
G1 X-111.974 Y-24.716
G1 X-112.156 Y-24.707
G1 X-112.184 Y-24.706
G1 X-112.366 Y-24.698
G1 X-112.399 Y-24.697
G1 X-112.581 Y-24.691
G1 X-112.615 Y-24.69
G1 X-112.796 Y-24.686
G1 X-112.838
G1 X-113.019 Y-24.685
G1 X-113.065
G1 X-113.247 Y-24.686
G1 X-113.286
G1 X-113.353 Y-24.688
G1 X-113.37
G1 X-113.438 Y-24.69
G1 X-113.46
G1 X-113.529 Y-24.693
G1 X-113.559 Y-24.694
G1 X-113.627 Y-24.696
G1 X-113.657 Y-24.698
G1 X-113.726 Y-24.701
G1 X-113.753 Y-24.703
G1 X-113.822 Y-24.707
G1 X-113.859 Y-24.709
G1 X-113.928 Y-24.714
G1 X-113.96 Y-24.717
G1 X-114.029 Y-24.722
G1 X-114.07 Y-24.726
G1 X-114.139 Y-24.732
G1 X-114.18 Y-24.737
G1 X-114.249 Y-24.744
G1 X-114.299 Y-24.75
G1 X-114.367 Y-24.758
G1 X-114.402 Y-24.763
G1 X-114.471 Y-24.772
G1 X-114.527 Y-24.78
G1 X-114.595 Y-24.79
G1 X-114.644 Y-24.798
G1 X-114.712 Y-24.81
G1 X-114.774 Y-24.821
G1 X-114.841 Y-24.834
G1 X-114.895 Y-24.844
G1 X-114.962 Y-24.858
G1 X-115.025 Y-24.872
G1 X-115.091 Y-24.887
G1 X-115.153 Y-24.902
G1 X-115.219 Y-24.918
G1 X-115.288 Y-24.936
G1 X-115.353 Y-24.954
G1 X-115.431 Y-24.977
G1 X-115.495 Y-24.996
G1 X-115.569 Y-25.019
G1 X-115.632 Y-25.04
G1 X-115.696 Y-25.062
G1 X-115.759 Y-25.084
G1 X-115.858 Y-25.121
G1 X-115.919 Y-25.145
G1 X-115.99 Y-25.173
G1 X-116.051 Y-25.199
G1 X-116.123 Y-25.23
G1 X-116.182 Y-25.256
G1 X-116.269 Y-25.297
G1 X-116.327 Y-25.325
G1 X-116.363 Y-25.343
G1 X-116.422 Y-25.372
G1 X-116.483 Y-25.403
G1 X-116.542 Y-25.434
G1 X-116.613 Y-25.473
G1 X-116.671 Y-25.506
G1 X-116.701 Y-25.523
G1 X-116.76 Y-25.556
G1 X-116.846 Y-25.608
G1 X-116.903 Y-25.643
G1 X-116.929 Y-25.66
G1 X-116.987 Y-25.696
G1 X-117.048 Y-25.735
G1 X-117.105 Y-25.773
G1 X-117.168 Y-25.816
G1 X-117.224 Y-25.855
G1 X-117.28 Y-25.895
G1 X-117.335 Y-25.935
G1 X-117.367 Y-25.959
G1 X-117.422 Y-26.001
G1 X-117.48 Y-26.045
G1 X-117.534 Y-26.087
G1 X-117.604 Y-26.145
G1 X-117.656 Y-26.188
G1 X-117.686 Y-26.213
G1 X-117.738 Y-26.258
G1 X-117.808 Y-26.319
G1 X-117.858 Y-26.365
G1 X-117.905 Y-26.408
G1 X-117.954 Y-26.454
G1 X-117.997 Y-26.495
G1 X-118.045 Y-26.543
G1 X-118.113 Y-26.612
G1 X-118.159 Y-26.66
G1 X-118.223 Y-26.728
G1 X-118.267 Y-26.777
G1 X-118.306 Y-26.821
G1 X-118.349 Y-26.87
G1 X-118.411 Y-26.944
G1 X-118.452 Y-26.994
G1 X-118.488 Y-27.038
G1 X-118.528 Y-27.089
G1 X-118.61 Y-27.198
G1 X-118.647 Y-27.25
G1 X-118.712 Y-27.343
G1 X-118.745 Y-27.393
G1 X-118.794 Y-27.469
G1 X-118.826 Y-27.52
G1 X-118.915 Y-27.67
G1 X-118.944 Y-27.722
G1 X-118.984 Y-27.796
G1 X-119.012 Y-27.85
G1 X-119.065 Y-27.959
G1 X-119.091 Y-28.014
G1 X-119.122 Y-28.08
G1 X-119.147 Y-28.137
G1 X-119.192 Y-28.244
G1 X-119.215 Y-28.302
G1 X-119.239 Y-28.363
G1 X-119.261 Y-28.422
G1 X-119.299 Y-28.526
G1 X-119.318 Y-28.586
G1 X-119.323 Y-28.598
G1 X-119.343 Y-28.658
G1 X-119.374 Y-28.759
G1 X-119.392 Y-28.82
G1 X-119.408 Y-28.874
G1 X-119.425 Y-28.935
G1 X-119.439 Y-28.988
G1 X-119.455 Y-29.05
G1 X-119.468 Y-29.102
G1 X-119.483 Y-29.165
G1 X-119.484 Y-29.167
G1 X-119.499 Y-29.23
G1 X-119.52 Y-29.327
G1 X-119.533 Y-29.39
G1 X-119.546 Y-29.454
G1 X-119.559 Y-29.517
G1 X-119.569 Y-29.563
G1 X-119.581 Y-29.626
G1 X-119.589 Y-29.673
G1 X-119.596 Y-29.71
G1 X-119.603 Y-29.748
G1 X-119.611 Y-29.793
G1 X-119.622 Y-29.855
G1 X-119.63 Y-29.9
G1 X-119.636 Y-29.934
G1 X-119.642 Y-29.969
G1 X-119.648 Y-30.005
G1 X-119.659 Y-30.071
G1 X-119.68 Y-30.214
G1 X-119.688 Y-30.28
G1 X-119.693 Y-30.328
G1 X-119.7 Y-30.394
G1 X-119.705 Y-30.443
G1 X-119.711 Y-30.51
G1 X-119.718 Y-30.605
G1 X-119.722 Y-30.672
G1 X-119.726 Y-30.739
G1 X-119.731 Y-30.834
G1 X-119.733 Y-30.901
G1 X-119.734 Y-30.949
G1 X-119.735 Y-31.016
G1 X-119.736 Y-31.083
G1 Y-31.13
G1 Y-31.198
G1 Y-31.333
G1 Y-31.38
G1 X-119.735 Y-31.424
G1 Y-31.444
G1 X-119.736 Y-31.488
G1 Y-31.535
G1 Y-31.555
G1 X-119.737 Y-31.575
G1 Y-31.605
G1 X-119.746 Y-31.652
G1 X-119.747 Y-31.655
G1 X-119.753 Y-31.687
G1 X-119.755 Y-31.694
G1 X-119.775 Y-31.785
G1 X-119.777 Y-31.792
G1 X-119.778 Y-31.799
G1 X-119.793 Y-31.855
G1 X-119.794 Y-31.859
G1 X-119.795 Y-31.863
G1 X-119.799 Y-31.875
G1 X-119.806 Y-31.887
G1 X-119.854 Y-31.965
G1 X-119.859 Y-31.973
G1 X-119.893 Y-32.03
G1 X-119.93 Y-32.087
G1 X-119.948 Y-32.116
G1 X-119.981 Y-32.171
G1 X-120.016 Y-32.225
G1 X-120.057 Y-32.288
G1 X-120.089 Y-32.337
G1 X-120.119 Y-32.382
G1 X-120.148 Y-32.424
G1 X-120.168 Y-32.451
G1 X-120.186 Y-32.475
G1 X-120.195 Y-32.486
G1 X-124.634 Y-35.034
G1 X-129.217 Y-37.655
G1 X-133.803 Y-40.27
G1 X-138.394 Y-42.882
G1 X-142.989 Y-45.489
G1 X-147.587 Y-48.093
G1 X-152.188 Y-50.694
G1 X-156.791 Y-53.292
G1 X-161.397 Y-55.888
G1 X-166.004 Y-58.484
G1 X-170.613 Y-61.078
G1 X-179.83 Y-66.267
G1 X-184.44 Y-68.862
G1 X-189.049 Y-71.459
G1 X-189.05 Y-71.46
G1 X-193.657 Y-74.058
G1 X-193.658 Y-74.059
G1 X-198.262 Y-76.659
G1 X-198.264 Y-76.66
G1 X-202.867 Y-79.263
G1 X-202.869 Y-79.265
G1 X-207.469 Y-81.871
G1 X-207.472 Y-81.873
G1 X-212.069 Y-84.483
G1 X-212.072 Y-84.485
G1 X-216.666 Y-87.099
G1 X-216.669 Y-87.101
G1 X-221.259 Y-89.721
G1 X-221.263 Y-89.723
G1 X-225.848 Y-92.349
G1 X-225.851 Y-92.351
G1 X-230.432 Y-94.982
G1 X-230.485 Y-95.013
G1 X-230.597 Y-95.08
G1 X-230.68 Y-95.132
G1 X-230.79 Y-95.202
G1 X-230.871 Y-95.257
G1 X-230.979 Y-95.331
G1 X-231.063 Y-95.391
G1 X-231.168 Y-95.468
G1 X-231.228 Y-95.513
G1 X-231.332 Y-95.593
G1 X-231.397 Y-95.645
G1 X-231.499 Y-95.728
G1 X-231.573 Y-95.79
G1 X-231.672 Y-95.876
G1 X-231.716 Y-95.916
G1 X-231.814 Y-96.004
G1 X-231.868 Y-96.054
G1 X-231.964 Y-96.144
G1 X-232.002 Y-96.181
G1 X-232.097 Y-96.274
G1 X-232.144 Y-96.32
G1 X-232.237 Y-96.415
G1 X-232.281 Y-96.46
G1 X-232.372 Y-96.556
G1 X-232.401 Y-96.588
G1 X-232.491 Y-96.686
G1 X-232.517 Y-96.715
G1 X-232.606 Y-96.814
G1 X-232.642 Y-96.855
G1 X-232.729 Y-96.955
G1 X-232.74 Y-96.967
G1 X-232.827 Y-97.068
G1 X-232.859 Y-97.107
G1 X-232.944 Y-97.209
G1 X-232.961 Y-97.229
G1 X-233.045 Y-97.332
G1 X-233.049 Y-97.338
G1 X-233.133 Y-97.441
G1 X-233.159 Y-97.473
G1 X-233.241 Y-97.576
G1 X-233.242 Y-97.578
G1 X-233.324 Y-97.682
G1 X-233.334 Y-97.695
G1 X-233.414 Y-97.796
G1 X-233.494 Y-97.898
G1 X-233.501 Y-97.907
G1 X-233.581 Y-98.01
G1 X-233.604 Y-98.04
G1 X-233.668 Y-98.124
G1 X-233.719 Y-98.194
G1 X-233.781 Y-98.279
G1 X-233.815 Y-98.327
G1 X-233.875 Y-98.414
G1 X-233.912 Y-98.47
G1 X-233.97 Y-98.558
G1 X-233.993 Y-98.593
G1 X-234.05 Y-98.682
G1 X-234.085 Y-98.738
G1 X-234.14 Y-98.828
G1 X-234.182 Y-98.899
G1 X-234.288 Y-99.083
G1 X-234.321 Y-99.141
G1 X-234.372 Y-99.234
G1 X-234.391 Y-99.27
G1 X-234.441 Y-99.364
G1 X-234.448 Y-99.376
G1 X-234.498 Y-99.471
G1 X-234.51 Y-99.495
G1 X-234.559 Y-99.59
G1 X-234.571 Y-99.613
G1 X-234.619 Y-99.708
G1 X-234.625 Y-99.72
G1 X-234.67 Y-99.81
G1 X-234.715 Y-99.899
G1 X-234.721 Y-99.911
G1 X-234.769 Y-100.007
G1 X-234.817 Y-100.103
G1 X-234.829 Y-100.127
G1 X-234.87 Y-100.211
G1 X-234.903 Y-100.277
G1 X-234.943 Y-100.355
G1 X-234.983 Y-100.432
G1 X-235.023 Y-100.508
G1 X-235.057 Y-100.573
G1 X-235.093 Y-100.636
G1 X-235.108 Y-100.663
G1 X-235.155 Y-100.749
G1 X-235.162 Y-100.763
G1 X-235.209 Y-100.85
G1 X-235.249 Y-100.926
G1 X-235.294 Y-101.015
G1 X-235.307 Y-101.041
G1 X-235.351 Y-101.13
G1 X-235.395 Y-101.219
G1 X-235.42 Y-101.27
G1 X-235.463 Y-101.361
G1 X-235.469 Y-101.374
G1 X-235.508 Y-101.457
G1 X-235.591 Y-101.633
G1 X-235.597 Y-101.646
G1 X-235.627 Y-101.71
G1 X-235.658 Y-101.775
G1 X-235.671 Y-101.8
G1 X-235.698 Y-101.858
G1 X-235.724 Y-101.909
G1 X-235.756 Y-101.971
G1 X-235.775 Y-102.007
G1 X-235.795 Y-102.042
G1 X-235.817 Y-102.082
G1 X-235.821 Y-102.088
G1 X-235.824 Y-102.091
G1 X-235.857 Y-102.122
G1 X-235.881 Y-102.145
G1 X-235.899 Y-102.161
G1 X-235.936 Y-102.193
G1 X-235.965 Y-102.217
G1 X-235.969 Y-102.22
G1 X-236.031 Y-102.208
G1 X-236.106 Y-102.191
G1 X-236.17 Y-102.177
G1 X-236.443 Y-102.11
G1 X-236.531 Y-102.087
G1 X-236.559 Y-102.08
G1 X-236.65 Y-102.057
G1 X-236.741 Y-102.034
G1 X-236.762 Y-102.029
G1 X-236.866 Y-102.003
G1 X-236.887 Y-101.998
G1 X-236.99 Y-101.973
G1 X-237.012 Y-101.967
G1 X-237.062 Y-101.955
G1 X-237.072 Y-101.951
G1 X-237.097 Y-101.941
G1 X-237.132 Y-101.926
G1 X-237.182 Y-101.902
G1 X-237.247 Y-101.872
G1 X-237.262 Y-101.865
G1 X-237.336 Y-101.831
G1 X-237.354 Y-101.823
G1 X-237.418 Y-101.794
G1 X-237.483 Y-101.764
G1 X-237.534 Y-101.741
G1 X-237.607 Y-101.709
G1 X-237.655 Y-101.689
G1 X-237.729 Y-101.658
G1 X-237.749 Y-101.649
G1 X-237.822 Y-101.619
G1 X-237.905 Y-101.586
G1 X-237.979 Y-101.558
G1 X-238.074 Y-101.524
G1 X-238.147 Y-101.499
G1 X-238.234 Y-101.471
G1 X-238.308 Y-101.448
G1 X-238.383 Y-101.426
G1 X-238.457 Y-101.405
G1 X-238.613 Y-101.365
G1 X-238.687 Y-101.348
G1 X-238.808 Y-101.322
G1 X-238.882 Y-101.308
G1 X-239.047 Y-101.282
G1 X-239.121 Y-101.272
G1 X-239.251 Y-101.257
G1 X-239.326 Y-101.25
G1 X-239.52 Y-101.238
G1 X-239.583 Y-101.236
G1 X-239.734 Y-101.234
G1 X-239.797 Y-101.235
G1 X-239.846 Y-101.237
G1 X-239.91 Y-101.239
G1 X-240.058 Y-101.247
G1 X-240.122 Y-101.252
G1 X-240.22 Y-101.261
G1 X-240.284 Y-101.268
G1 X-240.374 Y-101.279
G1 X-240.439 Y-101.288
G1 X-240.534 Y-101.303
G1 X-240.599 Y-101.314
G1 X-240.692 Y-101.331
G1 X-240.757 Y-101.344
G1 X-240.848 Y-101.363
G1 X-240.913 Y-101.378
G1 X-241.002 Y-101.4
G1 X-241.067 Y-101.417
G1 X-241.111 Y-101.429
G1 X-241.176 Y-101.447
G1 X-241.276 Y-101.477
G1 X-241.34 Y-101.497
G1 X-241.369 Y-101.506
G1 X-241.434 Y-101.527
G1 X-241.532 Y-101.56
G1 X-241.596 Y-101.583
G1 X-241.637 Y-101.598
G1 X-241.701 Y-101.622
G1 X-241.741 Y-101.638
G1 X-241.805 Y-101.663
G1 X-241.901 Y-101.702
G1 X-241.964 Y-101.729
G1 X-241.981 Y-101.736
G1 X-242.043 Y-101.763
G1 X-242.12 Y-101.798
G1 X-242.182 Y-101.827
G1 X-242.2 Y-101.836
G1 X-242.261 Y-101.865
G1 X-242.318 Y-101.892
G1 X-242.378 Y-101.922
G1 X-242.415 Y-101.941
G1 X-242.475 Y-101.972
G1 X-242.495 Y-101.982
G1 X-242.554 Y-102.013
G1 X-242.631 Y-102.055
G1 X-242.688 Y-102.087
G1 X-242.693 Y-102.09
G1 X-246.481 Y-104.225
G1 X-250.27 Y-106.359
G1 X-250.271
G1 X-257.849 Y-110.631
G1 X-261.638 Y-112.769
G1 X-261.639
G1 X-269.215 Y-117.047
G1 X-273.004 Y-119.188
G1 X-273.005
G1 X-276.792 Y-121.33
G1 X-280.578 Y-123.473
G1 X-280.58
G1 X-284.366 Y-125.617
G1 X-284.367 Y-125.618
G1 X-288.152 Y-127.764
G1 X-291.937 Y-129.91
G1 X-291.939 Y-129.911
G1 X-295.722 Y-132.059
G1 X-295.723 Y-132.06
G1 X-299.506 Y-134.21
G1 X-303.289 Y-136.361
G1 X-303.29 Y-136.362
G1 X-307.07 Y-138.515
G1 X-310.85 Y-140.67
G1 X-310.852 Y-140.671
G1 X-314.631 Y-142.828
G1 X-314.632
G1 X-318.409 Y-144.986
G1 X-318.411 Y-144.987
G1 X-322.186 Y-147.147
G1 X-322.187 Y-147.148
G1 X-325.961 Y-149.31
G1 X-325.963 Y-149.311
G1 X-329.736 Y-151.475
G1 X-329.737 Y-151.476
G1 X-333.508 Y-153.642
G1 X-333.523 Y-153.65
G1 X-333.695 Y-153.75
G1 X-333.714 Y-153.761
G1 X-333.885 Y-153.862
G1 X-333.927 Y-153.888
G1 X-334.097 Y-153.992
G1 X-334.116 Y-154.003
G1 X-334.285 Y-154.108
G1 X-334.315 Y-154.127
G1 X-334.483 Y-154.234
G1 X-334.501 Y-154.246
G1 X-334.668 Y-154.354
G1 X-334.709 Y-154.381
G1 X-334.875 Y-154.492
G1 X-334.882 Y-154.497
G1 X-335.047 Y-154.608
G1 X-335.087 Y-154.635
G1 X-335.251 Y-154.749
G1 X-335.269 Y-154.762
G1 X-335.432 Y-154.877
G1 X-335.461 Y-154.897
G1 X-335.623 Y-155.014
G1 X-335.641 Y-155.027
G1 X-335.802 Y-155.145
G1 X-335.838 Y-155.172
G1 X-335.997 Y-155.292
G1 X-336.017 Y-155.307
G1 X-336.176 Y-155.429
G1 X-336.201 Y-155.449
G1 X-336.358 Y-155.572
G1 X-336.376 Y-155.586
G1 X-336.532 Y-155.71
G1 X-336.567 Y-155.738
G1 X-336.721 Y-155.864
G1 X-336.747 Y-155.886
G1 X-336.9 Y-156.014
G1 X-336.908 Y-156.02
G1 X-337.06 Y-156.148
G1 X-337.096 Y-156.179
G1 X-337.247 Y-156.31
G1 X-337.271 Y-156.331
G1 X-337.42 Y-156.463
G1 X-337.437 Y-156.478
G1 X-337.585 Y-156.611
G1 X-337.61 Y-156.634
G1 X-337.756 Y-156.768
G1 X-337.781 Y-156.791
G1 X-337.926 Y-156.927
G1 X-337.938 Y-156.938
G1 X-338.836 Y-157.789
G1 X-338.841 Y-157.794
G1 X-339.737 Y-158.647
G1 X-339.741 Y-158.651
G1 X-340.635 Y-159.505
G1 X-340.639 Y-159.509
G1 X-341.533 Y-160.366
G1 X-341.537 Y-160.37
G1 X-342.429 Y-161.228
G1 X-342.432 Y-161.23
G1 X-343.323 Y-162.089
G1 X-343.328 Y-162.094
G1 X-344.218 Y-162.956
G1 X-344.22 Y-162.959
G1 X-345.108 Y-163.821
G1 X-345.112 Y-163.825
G1 X-345.999 Y-164.689
G1 X-346.003 Y-164.692
G1 X-346.889 Y-165.558
G1 X-346.893 Y-165.562
G1 X-347.777 Y-166.429
G1 X-347.78 Y-166.432
G1 X-348.664 Y-167.301
G1 X-348.666 Y-167.303
G1 X-349.548 Y-168.172
G1 X-349.553 Y-168.177
G1 X-350.434 Y-169.048
G1 X-350.435 Y-169.05
G1 X-351.315 Y-169.922
G1 X-351.32 Y-169.927
G1 X-352.198 Y-170.801
G1 X-352.199 Y-170.802
G1 X-353.076 Y-171.676
G1 X-353.079 Y-171.679
G1 X-353.955 Y-172.554
G1 X-353.96 Y-172.559
G1 X-354.834 Y-173.436
G1 X-355.708 Y-174.313
G1 X-355.712 Y-174.317
G1 X-356.584 Y-175.195
G1 X-356.588 Y-175.199
G1 X-357.458 Y-176.078
G1 X-357.459 Y-176.079
G1 X-358.329 Y-176.959
G1 X-358.333 Y-176.963
G1 X-359.201 Y-177.844
G1 X-359.216 Y-177.859
G1 X-359.319 Y-177.965
G1 X-359.35 Y-177.998
G1 X-359.452 Y-178.106
G1 X-359.493 Y-178.15
G1 X-359.593 Y-178.26
G1 X-359.624 Y-178.295
G1 X-359.722 Y-178.406
G1 X-359.742 Y-178.428
G1 X-359.839 Y-178.54
G1 X-359.878 Y-178.586
G1 X-359.973 Y-178.7
G1 X-359.992 Y-178.724
G1 X-360.086 Y-178.839
G1 X-360.105 Y-178.862
G1 X-360.198 Y-178.978
G1 X-360.227 Y-179.015
G1 X-360.318 Y-179.132
G1 X-360.344 Y-179.166
G1 X-360.434 Y-179.285
G1 X-360.445 Y-179.298
G1 X-360.534 Y-179.417
G1 X-360.551 Y-179.441
G1 X-360.639 Y-179.561
G1 X-360.657 Y-179.586
G1 X-360.744 Y-179.707
G1 X-360.754 Y-179.721
G1 X-360.84 Y-179.842
G1 X-360.857 Y-179.866
G1 X-360.942 Y-179.988
G1 X-360.949 Y-179.998
G1 X-361.034 Y-180.121
G1 X-361.044 Y-180.135
G1 X-361.128 Y-180.258
G1 X-361.144 Y-180.283
G1 X-361.227 Y-180.407
G1 X-361.237 Y-180.422
G1 X-361.319 Y-180.546
G1 X-361.326 Y-180.555
G1 X-361.408 Y-180.68
G1 X-361.411 Y-180.686
G1 X-361.492 Y-180.81
G1 X-361.499 Y-180.819
G1 X-361.579 Y-180.944
G1 X-361.589 Y-180.96
G1 X-361.661 Y-181.072
G1 X-361.734 Y-181.184
G1 X-361.751 Y-181.21
G1 X-361.93 Y-181.49
G1 X-362.108 Y-181.769
G1 X-362.288 Y-182.048
G1 X-362.293 Y-182.058
G1 X-362.471 Y-182.338
G1 X-362.473 Y-182.339
G1 X-362.652 Y-182.621
G1 X-362.656 Y-182.628
G1 X-362.834 Y-182.91
G1 X-362.838 Y-182.917
G1 X-363.192 Y-183.481
G1 X-363.202 Y-183.497
G1 X-363.378 Y-183.781
G1 X-363.379 Y-183.783
G1 X-363.554 Y-184.066
G1 X-363.564 Y-184.082
G1 X-363.738 Y-184.367
G1 X-363.74 Y-184.369
G1 X-363.913 Y-184.653
G1 X-363.922 Y-184.669
G1 X-364.094 Y-184.955
G1 X-364.098 Y-184.962
G1 X-364.269 Y-185.248
G1 X-364.273 Y-185.255
G1 X-364.443 Y-185.541
G1 X-364.457 Y-185.563
G1 X-364.625 Y-185.851
G1 X-364.629 Y-185.858
G1 X-364.796 Y-186.146
G1 X-364.804 Y-186.161
G1 X-364.969 Y-186.449
G1 X-364.975 Y-186.46
G1 X-365.139 Y-186.749
G1 X-365.15 Y-186.768
G1 X-365.312 Y-187.058
G1 X-365.318 Y-187.069
G1 X-365.479 Y-187.36
G1 X-365.493 Y-187.386
G1 X-365.651 Y-187.678
G1 X-365.655 Y-187.685
G1 X-365.812 Y-187.977
G1 X-365.826 Y-188.004
G1 X-365.98 Y-188.297
G1 X-365.989 Y-188.314
G1 X-366.047 Y-188.426
G1 X-366.058 Y-188.446
G1 X-366.112 Y-188.553
G1 X-366.168 Y-188.661
G1 X-366.198 Y-188.721
G1 X-366.31 Y-188.951
G1 X-366.328 Y-188.99
G1 X-366.383 Y-189.107
G1 X-366.402 Y-189.148
G1 X-366.455 Y-189.265
G1 X-366.459 Y-189.274
G1 X-366.512 Y-189.392
G1 X-366.53 Y-189.433
G1 X-366.581 Y-189.551
G1 X-366.603 Y-189.602
G1 X-366.652 Y-189.721
G1 X-366.664 Y-189.751
G1 X-366.712 Y-189.871
G1 X-366.729 Y-189.914
G1 X-366.775 Y-190.034
G1 X-366.799 Y-190.099
G1 X-366.842 Y-190.219
G1 X-366.852 Y-190.249
G1 X-366.894 Y-190.37
G1 X-366.917 Y-190.437
G1 X-366.956 Y-190.558
G1 X-366.977 Y-190.627
G1 X-367.013 Y-190.748
G1 X-367.028 Y-190.801
G1 X-367.062 Y-190.923
G1 X-367.08 Y-190.987
G1 X-367.111 Y-191.108
G1 X-367.13 Y-191.186
G1 X-367.158 Y-191.308
G1 X-367.177 Y-191.4
G1 X-367.201 Y-191.521
G1 X-367.215 Y-191.596
G1 X-367.236 Y-191.717
G1 X-367.248 Y-191.793
G1 X-367.266 Y-191.914
G1 X-367.283 Y-192.042
G1 X-367.296 Y-192.163
G1 X-367.303 Y-192.24
G1 X-367.313 Y-192.361
G1 X-367.319 Y-192.444
G1 X-367.325 Y-192.55
G1 X-367.329 Y-192.67
G1 X-367.331 Y-192.778
G1 X-367.332 Y-192.837
G1 Y-192.946
G1 X-367.33 Y-193.061
G1 X-367.326 Y-193.171
G1 X-367.323 Y-193.229
G1 X-367.317 Y-193.339
G1 X-367.312 Y-193.423
G1 X-367.303 Y-193.534
G1 X-367.295 Y-193.615
G1 X-367.283 Y-193.727
G1 X-367.276 Y-193.783
G1 X-367.262 Y-193.895
G1 X-367.251 Y-193.977
G1 X-367.234 Y-194.089
G1 X-367.221 Y-194.171
G1 X-367.201 Y-194.283
G1 X-367.185 Y-194.364
G1 X-367.162 Y-194.476
G1 X-367.143 Y-194.561
G1 X-367.117 Y-194.672
G1 X-367.105 Y-194.725
G1 X-367.077 Y-194.836
G1 X-367.061 Y-194.894
G1 X-367.031 Y-195.004
G1 X-367.009 Y-195.081
G1 X-366.976 Y-195.191
G1 X-366.947 Y-195.283
G1 X-366.911 Y-195.391
G1 X-366.894 Y-195.441
G1 X-366.856 Y-195.549
G1 X-366.822 Y-195.64
G1 X-366.781 Y-195.746
G1 X-366.758 Y-195.804
G1 X-366.715 Y-195.909
G1 X-366.686 Y-195.977
G1 X-366.641 Y-196.08
G1 X-366.605 Y-196.161
G1 X-366.557 Y-196.263
G1 X-366.524 Y-196.331
G1 X-366.474 Y-196.431
G1 X-366.42 Y-196.533
G1 X-366.367 Y-196.63
G1 X-366.336 Y-196.686
G1 X-366.281 Y-196.782
G1 X-366.252 Y-196.831
G1 X-365.95 Y-197.337
G1 X-365.942 Y-197.351
G1 X-365.637 Y-197.856
G1 X-365.628 Y-197.871
G1 X-365.32 Y-198.375
G1 X-365.309 Y-198.393
G1 X-364.997 Y-198.896
G1 X-364.991 Y-198.906
G1 X-364.677 Y-199.408
G1 X-364.666 Y-199.425
G1 X-364.348 Y-199.926
G1 X-364.341 Y-199.936
G1 X-364.021 Y-200.436
G1 X-364.015 Y-200.447
G1 X-363.693 Y-200.945
G1 X-363.68 Y-200.965
G1 X-363.354 Y-201.462
G1 X-363.351 Y-201.466
G1 X-363.024 Y-201.963
G1 X-363.014 Y-201.979
G1 X-362.684 Y-202.474
G1 X-362.679 Y-202.482
G1 X-362.347 Y-202.977
G1 X-362.339 Y-202.989
G1 X-362.005 Y-203.482
G1 X-361.998 Y-203.492
G1 X-361.662 Y-203.984
G1 X-361.655 Y-203.993
G1 X-361.317 Y-204.484
G1 X-361.311 Y-204.493
G1 X-360.972 Y-204.982
G1 X-360.966 Y-204.992
G1 X-360.625 Y-205.48
G1 X-360.62 Y-205.486
G1 X-360.278 Y-205.973
G1 X-360.274 Y-205.979
G1 X-359.931 Y-206.465
G1 X-359.922 Y-206.477
G1 X-359.577 Y-206.961
G1 X-359.575 Y-206.964
G1 X-359.229 Y-207.448
G1 X-359.223 Y-207.456
G1 X-358.877 Y-207.937
G1 X-358.872 Y-207.944
G1 X-358.524 Y-208.425
G1 X-358.521 Y-208.43
G1 X-358.173 Y-208.909
G1 X-358.141 Y-208.951
G1 X-358.05 Y-209.072
G1 X-358.023 Y-209.109
G1 X-357.93 Y-209.229
G1 X-357.885 Y-209.285
G1 X-357.79 Y-209.402
G1 X-357.75 Y-209.45
G1 X-357.652 Y-209.566
G1 X-357.614 Y-209.611
G1 X-357.514 Y-209.725
G1 X-357.484 Y-209.758
G1 X-357.382 Y-209.871
G1 X-357.352 Y-209.904
G1 X-357.249 Y-210.015
G1 X-357.208 Y-210.058
G1 X-357.102 Y-210.168
G1 X-357.071 Y-210.2
G1 X-356.964 Y-210.308
G1 X-356.954 Y-210.318
G1 X-356.846 Y-210.426
G1 X-356.815 Y-210.457
G1 X-356.706 Y-210.563
G1 X-356.674 Y-210.594
G1 X-356.563 Y-210.699
G1 X-356.452 Y-210.804
G1 X-356.42 Y-210.833
G1 X-356.307 Y-210.937
G1 X-356.296 Y-210.947
G1 X-356.07 Y-211.153
G1 X-356.048 Y-211.173
G1 X-355.82 Y-211.377
G1 X-355.592 Y-211.581
G1 X-355.483 Y-211.678
G1 X-355.375 Y-211.776
G1 X-355.273 Y-211.868
G1 X-355.172 Y-211.961
G1 X-355.167 Y-211.966
G1 X-355.049 Y-212.074
G1 X-354.931 Y-212.182
G1 X-354.92 Y-212.192
G1 X-354.801 Y-212.3
G1 X-354.563 Y-212.516
G1 X-354.552 Y-212.526
G1 X-354.433 Y-212.633
G1 X-354.423 Y-212.642
G1 X-354.303 Y-212.749
G1 X-354.293 Y-212.757
G1 X-354.172 Y-212.864
G1 X-354.171 Y-212.866
G1 X-354.051 Y-212.972
G1 X-354.041 Y-212.98
G1 X-353.92 Y-213.086
G1 X-353.91 Y-213.095
G1 X-353.788 Y-213.201
G1 X-353.787 Y-213.202
G1 X-353.666 Y-213.307
G1 X-353.635 Y-213.333
G1 X-353.517 Y-213.433
G1 X-353.4 Y-213.533
G1 X-353.39 Y-213.542
G1 X-353.267 Y-213.645
G1 X-353.234 Y-213.673
G1 X-352.986 Y-213.877
G1 X-352.964 Y-213.895
G1 X-352.714 Y-214.097
G1 X-352.69 Y-214.116
G1 X-352.565 Y-214.215
G1 X-352.546 Y-214.23
G1 X-352.419 Y-214.329
G1 X-352.416 Y-214.331
G1 X-352.29 Y-214.429
G1 X-352.259 Y-214.453
G1 X-352.131 Y-214.55
G1 X-352.118 Y-214.56
G1 X-351.99 Y-214.656
G1 X-351.838 Y-214.77
G1 X-351.822 Y-214.782
G1 X-351.668 Y-214.896
G1 X-351.652 Y-214.907
G1 X-351.574 Y-214.964
G1 X-351.553 Y-214.98
G1 X-351.475 Y-215.036
G1 X-351.459 Y-215.047
G1 X-351.301 Y-215.159
G1 X-351.279 Y-215.175
G1 X-351.2 Y-215.23
G1 X-351.147 Y-215.266
G1 X-351.066 Y-215.32
G1 X-351.059 Y-215.325
G1 X-350.979 Y-215.378
G1 X-350.94 Y-215.403
G1 X-350.859 Y-215.455
G1 X-350.821 Y-215.479
G1 X-350.739 Y-215.53
G1 X-350.691 Y-215.559
G1 X-350.609 Y-215.608
G1 X-350.569 Y-215.631
G1 X-350.486 Y-215.679
G1 X-350.461 Y-215.694
G1 X-350.378 Y-215.741
G1 X-350.287 Y-215.791
G1 X-350.203 Y-215.835
G1 X-350.177 Y-215.848
G1 X-350.093 Y-215.891
G1 X-350.025 Y-215.925
G1 X-349.94 Y-215.966
G1 X-349.844 Y-216.01
G1 X-349.758 Y-216.048
G1 X-349.701 Y-216.073
G1 X-349.615 Y-216.109
G1 X-349.545 Y-216.137
G1 X-349.458 Y-216.171
G1 X-349.368 Y-216.205
G1 X-349.281 Y-216.236
G1 X-349.178 Y-216.271
G1 X-349.09 Y-216.299
G1 X-349.033 Y-216.316
G1 X-348.939 Y-216.344
G1 X-348.841 Y-216.371
G1 X-348.746 Y-216.396
G1 X-348.678 Y-216.414
G1 X-348.582 Y-216.437
G1 X-348.507 Y-216.454
G1 X-348.409 Y-216.475
G1 X-348.348 Y-216.487
G1 X-348.25 Y-216.506
G1 X-348.183 Y-216.518
G1 X-348.084 Y-216.535
G1 X-348.023 Y-216.545
G1 X-347.924 Y-216.56
G1 X-347.888 Y-216.565
G1 X-347.788 Y-216.579
G1 X-347.692 Y-216.591
G1 X-347.591 Y-216.602
G1 X-347.56 Y-216.606
G1 X-347.459 Y-216.616
G1 X-347.394 Y-216.621
G1 X-347.292 Y-216.629
G1 X-347.261 Y-216.632
G1 X-347.159 Y-216.639
G1 X-347.097 Y-216.642
G1 X-346.995 Y-216.647
G1 X-346.932 Y-216.65
G1 X-346.83 Y-216.653
G1 X-346.728 Y-216.656
G1 X-346.666 Y-216.657
G1 X-346.564 Y-216.658
G1 X-346.502
G1 X-346.399 Y-216.657
G1 X-346.297 Y-216.656
G1 X-346.266 Y-216.655
G1 X-346.164 Y-216.653
G1 X-346.1 Y-216.652
G1 X-345.999 Y-216.648
G1 X-345.968 Y-216.646
G1 X-345.766 Y-216.636
G1 X-345.733 Y-216.634
G1 X-345.633 Y-216.628
G1 X-345.567 Y-216.624
G1 X-345.468 Y-216.616
G1 X-345.434 Y-216.613
G1 X-345.336 Y-216.604
G1 X-345.236 Y-216.593
G1 X-345.139 Y-216.581
G1 X-345.044 Y-216.568
G1 X-344.947 Y-216.553
G1 X-344.847 Y-216.536
G1 X-344.751 Y-216.518
G1 X-344.664 Y-216.5
G1 X-344.567 Y-216.479
G1 X-344.53 Y-216.471
G1 X-344.434 Y-216.449
G1 X-344.351 Y-216.429
G1 X-344.254 Y-216.404
G1 X-344.246 Y-216.402
G1 X-344.15 Y-216.377
G1 X-344.061 Y-216.352
G1 X-343.869 Y-216.296
G1 X-343.86 Y-216.293
G1 X-343.765 Y-216.265
G1 X-343.716 Y-216.25
G1 X-343.634 Y-216.225
G1 X-343.553 Y-216.2
G1 X-343.471 Y-216.176
G1 X-343.39 Y-216.152
G1 X-343.323 Y-216.133
G1 X-343.257 Y-216.115
G1 X-343.21 Y-216.102
G1 X-343.173 Y-216.093
G1 X-343.123 Y-216.082
G1 X-343.103 Y-216.078
G1 X-343.092 Y-216.077
G1 X-343.049 Y-216.073
G1 X-342.971 Y-216.066
G1 X-342.925 Y-216.063
G1 X-342.862 Y-216.06
G1 X-342.86
G1 X-342.781 Y-216.056
G1 X-342.734 Y-216.054
G1 X-342.669 Y-216.052
G1 X-342.604 Y-216.051
G1 X-342.475
G1 X-342.426 Y-216.052
G1 X-342.361 Y-216.054
G1 X-342.296 Y-216.057
G1 X-342.231 Y-216.06
G1 X-342.167 Y-216.064
G1 X-342.12 Y-216.067
G1 X-342.073 Y-216.072
G1 X-342.009 Y-216.078
G1 X-341.947 Y-216.086
G1 X-341.885 Y-216.093
G1 X-341.841 Y-216.099
G1 X-341.797 Y-216.106
G1 X-341.738 Y-216.116
G1 X-341.685 Y-216.126
G1 X-341.629 Y-216.137
G1 X-341.622 Y-216.138
G1 X-341.555 Y-216.151
G1 X-341.504 Y-216.162
G1 X-341.439 Y-216.176
G1 X-341.431 Y-216.178
G1 X-341.365 Y-216.192
G1 X-341.316 Y-216.203
G1 X-341.267 Y-216.215
G1 X-341.234 Y-216.223
G1 X-341.206 Y-216.23
G1 X-341.172 Y-216.24
G1 X-341.117 Y-216.293
G1 X-341.037 Y-216.37
G1 X-340.973 Y-216.434
G1 X-340.91 Y-216.499
G1 X-340.842 Y-216.571
G1 X-340.774 Y-216.646
G1 X-340.712 Y-216.716
G1 X-340.656 Y-216.782
G1 X-340.606 Y-216.843
G1 X-340.549 Y-216.916
G1 X-340.492 Y-216.99
G1 X-340.446 Y-217.053
G1 X-340.403 Y-217.116
G1 X-340.364 Y-217.175
G1 X-340.325 Y-217.236
G1 X-340.291 Y-217.294
G1 X-340.262 Y-217.345
G1 X-340.236 Y-217.394
G1 X-340.215 Y-217.438
G1 X-340.197 Y-217.476
G1 X-340.182 Y-217.514
G1 X-340.164 Y-217.56
G1 X-340.073 Y-217.825
G1 X-339.983 Y-218.104
G1 X-339.897 Y-218.395
G1 X-339.814 Y-218.695
G1 X-339.736 Y-218.997
G1 X-339.66 Y-219.315
G1 X-339.585 Y-219.639
G1 X-339.515 Y-219.967
G1 X-339.444 Y-220.308
G1 X-339.375 Y-220.654
G1 X-339.307 Y-221.006
G1 X-339.238 Y-221.365
G1 X-339.17 Y-221.726
G1 X-339.101 Y-222.093
G1 X-339.098 Y-222.109
G1 X-339.027 Y-222.476
G1 Y-222.478
G1 X-338.956 Y-222.844
G1 X-338.951 Y-222.87
G1 X-338.877 Y-223.235
G1 X-338.871 Y-223.261
G1 X-338.794 Y-223.625
G1 X-338.788 Y-223.653
G1 X-338.708 Y-224.015
G1 X-338.698 Y-224.058
G1 X-338.613 Y-224.419
G1 X-338.605 Y-224.455
G1 X-338.516 Y-224.814
G1 X-338.504 Y-224.858
G1 X-338.41 Y-225.215
G1 X-338.393 Y-225.278
G1 X-338.292 Y-225.632
G1 X-338.274 Y-225.695
G1 X-338.166 Y-226.046
G1 X-338.15 Y-226.095
G1 X-338.108 Y-226.224
G1 X-338.084 Y-226.294
G1 X-338.039 Y-226.422
G1 X-338.024 Y-226.463
G1 X-337.977 Y-226.591
G1 X-337.951 Y-226.66
G1 X-337.901 Y-226.787
G1 X-337.882 Y-226.835
G1 X-337.83 Y-226.961
G1 X-337.805 Y-227.02
G1 X-337.75 Y-227.146
G1 X-337.729 Y-227.193
G1 X-337.672 Y-227.318
G1 X-337.654 Y-227.356
G1 X-337.595 Y-227.481
G1 X-337.568 Y-227.537
G1 X-337.507 Y-227.66
G1 X-337.48 Y-227.715
G1 X-337.416 Y-227.838
G1 X-337.401 Y-227.865
G1 X-337.336 Y-227.987
G1 X-337.306 Y-228.042
G1 X-337.239 Y-228.162
G1 X-337.219 Y-228.197
G1 X-337.15 Y-228.317
G1 X-337.108 Y-228.388
G1 X-336.964 Y-228.624
G1 X-336.913 Y-228.704
G1 X-336.838 Y-228.819
G1 X-336.828 Y-228.836
G1 X-336.752 Y-228.951
G1 X-336.716 Y-229.004
G1 X-336.638 Y-229.117
G1 X-336.62 Y-229.143
G1 X-336.541 Y-229.255
G1 X-336.511 Y-229.297
G1 X-336.43 Y-229.408
G1 X-336.394 Y-229.456
G1 X-336.312 Y-229.564
G1 X-336.292 Y-229.59
G1 X-336.209 Y-229.697
G1 X-336.177 Y-229.737
G1 X-336.092 Y-229.843
G1 X-336.052 Y-229.892
G1 X-335.966 Y-229.995
G1 X-335.951 Y-230.013
G1 X-335.84 Y-230.144
G1 X-335.814 Y-230.174
G1 X-335.701 Y-230.304
G1 X-335.675 Y-230.334
G1 X-335.56 Y-230.463
G1 X-335.551 Y-230.473
G1 X-335.435 Y-230.602
G1 X-335.4 Y-230.64
G1 X-335.282 Y-230.767
G1 X-335.255 Y-230.796
G1 X-335.134 Y-230.923
G1 X-335.125 Y-230.932
G1 X-335.004 Y-231.058
G1 X-334.959 Y-231.104
G1 X-334.835 Y-231.228
G1 X-334.817 Y-231.246
G1 X-334.692 Y-231.369
G1 X-334.664 Y-231.396
G1 X-334.538 Y-231.517
G1 X-334.501 Y-231.552
G1 X-334.372 Y-231.672
G1 X-334.353 Y-231.69
G1 X-334.224 Y-231.808
G1 X-334.187 Y-231.841
G1 X-334.055 Y-231.958
G1 X-334.035 Y-231.976
G1 X-333.903 Y-232.091
G1 X-333.844 Y-232.141
G1 X-333.709 Y-232.253
G1 X-333.698 Y-232.261
G1 X-333.563 Y-232.372
G1 X-333.524 Y-232.405
G1 X-333.387 Y-232.514
G1 X-333.335 Y-232.554
G1 X-333.196 Y-232.66
G1 X-333.164 Y-232.684
G1 X-333.024 Y-232.788
G1 X-332.992 Y-232.811
G1 X-332.851 Y-232.913
G1 X-332.793 Y-232.954
G1 X-332.651 Y-233.052
G1 X-332.622 Y-233.072
G1 X-332.478 Y-233.169
G1 X-332.427 Y-233.203
G1 X-332.283 Y-233.296
G1 X-332.239 Y-233.323
G1 X-332.093 Y-233.414
G1 X-332.029 Y-233.454
G1 X-331.814 Y-233.581
G1 X-331.75 Y-233.618
G1 X-331.532 Y-233.74
G1 X-331.476 Y-233.77
G1 X-331.255 Y-233.888
G1 X-331.205 Y-233.914
G1 X-330.982 Y-234.028
G1 X-330.916 Y-234.061
G1 X-330.69 Y-234.17
G1 X-330.66 Y-234.184
G1 X-330.432 Y-234.291
G1 X-330.391 Y-234.31
G1 X-330.161 Y-234.414
G1 X-330.125 Y-234.43
G1 X-329.894 Y-234.531
G1 X-329.864 Y-234.544
G1 X-329.631 Y-234.643
G1 X-329.605 Y-234.654
G1 X-329.371 Y-234.751
G1 X-329.356 Y-234.757
G1 X-329.121 Y-234.853
G1 X-329.099 Y-234.862
G1 X-328.867 Y-234.955
G1 X-328.635 Y-235.048
G1 X-328.624 Y-235.053
G1 X-328.388 Y-235.147
G1 X-328.157 Y-235.238
G1 X-327.934 Y-235.328
G1 X-327.712 Y-235.419
G1 X-327.498 Y-235.508
G1 X-327.292 Y-235.595
G1 X-327.086 Y-235.685
G1 X-326.894 Y-235.77
G1 X-326.71 Y-235.856
G1 X-326.526 Y-235.945
G1 X-326.348 Y-236.035
G1 X-326.283 Y-236.069
G1 X-326.196 Y-236.116
G1 X-326.113 Y-236.16
G1 X-326.054 Y-236.193
G1 X-325.896 Y-236.283
G1 X-325.826 Y-236.324
G1 X-325.756 Y-236.366
G1 X-325.687 Y-236.409
G1 X-325.617 Y-236.452
G1 X-325.555 Y-236.492
G1 X-325.503 Y-236.526
G1 X-325.359 Y-236.625
G1 X-325.308 Y-236.661
G1 X-325.249 Y-236.705
G1 X-325.191 Y-236.748
G1 X-325.142 Y-236.786
G1 X-325.076 Y-236.838
G1 X-325.029 Y-236.877
G1 X-324.982 Y-236.917
G1 X-324.934 Y-236.958
G1 X-324.888 Y-236.999
G1 X-324.832 Y-237.05
G1 X-324.477 Y-237.386
G1 X-324.114 Y-237.735
G1 X-323.752 Y-238.089
G1 X-323.39 Y-238.448
G1 X-323.027 Y-238.812
G1 X-322.663 Y-239.181
G1 X-322.302 Y-239.55
G1 X-321.939 Y-239.924
G1 X-321.573 Y-240.303
G1 X-321.207 Y-240.684
G1 X-320.838 Y-241.068
G1 X-320.471 Y-241.45
G1 X-320.104 Y-241.833
G1 X-320.098 Y-241.839
G1 X-319.729 Y-242.222
G1 X-319.721 Y-242.231
G1 X-319.351 Y-242.612
G1 X-319.348 Y-242.615
G1 X-318.978 Y-242.995
G1 X-318.966 Y-243.007
G1 X-318.594 Y-243.385
G1 X-318.585 Y-243.394
G1 X-318.212 Y-243.77
G1 X-318.2 Y-243.782
G1 X-317.826 Y-244.155
G1 X-317.811 Y-244.17
G1 X-317.435 Y-244.54
G1 X-317.414 Y-244.561
G1 X-317.035 Y-244.927
G1 X-317.019 Y-244.942
G1 X-316.639 Y-245.304
G1 X-316.614 Y-245.327
G1 X-316.23 Y-245.685
G1 X-316.208 Y-245.706
G1 X-315.822 Y-246.059
G1 X-315.735 Y-246.135
G1 X-315.695 Y-246.169
G1 X-315.563 Y-246.275
G1 X-315.521 Y-246.307
G1 X-315.386 Y-246.405
G1 X-315.342 Y-246.435
G1 X-315.16 Y-246.55
G1 X-315.114 Y-246.577
G1 X-315.019 Y-246.631
G1 X-314.971 Y-246.657
G1 X-314.856 Y-246.716
G1 X-314.807 Y-246.74
G1 X-314.619 Y-246.825
G1 X-314.568 Y-246.846
G1 X-314.499 Y-246.873
G1 X-314.447 Y-246.893
G1 X-314.328 Y-246.936
G1 X-314.275 Y-246.954
G1 X-314.104 Y-247.007
G1 X-314.05 Y-247.022
G1 X-313.983 Y-247.04
G1 X-313.928 Y-247.054
G1 X-313.822 Y-247.079
G1 X-313.767 Y-247.091
G1 X-313.594 Y-247.124
G1 X-313.538 Y-247.133
G1 X-313.483 Y-247.141
G1 X-313.427 Y-247.149
G1 X-313.316 Y-247.163
G1 X-313.26 Y-247.169
G1 X-313.144 Y-247.179
G1 X-313.087 Y-247.183
G1 X-312.978 Y-247.189
G1 X-312.922 Y-247.191
G1 X-312.866 Y-247.192
G1 X-312.81 Y-247.193
G1 X-312.638 Y-247.192
G1 X-312.583 Y-247.19
G1 X-312.525 Y-247.187
G1 X-312.47 Y-247.184
G1 X-312.35 Y-247.175
G1 X-312.296 Y-247.17
G1 X-312.173 Y-247.157
G1 X-312.12 Y-247.15
G1 X-311.995 Y-247.13
G1 X-311.943 Y-247.121
G1 X-311.873 Y-247.109
G1 X-311.822 Y-247.099
G1 X-311.653 Y-247.061
G1 X-311.507 Y-247.024
G1 X-311.409 Y-246.997
G1 X-311.263 Y-246.955
G1 X-311.168 Y-246.926
G1 X-311.022 Y-246.879
G1 X-310.93 Y-246.848
G1 X-310.784 Y-246.796
G1 X-310.723 Y-246.774
G1 X-310.578 Y-246.719
G1 X-310.497 Y-246.687
G1 X-310.351 Y-246.627
G1 X-310.31 Y-246.609
G1 X-310.165 Y-246.547
G1 X-310.114 Y-246.525
G1 X-309.969 Y-246.46
G1 X-309.936 Y-246.445
G1 X-309.791 Y-246.378
G1 X-309.775 Y-246.371
G1 X-309.63 Y-246.303
G1 X-309.606 Y-246.291
G1 X-309.466 Y-246.224
G1 X-309.329 Y-246.159
G1 X-309.318 Y-246.154
G1 X-309.301 Y-246.171
G1 X-309.07 Y-246.41
G1 X-308.831 Y-246.663
G1 X-308.595 Y-246.915
G1 X-308.358 Y-247.171
G1 X-308.117 Y-247.433
G1 X-307.878 Y-247.696
G1 X-307.635 Y-247.965
G1 X-307.392 Y-248.234
G1 X-307.149 Y-248.506
G1 X-307.144 Y-248.511
G1 X-306.65 Y-249.059
G1 X-306.646 Y-249.063
G1 X-306.399 Y-249.336
G1 X-306.395 Y-249.341
G1 X-306.147 Y-249.614
G1 X-306.131 Y-249.632
G1 X-305.881 Y-249.903
G1 X-305.877 Y-249.907
G1 X-305.627 Y-250.177
G1 X-305.606 Y-250.2
G1 X-305.353 Y-250.468
G1 X-305.336 Y-250.485
G1 X-305.082 Y-250.75
G1 X-305.069 Y-250.763
G1 X-304.813 Y-251.027
G1 X-304.792 Y-251.049
G1 X-304.534 Y-251.31
G1 X-304.508 Y-251.336
G1 X-304.247 Y-251.594
G1 X-304.221 Y-251.62
G1 X-303.958 Y-251.874
G1 X-303.94 Y-251.89
G1 X-303.508 Y-252.301
G1 X-303.493 Y-252.316
G1 X-303.347 Y-252.453
G1 X-303.339 Y-252.461
G1 X-303.192 Y-252.598
G1 X-303.183 Y-252.606
G1 X-303.036 Y-252.742
G1 X-303.028 Y-252.749
G1 X-302.88 Y-252.885
G1 X-302.847 Y-252.915
G1 X-302.697 Y-253.049
G1 X-302.547 Y-253.183
G1 X-302.514 Y-253.212
G1 X-302.362 Y-253.344
G1 X-302.336 Y-253.367
G1 X-302.183 Y-253.497
G1 X-302.174 Y-253.504
G1 X-302.021 Y-253.633
G1 X-301.969 Y-253.676
G1 X-301.813 Y-253.802
G1 X-301.803 Y-253.81
G1 X-301.647 Y-253.935
G1 X-301.592 Y-253.978
G1 X-301.434 Y-254.099
G1 X-301.399 Y-254.126
G1 X-301.239 Y-254.245
G1 X-301.218 Y-254.26
G1 X-301.058 Y-254.377
G1 X-300.993 Y-254.423
G1 X-300.83 Y-254.536
G1 X-300.797 Y-254.559
G1 X-300.634 Y-254.669
G1 X-300.567 Y-254.713
G1 X-300.401 Y-254.819
G1 X-300.347 Y-254.853
G1 X-300.18 Y-254.955
G1 X-300.13 Y-254.985
G1 X-299.961 Y-255.084
G1 X-299.892 Y-255.123
G1 X-299.722 Y-255.217
G1 X-299.651 Y-255.255
G1 X-299.478 Y-255.345
G1 X-299.4 Y-255.384
G1 X-299.227 Y-255.468
G1 X-299.16 Y-255.5
G1 X-298.985 Y-255.58
G1 X-298.912 Y-255.612
G1 X-298.734 Y-255.688
G1 X-298.652 Y-255.722
G1 X-298.472 Y-255.793
G1 X-298.413 Y-255.815
G1 X-298.23 Y-255.883
G1 X-298.167 Y-255.906
G1 X-297.983 Y-255.97
G1 X-297.929 Y-255.988
G1 X-297.743 Y-256.049
G1 X-297.68 Y-256.069
G1 X-297.493 Y-256.126
G1 X-297.454 Y-256.138
G1 X-297.265 Y-256.193
G1 X-297.216 Y-256.206
G1 X-297.026 Y-256.258
G1 X-296.973 Y-256.272
G1 X-296.781 Y-256.321
G1 X-296.766 Y-256.325
G1 X-296.574 Y-256.373
G1 X-296.521 Y-256.386
G1 X-296.327 Y-256.431
G1 X-296.312 Y-256.434
G1 X-296.118 Y-256.478
G1 X-296.088 Y-256.485
G1 X-295.894 Y-256.527
G1 X-295.875 Y-256.531
G1 X-295.68 Y-256.572
G1 X-295.665 Y-256.575
G1 X-295.47 Y-256.615
G1 X-295.455 Y-256.618
G1 X-295.26 Y-256.657
G1 X-295.244 Y-256.66
G1 X-295.049 Y-256.698
G1 X-294.856 Y-256.736
G1 X-294.663 Y-256.774
G1 X-294.479 Y-256.81
G1 X-294.296 Y-256.847
G1 X-294.107 Y-256.885
G1 X-293.902 Y-256.927
G1 X-293.891 Y-256.929
G1 X-293.686 Y-256.97
G1 X-293.668 Y-256.974
G1 X-293.462 Y-257.014
G1 X-293.448 Y-257.017
G1 X-293.242 Y-257.056
G1 X-293.239
G1 X-293.032 Y-257.095
G1 X-293.003 Y-257.1
G1 X-292.589 Y-257.174
G1 X-292.559 Y-257.18
G1 X-292.145 Y-257.25
G1 X-292.113 Y-257.255
G1 X-291.698 Y-257.321
G1 X-291.668 Y-257.325
G1 X-291.46 Y-257.356
G1 X-291.445 Y-257.358
G1 X-291.237 Y-257.388
G1 X-291.222 Y-257.391
G1 X-291.014 Y-257.42
G1 X-290.985 Y-257.424
G1 X-290.777 Y-257.451
G1 X-290.76 Y-257.453
G1 X-290.551 Y-257.479
G1 X-290.536 Y-257.481
G1 X-290.327 Y-257.506
G1 X-290.299 Y-257.509
G1 X-290.091 Y-257.532
G1 X-290.074 Y-257.534
G1 X-289.865 Y-257.556
G1 X-289.85 Y-257.557
G1 X-289.641 Y-257.578
G1 X-289.611 Y-257.581
G1 X-289.402 Y-257.6
G1 X-289.389 Y-257.601
G1 X-289.181 Y-257.619
G1 X-289.149 Y-257.622
G1 X-288.94 Y-257.638
G1 X-288.91 Y-257.64
G1 X-288.701 Y-257.654
G1 X-288.681 Y-257.655
G1 X-288.433 Y-257.67
G1 X-288.421 Y-257.671
G1 X-288.174 Y-257.685
G1 X-288.135 Y-257.687
G1 X-287.887 Y-257.698
G1 X-287.874
G1 X-287.626 Y-257.708
G1 X-287.6 Y-257.709
G1 X-287.352 Y-257.717
G1 X-287.326 Y-257.718
G1 X-287.077 Y-257.724
G1 X-287.065
G1 X-286.817 Y-257.729
G1 X-286.804 Y-257.73
G1 X-286.555 Y-257.734
G1 X-286.53
G1 X-286.282 Y-257.736
G1 X-286.269
G1 X-286.02 Y-257.737
G1 X-286.007
G1 X-285.758
G1 X-285.745
G1 X-285.496 Y-257.736
G1 X-285.483
G1 X-285.235 Y-257.734
G1 X-285.21
G1 X-284.712 Y-257.726
G1 X-284.699 Y-257.725
G1 X-284.201 Y-257.715
G1 X-284.176
G1 X-283.678 Y-257.701
G1 X-283.429 Y-257.694
G1 X-283.417 Y-257.693
G1 X-283.168 Y-257.685
G1 X-283.155
G1 X-282.913 Y-257.676
G1 X-282.671 Y-257.668
G1 X-282.658
G1 X-282.41 Y-257.659
G1 X-282.408
G1 X-282.143 Y-257.649
G1 X-281.878 Y-257.64
G1 X-281.866
G1 X-281.594 Y-257.63
G1 X-281.582 Y-257.629
G1 X-281.317 Y-257.619
G1 X-281.052 Y-257.609
G1 X-281.041 Y-257.608
G1 X-280.769 Y-257.597
G1 X-280.757
G1 X-280.486 Y-257.585
G1 X-280.474 Y-257.584
G1 X-280.202 Y-257.571
G1 X-279.931 Y-257.558
G1 X-279.92
G1 X-279.648 Y-257.544
G1 X-279.376 Y-257.53
G1 X-279.353 Y-257.528
G1 X-279.082 Y-257.512
G1 X-279.07
G1 X-278.799 Y-257.495
G1 X-278.788 Y-257.494
G1 X-278.517 Y-257.476
G1 X-278.493 Y-257.474
G1 X-277.951 Y-257.434
G1 X-277.917 Y-257.432
G1 X-277.646 Y-257.409
G1 X-277.375 Y-257.386
G1 X-277.34 Y-257.382
G1 X-277.07 Y-257.356
G1 X-277.058 Y-257.355
G1 X-276.788 Y-257.328
G1 X-276.765 Y-257.326
G1 X-276.495 Y-257.297
G1 X-276.471 Y-257.294
G1 X-276.202 Y-257.263
G1 X-276.178 Y-257.26
G1 X-275.909 Y-257.227
G1 X-275.886 Y-257.224
G1 X-275.617 Y-257.189
G1 X-275.598 Y-257.187
G1 X-275.121 Y-257.122
G1 X-275.101 Y-257.119
G1 X-274.625 Y-257.051
G1 X-274.612 Y-257.049
G1 X-274.136 Y-256.979
G1 X-274.123 Y-256.977
G1 X-273.647 Y-256.905
G1 X-273.634 Y-256.903
G1 X-273.158 Y-256.829
G1 X-273.144 Y-256.827
G1 X-272.669 Y-256.751
G1 X-272.658 Y-256.749
G1 X-272.182 Y-256.671
G1 X-272.174 Y-256.67
G1 X-271.699 Y-256.591
G1 X-271.686 Y-256.589
G1 X-271.211 Y-256.508
G1 X-271.204 Y-256.507
G1 X-270.73 Y-256.425
G1 X-270.718 Y-256.422
G1 X-270.243 Y-256.339
G1 X-270.242 Y-256.338
G1 X-269.768 Y-256.254
G1 X-269.763 Y-256.253
G1 X-269.288 Y-256.168
G1 X-269.274 Y-256.166
G1 X-268.803 Y-256.079
G1 X-268.332 Y-255.994
G1 X-268.319 Y-255.992
G1 X-267.849 Y-255.904
G1 X-267.378 Y-255.818
G1 X-267.371 Y-255.817
G1 X-266.423 Y-255.641
G1 X-265.949 Y-255.553
G1 X-265.479 Y-255.465
G1 X-264.536 Y-255.292
G1 X-264.066 Y-255.207
G1 X-264.063 Y-255.206
G1 X-263.494 Y-255.102
G1 X-263.488 Y-255.101
G1 X-262.92 Y-254.996
G1 X-262.914 Y-254.995
G1 X-262.347 Y-254.889
G1 X-262.337 Y-254.887
G1 X-261.769 Y-254.779
G1 X-261.768
G1 X-261.201 Y-254.671
G1 X-261.196 Y-254.67
G1 X-260.062 Y-254.452
G1 X-260.051 Y-254.45
G1 X-259.487 Y-254.339
G1 X-258.922 Y-254.23
G1 X-258.917 Y-254.229
G1 X-258.353 Y-254.118
G1 X-257.788 Y-254.009
G1 X-257.783 Y-254.008
G1 X-257.216 Y-253.897
G1 X-256.652 Y-253.786
G1 X-256.087 Y-253.677
G1 X-255.523 Y-253.567
G1 X-254.959 Y-253.459
G1 X-254.395 Y-253.351
G1 X-253.832 Y-253.244
G1 X-253.27 Y-253.138
G1 X-252.711 Y-253.033
G1 X-252.148 Y-252.93
G1 X-251.589 Y-252.828
G1 X-251.028 Y-252.728
G1 X-250.47 Y-252.629
G1 X-249.978 Y-252.545
G1 X-249.48 Y-252.464
G1 X-248.979 Y-252.384
G1 X-248.476 Y-252.308
G1 X-247.969 Y-252.232
G1 X-247.462 Y-252.159
G1 X-246.435 Y-252.015
G1 X-245.92 Y-251.945
G1 X-245.914 Y-251.944
G1 X-245.396 Y-251.872
G1 X-244.879 Y-251.802
G1 X-244.874 Y-251.801
G1 X-244.354 Y-251.729
G1 X-244.347 Y-251.728
G1 X-243.828 Y-251.655
G1 X-243.822 Y-251.654
G1 X-243.303 Y-251.58
G1 X-243.29 Y-251.578
G1 X-242.772 Y-251.502
G1 X-242.758 Y-251.5
G1 X-242.242 Y-251.422
G1 X-242.23 Y-251.42
G1 X-241.715 Y-251.34
G1 X-241.696 Y-251.337
G1 X-241.182 Y-251.254
G1 X-241.163 Y-251.251
G1 X-240.65 Y-251.165
G1 X-240.624 Y-251.161
G1 X-240.113 Y-251.071
G1 X-240.092 Y-251.067
G1 X-239.584 Y-250.974
G1 X-239.553 Y-250.968
G1 X-239.046 Y-250.87
G1 X-239.02 Y-250.865
G1 X-238.515 Y-250.763
G1 X-238.476 Y-250.755
G1 X-237.974 Y-250.647
G1 X-237.872 Y-250.623
G1 X-237.816 Y-250.609
G1 X-237.664 Y-250.567
G1 X-237.608 Y-250.55
G1 X-237.415 Y-250.485
G1 X-237.359 Y-250.464
G1 X-237.242 Y-250.417
G1 X-237.185 Y-250.393
G1 X-236.997 Y-250.307
G1 X-236.941 Y-250.279
G1 X-236.862 Y-250.238
G1 X-236.806 Y-250.208
G1 X-236.671 Y-250.132
G1 X-236.616 Y-250.099
G1 X-236.489 Y-250.018
G1 X-236.435 Y-249.982
G1 X-236.346 Y-249.92
G1 X-236.293 Y-249.882
G1 X-236.177 Y-249.795
G1 X-236.125 Y-249.754
G1 X-236.017 Y-249.665
G1 X-235.966 Y-249.621
G1 X-235.892 Y-249.555
G1 X-235.843 Y-249.51
G1 X-235.722 Y-249.393
G1 X-235.675 Y-249.345
G1 X-235.606 Y-249.272
G1 X-235.561 Y-249.223
G1 X-235.448 Y-249.093
G1 X-235.406 Y-249.042
G1 X-235.323 Y-248.937
G1 X-235.283 Y-248.884
G1 X-235.183 Y-248.743
G1 X-235.146 Y-248.688
G1 X-235.066 Y-248.564
G1 X-235.032 Y-248.508
G1 X-234.957 Y-248.377
G1 X-234.926 Y-248.32
G1 X-234.856 Y-248.183
G1 X-234.828 Y-248.125
G1 X-234.746 Y-247.941
G1 X-234.722 Y-247.882
G1 X-234.651 Y-247.69
G1 X-234.631 Y-247.63
G1 X-234.572 Y-247.432
G1 X-234.556 Y-247.371
G1 X-234.51 Y-247.168
G1 X-234.498 Y-247.106
G1 X-234.474 Y-246.968
G1 X-234.47 Y-246.941
G1 X-234.458 Y-246.85
G1 X-234.362 Y-246.807
G1 X-234.15 Y-246.714
G1 X-233.931 Y-246.622
G1 X-233.701 Y-246.529
G1 X-233.467 Y-246.436
G1 X-233.225 Y-246.342
G1 X-232.976 Y-246.246
G1 X-232.721 Y-246.15
G1 X-232.711 Y-246.146
G1 X-232.187 Y-245.946
G1 X-232.173 Y-245.941
G1 X-231.912 Y-245.84
G1 X-231.889 Y-245.831
G1 X-231.629 Y-245.728
G1 X-231.611 Y-245.721
G1 X-231.353 Y-245.617
G1 X-231.316 Y-245.601
G1 X-231.06 Y-245.494
G1 X-231.032 Y-245.483
G1 X-230.778 Y-245.374
G1 X-230.731 Y-245.353
G1 X-230.479 Y-245.24
G1 X-230.423 Y-245.214
G1 X-230.175 Y-245.097
G1 X-230.11 Y-245.066
G1 X-229.866 Y-244.944
G1 X-229.815 Y-244.918
G1 X-229.574 Y-244.792
G1 X-229.495 Y-244.749
G1 X-229.259 Y-244.617
G1 X-229.182 Y-244.572
G1 X-229.12 Y-244.535
G1 X-229.022 Y-244.475
G1 X-228.926 Y-244.41
G1 X-228.866 Y-244.368
G1 X-228.789 Y-244.312
G1 X-228.73 Y-244.268
G1 X-228.587 Y-244.155
G1 X-228.531 Y-244.108
G1 X-228.46 Y-244.047
G1 X-228.405 Y-243.998
G1 X-228.315 Y-243.914
G1 X-228.261 Y-243.862
G1 X-228.135 Y-243.734
G1 X-228.084 Y-243.679
G1 X-228.044 Y-243.635
G1 X-227.994 Y-243.579
G1 X-227.92 Y-243.493
G1 X-227.871 Y-243.434
G1 X-227.814 Y-243.363
G1 X-227.767 Y-243.303
G1 X-227.696 Y-243.21
G1 X-227.651 Y-243.148
G1 X-227.637 Y-243.128
G1 X-227.592 Y-243.065
G1 X-227.541 Y-242.991
G1 X-227.498 Y-242.927
G1 X-227.448 Y-242.85
G1 X-227.407 Y-242.785
G1 X-227.366 Y-242.719
G1 X-227.326 Y-242.652
G1 X-227.319 Y-242.639
G1 X-227.28 Y-242.573
G1 X-227.241 Y-242.507
G1 X-227.203 Y-242.439
G1 X-227.196 Y-242.425
G1 X-227.159 Y-242.358
G1 X-227.115 Y-242.276
G1 X-227.084 Y-242.217
G1 X-227.054 Y-242.158
G1 X-227.012 Y-242.074
G1 X-226.979 Y-242.006
G1 X-226.978 Y-242.005
G1 X-226.946 Y-241.939
G1 X-226.938 Y-241.922
G1 X-226.906 Y-241.855
G1 X-226.888 Y-241.818
G1 X-226.858 Y-241.753
G1 X-226.793 Y-241.601
G1 X-226.777 Y-241.561
G1 X-226.736 Y-241.452
G1 X-226.698 Y-241.342
G1 X-226.685 Y-241.301
G3 X-226.604 Y-240.991 I-3.027 J0.96
G1 X-226.595 Y-240.948
G1 X-226.557 Y-240.727
G1 X-226.551 Y-240.683
G1 X-226.545 Y-240.639
G1 X-226.526 Y-240.627
G1 X-226.508 Y-240.617
G1 X-225.884 Y-240.275
G1 X-225.25 Y-239.933
G1 X-224.611 Y-239.592
G1 X-223.969 Y-239.254
G1 X-223.324 Y-238.917
G1 X-222.678 Y-238.582
G1 X-222.027 Y-238.25
G1 X-221.373 Y-237.917
G1 X-220.719 Y-237.587
G1 X-220.06 Y-237.255
G1 X-219.401 Y-236.925
G1 X-218.741 Y-236.596
G1 X-218.077 Y-236.265
G1 X-218.076
G1 X-217.414 Y-235.935
G1 X-216.752 Y-235.606
G1 X-216.748 Y-235.604
G1 X-216.083 Y-235.273
G1 X-216.08 Y-235.272
G1 X-215.415 Y-234.94
G1 X-215.411 Y-234.938
G1 X-214.748 Y-234.606
G1 X-214.747 Y-234.605
G1 X-214.083 Y-234.272
G1 X-214.072 Y-234.267
G1 X-213.41 Y-233.932
G1 X-213.404 Y-233.928
G1 X-212.742 Y-233.591
G1 X-212.735 Y-233.588
G1 X-212.075 Y-233.25
G1 X-212.066 Y-233.246
G1 X-211.407 Y-232.906
G1 X-211.395 Y-232.899
G1 X-210.737 Y-232.556
G1 X-210.722 Y-232.548
G1 X-210.226 Y-232.286
G1 X-210.21 Y-232.278
G1 X-209.715 Y-232.013
G1 X-209.709 Y-232.009
G1 X-209.215 Y-231.743
G1 X-209.199 Y-231.735
G1 X-208.706 Y-231.466
G1 X-208.695 Y-231.46
G1 X-208.203 Y-231.189
G1 X-208.199 Y-231.187
G1 X-207.707 Y-230.915
G1 X-207.7 Y-230.911
G1 X-207.209 Y-230.638
G1 X-207.198 Y-230.632
G1 X-206.71 Y-230.358
G1 X-206.222 Y-230.085
G1 X-206.221 Y-230.084
G1 X-205.73 Y-229.809
G1 X-205.727 Y-229.808
G1 X-205.237 Y-229.533
G1 X-204.749 Y-229.259
G1 X-204.265 Y-228.988
G1 X-203.781 Y-228.719
G1 X-203.298 Y-228.453
G1 X-202.812 Y-228.186
G1 X-202.331 Y-227.923
G1 X-201.852 Y-227.665
G1 X-201.371 Y-227.409
G1 X-200.89 Y-227.155
G1 X-200.41 Y-226.906
G1 X-199.932 Y-226.661
G1 X-199.455 Y-226.422
G1 X-198.99 Y-226.193
G1 X-198.946 Y-226.172
G1 X-198.915 Y-226.159
G1 X-198.872 Y-226.141
G1 X-198.829 Y-226.124
G1 X-198.797 Y-226.112
G1 X-198.752 Y-226.097
G1 X-198.702 Y-226.081
G1 X-198.653 Y-226.066
G1 X-198.606 Y-226.053
G1 X-198.545 Y-226.037
G1 X-198.479 Y-226.02
G1 X-198.411 Y-226.005
G1 X-198.345 Y-225.99
G1 X-198.293 Y-225.98
G1 X-198.224 Y-225.967
G1 X-198.144 Y-225.953
G1 X-198.063 Y-225.94
G1 X-197.991 Y-225.929
G1 X-197.909 Y-225.918
G1 X-197.826 Y-225.907
G1 X-197.742 Y-225.897
G1 X-197.661 Y-225.887
G1 X-197.49 Y-225.87
G1 X-197.389 Y-225.862
G1 X-197.286 Y-225.855
G1 X-197.183 Y-225.85
G1 X-197.079 Y-225.848
G1 X-196.955 Y-225.846
G1 X-196.821
G1 X-196.696 Y-225.847
G1 X-196.571 Y-225.85
G1 X-196.418 Y-225.855
G1 X-196.273 Y-225.859
G1 X-196.128 Y-225.865
G1 X-195.964 Y-225.872
G1 X-195.8 Y-225.879
G1 X-195.636 Y-225.886
G1 X-195.618 Y-225.887
G1 X-195.455 Y-225.893
G1 X-195.29 Y-225.899
G1 X-195.251 Y-225.9
G1 X-195.087 Y-225.904
G1 X-195.068
G1 X-194.904 Y-225.907
G1 X-194.885 Y-225.908
G1 X-194.722 Y-225.91
G1 X-194.683
G1 X-194.519
G1 X-194.461 Y-225.909
G1 X-194.298 Y-225.906
G1 X-194.258 Y-225.905
G1 X-194.096 Y-225.9
G1 X-194.058 Y-225.899
G1 X-193.895 Y-225.892
G1 X-193.816 Y-225.888
G1 X-193.654 Y-225.877
G1 X-193.595 Y-225.872
G1 X-193.469 Y-225.861
G1 X-193.342 Y-225.85
G1 X-193.291 Y-225.845
G1 X-193.037 Y-225.819
G1 X-192.988 Y-225.814
G1 X-192.861 Y-225.799
G1 X-192.839 Y-225.796
G1 X-192.711 Y-225.78
G1 X-192.684 Y-225.777
G1 X-192.557 Y-225.76
G1 X-192.532 Y-225.757
G1 X-192.405 Y-225.739
G1 X-192.381 Y-225.735
G1 X-192.254 Y-225.716
G1 X-192.23 Y-225.712
G1 X-192.103 Y-225.692
G1 X-192.075 Y-225.688
G1 X-191.949 Y-225.667
G1 X-191.929 Y-225.663
G1 X-191.802 Y-225.641
G1 X-191.778 Y-225.637
G1 X-191.651 Y-225.614
G1 X-191.623 Y-225.609
G1 X-191.497 Y-225.585
G1 X-191.473 Y-225.58
G1 X-191.347 Y-225.555
G1 X-191.323 Y-225.55
G1 X-191.197 Y-225.524
G1 X-191.169 Y-225.518
G1 X-191.046 Y-225.492
G1 X-190.923 Y-225.466
G1 X-190.87 Y-225.454
G1 X-190.745 Y-225.425
G1 X-190.722 Y-225.419
G1 X-190.597 Y-225.389
G1 X-190.591 Y-225.388
G1 X-190.467 Y-225.358
G1 X-190.421 Y-225.346
G1 X-190.173 Y-225.282
G1 X-190.149 Y-225.276
G1 X-190.025 Y-225.243
G1 X-190.001 Y-225.237
G1 X-189.717 Y-225.159
G1 X-189.71 Y-225.157
G1 X-189.425 Y-225.078
G1 X-189.412 Y-225.074
G1 X-189.128 Y-224.994
G1 X-189.118 Y-224.991
G1 X-188.834 Y-224.91
G1 X-188.824 Y-224.907
G1 X-188.54 Y-224.825
G1 X-188.53 Y-224.823
G1 X-188.246 Y-224.74
G1 X-188.236 Y-224.737
G1 X-187.952 Y-224.653
G1 X-187.94 Y-224.649
G1 X-187.374 Y-224.479
G1 X-187.354 Y-224.473
G1 X-186.788 Y-224.299
G1 X-186.765 Y-224.292
G1 X-186.201 Y-224.114
G1 X-186.182 Y-224.108
G1 X-185.9 Y-224.017
G1 X-185.897 Y-224.016
G1 X-185.616 Y-223.925
G1 X-185.606 Y-223.921
G1 X-185.325 Y-223.829
G1 X-185.306 Y-223.823
G1 X-185.025 Y-223.729
G1 X-185.022 Y-223.728
G1 X-184.742 Y-223.634
G1 X-184.735 Y-223.632
G1 X-184.454 Y-223.537
G1 X-184.438 Y-223.531
G1 X-184.159 Y-223.435
G1 X-184.149 Y-223.432
G1 X-183.87 Y-223.335
G1 X-183.851 Y-223.328
G1 X-183.572 Y-223.229
G1 X-183.293 Y-223.13
G1 X-183.28 Y-223.126
G1 X-183.002 Y-223.026
G1 X-182.979 Y-223.017
G1 X-182.694 Y-222.912
G1 X-182.654 Y-222.897
G1 X-182.37 Y-222.788
G1 X-182.334 Y-222.774
G1 X-182.05 Y-222.661
G1 X-182.025 Y-222.651
G1 X-181.743 Y-222.536
G1 X-181.716 Y-222.525
G1 X-181.434 Y-222.407
G1 X-181.413 Y-222.398
G1 X-181.132 Y-222.278
G1 X-181.111 Y-222.269
G1 X-180.831 Y-222.147
G1 X-180.822 Y-222.143
G1 X-180.542 Y-222.02
G1 X-180.533 Y-222.016
G1 X-180.253 Y-221.892
G1 X-180.25 Y-221.89
G1 X-179.971 Y-221.766
G1 X-179.962 Y-221.762
G1 X-179.685 Y-221.638
G1 X-179.409 Y-221.515
G1 X-179.139 Y-221.395
G1 X-178.872 Y-221.278
G1 X-178.608 Y-221.163
G1 X-178.342 Y-221.05
G1 X-178.086 Y-220.942
G1 X-177.835 Y-220.839
G1 X-177.581 Y-220.739
G1 X-177.334 Y-220.644
G1 X-177.09 Y-220.553
G1 X-176.85 Y-220.469
G1 X-176.612 Y-220.388
G1 X-176.373 Y-220.312
G1 X-176.321 Y-220.297
G1 X-176.264 Y-220.281
G1 X-176.195 Y-220.264
G1 X-176.137 Y-220.25
G1 X-176.063 Y-220.234
G1 X-175.991 Y-220.22
G1 X-175.941 Y-220.211
G1 X-175.864 Y-220.2
G1 X-175.787 Y-220.189
G1 X-175.708 Y-220.18
G1 X-175.631 Y-220.171
G1 X-175.565 Y-220.166
G1 X-175.473 Y-220.159
G1 X-175.394 Y-220.154
G1 X-175.327 Y-220.152
G1 X-175.236 Y-220.149
G1 X-175.145 Y-220.148
G1 X-175.079
G1 X-174.9 Y-220.152
G1 X-174.825 Y-220.156
G1 X-174.738 Y-220.161
G1 X-174.663 Y-220.166
G1 X-174.588 Y-220.173
G1 X-174.518 Y-220.18
G1 X-174.438 Y-220.189
G1 X-174.373 Y-220.198
G1 X-174.318 Y-220.206
G1 X-174.237 Y-220.22
G1 X-174.17 Y-220.232
G1 X-174.102 Y-220.245
G1 X-174.024 Y-220.262
G1 X-173.968 Y-220.275
G1 X-173.903 Y-220.291
G1 X-173.813 Y-220.315
G1 X-173.745 Y-220.334
G1 X-173.68 Y-220.353
G1 X-173.619 Y-220.372
G1 X-173.554 Y-220.394
G1 X-173.467 Y-220.424
G1 X-173.407 Y-220.446
G1 X-173.349 Y-220.468
G1 X-173.28 Y-220.496
G1 X-173.228 Y-220.518
G1 X-173.162 Y-220.548
G1 X-173.096 Y-220.578
G1 X-173.048 Y-220.602
G1 X-172.991 Y-220.631
G1 X-172.839 Y-220.711
G1 X-172.688 Y-220.795
G1 X-172.53 Y-220.886
G1 X-172.373 Y-220.979
G1 X-172.217 Y-221.075
G1 X-172.054 Y-221.178
G1 X-171.887 Y-221.287
G1 X-171.717 Y-221.399
G1 X-171.551 Y-221.511
G1 X-171.196 Y-221.756
G1 X-170.828 Y-222.013
G1 X-170.647 Y-222.14
G1 X-170.462 Y-222.271
G1 X-170.447 Y-222.282
G1 X-170.257 Y-222.415
G1 X-170.067 Y-222.548
G1 X-170.058 Y-222.554
G1 X-169.868 Y-222.686
G1 X-169.852 Y-222.697
G1 X-169.661 Y-222.828
G1 X-169.651 Y-222.835
G1 X-169.46 Y-222.965
G1 X-169.435 Y-222.982
G1 X-169.243 Y-223.11
G1 X-169.211 Y-223.131
G1 X-169.017 Y-223.257
G1 X-168.998 Y-223.269
G1 X-168.804 Y-223.393
G1 X-168.762 Y-223.42
G1 X-168.57 Y-223.538
G1 X-168.456 Y-223.609
G1 X-168.337 Y-223.683
G1 X-168.234 Y-223.747
G1 X-168.131 Y-223.813
G1 X-168.115 Y-223.823
G1 X-167.996 Y-223.898
G1 X-167.88 Y-223.971
G1 X-167.763 Y-224.045
G1 X-167.747 Y-224.055
G1 X-167.627 Y-224.13
G1 X-167.611 Y-224.14
G1 X-167.371 Y-224.288
G1 X-167.344 Y-224.305
G1 X-167.223 Y-224.378
G1 X-167.197 Y-224.393
G1 X-167.075 Y-224.465
G1 X-167.068 Y-224.469
G1 X-166.947 Y-224.54
G1 X-166.893 Y-224.571
G1 X-166.77 Y-224.64
G1 X-166.763 Y-224.644
G1 X-166.641 Y-224.712
G1 X-166.587 Y-224.742
G1 X-166.463 Y-224.808
G1 X-166.418 Y-224.831
G1 X-166.295 Y-224.894
G1 X-166.259 Y-224.912
G1 X-166.134 Y-224.974
G1 X-166.078 Y-225.001
G1 X-165.953 Y-225.06
G1 X-165.887 Y-225.09
G1 X-165.761 Y-225.146
G1 X-165.714 Y-225.167
G1 X-165.587 Y-225.221
G1 X-165.528 Y-225.245
G1 X-165.401 Y-225.296
G1 X-165.312 Y-225.33
G1 X-165.184 Y-225.377
G1 X-165.136 Y-225.395
G1 X-165.007 Y-225.44
G1 X-164.89 Y-225.478
G1 X-164.792 Y-225.508
G1 X-164.706 Y-225.533
G1 X-164.608 Y-225.56
G1 X-164.506 Y-225.586
G1 X-164.406 Y-225.61
G1 X-164.318 Y-225.63
G1 X-164.218 Y-225.651
G1 X-164.122 Y-225.67
G1 X-164.021 Y-225.688
G1 X-163.956 Y-225.699
G1 X-163.854 Y-225.715
G1 X-163.79 Y-225.724
G1 X-163.687 Y-225.738
G1 X-163.593 Y-225.749
G1 X-163.489 Y-225.76
G1 X-163.459 Y-225.763
G1 X-163.355 Y-225.773
G1 X-163.262 Y-225.781
G1 X-163.157 Y-225.788
G1 X-163.127 Y-225.79
G1 X-163.022 Y-225.796
G1 X-162.962 Y-225.799
G1 X-162.857 Y-225.803
G1 X-162.826 Y-225.804
G1 X-162.72 Y-225.807
G1 X-162.69
G1 X-162.584 Y-225.809
G1 X-162.554 Y-225.81
G1 X-162.448 Y-225.811
G1 X-162.388
G1 X-162.282 Y-225.81
G1 X-162.175 Y-225.809
G1 X-162.069 Y-225.808
G1 X-162.039 Y-225.807
G1 X-161.933 Y-225.805
G1 X-161.902
G1 X-161.813 Y-225.802
G1 X-161.722 Y-225.8
G1 X-161.617 Y-225.798
G1 X-161.512 Y-225.796
G1 X-161.416 Y-225.795
G1 X-161.279 Y-225.793
G1 X-161.134 Y-225.791
G1 X-160.989 Y-225.789
G1 X-160.843 Y-225.787
G1 X-160.697 Y-225.785
G1 X-160.675 Y-225.784
G1 X-160.528 Y-225.781
G1 X-160.382 Y-225.778
G1 X-160.361
G1 X-160.214 Y-225.774
G1 X-160.067 Y-225.77
G1 X-160.046 Y-225.769
G1 X-159.899 Y-225.764
G1 X-159.856 Y-225.762
G1 X-159.709 Y-225.755
G1 X-159.708
G1 X-159.562 Y-225.748
G1 X-159.519 Y-225.746
G1 X-159.373 Y-225.737
G1 X-159.351 Y-225.736
G1 X-159.205 Y-225.726
G1 X-159.16 Y-225.722
G1 X-159.015 Y-225.71
G1 X-158.993 Y-225.708
G1 X-158.848 Y-225.695
G1 X-158.803 Y-225.691
G1 X-158.659 Y-225.676
G1 X-158.616 Y-225.671
G1 X-158.472 Y-225.654
G1 X-158.426 Y-225.648
G1 X-158.283 Y-225.629
G1 X-158.24 Y-225.623
G1 X-158.097 Y-225.602
G1 X-158.047 Y-225.595
G1 X-157.906 Y-225.572
G1 X-157.841 Y-225.56
G1 X-157.7 Y-225.534
G1 X-157.653 Y-225.525
G1 X-157.513 Y-225.497
G1 X-157.445 Y-225.483
G1 X-157.306 Y-225.452
G1 X-157.227 Y-225.433
G1 X-157.143 Y-225.412
G1 X-156.997 Y-225.372
G1 X-156.914 Y-225.347
G1 X-156.837 Y-225.323
G1 X-156.755 Y-225.296
G1 X-156.645 Y-225.257
G1 X-156.564 Y-225.227
G1 X-156.488 Y-225.198
G1 X-156.408 Y-225.166
G1 X-156.314 Y-225.127
G1 X-156.234 Y-225.092
G1 X-156.204 Y-225.078
G1 X-156.124 Y-225.042
G1 X-156.022 Y-224.994
G1 X-155.943 Y-224.955
G1 X-155.899 Y-224.933
G1 X-155.821 Y-224.893
G1 X-155.765 Y-224.863
G1 X-155.687 Y-224.822
G1 X-155.617 Y-224.783
G1 X-155.54 Y-224.739
G1 X-155.513 Y-224.723
G1 X-155.359 Y-224.633
G1 X-155.291 Y-224.592
G1 X-155.223 Y-224.55
G1 X-155.154 Y-224.508
G1 X-155.097 Y-224.472
G1 X-155.03 Y-224.429
G1 X-154.886 Y-224.338
G1 X-154.87 Y-224.328
G1 X-154.803 Y-224.285
G1 X-154.739 Y-224.245
G1 X-154.677 Y-224.206
G1 X-154.622 Y-224.172
G1 X-154.578 Y-224.145
G1 X-154.526 Y-224.115
G1 X-154.421 Y-224.054
G1 X-154.313 Y-223.993
G1 X-154.2 Y-223.928
G1 X-154.094 Y-223.869
G1 X-153.98 Y-223.806
G1 X-153.963 Y-223.796
G1 X-153.853 Y-223.735
G1 X-153.742 Y-223.674
G1 X-153.716 Y-223.659
G1 X-153.597 Y-223.593
G1 X-153.478 Y-223.526
G1 X-153.452 Y-223.511
G1 X-153.329 Y-223.441
G1 X-153.319 Y-223.436
G1 X-153.197 Y-223.366
G1 X-153.18 Y-223.356
G1 X-153.058 Y-223.285
G1 X-152.936 Y-223.214
G1 X-152.883 Y-223.183
G1 X-152.763 Y-223.11
G1 X-152.643 Y-223.037
G1 X-152.59 Y-223.004
G1 X-152.472 Y-222.929
G1 X-152.456 Y-222.918
G1 X-152.338 Y-222.842
G1 X-152.285 Y-222.808
G1 X-152.169 Y-222.73
G1 X-152.133 Y-222.705
G1 X-152.019 Y-222.626
G1 X-152.003 Y-222.615
G1 X-151.889 Y-222.535
G1 X-151.812 Y-222.479
G1 X-151.701 Y-222.396
G1 X-151.675 Y-222.376
G1 X-151.565 Y-222.292
G1 X-151.489 Y-222.232
G1 X-151.382 Y-222.145
G1 X-151.343 Y-222.114
G1 X-151.237 Y-222.025
G1 X-151.188 Y-221.982
G1 X-151.108 Y-221.912
G1 X-151.029 Y-221.841
G1 X-150.951 Y-221.768
G1 X-150.906 Y-221.724
G1 X-150.829 Y-221.649
G1 X-150.799 Y-221.62
G1 X-150.723 Y-221.544
G1 X-150.651 Y-221.47
G1 X-150.577 Y-221.391
G1 X-150.547 Y-221.359
G1 X-150.475 Y-221.28
G1 X-150.422 Y-221.219
G1 X-150.351 Y-221.137
G1 X-150.338 Y-221.123
G1 X-150.267 Y-221.04
G1 X-150.212 Y-220.974
G1 X-150.144 Y-220.89
G1 X-150.133 Y-220.875
G1 X-150.065 Y-220.79
G1 X-150.028 Y-220.744
G1 X-149.961 Y-220.657
G1 X-149.948 Y-220.639
G1 X-149.882 Y-220.552
G1 X-149.833 Y-220.487
G1 X-149.769 Y-220.398
G1 X-149.705 Y-220.309
G1 X-149.692 Y-220.289
G1 X-149.629 Y-220.2
G1 X-149.61 Y-220.173
G1 X-149.547 Y-220.082
G1 X-149.52 Y-220.043
G1 X-149.465 Y-219.962
G1 X-149.41 Y-219.881
G1 X-149.383 Y-219.841
G1 X-149.263 Y-219.659
G1 X-149.255 Y-219.645
G1 X-149.195 Y-219.553
G1 X-149.19 Y-219.546
G1 X-149.013 Y-219.273
G1 X-149.009 Y-219.268
G1 X-148.938 Y-219.158
G1 X-148.91 Y-219.112
G1 X-148.841 Y-219.001
G1 X-148.83 Y-218.984
G1 X-148.762 Y-218.873
G1 X-148.749 Y-218.851
G1 X-148.681 Y-218.738
G1 X-148.666 Y-218.713
G1 X-148.6 Y-218.601
G1 X-148.587 Y-218.58
G1 X-148.521 Y-218.466
G1 X-148.5 Y-218.429
G1 X-148.436 Y-218.315
G1 X-148.372 Y-218.201
G1 X-148.367 Y-218.191
G1 X-148.303 Y-218.076
G1 X-148.292 Y-218.057
G1 X-148.229 Y-217.942
G1 X-148.214 Y-217.914
G1 X-148.152 Y-217.798
G1 X-148.142 Y-217.779
G1 X-148.086 Y-217.672
G1 X-148.029 Y-217.566
G1 X-148.019 Y-217.547
G1 X-147.958 Y-217.431
G1 X-147.943 Y-217.402
G1 X-147.888 Y-217.294
G1 X-147.832 Y-217.187
G1 X-147.827 Y-217.178
G1 X-147.767 Y-217.062
G1 X-147.762 Y-217.052
G1 X-147.707 Y-216.944
G1 X-147.651 Y-216.837
G1 X-147.641 Y-216.818
G1 X-147.583 Y-216.706
G1 X-147.528 Y-216.599
G1 X-147.47 Y-216.487
G1 X-147.465 Y-216.478
G1 X-147.41 Y-216.371
G1 X-147.354 Y-216.265
G1 X-147.343 Y-216.245
G1 X-147.297 Y-216.156
G1 X-147.285 Y-216.131
G1 X-147.24 Y-216.042
G1 X-147.221 Y-216.003
G1 X-147.177 Y-215.913
G1 X-147.152 Y-215.862
G1 X-147.113 Y-215.779
G1 X-147.073 Y-215.694
G1 X-147.049 Y-215.642
G1 X-147.014 Y-215.564
G1 X-146.978 Y-215.487
G1 X-146.949 Y-215.422
G1 X-146.918 Y-215.349
G1 X-146.885 Y-215.277
G1 X-146.88 Y-215.265
G1 X-146.842 Y-215.179
G1 X-146.803 Y-215.094
G1 X-146.798 Y-215.082
G1 X-146.76 Y-214.996
G1 X-146.73 Y-214.931
G1 X-146.7 Y-214.867
G1 X-146.672 Y-214.808
G1 X-146.606 Y-214.674
G1 X-146.584 Y-214.631
G1 X-146.564 Y-214.594
G1 X-146.537 Y-214.546
G1 X-146.517 Y-214.51
G1 X-146.503 Y-214.487
G1 X-146.481 Y-214.452
G1 X-146.469 Y-214.434
G1 X-146.455 Y-214.413
G1 X-146.422 Y-214.368
G1 X-146.395 Y-214.33
G1 X-146.376 Y-214.305
G1 X-146.347 Y-214.268
G1 X-146.308 Y-214.22
G1 X-146.278 Y-214.183
G1 X-146.255 Y-214.155
G1 X-146.224 Y-214.119
G1 X-146.183 Y-214.072
G1 X-146.159 Y-214.045
G1 X-146.134 Y-214.019
G1 X-146.092 Y-213.974
G1 X-146.058 Y-213.939
G1 X-146.032 Y-213.913
G1 X-145.997 Y-213.879
G1 X-145.962 Y-213.846
G1 X-145.936 Y-213.822
G1 X-145.9 Y-213.79
G1 X-145.865 Y-213.759
G1 X-145.839 Y-213.737
G1 X-145.803 Y-213.707
G1 X-145.767 Y-213.678
G1 X-145.73 Y-213.649
G1 X-145.681 Y-213.612
G1 X-145.64 Y-213.581
G1 X-145.587 Y-213.543
G1 X-145.525 Y-213.499
G1 X-145.482 Y-213.469
G1 X-145.426 Y-213.432
G1 X-145.374 Y-213.397
G1 X-145.257 Y-213.322
G1 X-145.222 Y-213.3
G1 X-145.175 Y-213.273
G1 X-145.108 Y-213.234
G1 X-145.065 Y-213.209
G1 X-145.01 Y-213.179
G1 X-144.954 Y-213.149
G1 X-144.911 Y-213.127
G1 X-144.868 Y-213.106
G1 X-144.818 Y-213.082
G1 X-144.755 Y-213.053
G1 X-144.712 Y-213.033
G1 X-144.668 Y-213.015
G1 X-144.619 Y-212.995
G1 X-144.582 Y-212.98
G1 X-144.531 Y-212.961
G1 X-144.268 Y-212.865
G1 X-144.005 Y-212.772
G1 X-143.734 Y-212.678
G1 X-143.461 Y-212.584
G1 X-143.192 Y-212.493
G1 X-142.925 Y-212.405
G1 X-142.371 Y-212.226
G1 X-142.098 Y-212.14
G1 X-141.82 Y-212.053
G1 X-141.546 Y-211.969
G1 X-141.267 Y-211.886
G1 X-140.982 Y-211.8
G1 X-140.696 Y-211.716
G1 X-140.415 Y-211.633
G1 X-140.135 Y-211.552
G1 X-139.848 Y-211.469
G1 X-139.562 Y-211.388
G1 X-139.276 Y-211.306
G1 X-138.989 Y-211.226
G1 X-138.986 Y-211.225
G1 X-138.701 Y-211.145
G1 X-138.415 Y-211.065
G1 X-138.413
G1 X-138.123 Y-210.984
G1 X-137.835 Y-210.904
G1 X-137.733 Y-210.876
G1 X-137.64 Y-210.851
G1 X-137.556 Y-210.829
G1 X-137.459 Y-210.804
G1 X-137.362 Y-210.779
G1 X-137.282 Y-210.759
G1 X-137.089 Y-210.714
G1 X-137.005 Y-210.695
G1 X-136.907 Y-210.674
G1 X-136.812 Y-210.654
G1 X-136.727 Y-210.636
G1 X-136.643 Y-210.62
G1 X-136.448 Y-210.583
G1 X-136.363 Y-210.568
G1 X-136.265 Y-210.551
G1 X-136.18 Y-210.537
G1 X-135.997 Y-210.509
G1 X-135.915 Y-210.497
G1 X-135.829 Y-210.486
G1 X-135.743 Y-210.475
G1 X-135.648 Y-210.464
G1 X-135.539 Y-210.452
G1 X-135.425 Y-210.439
G1 X-135.422
G1 X-135.323 Y-210.427
G1 X-135.237 Y-210.418
G1 X-135.137 Y-210.409
G1 X-135.022 Y-210.398
G1 X-135.02
G1 X-134.933 Y-210.389
G1 X-134.845 Y-210.382
G1 X-134.843
G1 X-134.743 Y-210.374
G1 X-134.642 Y-210.367
G1 X-134.553 Y-210.361
G1 X-134.477 Y-210.357
G1 X-134.389 Y-210.354
G1 X-134.315 Y-210.351
G1 X-134.24 Y-210.35
G1 X-134.152 Y-210.349
G1 X-134.065
G1 X-134.005 Y-210.35
G1 X-133.931 Y-210.352
G1 X-133.859 Y-210.355
G1 X-133.8 Y-210.358
G1 X-133.729 Y-210.363
G1 X-133.685 Y-210.367
G1 X-133.619 Y-210.375
G1 X-133.545 Y-210.383
G1 X-133.475 Y-210.393
G1 X-133.391 Y-210.405
G1 X-133.322 Y-210.416
G1 X-133.255 Y-210.427
G1 X-133.17 Y-210.443
G1 X-133.1 Y-210.456
G1 X-133.033 Y-210.47
G1 X-132.95 Y-210.488
G1 X-132.884 Y-210.503
G1 X-132.827 Y-210.517
G1 X-132.761 Y-210.535
G1 X-132.682 Y-210.557
G1 X-132.612 Y-210.576
G1 X-132.564 Y-210.591
G1 X-132.503 Y-210.611
G1 X-132.439 Y-210.633
G1 X-132.376 Y-210.656
G1 X-132.317 Y-210.677
G1 X-132.255 Y-210.702
G1 X-132.197 Y-210.725
G1 X-132.154 Y-210.744
G1 X-132.11 Y-210.764
G1 X-132.056 Y-210.79
G1 X-131.822 Y-210.904
G1 X-131.594 Y-211.019
G1 X-131.365 Y-211.137
G1 X-131.135 Y-211.258
G1 X-130.899 Y-211.386
G1 X-130.666 Y-211.513
G1 X-130.434 Y-211.643
G1 X-130.194 Y-211.779
G1 X-129.958 Y-211.915
G1 X-129.717 Y-212.054
G1 X-129.476 Y-212.195
G1 X-129.24 Y-212.335
G1 X-128.997 Y-212.48
G1 X-128.75 Y-212.629
G1 X-128.506 Y-212.775
G1 X-128.263 Y-212.922
G1 X-128.259 Y-212.925
G1 X-128.011 Y-213.074
G1 X-127.764 Y-213.224
G1 X-127.752 Y-213.232
G1 X-127.506 Y-213.379
G1 X-127.26 Y-213.528
G1 X-127.256 Y-213.53
G1 X-127.007 Y-213.68
G1 X-126.99 Y-213.69
G1 X-126.739 Y-213.839
G1 X-126.735 Y-213.841
G1 X-126.485 Y-213.989
G1 X-126.473 Y-213.997
G1 X-126.238 Y-214.134
G1 X-126.144 Y-214.191
G1 X-126.051 Y-214.248
G1 X-125.965 Y-214.302
G1 X-125.877 Y-214.359
G1 X-125.778 Y-214.426
G1 X-125.678 Y-214.493
G1 X-125.572 Y-214.566
G1 X-125.561 Y-214.573
G1 X-125.454 Y-214.647
G1 X-125.347 Y-214.721
G1 X-125.322 Y-214.738
G1 X-125.207 Y-214.817
G1 X-125.094 Y-214.895
G1 X-125.068 Y-214.913
G1 X-124.948 Y-214.994
G1 X-124.933 Y-215.004
G1 X-124.693 Y-215.164
G1 X-124.637 Y-215.201
G1 X-124.516 Y-215.278
G1 X-124.49 Y-215.294
G1 X-124.368 Y-215.37
G1 X-124.336 Y-215.39
G1 X-124.214 Y-215.464
G1 X-124.154 Y-215.499
G1 X-124.031 Y-215.57
G1 X-123.978 Y-215.6
G1 X-123.853 Y-215.669
G1 X-123.801 Y-215.697
G1 X-123.676 Y-215.763
G1 X-123.614 Y-215.795
G1 X-123.488 Y-215.858
G1 X-123.397 Y-215.901
G1 X-123.269 Y-215.96
G1 X-123.204 Y-215.989
G1 X-123.075 Y-216.045
G1 X-122.963 Y-216.092
G1 X-122.832 Y-216.143
G1 X-122.777 Y-216.164
G1 X-122.652 Y-216.21
G1 X-122.573 Y-216.237
G1 X-122.446 Y-216.28
G1 X-122.375 Y-216.303
G1 X-122.247 Y-216.343
G1 X-122.197 Y-216.359
G1 X-122.068 Y-216.397
G1 X-121.996 Y-216.417
G1 X-121.866 Y-216.452
G1 X-121.817 Y-216.465
G1 X-121.686 Y-216.498
G1 X-121.636 Y-216.51
G1 X-121.504 Y-216.541
G1 X-121.454 Y-216.552
G1 X-121.321 Y-216.581
G1 X-121.277 Y-216.591
G1 X-121.144 Y-216.618
G1 X-121.09 Y-216.628
G1 X-120.955 Y-216.653
G1 X-120.91 Y-216.661
G1 X-120.775 Y-216.684
G1 X-120.73 Y-216.691
G1 X-120.595 Y-216.712
G1 X-120.546 Y-216.719
G1 X-120.41 Y-216.738
G1 X-120.388 Y-216.742
G1 X-120.252 Y-216.76
G1 X-120.203 Y-216.766
G1 X-120.066 Y-216.782
G1 X-120.046 Y-216.784
G1 X-119.91 Y-216.799
G1 X-119.862 Y-216.804
G1 X-119.725 Y-216.817
G1 X-119.704 Y-216.819
G1 X-119.568 Y-216.831
G1 X-119.543 Y-216.833
G1 X-119.406 Y-216.844
G1 X-119.385 Y-216.845
G1 X-119.249 Y-216.855
G1 X-119.226 Y-216.857
G1 X-119.09 Y-216.866
G1 X-119.044 Y-216.869
G1 X-118.774 Y-216.883
G1 X-118.751 Y-216.884
G1 X-118.616 Y-216.89
G1 X-118.605
G1 X-118.483 Y-216.895
G1 X-118.431 Y-216.897
G1 X-118.309 Y-216.9
G1 X-118.257 Y-216.901
G1 X-118.135 Y-216.902
G1 X-118.109
G1 X-117.986
G1 X-117.96
G1 X-117.837 Y-216.901
G1 X-117.786 Y-216.9
G1 X-117.663 Y-216.897
G1 X-117.612 Y-216.895
G1 X-117.488 Y-216.89
G1 X-117.487
G1 X-117.364 Y-216.885
G1 X-117.287 Y-216.881
G1 X-117.165 Y-216.873
G1 X-117.042 Y-216.865
G1 X-116.989 Y-216.862
G1 X-116.866 Y-216.852
G1 X-116.84 Y-216.849
G1 X-116.717 Y-216.838
G1 X-116.694 Y-216.836
G1 X-116.57 Y-216.824
G1 X-116.517 Y-216.819
G1 X-116.394 Y-216.805
G1 X-116.369 Y-216.802
G1 X-116.246 Y-216.787
G1 X-116.217 Y-216.783
G1 X-116.095 Y-216.767
G1 X-116.073 Y-216.764
G1 X-115.95 Y-216.747
G1 X-115.922 Y-216.743
G1 X-115.8 Y-216.725
G1 X-115.749 Y-216.717
G1 X-115.627 Y-216.697
G1 X-115.623
G1 X-115.502 Y-216.676
G1 X-115.457 Y-216.669
G1 X-115.335 Y-216.647
G1 X-115.325 Y-216.645
G1 X-115.205 Y-216.623
G1 X-115.155 Y-216.613
G1 X-115.035 Y-216.589
G1 X-115.01 Y-216.584
G1 X-114.892 Y-216.56
G1 X-114.783 Y-216.537
G1 X-114.756 Y-216.531
G1 X-114.648 Y-216.508
G1 X-114.539 Y-216.485
G1 X-114.512 Y-216.479
G1 X-114.403 Y-216.454
G1 X-114.293 Y-216.43
G1 X-114.261 Y-216.423
G1 X-114.149 Y-216.397
G1 X-114.097 Y-216.384
G1 X-113.988 Y-216.357
G1 X-113.878 Y-216.33
G1 X-113.821 Y-216.315
G1 X-113.709 Y-216.285
G1 X-113.702 Y-216.283
G1 X-113.591 Y-216.253
G1 X-113.547 Y-216.241
G1 X-113.435 Y-216.209
G1 X-113.369 Y-216.189
G1 X-113.259 Y-216.155
G1 X-113.234 Y-216.148
G1 X-113.124 Y-216.113
G1 X-113.066 Y-216.094
G1 X-112.957 Y-216.057
G1 X-112.9 Y-216.036
G1 X-112.792 Y-215.997
G1 X-112.743 Y-215.979
G1 X-112.635 Y-215.938
G1 X-112.583 Y-215.918
G1 X-112.478 Y-215.876
G1 X-112.406 Y-215.846
G1 X-112.301 Y-215.801
G1 X-112.211 Y-215.761
G1 X-112.108 Y-215.713
G1 X-112.074 Y-215.697
G1 X-111.972 Y-215.648
G1 X-111.894 Y-215.609
G1 X-111.793 Y-215.557
G1 X-111.692 Y-215.503
G1 X-111.594 Y-215.448
G1 X-111.539 Y-215.416
G1 X-111.442 Y-215.359
G1 X-111.323 Y-215.285
G1 X-111.229 Y-215.224
G1 X-111.196 Y-215.203
G1 X-110.986 Y-215.063
G1 X-110.963 Y-215.047
G1 X-110.754 Y-214.905
G1 X-110.714 Y-214.878
G1 X-110.506 Y-214.732
G1 X-110.477 Y-214.712
G1 X-110.271 Y-214.564
G1 X-110.249 Y-214.547
G1 X-110.044 Y-214.397
G1 X-110.014 Y-214.375
G1 X-109.81 Y-214.222
G1 X-109.794 Y-214.21
G1 X-109.59 Y-214.055
G1 X-109.557 Y-214.029
G1 X-109.356 Y-213.872
G1 X-109.34 Y-213.86
G1 X-109.139 Y-213.701
G1 X-109.118 Y-213.684
G1 X-108.918 Y-213.523
G1 X-108.891 Y-213.501
G1 X-108.693 Y-213.338
G1 X-108.672 Y-213.321
G1 X-108.475 Y-213.156
G1 X-108.455 Y-213.139
G1 X-108.259 Y-212.972
G1 X-108.246 Y-212.96
G1 X-108.051 Y-212.792
G1 X-108.037 Y-212.781
G1 X-107.843 Y-212.612
G1 X-107.817 Y-212.589
G1 X-107.625 Y-212.418
G1 X-107.618 Y-212.412
G1 X-107.426 Y-212.24
G1 X-107.407 Y-212.223
G1 X-107.217 Y-212.05
G1 X-107.205 Y-212.038
G1 X-107.016 Y-211.864
G1 X-107.003 Y-211.852
G1 X-106.815 Y-211.677
G1 X-106.796 Y-211.659
G1 X-106.61 Y-211.483
G1 X-106.603 Y-211.477
G1 X-106.417 Y-211.3
G1 X-106.405 Y-211.288
G1 X-106.221 Y-211.111
G1 X-106.208 Y-211.099
G1 X-106.025 Y-210.921
G1 X-106.01 Y-210.906
G1 X-105.719 Y-210.619
G1 X-105.695 Y-210.595
G1 X-105.407 Y-210.305
G1 X-105.384 Y-210.282
G1 X-105.099 Y-209.989
G1 X-105.08 Y-209.969
G1 X-104.797 Y-209.673
G1 X-104.778 Y-209.653
G1 X-104.498 Y-209.355
G1 X-104.487 Y-209.343
G1 X-104.208 Y-209.043
G1 X-104.197 Y-209.031
G1 X-103.92 Y-208.73
G1 X-103.905 Y-208.714
G1 X-103.63 Y-208.411
G1 X-103.623 Y-208.403
G1 X-103.348 Y-208.098
G1 X-103.34 Y-208.09
G1 X-103.067 Y-207.785
G1 X-103.064 Y-207.781
G1 X-102.791 Y-207.475
G1 X-102.787 Y-207.47
G1 X-102.515 Y-207.164
G1 X-102.512 Y-207.161
G1 X-102.24 Y-206.854
G1 X-101.971 Y-206.551
G1 X-101.702 Y-206.249
G1 X-101.432 Y-205.947
G1 X-101.166 Y-205.65
G1 X-100.9 Y-205.356
G1 X-100.635 Y-205.066
G1 X-100.37 Y-204.779
G1 X-100.103 Y-204.494
G1 X-99.839 Y-204.215
G1 X-99.576 Y-203.943
G1 X-99.305 Y-203.667
G1 X-99.164 Y-203.525
G1 X-98.859 Y-203.226
G1 X-98.712 Y-203.084
G1 X-98.561 Y-202.939
G1 X-98.405 Y-202.792
G1 X-98.253 Y-202.65
G1 X-98.092 Y-202.502
G1 X-97.938 Y-202.36
G1 X-97.784 Y-202.221
G1 X-97.621 Y-202.074
G1 X-97.463 Y-201.934
G1 X-97.3 Y-201.79
G1 X-97.14 Y-201.65
G1 X-96.977 Y-201.51
G1 X-96.973 Y-201.506
G1 X-96.809 Y-201.365
G1 X-96.647 Y-201.227
G1 X-96.48 Y-201.085
G1 X-96.316 Y-200.948
G1 X-96.147 Y-200.808
G1 X-95.979 Y-200.668
G1 X-95.809 Y-200.529
G1 X-95.638 Y-200.389
G1 X-95.472 Y-200.254
G1 X-95.233 Y-200.062
G1 X-94.993 Y-199.871
G1 X-94.749 Y-199.679
G1 X-94.506 Y-199.49
G1 X-94.258 Y-199.3
G1 X-94.009 Y-199.11
G1 X-93.759 Y-198.921
G1 X-93.505 Y-198.73
G1 X-93.253 Y-198.541
G1 X-92.997 Y-198.351
G1 X-92.736 Y-198.158
G1 X-92.475 Y-197.965
G1 X-92.217 Y-197.773
G1 X-91.958 Y-197.583
G1 X-91.952 Y-197.578
G1 X-91.693 Y-197.386
G1 X-91.433 Y-197.195
G1 X-91.426 Y-197.19
G1 X-91.164 Y-196.996
G1 X-91.156 Y-196.99
G1 X-90.895 Y-196.795
G1 X-90.893 Y-196.794
G1 X-90.632 Y-196.599
G1 X-90.629 Y-196.596
G1 X-90.369 Y-196.401
G1 X-90.353 Y-196.39
G1 X-90.094 Y-196.193
G1 X-90.09 Y-196.19
G1 X-89.831 Y-195.993
G1 X-89.815 Y-195.981
G1 X-89.557 Y-195.782
G1 X-89.552 Y-195.778
G1 X-89.295 Y-195.579
G1 X-89.281 Y-195.568
G1 X-88.559 Y-195.003
G1 X-88.558 Y-195.002
G1 X-87.836 Y-194.437
G1 X-87.833 Y-194.435
G1 X-87.113 Y-193.869
G1 X-87.109 Y-193.866
G1 X-86.389 Y-193.299
G1 X-86.386 Y-193.297
G1 X-85.667 Y-192.729
G1 X-85.664 Y-192.726
G1 X-84.945 Y-192.157
G1 X-84.226 Y-191.588
G1 Y-191.587
G1 X-83.508 Y-191.018
G1 X-83.505 Y-191.017
G1 X-82.787 Y-190.447
G1 X-82.069 Y-189.876
G1 X-81.352 Y-189.306
G1 X-80.634 Y-188.736
G1 X-79.918 Y-188.167
G1 X-79.201 Y-187.599
G1 X-79.199 Y-187.598
G1 X-78.482 Y-187.029
G1 X-77.767 Y-186.462
G1 X-77.05 Y-185.895
G1 X-76.333 Y-185.329
G1 X-75.616 Y-184.764
G1 X-74.899 Y-184.201
G1 X-74.181 Y-183.639
G1 X-73.463 Y-183.077
G1 X-72.744 Y-182.517
G1 X-72.022 Y-181.957
G1 X-71.824 Y-181.803
G1 X-71.81 Y-181.792
G1 X-71.719 Y-181.721
G1 X-71.63 Y-181.652
G1 X-71.533 Y-181.577
G1 X-71.435 Y-181.502
G1 X-71.347 Y-181.434
G1 X-71.26 Y-181.368
G1 X-71.171 Y-181.301
G1 X-71.092 Y-181.242
G1 X-71.004 Y-181.179
G1 X-70.925 Y-181.122
G1 X-70.847 Y-181.067
G1 X-70.768 Y-181.012
G1 X-70.698 Y-180.965
G1 X-70.619 Y-180.913
G1 X-70.55 Y-180.869
G1 X-70.48 Y-180.826
G1 X-70.42 Y-180.789
G1 X-70.36 Y-180.755
G1 X-70.291 Y-180.716
G1 X-70.221 Y-180.679
G1 X-70.171 Y-180.653
G1 X-70.111 Y-180.624
G1 X-68.587 Y-179.902
G1 X-67.057 Y-179.182
G1 X-65.524 Y-178.465
G1 X-63.989 Y-177.751
G1 X-62.451 Y-177.039
G1 X-60.912 Y-176.329
G1 X-59.371 Y-175.621
G1 X-57.827 Y-174.914
G1 X-56.284 Y-174.208
G1 X-54.738 Y-173.504
G1 X-53.191 Y-172.799
G1 X-51.643 Y-172.095
G1 X-50.096 Y-171.391
G1 X-50.095 Y-171.39
G1 X-48.547 Y-170.685
G1 X-47 Y-169.98
G1 X-46.998 Y-169.979
G1 X-45.451 Y-169.273
G1 X-45.449 Y-169.272
G1 X-43.904 Y-168.565
G1 X-43.9 Y-168.563
G1 X-42.355 Y-167.854
G1 X-42.353 Y-167.853
G1 X-40.81 Y-167.143
G1 X-40.804 Y-167.141
G1 X-39.262 Y-166.428
G1 X-39.258 Y-166.426
G1 X-37.718 Y-165.711
G1 X-37.712 Y-165.708
G1 X-36.174 Y-164.99
G1 X-36.168 Y-164.987
G1 X-34.632 Y-164.266
G1 X-34.624 Y-164.262
G1 X-33.091 Y-163.537
G1 X-33.039 Y-163.512
G1 X-32.999 Y-163.492
G1 X-32.895 Y-163.439
G1 X-32.854 Y-163.417
G1 X-32.802 Y-163.388
G1 X-32.761 Y-163.365
G1 X-32.611 Y-163.274
G1 X-32.57 Y-163.248
G1 X-32.512 Y-163.21
G1 X-32.472 Y-163.183
G1 X-32.419 Y-163.146
G1 X-32.379 Y-163.118
G1 X-32.273 Y-163.04
G1 X-32.234 Y-163.01
G1 X-32.215 Y-162.995
G1 X-32.177 Y-162.965
G1 X-32.031 Y-162.845
G1 X-31.993 Y-162.812
G1 X-31.961 Y-162.783
G1 X-31.925 Y-162.75
G1 X-31.855 Y-162.685
G1 X-31.819 Y-162.651
G1 X-31.738 Y-162.57
G1 X-31.704 Y-162.535
G1 X-31.631 Y-162.457
G1 X-31.599 Y-162.421
G1 X-31.512 Y-162.321
G1 X-31.481 Y-162.284
G1 X-31.426 Y-162.216
G1 X-31.397 Y-162.179
G1 X-31.311 Y-162.064
G1 X-31.283 Y-162.026
G1 X-31.192 Y-161.891
G1 X-31.167 Y-161.852
G1 X-31.121 Y-161.778
G1 X-31.098 Y-161.74
G1 X-31.004 Y-161.573
G1 X-30.984 Y-161.534
G1 X-30.899 Y-161.359
G1 X-30.881 Y-161.319
G1 X-30.823 Y-161.182
G1 X-30.808 Y-161.143
G1 X-30.738 Y-160.945
G1 X-30.726 Y-160.906
G1 X-30.693 Y-160.798
G1 X-30.665 Y-160.688
G1 X-30.655 Y-160.649
G3 X-30.606 Y-160.403 I-3.087 J0.744
G1 X-30.6 Y-160.364
G1 X-30.574 Y-160.159
G1 X-30.569 Y-160.104
G1 X-30.558 Y-159.93
G1 X-30.556 Y-159.874
G1 X-30.554 Y-159.727
G1 Y-159.67
G1 X-30.559 Y-159.523
G1 X-30.562 Y-159.465
G1 X-30.571 Y-159.34
G1 X-30.577 Y-159.28
G1 X-30.591 Y-159.16
G1 X-30.599 Y-159.1
G1 X-30.616 Y-158.986
G1 X-30.626 Y-158.925
G1 X-30.647 Y-158.817
G1 X-30.66 Y-158.756
G1 X-30.68 Y-158.666
G1 X-30.694 Y-158.604
G1 X-30.717 Y-158.515
G1 X-30.733 Y-158.453
G1 X-30.758 Y-158.366
G1 X-30.776 Y-158.304
G1 X-30.797 Y-158.238
G1 X-30.817 Y-158.175
G1 X-30.845 Y-158.092
G1 X-30.867 Y-158.03
G1 X-30.892 Y-157.962
G1 X-30.916 Y-157.9
G1 X-30.938 Y-157.842
G1 X-30.963 Y-157.78
G1 X-30.986 Y-157.723
G1 X-31.013 Y-157.661
G1 X-31.041 Y-157.596
G1 X-31.069 Y-157.535
G1 X-31.097 Y-157.474
G1 X-31.126 Y-157.414
G1 X-31.154 Y-157.356
G1 X-31.183 Y-157.297
G1 X-31.211 Y-157.243
G1 X-31.242 Y-157.185
G1 X-31.269 Y-157.135
G1 X-31.3 Y-157.078
G1 X-31.326 Y-157.031
G1 X-31.358 Y-156.975
G1 X-31.384 Y-156.931
G1 X-31.416 Y-156.876
G1 X-31.452 Y-156.817
G1 X-31.485 Y-156.764
G1 X-31.507 Y-156.729
G1 X-31.929 Y-156.07
G1 X-31.943 Y-156.049
G1 X-32.371 Y-155.393
G1 X-32.382 Y-155.376
G1 X-32.814 Y-154.722
G1 X-32.825 Y-154.706
G1 X-33.262 Y-154.054
G1 X-33.27 Y-154.042
G1 X-33.71 Y-153.391
G1 X-33.717 Y-153.381
G1 X-34.16 Y-152.731
G1 X-34.167 Y-152.721
G1 X-34.613 Y-152.073
G1 X-34.618 Y-152.066
G1 X-35.066 Y-151.419
G1 X-35.068 Y-151.415
G1 X-35.517 Y-150.768
G1 X-35.518 Y-150.767
G1 X-35.967 Y-150.12
G1 X-36.417 Y-149.472
G1 X-36.864 Y-148.829
G1 X-37.308 Y-148.188
G1 X-37.749 Y-147.547
G1 X-38.186 Y-146.907
G1 X-38.619 Y-146.27
G1 X-39.046 Y-145.631
G1 X-39.469 Y-144.995
G1 X-39.884 Y-144.359
G1 X-40.294 Y-143.722
G1 X-40.696 Y-143.086
G1 X-41.09 Y-142.45
G1 X-41.476 Y-141.812
G1 X-41.837 Y-141.203
G1 X-41.838 Y-141.198
G1 X-41.843 Y-141.183
G1 X-41.849 Y-141.162
G1 X-41.856 Y-141.133
G1 X-41.864 Y-141.097
G1 X-41.871 Y-141.057
G1 X-41.879 Y-141.011
G1 X-41.885 Y-140.962
G1 X-41.891 Y-140.907
G1 X-41.896 Y-140.85
G1 X-41.9 Y-140.788
G1 X-41.903 Y-140.722
G1 X-41.904 Y-140.662
G1 X-41.842 Y-140.623
G1 X-41.546 Y-140.447
G1 X-41.24 Y-140.27
G1 X-40.929 Y-140.095
G1 X-40.61 Y-139.921
G1 X-40.285 Y-139.746
G1 X-39.956 Y-139.573
G1 X-39.621 Y-139.4
G1 X-39.277 Y-139.225
G1 X-38.93 Y-139.05
G1 X-38.579 Y-138.873
G1 X-38.222 Y-138.695
G1 X-37.865 Y-138.516
G1 X-37.858 Y-138.513
G1 X-37.501 Y-138.333
G1 X-37.499 Y-138.332
G1 X-37.142 Y-138.152
G1 X-37.127 Y-138.144
G1 X-36.771 Y-137.962
G1 X-36.754 Y-137.953
G1 X-36.399 Y-137.769
G1 X-36.382 Y-137.76
G1 X-36.029 Y-137.574
G1 X-36.004 Y-137.56
G1 X-35.653 Y-137.371
G1 X-35.626 Y-137.357
G1 X-35.278 Y-137.165
G1 X-35.25 Y-137.149
G1 X-34.905 Y-136.954
G1 X-34.864 Y-136.931
G1 X-34.521 Y-136.731
G1 X-34.486 Y-136.71
G1 X-34.147 Y-136.506
G1 X-34.143 Y-136.504
G1 X-34.02 Y-136.43
G1 X-33.902 Y-136.359
G1 X-33.774 Y-136.284
G1 X-33.767 Y-136.28
G1 X-33.635 Y-136.202
G1 X-33.502 Y-136.124
G1 X-33.488 Y-136.115
G1 X-33.353 Y-136.034
G1 X-33.337 Y-136.025
G1 X-33.201 Y-135.943
G1 X-33.181 Y-135.931
G1 X-33.046 Y-135.848
G1 X-33.023 Y-135.834
G1 X-32.889 Y-135.75
G1 X-32.848 Y-135.724
G1 X-32.715 Y-135.638
G1 X-32.672 Y-135.609
G1 X-32.541 Y-135.521
G1 X-32.493 Y-135.489
G1 X-32.364 Y-135.399
G1 X-32.3 Y-135.353
G1 X-32.173 Y-135.26
G1 X-32.12 Y-135.22
G1 X-31.996 Y-135.125
G1 X-31.938 Y-135.079
G1 X-31.818 Y-134.982
G1 X-31.732 Y-134.911
G1 X-31.615 Y-134.81
G1 X-31.551 Y-134.753
G1 X-31.438 Y-134.65
G1 X-31.349 Y-134.565
G1 X-31.24 Y-134.458
G1 X-31.149 Y-134.364
G1 X-31.046 Y-134.253
G1 X-30.955 Y-134.151
G1 X-30.856 Y-134.036
G1 X-30.774 Y-133.936
G1 X-30.681 Y-133.818
G1 X-30.582 Y-133.685
G1 X-30.495 Y-133.562
G1 X-30.402 Y-133.423
G1 X-30.322 Y-133.295
G1 X-30.236 Y-133.151
G1 X-30.162 Y-133.019
G1 X-30.117 Y-132.934
G1 X-29.326 Y-131.412
G1 X-29.319 Y-131.398
G1 X-28.535 Y-129.87
G1 X-28.528 Y-129.856
G1 X-27.751 Y-128.322
G1 X-27.745 Y-128.311
G1 X-26.973 Y-126.773
G1 X-26.968 Y-126.762
G1 X-26.202 Y-125.22
G1 X-26.196 Y-125.208
G1 X-25.435 Y-123.661
G1 X-25.43 Y-123.651
G1 X-24.674 Y-122.1
G1 X-24.67 Y-122.092
G1 X-23.918 Y-120.538
G1 X-23.914 Y-120.53
G1 X-23.166 Y-118.973
G1 X-23.162 Y-118.964
G1 X-22.418 Y-117.403
G1 X-22.415 Y-117.398
G1 X-21.674 Y-115.836
G1 X-21.671 Y-115.829
G1 X-20.933 Y-114.264
G1 X-20.931 Y-114.259
G1 X-20.195 Y-112.692
G1 X-20.194 Y-112.688
G1 X-19.46 Y-111.12
G1 X-19.459 Y-111.116
G1 X-18.727 Y-109.547
G1 X-18.726 Y-109.544
G1 X-17.996 Y-107.973
G1 X-17.995 Y-107.972
G1 X-17.266 Y-106.402
G1 Y-106.4
G1 X-16.538 Y-104.829
G1 X-15.81 Y-103.259
G1 X-15.082 Y-101.69
G1 X-14.355 Y-100.122
G1 X-13.627 Y-98.557
G1 X-12.898 Y-96.994
G1 X-12.167 Y-95.431
G1 X-12.069 Y-95.221
G1 X-12.066 Y-95.214
G1 X-11.968 Y-95.004
G1 X-11.964 Y-94.996
G1 X-11.867 Y-94.785
G1 X-11.863 Y-94.777
G1 X-11.767 Y-94.566
G1 X-11.763 Y-94.557
G1 X-11.667 Y-94.346
G1 X-11.661 Y-94.333
G1 X-11.566 Y-94.122
G1 X-11.561 Y-94.109
G1 X-11.467 Y-93.897
G1 X-11.461 Y-93.885
G1 X-11.368 Y-93.672
G1 X-11.362 Y-93.657
G1 X-11.27 Y-93.444
G1 X-11.263 Y-93.428
G1 X-11.172 Y-93.215
G1 X-11.165 Y-93.198
G1 X-11.075 Y-92.984
G1 X-11.067 Y-92.965
G1 X-10.979 Y-92.751
G1 X-10.972 Y-92.732
G1 X-10.885 Y-92.517
G1 X-10.876 Y-92.495
G1 X-10.791 Y-92.28
G1 X-10.783 Y-92.259
G1 X-10.699 Y-92.043
G1 X-10.69 Y-92.019
G1 X-10.608 Y-91.802
G1 X-10.599 Y-91.778
G1 X-10.519 Y-91.561
G1 X-10.51 Y-91.535
G1 X-10.431 Y-91.317
G1 X-10.422 Y-91.29
G1 X-10.346 Y-91.072
G1 X-10.336 Y-91.043
G1 X-10.262 Y-90.824
G1 X-10.252 Y-90.794
G1 X-10.18 Y-90.574
G1 X-10.17 Y-90.544
G1 X-10.101 Y-90.323
G1 X-10.09 Y-90.29
G1 X-10.023 Y-90.069
G1 X-10.013 Y-90.035
G1 X-9.948 Y-89.813
G1 X-9.942 Y-89.793
G1 X-9.521 Y-88.317
G1 X-9.52 Y-88.311
G1 X-9.102 Y-86.833
G1 X-9.1 Y-86.828
G1 X-8.684 Y-85.349
G1 X-8.683 Y-85.344
G1 X-8.27 Y-83.865
G1 X-8.268 Y-83.86
G1 X-7.857 Y-82.38
G1 X-7.856 Y-82.375
G1 X-7.447 Y-80.894
G1 X-7.446 Y-80.89
G1 X-7.039 Y-79.408
G1 X-7.038 Y-79.404
G1 X-6.633 Y-77.922
G1 X-6.632 Y-77.918
G1 X-6.228 Y-76.435
G1 X-6.227 Y-76.431
G1 X-5.826 Y-74.948
G1 X-5.825 Y-74.944
G1 X-5.425 Y-73.46
G1 X-5.424 Y-73.457
G1 X-5.026 Y-71.973
G1 X-5.025 Y-71.97
G1 X-4.628 Y-70.485
G1 X-4.627 Y-70.483
G1 X-4.231 Y-68.997
G1 Y-68.995
G1 X-3.836 Y-67.509
G1 X-3.835 Y-67.507
G1 X-3.442 Y-66.021
G1 X-3.441 Y-66.02
G1 X-3.048 Y-64.534
G1 Y-64.532
G1 X-2.656 Y-63.046
G1 X-2.655 Y-63.045
G1 X-2.264 Y-61.558
G1 Y-61.557
G1 X-1.873 Y-60.071
G1 X-1.482 Y-58.584
G1 X-1.092 Y-57.097
G1 X-0.701 Y-55.61
G1 X-0.311 Y-54.124
G1 Y-54.122
G1 X-0.271 Y-53.969
G1 X-0.27 Y-53.964
G1 X-0.23 Y-53.811
G1 X-0.228 Y-53.803
G1 X-0.188 Y-53.649
G1 X-0.186 Y-53.641
G1 X-0.147 Y-53.487
G1 X-0.144 Y-53.476
G1 X-0.105 Y-53.322
G1 X-0.102 Y-53.31
G1 X-0.064 Y-53.155
G1 X-0.061 Y-53.141
G1 X-0.023 Y-52.987
G1 X-0.02 Y-52.971
G1 X0.017 Y-52.816
G1 X0.021 Y-52.798
G1 X0.057 Y-52.643
G1 X0.061 Y-52.624
G1 X0.096 Y-52.469
G1 X0.101 Y-52.448
G1 X0.135 Y-52.292
G1 X0.139 Y-52.269
G1 X0.172 Y-52.114
G1 X0.177 Y-52.088
G1 X0.208 Y-51.932
G1 X0.211 Y-51.919
G1 Z-7.62
G1 X0.214 Y-51.906
G1 X0.244 Y-51.75
G1 X0.249 Y-51.721
G1 X0.277 Y-51.565
G1 X0.283 Y-51.534
G1 X0.31 Y-51.378
G1 X0.315 Y-51.345
G1 X0.341 Y-51.189
G1 X0.346 Y-51.154
G1 X0.369 Y-50.997
G1 X0.375 Y-50.961
G1 X0.397 Y-50.804
G1 X0.402 Y-50.766
G1 X0.421 Y-50.608
G1 X0.426 Y-50.568
G1 X0.444 Y-50.41
G1 X0.449 Y-50.369
G1 X0.464 Y-50.211
G1 X0.468 Y-50.166
G1 X0.482 Y-50.009
G1 X0.485 Y-49.962
G1 X0.497 Y-49.804
G1 X0.498 Y-49.779
G1 X0.628 Y-47.715
G1 Y-47.711
G1 X0.755 Y-45.647
G1 Y-45.643
G1 X0.88 Y-43.579
G1 Y-43.575
G1 X1.002 Y-41.511
G1 Y-41.507
G1 X1.122 Y-39.442
G1 X1.123 Y-39.439
G1 X1.24 Y-37.374
G1 X1.241 Y-37.371
G1 X1.357 Y-35.305
G1 Y-35.303
G1 X1.471 Y-33.237
G1 Y-33.234
G1 X1.584 Y-31.168
G1 Y-31.166
G1 X1.695 Y-29.1
G1 Y-29.098
G1 X1.805 Y-27.032
G1 Y-27.03
G1 X1.913 Y-24.963
G1 Y-24.962
G1 X2.021 Y-22.895
G1 Y-22.894
G1 X2.127 Y-20.827
G1 X2.128 Y-20.826
G1 X2.233 Y-18.759
G1 Y-18.758
G1 X2.338 Y-16.692
G1 X2.443 Y-14.624
G1 X2.547 Y-12.557
G1 X2.651 Y-10.49
G1 X2.754 Y-8.424
G1 X2.858 Y-6.357
G1 X2.962 Y-4.292
G1 X3.066 Y-2.226
G1 X3.17 Y-0.172
G1 X3.172 Y-0.15
G1 X3.173 Y-0.129
G1 X3.176 Y-0.096
G1 X3.179 Y-0.053
G1 X3.184 Y-0.001
G1 Y0.001
G1 X3.189 Y0.058
G1 X3.19 Y0.069
G1 X3.194 Y0.125
G1 X3.196 Y0.146
G1 X3.2 Y0.202
G1 X3.202 Y0.232
G1 X3.206 Y0.288
G1 X3.208 Y0.327
G1 X3.211 Y0.383
G1 X3.214 Y0.432
G1 X3.216 Y0.488
G1 X3.217 Y0.547
G1 X3.218 Y0.603
G1 X3.219 Y0.673
G1 Y0.728
G1 X3.218 Y0.811
G1 X3.216 Y0.865
G1 X3.212 Y0.96
G1 X3.209 Y1.014
G1 X3.201 Y1.123
G1 X3.196 Y1.175
G1 X3.182 Y1.299
G1 X3.175 Y1.35
G1 X3.153 Y1.49
G1 X3.144 Y1.54
G1 X3.112 Y1.696
G1 X3.101 Y1.745
G1 X3.056 Y1.918
G1 X3.042 Y1.965
G1 X2.98 Y2.155
G1 X2.964 Y2.2
G1 X2.882 Y2.404
G1 X2.863 Y2.448
G1 X2.812 Y2.557
G1 X2.758 Y2.664
G1 X2.736 Y2.705
G3 X2.603 Y2.93 I-2.799 J-1.498
G1 X2.578 Y2.969
G1 X2.465 Y3.133
G1 X2.427 Y3.184
G1 X2.353 Y3.28
G1 X2.312 Y3.331
G1 X2.24 Y3.418
G1 X2.196 Y3.469
G1 X2.125 Y3.549
G1 X2.078 Y3.6
G1 X2.008 Y3.674
G1 X1.959 Y3.724
G1 X1.888 Y3.793
G1 X1.837 Y3.842
G1 X1.767 Y3.907
G1 X1.713 Y3.955
G1 X1.643 Y4.017
G1 X1.587 Y4.064
G1 X1.516 Y4.123
G1 X1.459 Y4.169
G1 X1.386 Y4.225
G1 X1.327 Y4.269
G1 X1.253 Y4.323
G1 X1.192 Y4.367
G1 X1.117 Y4.419
G1 X1.054 Y4.46
G1 X0.976 Y4.51
G1 X0.913 Y4.55
G1 X0.832 Y4.599
G1 X0.767 Y4.637
G1 X0.682 Y4.685
G1 X0.617 Y4.72
G1 X0.528 Y4.767
G1 X0.462 Y4.8
G1 X0.368 Y4.845
G1 X0.301 Y4.876
G1 X0.203 Y4.92
G1 X0.135 Y4.949
G1 X0.03 Y4.991
G1 X-0.038 Y5.017
G1 X-0.15 Y5.057
G1 X-0.218 Y5.08
G1 X-0.337 Y5.118
G1 X-0.406 Y5.139
G1 X-0.533 Y5.173
G1 X-0.602 Y5.191
G1 X-0.739 Y5.222
G1 X-0.807 Y5.236
G1 X-0.955 Y5.263
G1 X-1.023 Y5.273
G1 X-1.124 Y5.287
G1 X-1.424 Y5.324
G1 X-1.467 Y5.329
G1 X-1.768 Y5.362
G1 X-1.808 Y5.367
G1 X-2.11 Y5.396
G1 X-2.147 Y5.399
G1 X-2.451 Y5.425
G1 X-2.485 Y5.428
G1 X-2.79 Y5.451
G1 X-2.822 Y5.453
G1 X-3.128 Y5.472
G1 X-3.157 Y5.474
G1 X-3.464 Y5.491
G1 X-3.491 Y5.492
G1 X-3.798 Y5.507
G1 X-3.822 Y5.508
G1 X-4.13 Y5.52
G1 X-4.152
G1 X-4.461 Y5.53
G1 X-4.48 Y5.531
G1 X-4.79 Y5.539
G1 X-4.807
G1 X-5.116 Y5.545
G1 X-5.131 Y5.546
G1 X-5.441 Y5.551
G1 X-5.453
G1 X-5.763 Y5.555
G1 X-5.773
G1 X-6.084 Y5.557
G1 X-6.091 Y5.558
G1 X-6.402 Y5.56
G1 X-6.407
G1 X-6.717 Y5.561
G1 X-6.72
G1 X-7.031 Y5.563
G1 X-7.34 Y5.564
G1 X-7.647 Y5.565
G1 X-7.951 Y5.567
G1 X-8.253 Y5.57
G1 X-8.551 Y5.573
G1 X-8.843 Y5.578
G1 X-8.946 Y5.58
G1 X-9.049 Y5.583
G1 X-9.158 Y5.587
G1 X-9.271 Y5.591
G1 X-9.39 Y5.595
G1 X-9.513 Y5.6
G1 X-9.516
G1 X-9.639 Y5.605
G1 X-9.647 Y5.606
G1 X-9.77 Y5.61
G1 X-9.782
G1 X-9.906 Y5.615
G1 X-9.923
G1 X-10.047 Y5.618
G1 X-10.069 Y5.619
G1 X-10.192 Y5.621
G1 X-10.219 Y5.622
G1 X-10.343 Y5.623
G1 X-10.375 Y5.624
G1 X-10.498
G1 X-10.535
G1 X-10.658 Y5.622
G1 X-10.7
G1 X-10.823 Y5.619
G1 X-10.87 Y5.617
G1 X-10.993 Y5.613
G1 X-11.045 Y5.61
G1 X-11.167 Y5.604
G1 X-11.225 Y5.6
G1 X-11.346 Y5.591
G1 X-11.409 Y5.586
G1 X-11.53 Y5.575
G1 X-11.598 Y5.568
G1 X-11.719 Y5.554
G1 X-11.792 Y5.545
G1 X-11.912 Y5.528
G1 X-11.989 Y5.516
G1 X-12.109 Y5.497
G1 X-12.191 Y5.482
G1 X-12.311 Y5.46
G1 X-12.397 Y5.442
G1 X-12.516 Y5.416
G1 X-12.565 Y5.405
G1 X-13.636 Y5.153
G1 X-13.644 Y5.151
G1 X-14.715 Y4.897
G1 X-14.723 Y4.895
G1 X-15.794 Y4.638
G1 X-15.801 Y4.636
G1 X-16.872 Y4.376
G1 X-16.878 Y4.375
G1 X-17.949 Y4.112
G1 X-17.955 Y4.111
G1 X-19.025 Y3.846
G1 X-19.032 Y3.845
G1 X-20.101 Y3.578
G1 X-20.107 Y3.576
G1 X-21.177 Y3.307
G1 X-21.182 Y3.306
G1 X-22.252 Y3.035
G1 X-22.257 Y3.033
G1 X-23.326 Y2.761
G1 X-23.331 Y2.759
G1 X-24.399 Y2.485
G1 X-24.404 Y2.483
G1 X-25.472 Y2.207
G1 X-25.477 Y2.206
G1 X-26.545 Y1.928
G1 X-26.549 Y1.927
G1 X-27.617 Y1.648
G1 X-27.621 Y1.647
G1 X-28.688 Y1.366
G1 X-28.691 Y1.365
G1 X-29.759 Y1.083
G1 X-29.762 Y1.082
G1 X-30.829 Y0.799
G1 X-30.832 Y0.798
G1 X-31.898 Y0.514
G1 X-31.901
G1 X-32.967 Y0.229
G1 X-32.969 Y0.228
G1 X-34.035 Y-0.057
G1 X-34.037 Y-0.058
G1 X-35.103 Y-0.344
G1 X-35.105 Y-0.345
G1 X-36.17 Y-0.632
G1 X-36.172
G1 X-37.237 Y-0.92
G1 X-37.238
G1 X-38.302 Y-1.208
G1 X-40.38 Y-1.769
G1 X-42.457 Y-2.332
G1 X-44.535 Y-2.894
G1 X-46.612 Y-3.458
G1 X-46.613
G1 X-48.69 Y-4.022
G1 X-48.691
G1 X-50.768 Y-4.587
G1 X-50.769 Y-4.588
G1 X-52.845 Y-5.153
G1 X-52.847 Y-5.154
G1 X-54.923 Y-5.72
G1 X-54.925 Y-5.721
G1 X-57 Y-6.289
G1 X-57.002
G1 X-59.077 Y-6.858
G1 X-59.079 Y-6.859
G1 X-61.154 Y-7.429
G1 X-61.156 Y-7.43
G1 X-63.231 Y-8.001
G1 X-63.233 Y-8.002
G1 X-65.307 Y-8.575
G1 X-65.31 Y-8.576
G1 X-67.383 Y-9.151
G1 X-67.386
G1 X-69.459 Y-9.728
G1 X-69.462 Y-9.729
G1 X-71.534 Y-10.307
G1 X-71.537 Y-10.308
G1 X-73.608 Y-10.888
G1 X-73.611 Y-10.889
G1 X-75.682 Y-11.471
G1 X-75.686 Y-11.472
G1 X-77.756 Y-12.057
G1 X-77.759 Y-12.058
G1 X-79.829 Y-12.644
G1 X-79.832 Y-12.645
G1 X-81.901 Y-13.234
G1 X-81.904 Y-13.235
G1 X-83.972 Y-13.827
G1 X-83.976 Y-13.828
G1 X-86.043 Y-14.421
G1 X-86.047 Y-14.423
G1 X-88.113 Y-15.019
G1 X-88.131 Y-15.025
G1 X-88.347 Y-15.088
G1 X-88.382 Y-15.099
G1 X-88.597 Y-15.165
G1 X-88.629 Y-15.175
G1 X-88.843 Y-15.243
G1 X-88.874 Y-15.254
G1 X-89.087 Y-15.324
G1 X-89.119 Y-15.335
G1 X-89.332 Y-15.408
G1 X-89.361 Y-15.418
G1 X-89.573 Y-15.493
G1 X-89.602 Y-15.504
G1 X-89.813 Y-15.581
G1 X-89.84 Y-15.591
G1 X-90.051 Y-15.67
G1 X-90.078 Y-15.68
G1 X-90.288 Y-15.761
G1 X-90.312 Y-15.77
G1 X-90.521 Y-15.853
G1 X-90.547 Y-15.864
G1 X-90.756 Y-15.948
G1 X-90.779 Y-15.958
G1 X-90.987 Y-16.044
G1 X-91.01 Y-16.054
G1 X-91.217 Y-16.142
G1 X-91.238 Y-16.15
G1 X-91.445 Y-16.24
G1 X-91.466 Y-16.249
G1 X-91.672 Y-16.34
G1 X-91.691 Y-16.348
G1 X-91.896 Y-16.441
G1 X-91.916 Y-16.449
G1 X-92.121 Y-16.543
G1 X-92.14 Y-16.552
G1 X-92.344 Y-16.647
G1 X-92.36 Y-16.654
G1 X-92.563 Y-16.75
G1 X-92.579 Y-16.758
G1 X-92.782 Y-16.855
G1 X-92.798 Y-16.862
G1 X-93 Y-16.961
G1 X-93.014 Y-16.968
G1 X-93.216 Y-17.067
G1 X-93.23 Y-17.073
G1 X-93.431 Y-17.173
G1 X-93.443 Y-17.18
G1 X-93.643 Y-17.28
G1 X-93.658 Y-17.288
G1 X-94.11 Y-17.518
G1 X-94.126 Y-17.526
G1 X-94.577 Y-17.759
G1 X-94.592 Y-17.767
G1 X-95.041 Y-18.002
G1 X-95.055 Y-18.009
G1 X-95.503 Y-18.247
G1 X-95.516 Y-18.253
G1 X-95.963 Y-18.493
G1 X-95.975 Y-18.499
G1 X-96.422 Y-18.741
G1 X-96.432 Y-18.746
G1 X-96.878 Y-18.989
G1 X-96.887 Y-18.994
G1 X-97.332 Y-19.239
G1 X-97.34 Y-19.243
G1 X-97.784 Y-19.489
G1 X-97.791 Y-19.493
G1 X-98.235 Y-19.74
G1 X-98.241 Y-19.743
G1 X-98.684 Y-19.991
G1 X-98.689 Y-19.994
G1 X-99.132 Y-20.243
G1 X-99.136 Y-20.245
G1 X-99.578 Y-20.494
G1 X-99.582 Y-20.496
G1 X-100.024 Y-20.746
G1 X-100.467 Y-20.996
G1 X-100.91 Y-21.246
G1 X-101.351 Y-21.495
G1 X-101.792 Y-21.744
G1 X-102.232 Y-21.991
G1 X-102.67 Y-22.237
G1 X-103.108 Y-22.481
G1 X-103.545 Y-22.724
G1 X-103.983 Y-22.965
G1 X-104.424 Y-23.208
G1 X-104.432 Y-23.212
G1 X-104.557 Y-23.281
G1 X-104.581 Y-23.294
G1 X-104.706 Y-23.365
G1 X-104.732 Y-23.38
G1 X-104.856 Y-23.451
G1 X-104.871 Y-23.46
G1 X-104.995 Y-23.532
G1 X-105.007 Y-23.539
G1 X-105.131 Y-23.612
G1 X-105.137 Y-23.615
G1 X-105.261 Y-23.689
G1 X-105.268 Y-23.693
G1 X-105.392 Y-23.767
G1 X-105.516 Y-23.84
G1 X-105.524 Y-23.845
G1 X-105.639 Y-23.914
G1 X-105.747 Y-23.978
G1 X-105.861 Y-24.044
G1 X-105.971 Y-24.108
G1 X-106.074 Y-24.167
G1 X-106.177 Y-24.225
G1 X-106.268 Y-24.275
G1 X-106.362 Y-24.324
G1 X-106.451 Y-24.371
G1 X-106.533 Y-24.411
G1 X-106.62 Y-24.452
G1 X-106.694 Y-24.487
G1 X-106.761 Y-24.516
G1 X-106.832 Y-24.545
G1 X-106.895 Y-24.569
G1 X-106.957 Y-24.591
G1 X-107.01 Y-24.609
G1 X-107.067 Y-24.626
G1 X-107.129 Y-24.644
G1 X-107.191 Y-24.661
G1 X-107.253 Y-24.676
G1 X-107.324 Y-24.693
G1 X-107.397 Y-24.708
G1 X-107.471 Y-24.723
G1 X-107.549 Y-24.737
G1 X-107.63 Y-24.751
G1 X-107.711 Y-24.763
G1 X-107.796 Y-24.775
G1 X-107.883 Y-24.787
G1 X-107.974 Y-24.797
G1 X-108.067 Y-24.807
G1 X-108.16 Y-24.816
G1 X-108.257 Y-24.825
G1 X-108.354 Y-24.832
G1 X-108.454 Y-24.84
G1 X-108.556 Y-24.846
G1 X-108.659 Y-24.852
G1 X-108.765 Y-24.857
G1 X-108.871 Y-24.862
G1 X-108.968 Y-24.866
G1 X-109.106 Y-24.869
G1 X-109.238 Y-24.871
G1 X-109.375
G1 X-109.516 Y-24.868
G1 X-109.663 Y-24.864
G1 X-109.813 Y-24.858
G1 X-109.967 Y-24.851
G1 X-110.127 Y-24.842
G1 X-110.291 Y-24.832
G1 X-110.459 Y-24.82
G1 X-110.631 Y-24.808
G1 X-110.809 Y-24.795
G1 X-110.989 Y-24.782
G1 X-110.992
G1 X-111.175 Y-24.768
G1 X-111.179
G1 X-111.361 Y-24.755
G1 X-111.373 Y-24.754
G1 X-111.555 Y-24.742
G1 X-111.567 Y-24.741
G1 X-111.749 Y-24.729
G1 X-111.769 Y-24.728
G1 X-111.95 Y-24.717
G1 X-111.974 Y-24.716
G1 X-112.156 Y-24.707
G1 X-112.184 Y-24.706
G1 X-112.366 Y-24.698
G1 X-112.399 Y-24.697
G1 X-112.581 Y-24.691
G1 X-112.615 Y-24.69
G1 X-112.796 Y-24.686
