(1001)
(T1  D=6.35 CR=0 - ZMIN=-7.62 - FLAT END MILL)
G0 G40 G90 G17
G21

(2D CONTOUR2)
T1 M6
M3 S5000
G0 X1.082 Y-36.527
G0 Z6.096
G1 Z4.191 F508.
G1 Z-4.064
G1 X1.085 Y-36.513
G1 X1.106 Y-36.404
G1 X1.111 Y-36.375
G1 X1.131 Y-36.266
G1 X1.137 Y-36.236
G1 X1.156 Y-36.126
G1 X1.161 Y-36.093
G1 X1.179 Y-35.984
G1 X1.184 Y-35.95
G1 X1.201 Y-35.84
G1 X1.206 Y-35.803
G1 X1.221 Y-35.693
G1 X1.226 Y-35.655
G1 X1.24 Y-35.545
G1 X1.245 Y-35.505
G1 X1.257 Y-35.395
G1 X1.262 Y-35.352
G1 X1.273 Y-35.242
G1 X1.277 Y-35.198
G1 X1.286 Y-35.087
G1 X1.29 Y-35.041
G1 X1.298 Y-34.93
G1 X1.299 Y-34.905
G1 X1.39 Y-33.46
G1 Y-33.456
G1 X1.479 Y-32.011
G1 X1.48 Y-32.008
G1 X1.567 Y-30.563
G1 Y-30.559
G1 X1.652 Y-29.114
G1 X1.653 Y-29.11
G1 X1.737 Y-27.665
G1 Y-27.662
G1 X1.819 Y-26.216
G1 Y-26.213
G1 X1.901 Y-24.767
G1 Y-24.764
G1 X1.981 Y-23.318
G1 Y-23.316
G1 X2.06 Y-21.87
G1 Y-21.867
G1 X2.138 Y-20.421
G1 Y-20.419
G1 X2.215 Y-18.973
G1 Y-18.971
G1 X2.291 Y-17.524
G1 Y-17.523
G1 X2.366 Y-16.076
G1 Y-16.075
G1 X2.44 Y-14.628
G1 X2.441 Y-14.627
G1 X2.515 Y-13.18
G1 Y-13.179
G1 X2.588 Y-11.733
G1 X2.661 Y-10.285
G1 X2.734 Y-8.838
G1 X2.807 Y-7.391
G1 X2.879 Y-5.944
G1 X2.952 Y-4.498
G1 X3.025 Y-3.052
G1 X3.098 Y-1.606
G1 X3.17 Y-0.172
G1 X3.171 Y-0.166
G1 Y-0.161
G1 X3.172 Y-0.144
G1 X3.175 Y-0.118
G1 X3.178 Y-0.082
G1 Y-0.08
G1 X3.181 Y-0.041
G1 X3.182 Y-0.029
G1 X3.185 Y0.01
G1 X3.187 Y0.03
G1 X3.19 Y0.07
G1 X3.192 Y0.1
G1 X3.195 Y0.139
G1 X3.197 Y0.178
G1 X3.199 Y0.217
G1 X3.201 Y0.266
G1 X3.203 Y0.305
G1 X3.205 Y0.365
G1 Y0.404
G1 X3.206 Y0.474
G1 Y0.512
G1 X3.204 Y0.595
G1 X3.203 Y0.633
G1 X3.199 Y0.728
G1 X3.197 Y0.765
G1 X3.189 Y0.874
G1 X3.185 Y0.911
G1 X3.171 Y1.035
G1 X3.167 Y1.071
G1 X3.145 Y1.21
G1 X3.139 Y1.245
G1 X3.107 Y1.402
G1 X3.099 Y1.436
G1 X3.054 Y1.609
G1 X3.044 Y1.642
G1 X2.982 Y1.831
G1 X2.971 Y1.863
G1 X2.889 Y2.067
G1 X2.876 Y2.098
G1 X2.825 Y2.207
G1 X2.77 Y2.314
G1 X2.755 Y2.343
G3 X2.623 Y2.567 I-2.799 J-1.498
G1 X2.605 Y2.595
G1 X2.491 Y2.759
G1 X2.465 Y2.795
G1 X2.391 Y2.891
G1 X2.363 Y2.926
G1 X2.29 Y3.014
G1 X2.26 Y3.049
G1 X2.188 Y3.13
G1 X2.155 Y3.165
G1 X2.085 Y3.239
G1 X2.051 Y3.274
G1 X1.98 Y3.344
G1 X1.944 Y3.378
G1 X1.874 Y3.443
G1 X1.836 Y3.477
G1 X1.766 Y3.539
G1 X1.727 Y3.572
G1 X1.656 Y3.63
G1 X1.616 Y3.662
G1 X1.543 Y3.718
G1 X1.502 Y3.75
G1 X1.428 Y3.804
G1 X1.385 Y3.834
G1 X1.31 Y3.886
G1 X1.266 Y3.915
G1 X1.188 Y3.965
G1 X1.144 Y3.993
G1 X1.062 Y4.042
G1 X1.017 Y4.069
G1 X0.933 Y4.116
G1 X0.887 Y4.141
G1 X0.798 Y4.187
G1 X0.752 Y4.211
G1 X0.659 Y4.256
G1 X0.611 Y4.278
G1 X0.513 Y4.321
G1 X0.465 Y4.341
G1 X0.361 Y4.383
G1 X0.313 Y4.402
G1 X0.202 Y4.442
G1 X0.154 Y4.458
G1 X0.035 Y4.496
G1 X-0.014 Y4.51
G1 X-0.141 Y4.545
G1 X-0.189 Y4.557
G1 X-0.326 Y4.588
G1 X-0.374 Y4.598
G1 X-0.521 Y4.625
G1 X-0.568 Y4.632
G1 X-0.67 Y4.647
G1 X-0.88 Y4.672
G1 X-0.923 Y4.677
G1 X-1.133 Y4.701
G1 X-1.173 Y4.705
G1 X-1.385 Y4.725
G1 X-1.422 Y4.729
G1 X-1.635 Y4.747
G1 X-1.669 Y4.749
G1 X-1.882 Y4.765
G1 X-1.914 Y4.767
G1 X-2.128 Y4.781
G1 X-2.158 Y4.783
G1 X-2.372 Y4.795
G1 X-2.399 Y4.796
G1 X-2.614 Y4.806
G1 X-2.639 Y4.807
G1 X-2.854 Y4.815
G1 X-2.876 Y4.816
G1 X-3.092 Y4.823
G1 X-3.112 Y4.824
G1 X-3.328 Y4.829
G1 X-3.345 Y4.83
G1 X-3.562 Y4.834
G1 X-3.576
G1 X-3.793 Y4.838
G1 X-3.806
G1 X-4.023 Y4.841
G1 X-4.033
G1 X-4.25 Y4.843
G1 X-4.257
G1 X-4.475 Y4.844
G1 X-4.48
G1 X-4.697 Y4.845
G1 X-4.7
G1 X-4.917 Y4.846
G1 X-5.134 Y4.847
G1 X-5.348 Y4.848
G1 X-5.559 Y4.85
G1 X-5.767 Y4.851
G1 X-5.973 Y4.854
G1 X-6.173 Y4.857
G1 X-6.238 Y4.858
G1 X-6.305 Y4.86
G1 X-6.377 Y4.862
G1 X-6.454 Y4.865
G1 X-6.536 Y4.869
G1 X-6.621 Y4.872
G1 X-6.624
G1 X-6.71 Y4.875
G1 X-6.718 Y4.876
G1 X-6.804 Y4.879
G1 X-6.816
G1 X-6.903 Y4.882
G1 X-6.92 Y4.883
G1 X-7.007 Y4.885
G1 X-7.029 Y4.886
G1 X-7.115 Y4.887
G1 X-7.143 Y4.888
G1 X-7.229 Y4.889
G1 X-7.261
G1 X-7.347
G1 X-7.384
G1 X-7.47 Y4.888
G1 X-7.512 Y4.887
G1 X-7.598 Y4.885
G1 X-7.645 Y4.884
G1 X-7.731 Y4.881
G1 X-7.783 Y4.878
G1 X-7.869 Y4.874
G1 X-7.926 Y4.87
G1 X-8.012 Y4.864
G1 X-8.074 Y4.859
G1 X-8.159 Y4.851
G1 X-8.227 Y4.844
G1 X-8.311 Y4.834
G1 X-8.384 Y4.825
G1 X-8.468 Y4.813
G1 X-8.545 Y4.802
G1 X-8.63 Y4.788
G1 X-8.712 Y4.774
G1 X-8.795 Y4.758
G1 X-8.882 Y4.74
G1 X-8.965 Y4.722
G1 X-9.013 Y4.711
G1 X-9.763 Y4.535
G1 X-9.771 Y4.533
G1 X-10.521 Y4.355
G1 X-10.528 Y4.353
G1 X-11.278 Y4.173
G1 X-11.285 Y4.171
G1 X-12.035 Y3.989
G1 X-12.042 Y3.987
G1 X-12.791 Y3.804
G1 X-12.797 Y3.802
G1 X-13.546 Y3.617
G1 X-13.553 Y3.615
G1 X-14.301 Y3.429
G1 X-14.307 Y3.427
G1 X-15.056 Y3.239
G1 X-15.062 Y3.237
G1 X-15.81 Y3.048
G1 X-15.815 Y3.046
G1 X-16.564 Y2.855
G1 X-16.569 Y2.854
G1 X-17.317 Y2.662
G1 X-17.321 Y2.661
G1 X-18.069 Y2.467
G1 X-18.074 Y2.466
G1 X-18.821 Y2.271
G1 X-18.825 Y2.27
G1 X-19.573 Y2.075
G1 X-19.577 Y2.074
G1 X-20.324 Y1.877
G1 X-20.327 Y1.876
G1 X-21.074 Y1.679
G1 X-21.078 Y1.678
G1 X-21.824 Y1.48
G1 X-21.827 Y1.479
G1 X-22.574 Y1.281
G1 X-22.576 Y1.28
G1 X-23.323 Y1.08
G1 X-23.325
G1 X-24.071 Y0.88
G1 X-24.073 Y0.879
G1 X-24.819 Y0.679
G1 X-24.821 Y0.678
G1 X-25.567 Y0.478
G1 X-25.568 Y0.477
G1 X-26.314 Y0.276
G1 X-26.315
G1 X-27.06 Y0.074
G1 X-28.515 Y-0.319
G1 X-29.969 Y-0.713
G1 X-31.423 Y-1.107
G1 X-32.878 Y-1.501
G1 X-32.879 Y-1.502
G1 X-34.333 Y-1.896
G1 X-34.334 Y-1.897
G1 X-35.787 Y-2.292
G1 X-35.789
G1 X-37.242 Y-2.688
G1 X-37.244 Y-2.689
G1 X-38.697 Y-3.085
G1 X-38.699 Y-3.086
G1 X-40.152 Y-3.483
G1 X-40.153 Y-3.484
G1 X-41.606 Y-3.882
G1 X-41.608 Y-3.883
G1 X-43.06 Y-4.282
G1 X-43.063
G1 X-44.515 Y-4.683
G1 X-44.517
G1 X-45.969 Y-5.085
G1 X-45.971
G1 X-47.423 Y-5.488
G1 X-47.425
G1 X-48.876 Y-5.892
G1 X-48.879 Y-5.893
G1 X-50.33 Y-6.298
G1 X-50.333
G1 X-51.783 Y-6.705
G1 X-51.786
G1 X-53.236 Y-7.113
G1 X-53.239 Y-7.114
G1 X-54.688 Y-7.523
G1 X-54.691 Y-7.524
G1 X-56.14 Y-7.935
G1 X-56.143 Y-7.936
G1 X-57.592 Y-8.348
G1 X-57.595 Y-8.349
G1 X-59.042 Y-8.763
G1 X-59.046 Y-8.764
G1 X-60.493 Y-9.18
G1 X-60.497 Y-9.181
G1 X-61.943 Y-9.598
G1 X-61.963 Y-9.604
G1 X-62.114 Y-9.649
G1 X-62.147 Y-9.659
G1 X-62.297 Y-9.705
G1 X-62.33 Y-9.715
G1 X-62.48 Y-9.763
G1 X-62.513 Y-9.774
G1 X-62.662 Y-9.823
G1 X-62.692 Y-9.833
G1 X-62.84 Y-9.884
G1 X-62.871 Y-9.895
G1 X-63.019 Y-9.947
G1 X-63.047 Y-9.957
G1 X-63.195 Y-10.011
G1 X-63.222 Y-10.022
G1 X-63.37 Y-10.077
G1 X-63.398 Y-10.087
G1 X-63.545 Y-10.144
G1 X-63.57 Y-10.154
G1 X-63.717 Y-10.212
G1 X-63.739 Y-10.221
G1 X-63.885 Y-10.28
G1 X-63.91 Y-10.291
G1 X-64.056 Y-10.351
G1 X-64.079 Y-10.36
G1 X-64.224 Y-10.422
G1 X-64.245 Y-10.431
G1 X-64.39 Y-10.494
G1 X-64.411 Y-10.503
G1 X-64.555 Y-10.566
G1 X-64.575 Y-10.575
G1 X-64.718 Y-10.64
G1 X-64.737 Y-10.648
G1 X-64.88 Y-10.714
G1 X-64.899 Y-10.722
G1 X-65.041 Y-10.789
G1 X-65.058 Y-10.796
G1 X-65.2 Y-10.863
G1 X-65.217 Y-10.872
G1 X-65.359 Y-10.94
G1 X-65.374 Y-10.947
G1 X-65.516 Y-11.015
G1 X-65.531 Y-11.023
G1 X-65.672 Y-11.092
G1 X-65.685 Y-11.099
G1 X-65.826 Y-11.169
G1 X-65.837 Y-11.174
G1 X-65.977 Y-11.245
G1 X-65.993 Y-11.253
G1 X-66.309 Y-11.414
G1 X-66.325 Y-11.422
G1 X-66.641 Y-11.585
G1 X-66.655 Y-11.593
G1 X-66.97 Y-11.757
G1 X-66.985 Y-11.765
G1 X-67.299 Y-11.931
G1 X-67.311 Y-11.938
G1 X-67.624 Y-12.105
G1 X-67.634 Y-12.111
G1 X-67.947 Y-12.28
G1 X-67.959 Y-12.286
G1 X-68.271 Y-12.456
G1 X-68.28 Y-12.461
G1 X-68.591 Y-12.633
G1 X-68.598 Y-12.637
G1 X-68.91 Y-12.809
G1 X-68.918 Y-12.813
G1 X-69.228 Y-12.986
G1 X-69.234 Y-12.989
G1 X-69.544 Y-13.163
G1 X-69.549 Y-13.165
G1 X-69.859 Y-13.34
G1 X-69.862 Y-13.341
G1 X-70.172 Y-13.516
G1 X-70.175 Y-13.518
G1 X-70.485 Y-13.692
G1 X-70.486 Y-13.693
G1 X-70.796 Y-13.868
G1 X-71.105 Y-14.043
G1 X-71.414 Y-14.217
G1 X-71.722 Y-14.391
G1 X-72.028 Y-14.563
G1 X-72.334 Y-14.735
G1 X-72.639 Y-14.905
G1 X-72.943 Y-15.074
G1 X-73.246 Y-15.241
G1 X-73.554 Y-15.41
G1 X-73.562 Y-15.414
G1 X-73.649 Y-15.462
G1 X-73.679 Y-15.479
G1 X-73.766 Y-15.528
G1 X-73.784 Y-15.538
G1 X-73.871 Y-15.588
G1 X-73.888 Y-15.598
G1 X-73.975 Y-15.649
G1 X-73.99 Y-15.657
G1 X-74.076 Y-15.708
G1 X-74.083 Y-15.712
G1 X-74.17 Y-15.764
G1 X-74.176 Y-15.767
G1 X-74.263 Y-15.819
G1 X-74.264
G1 X-74.35 Y-15.871
G1 X-74.431 Y-15.919
G1 X-74.509 Y-15.965
G1 X-74.583 Y-16.009
G1 X-74.653 Y-16.049
G1 X-74.721 Y-16.088
G1 X-74.784 Y-16.123
G1 X-74.841 Y-16.155
G1 X-74.896 Y-16.184
G1 X-74.947 Y-16.21
G1 X-74.993 Y-16.233
G1 X-75.034 Y-16.252
G1 X-75.071 Y-16.269
G1 X-75.106 Y-16.285
G1 X-75.133 Y-16.296
G1 X-75.158 Y-16.305
G1 X-75.182 Y-16.314
G1 X-75.196 Y-16.319
G1 X-75.218 Y-16.325
G1 X-75.243 Y-16.333
G1 X-75.271 Y-16.34
G1 X-75.302 Y-16.348
G1 X-75.335 Y-16.355
G1 X-75.37 Y-16.363
G1 X-75.408 Y-16.37
G1 X-75.448 Y-16.378
G1 X-75.491 Y-16.385
G1 X-75.537 Y-16.392
G1 X-75.585 Y-16.399
G1 X-75.636 Y-16.405
G1 X-75.69 Y-16.412
G1 X-75.743 Y-16.417
G1 X-75.799 Y-16.423
G1 X-75.859 Y-16.428
G1 X-75.92 Y-16.433
G1 X-75.982 Y-16.437
G1 X-76.046 Y-16.441
G1 X-76.111 Y-16.445
G1 X-76.178 Y-16.448
G1 X-76.249 Y-16.452
G1 X-76.311 Y-16.454
G1 X-76.394 Y-16.456
G1 X-76.471 Y-16.457
G1 X-76.553
G1 X-76.64 Y-16.456
G1 X-76.732 Y-16.453
G1 X-76.827 Y-16.449
G1 X-76.927 Y-16.444
G1 X-77.033 Y-16.438
G1 X-77.142 Y-16.432
G1 X-77.256 Y-16.424
G1 X-77.374 Y-16.416
G1 X-77.496 Y-16.407
G1 X-77.623 Y-16.397
G1 X-77.751 Y-16.388
G1 X-77.756
G1 X-77.883 Y-16.378
G1 X-77.896 Y-16.377
G1 X-78.023 Y-16.369
G1 X-78.038 Y-16.368
G1 X-78.165 Y-16.36
G1 X-78.183 Y-16.359
G1 X-78.31 Y-16.351
G1 X-78.335 Y-16.35
G1 X-78.462 Y-16.344
G1 X-78.487 Y-16.342
G1 X-78.614 Y-16.337
G1 X-78.649 Y-16.336
G1 X-78.776 Y-16.332
G1 X-78.813 Y-16.331
G1 X-78.94 Y-16.328
G1 X-78.98
G1 X-79.107 Y-16.327
G1 X-79.152
G1 X-79.279 Y-16.328
G1 X-79.31
G1 X-79.357 Y-16.329
G1 X-79.384
G1 X-79.432 Y-16.331
G1 X-79.458
G1 X-79.506 Y-16.333
G1 X-79.531 Y-16.334
G1 X-79.579 Y-16.336
G1 X-79.606 Y-16.337
G1 X-79.654 Y-16.34
G1 X-79.686 Y-16.341
G1 X-79.734 Y-16.344
G1 X-79.767 Y-16.346
G1 X-79.815 Y-16.35
G1 X-79.854 Y-16.353
G1 X-79.902 Y-16.357
G1 X-79.935 Y-16.36
G1 X-79.984 Y-16.364
G1 X-80.029 Y-16.369
G1 X-80.077 Y-16.374
G1 X-80.117 Y-16.378
G1 X-80.165 Y-16.384
G1 X-80.218 Y-16.391
G1 X-80.266 Y-16.398
G1 X-80.313 Y-16.405
G1 X-80.361 Y-16.412
G1 X-80.409 Y-16.42
G1 X-80.456 Y-16.428
G1 X-80.517 Y-16.439
G1 X-80.564 Y-16.447
G1 X-80.619 Y-16.458
G1 X-80.666 Y-16.468
G1 X-80.73 Y-16.482
G1 X-80.777 Y-16.493
G1 X-80.838 Y-16.507
G1 X-80.884 Y-16.519
G1 X-80.955 Y-16.537
G1 X-81.001 Y-16.55
G1 X-81.074 Y-16.571
G1 X-81.119 Y-16.584
G1 X-81.19 Y-16.607
G1 X-81.234 Y-16.621
G1 X-81.308 Y-16.646
G1 X-81.352 Y-16.662
G1 X-81.44 Y-16.694
G1 X-81.483 Y-16.711
G1 X-81.565 Y-16.744
G1 X-81.607 Y-16.762
G1 X-81.681 Y-16.794
G1 X-81.722 Y-16.813
G1 X-81.792 Y-16.845
G1 X-81.833 Y-16.865
G1 X-81.88 Y-16.888
G1 X-81.921 Y-16.908
G1 X-81.989 Y-16.943
G1 X-82.03 Y-16.965
G1 X-82.083 Y-16.994
G1 X-82.124 Y-17.017
G1 X-82.183 Y-17.05
G1 X-82.224 Y-17.074
G1 X-82.277 Y-17.106
G1 X-82.318 Y-17.131
G1 X-82.365 Y-17.16
G1 X-82.406 Y-17.186
G1 X-82.468 Y-17.226
G1 X-82.507 Y-17.253
G1 X-82.557 Y-17.287
G1 X-82.597 Y-17.314
G1 X-82.646 Y-17.349
G1 X-82.685 Y-17.377
G1 X-82.738 Y-17.417
G1 X-82.777 Y-17.446
G1 X-82.829 Y-17.486
G1 X-82.867 Y-17.516
G1 X-82.925 Y-17.563
G1 X-82.962 Y-17.593
G1 X-83.008 Y-17.632
G1 X-83.044 Y-17.664
G1 X-83.097 Y-17.71
G1 X-83.132 Y-17.742
G1 X-83.187 Y-17.793
G1 X-83.221 Y-17.825
G1 X-83.276 Y-17.878
G1 X-83.309 Y-17.911
G1 X-83.36 Y-17.962
G1 X-83.392 Y-17.996
G1 X-83.449 Y-18.056
G1 X-83.48 Y-18.091
G1 X-83.537 Y-18.154
G1 X-83.567 Y-18.188
G1 X-83.623 Y-18.254
G1 X-83.651 Y-18.29
G1 X-83.707 Y-18.359
G1 X-83.734 Y-18.395
G1 X-83.792 Y-18.472
G1 X-83.818 Y-18.508
G1 X-83.884 Y-18.601
G1 X-83.907 Y-18.636
G1 X-83.98 Y-18.749
G1 X-84.002 Y-18.785
G1 X-84.061 Y-18.885
G1 X-84.082 Y-18.922
G1 X-84.136 Y-19.023
G1 X-84.156 Y-19.061
G1 X-84.203 Y-19.157
G1 X-84.222 Y-19.195
G1 X-84.262 Y-19.284
G1 X-84.28 Y-19.324
G1 X-84.315 Y-19.408
G1 X-84.331 Y-19.448
G1 X-84.361 Y-19.525
G1 X-84.377 Y-19.566
G1 X-84.402 Y-19.638
G1 X-84.417 Y-19.679
G1 X-84.441 Y-19.751
G1 X-84.454 Y-19.793
G1 X-84.473 Y-19.855
G1 X-84.486 Y-19.898
G1 X-84.503 Y-19.958
G1 X-84.515 Y-20.001
G1 X-84.528 Y-20.046
G1 X-84.539 Y-20.089
G1 X-84.55 Y-20.134
G1 X-84.561 Y-20.178
G1 X-84.572 Y-20.223
G1 X-84.582 Y-20.267
G1 X-84.591 Y-20.309
G1 X-84.6 Y-20.353
G1 X-84.606 Y-20.381
G1 X-84.616 Y-20.425
G1 X-84.62 Y-20.445
G1 X-84.629 Y-20.489
G1 X-84.635 Y-20.522
G1 X-84.643 Y-20.566
G1 X-84.646 Y-20.579
G1 X-84.654 Y-20.623
G1 X-84.656 Y-20.635
G1 X-84.664 Y-20.679
G1 X-84.666 Y-20.689
G1 X-84.673 Y-20.733
G1 X-84.675 Y-20.742
G1 X-84.681 Y-20.779
G1 X-84.688 Y-20.817
G1 X-84.696 Y-20.865
G1 X-84.704 Y-20.911
G1 X-84.717 Y-21.001
G1 X-84.723 Y-21.047
G1 X-84.732 Y-21.123
G1 X-84.737 Y-21.169
G1 X-84.744 Y-21.245
G1 X-84.748 Y-21.291
G1 X-84.753 Y-21.353
G1 X-84.756 Y-21.4
G1 X-84.759 Y-21.454
G1 X-84.761 Y-21.501
G1 X-84.763 Y-21.549
G1 X-84.764 Y-21.596
G1 X-84.765 Y-21.63
G1 X-84.766 Y-21.677
G1 X-84.767 Y-21.717
G1 Y-21.764
G1 Y-21.778
G1 X-84.768 Y-21.825
G1 Y-21.845
G1 Y-21.892
G1 Y-21.899
G1 X-84.767 Y-21.943
G1 Y-21.971
G1 X-84.793 Y-22.012
G1 X-84.8 Y-22.023
G1 X-87.718 Y-23.697
G1 X-90.924 Y-25.531
G1 X-94.134 Y-27.362
G1 X-97.347 Y-29.189
G1 X-100.562 Y-31.014
G1 X-103.78 Y-32.836
G1 X-107.001 Y-34.656
G1 X-110.222 Y-36.475
G1 X-113.446 Y-38.292
G1 X-116.67 Y-40.109
G1 X-119.895 Y-41.925
G1 X-123.122 Y-43.741
G1 X-126.349 Y-45.557
G1 X-129.575 Y-47.374
G1 X-132.801 Y-49.191
G1 X-132.803 Y-49.192
G1 X-136.028 Y-51.011
G1 X-136.029 Y-51.012
G1 X-139.252 Y-52.832
G1 X-139.254 Y-52.833
G1 X-142.476 Y-54.655
G1 X-142.478 Y-54.656
G1 X-145.698 Y-56.481
G1 X-145.701 Y-56.482
G1 X-148.919 Y-58.31
G1 X-148.922 Y-58.312
G1 X-152.137 Y-60.142
G1 X-152.14 Y-60.144
G1 X-155.353 Y-61.978
G1 X-155.357 Y-61.98
G1 X-158.567 Y-63.817
G1 X-158.571 Y-63.82
G1 X-161.777 Y-65.662
G1 X-161.821 Y-65.688
G1 X-161.9 Y-65.735
G1 X-161.991 Y-65.791
G1 X-162.068 Y-65.841
G1 X-162.142 Y-65.889
G1 X-162.218 Y-65.941
G1 X-162.303 Y-66.002
G1 X-162.377 Y-66.056
G1 X-162.455 Y-66.115
G1 X-162.527 Y-66.171
G1 X-162.588 Y-66.22
G1 X-162.659 Y-66.278
G1 X-162.712 Y-66.323
G1 X-162.782 Y-66.383
G1 X-162.849 Y-66.442
G1 X-162.917 Y-66.504
G1 X-162.947 Y-66.532
G1 X-163.015 Y-66.595
G1 X-163.076 Y-66.653
G1 X-163.142 Y-66.718
G1 X-163.182 Y-66.758
G1 X-163.247 Y-66.824
G1 X-163.283 Y-66.862
G1 X-163.347 Y-66.93
G1 X-163.382 Y-66.967
G1 X-163.445 Y-67.035
G1 X-163.477 Y-67.071
G1 X-163.539 Y-67.14
G1 X-163.568 Y-67.173
G1 X-163.629 Y-67.243
G1 X-163.639 Y-67.255
G1 X-163.7 Y-67.326
G1 X-163.741 Y-67.374
G1 X-163.8 Y-67.446
G1 X-163.807 Y-67.454
G1 X-163.866 Y-67.526
G1 X-163.87 Y-67.531
G1 X-163.929 Y-67.604
G1 X-163.948 Y-67.627
G1 X-164.006 Y-67.7
G1 X-164.023 Y-67.721
G1 X-164.137 Y-67.866
G1 X-164.15 Y-67.883
G1 X-164.204 Y-67.953
G1 X-164.259 Y-68.023
G1 X-164.271 Y-68.039
G1 X-164.316 Y-68.097
G1 X-164.376 Y-68.178
G1 X-164.419 Y-68.237
G1 X-164.452 Y-68.284
G1 X-164.494 Y-68.345
G1 X-164.546 Y-68.423
G1 X-164.586 Y-68.484
G1 X-164.597 Y-68.502
G1 X-164.637 Y-68.564
G1 X-164.685 Y-68.642
G1 X-164.723 Y-68.705
G1 X-164.731 Y-68.718
G1 X-164.769 Y-68.782
G1 X-164.795 Y-68.827
G1 X-164.832 Y-68.892
G1 X-164.855 Y-68.933
G1 X-164.891 Y-68.998
G1 X-164.913 Y-69.038
G1 X-164.948 Y-69.104
G1 X-164.954 Y-69.115
G1 X-164.989 Y-69.181
G1 X-165.008 Y-69.218
G1 X-165.042 Y-69.284
G1 X-165.046 Y-69.291
G1 X-165.08 Y-69.358
G1 X-165.097 Y-69.393
G1 X-165.123 Y-69.445
G1 X-165.149 Y-69.497
G1 X-165.167 Y-69.532
G1 X-165.192 Y-69.583
G1 X-165.217 Y-69.633
G1 X-165.232 Y-69.664
G1 X-165.257 Y-69.714
G1 X-165.281 Y-69.761
G1 X-165.312 Y-69.823
G1 X-165.335 Y-69.866
G1 X-165.358 Y-69.909
G1 X-165.379 Y-69.95
G1 X-165.397 Y-69.981
G1 X-165.424 Y-70.029
G1 X-165.472 Y-70.117
G1 X-165.504 Y-70.179
G1 X-165.509 Y-70.19
G1 X-165.541 Y-70.252
G1 X-165.566 Y-70.301
G1 X-165.597 Y-70.363
G1 X-165.619 Y-70.407
G1 X-165.644 Y-70.46
G1 X-165.646 Y-70.459
G1 X-165.68 Y-70.443
G1 X-165.72 Y-70.424
G1 X-165.751 Y-70.41
G1 X-165.799 Y-70.388
G1 X-165.847 Y-70.367
G1 X-165.896 Y-70.345
G1 X-165.948 Y-70.322
G1 X-165.97 Y-70.312
G1 X-166.021 Y-70.291
G1 X-166.095 Y-70.26
G1 X-166.147 Y-70.24
G1 X-166.187 Y-70.224
G1 X-166.238 Y-70.204
G1 X-166.333 Y-70.17
G1 X-166.385 Y-70.152
G1 X-166.463 Y-70.126
G1 X-166.514 Y-70.11
G1 X-166.633 Y-70.074
G1 X-166.685 Y-70.06
G1 X-166.802 Y-70.03
G1 X-166.854 Y-70.018
G1 X-166.986 Y-69.99
G1 X-167.037 Y-69.98
G1 X-167.203 Y-69.953
G1 X-167.256 Y-69.946
G1 X-167.421 Y-69.928
G1 X-167.473 Y-69.924
G1 X-167.627 Y-69.915
G1 X-167.671 Y-69.913
G1 X-167.793 Y-69.912
G1 X-167.837
G1 X-167.95 Y-69.914
G1 X-167.995 Y-69.916
G1 X-168.12 Y-69.924
G1 X-168.164 Y-69.927
G1 X-168.248 Y-69.935
G1 X-168.294 Y-69.94
G1 X-168.405 Y-69.954
G1 X-168.45 Y-69.96
G1 X-168.545 Y-69.975
G1 X-168.59 Y-69.983
G1 X-168.664 Y-69.996
G1 X-168.71 Y-70.006
G1 X-168.809 Y-70.027
G1 X-168.854 Y-70.037
G1 X-168.922 Y-70.054
G1 X-168.968 Y-70.065
G1 X-169.054 Y-70.088
G1 X-169.099 Y-70.101
G1 X-169.167 Y-70.122
G1 X-169.212 Y-70.135
G1 X-169.253 Y-70.149
G1 X-169.299 Y-70.163
G1 X-169.379 Y-70.19
G1 X-169.424 Y-70.206
G1 X-169.499 Y-70.234
G1 X-169.543 Y-70.25
G1 X-169.572 Y-70.262
G1 X-169.617 Y-70.28
G1 X-169.686 Y-70.307
G1 X-169.73 Y-70.326
G1 X-169.793 Y-70.354
G1 X-169.836 Y-70.373
G1 X-169.85 Y-70.379
G1 X-169.894 Y-70.399
G1 X-169.958 Y-70.429
G1 X-170.001 Y-70.449
G1 X-170.049 Y-70.473
G1 X-170.091 Y-70.494
G1 X-170.151 Y-70.524
G1 X-170.189 Y-70.544
G1 X-170.227 Y-70.565
G1 X-170.305 Y-70.607
G1 X-170.345 Y-70.629
G1 X-170.352 Y-70.633
G1 X-173.004 Y-72.127
G1 X-175.657 Y-73.622
G1 X-178.31 Y-75.117
G1 X-180.962 Y-76.612
G1 X-183.615 Y-78.109
G1 X-186.268 Y-79.606
G1 X-188.919 Y-81.104
G1 X-191.571 Y-82.603
G1 X-194.223 Y-84.102
G1 X-196.874 Y-85.602
G1 X-196.876 Y-85.603
G1 X-199.526 Y-87.103
G1 X-199.527 Y-87.104
G1 X-202.176 Y-88.606
G1 X-204.826 Y-90.109
G1 X-204.828 Y-90.11
G1 X-207.476 Y-91.613
G1 X-210.125 Y-93.118
G1 X-210.126 Y-93.119
G1 X-212.773 Y-94.625
G1 X-212.774 Y-94.626
G1 X-215.42 Y-96.133
G1 X-215.421
G1 X-218.067 Y-97.642
G1 X-218.068
G1 X-220.713 Y-99.151
G1 X-220.716 Y-99.153
G1 X-223.359 Y-100.664
G1 X-226.003 Y-102.176
G1 X-226.004 Y-102.177
G1 X-228.646 Y-103.69
G1 X-228.648 Y-103.691
G1 X-231.289 Y-105.206
G1 X-231.29 Y-105.207
G1 X-233.93 Y-106.723
G1 X-233.949 Y-106.734
G1 X-234.069 Y-106.804
G1 X-234.086 Y-106.813
G1 X-234.206 Y-106.884
G1 X-234.249 Y-106.911
G1 X-234.368 Y-106.984
G1 X-234.378 Y-106.99
G1 X-234.496 Y-107.063
G1 X-234.529 Y-107.083
G1 X-234.647 Y-107.158
G1 X-234.674 Y-107.175
G1 X-234.791 Y-107.251
G1 X-234.817 Y-107.269
G1 X-234.933 Y-107.346
G1 X-234.964 Y-107.367
G1 X-235.08 Y-107.446
G1 X-235.091 Y-107.453
G1 X-235.206 Y-107.532
G1 X-235.247 Y-107.561
G1 X-235.361 Y-107.642
G1 X-235.387 Y-107.66
G1 X-235.5 Y-107.742
G1 X-235.511 Y-107.75
G1 X-235.623 Y-107.832
G1 X-235.652 Y-107.854
G1 X-235.764 Y-107.938
G1 X-235.789 Y-107.957
G1 X-235.9 Y-108.042
G1 X-235.926 Y-108.062
G1 X-236.036 Y-108.148
G1 X-236.074 Y-108.179
G1 X-236.183 Y-108.267
G1 X-236.195 Y-108.276
G1 X-236.303 Y-108.364
G1 X-236.327 Y-108.384
G1 X-236.434 Y-108.473
G1 X-236.448 Y-108.484
G1 X-236.555 Y-108.574
G1 X-236.59 Y-108.605
G1 X-236.695 Y-108.696
G1 X-236.721 Y-108.718
G1 X-236.826 Y-108.811
G1 X-236.849 Y-108.831
G1 X-236.952 Y-108.924
G1 X-236.964 Y-108.936
G1 X-237.067 Y-109.03
G1 X-237.102 Y-109.062
G1 X-237.203 Y-109.157
G1 X-237.214 Y-109.167
G1 X-237.842 Y-109.763
G1 X-237.845 Y-109.767
G1 X-238.472 Y-110.364
G1 X-238.474 Y-110.365
G1 X-239.101 Y-110.963
G1 X-239.107 Y-110.969
G1 X-239.732 Y-111.568
G1 X-239.736 Y-111.571
G1 X-240.361 Y-112.172
G1 X-240.366 Y-112.178
G1 X-240.989 Y-112.78
G1 X-240.991 Y-112.782
G1 X-241.614 Y-113.385
G1 X-241.616 Y-113.386
G1 X-242.238 Y-113.989
G1 X-242.244 Y-113.995
G1 X-242.865 Y-114.6
G1 X-242.868 Y-114.603
G1 X-243.488 Y-115.209
G1 X-243.492 Y-115.213
G1 X-244.111 Y-115.82
G1 X-244.115 Y-115.824
G1 X-244.733 Y-116.432
G1 X-244.735 Y-116.434
G1 X-245.353 Y-117.043
G1 X-245.358 Y-117.048
G1 X-246.59 Y-118.268
G1 X-246.594 Y-118.272
G1 X-247.209 Y-118.883
G1 X-247.212 Y-118.886
G1 X-247.826 Y-119.498
G1 X-247.83 Y-119.502
G1 X-248.443 Y-120.115
G1 X-248.447 Y-120.119
G1 X-249.059 Y-120.733
G1 X-249.061 Y-120.734
G1 X-249.672 Y-121.348
G1 X-249.675 Y-121.352
G1 X-250.895 Y-122.582
G1 X-250.899 Y-122.586
G1 X-251.508 Y-123.202
G1 X-251.512 Y-123.206
G1 X-252.119 Y-123.822
G1 X-252.132 Y-123.835
G1 X-252.205 Y-123.91
G1 X-252.236 Y-123.942
G1 X-252.307 Y-124.017
G1 X-252.35 Y-124.064
G1 X-252.42 Y-124.141
G1 X-252.464 Y-124.191
G1 X-252.6 Y-124.347
G1 X-252.641 Y-124.394
G1 X-252.708 Y-124.474
G1 X-252.735 Y-124.507
G1 X-252.801 Y-124.588
G1 X-252.831 Y-124.626
G1 X-252.895 Y-124.707
G1 X-252.907 Y-124.722
G1 X-252.971 Y-124.804
G1 X-252.997 Y-124.837
G1 X-253.123 Y-125.003
G1 X-253.163 Y-125.057
G1 X-253.224 Y-125.141
G1 X-253.234 Y-125.156
G1 X-253.356 Y-125.326
G1 X-253.385 Y-125.367
G1 X-253.444 Y-125.452
G1 X-253.454 Y-125.466
G1 X-253.513 Y-125.552
G1 X-253.523 Y-125.566
G1 X-253.582 Y-125.653
G1 X-253.586 Y-125.66
G1 X-253.644 Y-125.746
G1 X-253.654 Y-125.76
G1 X-253.712 Y-125.847
G1 X-253.726 Y-125.868
G1 X-253.84 Y-126.042
G1 X-253.863 Y-126.077
G1 X-253.907 Y-126.148
G1 X-253.953 Y-126.217
G1 X-253.967 Y-126.239
G1 X-254.023 Y-126.326
G1 X-254.024 Y-126.327
G1 X-254.15 Y-126.523
G1 X-254.156 Y-126.533
G1 X-254.281 Y-126.729
G1 X-254.405 Y-126.923
G1 X-254.53 Y-127.118
G1 X-254.536 Y-127.128
G1 X-254.661 Y-127.325
G1 X-254.667 Y-127.335
G1 X-254.791 Y-127.532
G1 X-254.795 Y-127.538
G1 X-255.043 Y-127.934
G1 X-255.049 Y-127.944
G1 X-255.172 Y-128.142
G1 X-255.295 Y-128.34
G1 X-255.311 Y-128.365
G1 X-255.431 Y-128.563
G1 X-255.552 Y-128.761
G1 X-255.564 Y-128.78
G1 X-255.804 Y-129.18
G1 X-255.81 Y-129.191
G1 X-255.929 Y-129.391
G1 X-255.944 Y-129.417
G1 X-256.061 Y-129.618
G1 X-256.064 Y-129.624
G1 X-256.181 Y-129.826
G1 X-256.187 Y-129.836
G1 X-256.303 Y-130.038
G1 X-256.313 Y-130.054
G1 X-256.428 Y-130.257
G1 X-256.439 Y-130.278
G1 X-256.552 Y-130.481
G1 X-256.558 Y-130.491
G1 X-256.67 Y-130.694
G1 X-256.679 Y-130.711
G1 X-256.79 Y-130.915
G1 X-256.799 Y-130.931
G1 X-256.909 Y-131.136
G1 X-256.92 Y-131.157
G1 X-257.028 Y-131.362
G1 X-257.029 Y-131.365
G1 X-257.07 Y-131.443
G1 X-257.093 Y-131.486
G1 X-257.173 Y-131.644
G1 X-257.194 Y-131.687
G1 X-257.233 Y-131.767
G1 X-257.24 Y-131.781
G1 X-257.318 Y-131.943
G1 X-257.351 Y-132.014
G1 X-257.388 Y-132.096
G1 X-257.394 Y-132.109
G1 X-257.431 Y-132.192
G1 X-257.444 Y-132.222
G1 X-257.48 Y-132.305
G1 X-257.505 Y-132.364
G1 X-257.539 Y-132.447
G1 X-257.544 Y-132.46
G1 X-257.578 Y-132.544
G1 X-257.602 Y-132.605
G1 X-257.634 Y-132.689
G1 X-257.657 Y-132.751
G1 X-257.687 Y-132.835
G1 X-257.702 Y-132.878
G1 X-257.731 Y-132.963
G1 X-257.742 Y-132.995
G1 X-257.77 Y-133.08
G1 X-257.797 Y-133.167
G1 X-257.822 Y-133.251
G1 X-257.835 Y-133.294
G1 X-257.859 Y-133.379
G1 X-257.885 Y-133.48
G1 X-257.906 Y-133.565
G1 X-257.915 Y-133.6
G1 X-257.935 Y-133.685
G1 X-257.957 Y-133.789
G1 X-257.974 Y-133.874
G1 X-257.988 Y-133.945
G1 X-258.003 Y-134.03
G1 X-258.02 Y-134.138
G1 X-258.032 Y-134.223
G1 X-258.041 Y-134.296
G1 X-258.051 Y-134.381
G1 X-258.065 Y-134.526
G1 X-258.071 Y-134.61
G1 X-258.074 Y-134.665
G1 X-258.078 Y-134.739
G1 X-258.082 Y-134.826
G1 X-258.084 Y-134.902
G1 X-258.085 Y-134.986
G1 Y-135.062
G1 X-258.083 Y-135.186
G1 X-258.08 Y-135.263
G1 X-258.078 Y-135.304
G1 X-258.074 Y-135.381
G1 X-258.069 Y-135.46
G1 X-258.063 Y-135.538
G1 X-258.055 Y-135.618
G1 X-258.047 Y-135.696
G1 X-258.034 Y-135.81
G1 X-258.023 Y-135.889
G1 X-258.016 Y-135.934
G1 X-258.004 Y-136.012
G1 X-257.991 Y-136.09
G1 X-257.977 Y-136.168
G1 X-257.964 Y-136.237
G1 X-257.948 Y-136.316
G1 X-257.93 Y-136.4
G1 X-257.912 Y-136.478
G1 X-257.901 Y-136.525
G1 X-257.882 Y-136.602
G1 X-257.855 Y-136.703
G1 X-257.833 Y-136.781
G1 X-257.816 Y-136.839
G1 X-257.793 Y-136.915
G1 X-257.77 Y-136.987
G1 X-257.745 Y-137.063
G1 X-257.729 Y-137.111
G1 X-257.703 Y-137.186
G1 X-257.664 Y-137.291
G1 X-257.635 Y-137.366
G1 X-257.611 Y-137.428
G1 X-257.581 Y-137.501
G1 X-257.552 Y-137.569
G1 X-257.52 Y-137.642
G1 X-257.491 Y-137.705
G1 X-257.458 Y-137.776
G1 X-257.394 Y-137.907
G1 X-257.322 Y-138.045
G1 X-257.251 Y-138.173
G1 X-257.212 Y-138.24
G1 X-257.195 Y-138.269
G1 X-256.984 Y-138.623
G1 X-256.972 Y-138.643
G1 X-256.758 Y-138.996
G1 X-256.755 Y-139.002
G1 X-256.54 Y-139.355
G1 X-256.524 Y-139.38
G1 X-256.305 Y-139.732
G1 X-256.301 Y-139.738
G1 X-256.081 Y-140.09
G1 X-256.07 Y-140.108
G1 X-255.848 Y-140.458
G1 X-255.841 Y-140.468
G1 X-255.617 Y-140.818
G1 X-255.61 Y-140.829
G1 X-255.384 Y-141.179
G1 X-255.376 Y-141.192
G1 X-255.149 Y-141.54
G1 X-255.139 Y-141.556
G1 X-254.909 Y-141.904
G1 X-254.901 Y-141.916
G1 X-254.67 Y-142.262
G1 X-254.666 Y-142.267
G1 X-254.434 Y-142.613
G1 X-254.427 Y-142.624
G1 X-254.193 Y-142.97
G1 X-254.185 Y-142.982
G1 X-253.95 Y-143.326
G1 X-253.946 Y-143.331
G1 X-253.71 Y-143.675
G1 X-253.698 Y-143.693
G1 X-253.222 Y-144.377
G1 X-253.212 Y-144.39
G1 X-252.972 Y-144.731
G1 X-252.97 Y-144.735
G1 X-252.73 Y-145.075
G1 X-252.72 Y-145.089
G1 X-252.478 Y-145.428
G1 X-252.476 Y-145.431
G1 X-252.234 Y-145.769
G1 X-252.231 Y-145.773
G1 X-251.989 Y-146.11
G1 X-251.985 Y-146.115
G1 X-251.742 Y-146.452
G1 X-251.733 Y-146.464
G1 X-251.489 Y-146.799
G1 X-251.459 Y-146.84
G1 X-251.395 Y-146.925
G1 X-251.37 Y-146.958
G1 X-251.305 Y-147.042
G1 X-251.253 Y-147.108
G1 X-251.186 Y-147.19
G1 X-251.159 Y-147.222
G1 X-251.091 Y-147.303
G1 X-251.048 Y-147.353
G1 X-250.978 Y-147.433
G1 X-250.95 Y-147.464
G1 X-250.879 Y-147.543
G1 X-250.822 Y-147.605
G1 X-250.749 Y-147.682
G1 X-250.734 Y-147.698
G1 X-250.66 Y-147.775
G1 X-250.646 Y-147.79
G1 X-250.572 Y-147.866
G1 X-250.527 Y-147.911
G1 X-250.451 Y-147.986
G1 X-250.436 Y-148
G1 X-250.359 Y-148.075
G1 X-250.344 Y-148.09
G1 X-250.267 Y-148.164
G1 X-250.237 Y-148.193
G1 X-250.159 Y-148.266
G1 X-250.144 Y-148.28
G1 X-250.065 Y-148.353
G1 X-250.049 Y-148.368
G1 X-249.97 Y-148.44
G1 X-249.891 Y-148.512
G1 X-249.86 Y-148.54
G1 X-249.788 Y-148.603
G1 X-249.716 Y-148.668
G1 X-249.7 Y-148.683
G1 X-249.635 Y-148.74
G1 X-249.572 Y-148.798
G1 X-249.541 Y-148.826
G1 X-249.468 Y-148.89
G1 X-249.397 Y-148.954
G1 X-249.333 Y-149.012
G1 X-249.27 Y-149.07
G1 X-249.26 Y-149.079
G1 X-249.177 Y-149.155
G1 X-249.094 Y-149.231
G1 X-249.079 Y-149.245
G1 X-249.003 Y-149.313
G1 X-248.928 Y-149.382
G1 X-248.899 Y-149.408
G1 X-248.822 Y-149.477
G1 X-248.746 Y-149.546
G1 X-248.732 Y-149.558
G1 X-248.648 Y-149.633
G1 X-248.564 Y-149.708
G1 X-248.55 Y-149.721
G1 X-248.465 Y-149.796
G1 X-248.449 Y-149.81
G1 X-248.279 Y-149.958
G1 X-248.263 Y-149.972
G1 X-248.093 Y-150.118
G1 X-248.079 Y-150.13
G1 X-247.993 Y-150.203
G1 X-247.976 Y-150.216
G1 X-247.89 Y-150.288
G1 X-247.876 Y-150.3
G1 X-247.789 Y-150.372
G1 X-247.702 Y-150.444
G1 X-247.668 Y-150.472
G1 X-247.583 Y-150.54
G1 X-247.497 Y-150.61
G1 X-247.476 Y-150.627
G1 X-247.389 Y-150.696
G1 X-247.379 Y-150.704
G1 X-247.29 Y-150.774
G1 X-247.255 Y-150.801
G1 X-247.077 Y-150.937
G1 X-247.059 Y-150.951
G1 X-246.971 Y-151.016
G1 X-246.92 Y-151.055
G1 X-246.897 Y-151.072
G1 X-246.789 Y-151.152
G1 X-246.735 Y-151.192
G1 X-246.704 Y-151.215
G1 X-246.654 Y-151.251
G1 X-246.603 Y-151.288
G1 X-246.573 Y-151.31
G1 X-246.518 Y-151.349
G1 X-246.463 Y-151.388
G1 X-246.44 Y-151.403
G1 X-246.384 Y-151.442
G1 X-246.353 Y-151.464
G1 X-246.297 Y-151.502
G1 X-246.243 Y-151.538
G1 X-246.186 Y-151.575
G1 X-246.174 Y-151.583
G1 X-246.118 Y-151.619
G1 X-246.075 Y-151.646
G1 X-246.017 Y-151.682
G1 X-245.969 Y-151.711
G1 X-245.912 Y-151.745
G1 X-245.892 Y-151.757
G1 X-245.834 Y-151.791
G1 X-245.762 Y-151.832
G1 X-245.704 Y-151.864
G1 X-245.684 Y-151.875
G1 X-245.625 Y-151.907
G1 X-245.512 Y-151.965
G1 X-245.453 Y-151.994
G1 X-245.434 Y-152.004
G1 X-245.374 Y-152.033
G1 X-245.313 Y-152.061
G1 X-245.254 Y-152.088
G1 X-245.137 Y-152.139
G1 X-245.076 Y-152.164
G1 X-245.051 Y-152.174
G1 X-244.991 Y-152.198
G1 X-244.874 Y-152.242
G1 X-244.812 Y-152.264
G1 X-244.694 Y-152.303
G1 X-244.633 Y-152.322
G1 X-244.61 Y-152.33
G1 X-244.544 Y-152.35
G1 X-244.404 Y-152.388
G1 X-244.337 Y-152.405
G1 X-244.293 Y-152.416
G1 X-244.226 Y-152.432
G1 X-244.173 Y-152.444
G1 X-244.105 Y-152.459
G1 X-244.009 Y-152.479
G1 X-243.94 Y-152.492
G1 X-243.896 Y-152.5
G1 X-243.827 Y-152.512
G1 X-243.776 Y-152.521
G1 X-243.706 Y-152.532
G1 X-243.618 Y-152.544
G1 X-243.548 Y-152.553
G1 X-243.504 Y-152.558
G1 X-243.434 Y-152.566
G1 X-243.385 Y-152.572
G1 X-243.314 Y-152.579
G1 X-243.269 Y-152.583
G1 X-243.198 Y-152.589
G1 X-243.151 Y-152.592
G1 X-243.079 Y-152.597
G1 X-242.993 Y-152.602
G1 X-242.922 Y-152.605
G1 X-242.92
G1 X-242.848 Y-152.608
G1 X-242.76 Y-152.611
G1 X-242.688 Y-152.612
G1 X-242.618 Y-152.613
G1 X-242.573
G1 X-242.501
G1 X-242.456
G1 X-242.385 Y-152.612
G1 X-242.342 Y-152.611
G1 X-242.27 Y-152.609
G1 X-242.224 Y-152.607
G1 X-242.153 Y-152.604
G1 X-242.151
G1 X-242.081 Y-152.601
G1 X-242.038 Y-152.599
G1 X-241.967 Y-152.595
G1 X-241.965
G1 X-241.895 Y-152.591
G1 X-241.847 Y-152.588
G1 X-241.778 Y-152.583
G1 X-241.732 Y-152.579
G1 X-241.663 Y-152.573
G1 X-241.521 Y-152.558
G1 X-241.453 Y-152.549
G1 X-241.356 Y-152.534
G1 X-241.289 Y-152.523
G1 X-241.251 Y-152.517
G1 X-241.183 Y-152.505
G1 X-241.051 Y-152.478
G1 X-240.983 Y-152.463
G1 X-240.973 Y-152.461
G1 X-240.906 Y-152.446
G1 X-240.819 Y-152.425
G1 X-240.752 Y-152.408
G1 X-240.679 Y-152.389
G1 X-240.611 Y-152.37
G1 X-240.599 Y-152.367
G1 X-240.532 Y-152.348
G1 X-240.465 Y-152.329
G1 X-240.423 Y-152.316
G1 X-240.356 Y-152.296
G1 X-240.314 Y-152.284
G1 X-240.268 Y-152.269
G1 X-240.161 Y-152.237
G1 X-240.099 Y-152.219
G1 X-240.087 Y-152.215
G1 X-240.062 Y-152.208
G1 X-240.037 Y-152.201
G1 X-240.024 Y-152.198
G1 X-240.018 Y-152.197
G1 X-239.974 Y-152.194
G1 X-239.953 Y-152.193
G1 X-239.865 Y-152.189
G1 X-239.844 Y-152.188
G1 X-239.823
G1 X-239.778
G1 X-239.756
G1 X-239.733 Y-152.189
G1 X-239.688 Y-152.19
G1 X-239.667
G1 X-239.579 Y-152.195
G1 X-239.557 Y-152.197
G1 X-239.538 Y-152.198
G1 X-239.516 Y-152.201
G1 X-239.472 Y-152.206
G1 X-239.457 Y-152.208
G1 X-239.441 Y-152.21
G1 X-239.434 Y-152.211
G1 X-239.393 Y-152.217
G1 X-239.381 Y-152.219
G1 X-239.356 Y-152.224
G1 X-239.332 Y-152.228
G1 X-239.3 Y-152.235
G1 X-239.287 Y-152.249
G1 X-239.247 Y-152.292
G1 X-239.222 Y-152.321
G1 X-239.197 Y-152.35
G1 X-239.161 Y-152.395
G1 X-239.137 Y-152.424
G1 X-239.114 Y-152.455
G1 X-239.081 Y-152.501
G1 X-239.073 Y-152.511
G1 X-239.055 Y-152.54
G1 X-239.037 Y-152.567
G1 X-239.034 Y-152.572
G1 X-239.022 Y-152.594
G1 X-239.011 Y-152.614
G1 X-238.955 Y-152.777
G1 X-238.898 Y-152.956
G1 X-238.844 Y-153.137
G1 X-238.792 Y-153.327
G1 X-238.739 Y-153.531
G1 X-238.688 Y-153.743
G1 X-238.64 Y-153.95
G1 X-238.593 Y-154.171
G1 X-238.544 Y-154.407
G1 X-238.497 Y-154.644
G1 X-238.451 Y-154.88
G1 X-238.405 Y-155.124
G1 X-238.403 Y-155.136
G1 X-238.354 Y-155.393
G1 X-238.353 Y-155.395
G1 X-238.305 Y-155.65
G1 X-238.256 Y-155.906
G1 X-238.253 Y-155.92
G1 X-238.203 Y-156.176
G1 X-238.198 Y-156.199
G1 X-238.146 Y-156.455
G1 X-238.141 Y-156.481
G1 X-238.087 Y-156.736
G1 X-238.081 Y-156.764
G1 X-238.025 Y-157.017
G1 X-238.017 Y-157.052
G1 X-237.958 Y-157.305
G1 X-237.948 Y-157.345
G1 X-237.886 Y-157.596
G1 X-237.874 Y-157.645
G1 X-237.808 Y-157.895
G1 X-237.79 Y-157.959
G1 X-237.719 Y-158.207
G1 X-237.703 Y-158.262
G1 X-237.628 Y-158.507
G1 X-237.604 Y-158.582
G1 X-237.574 Y-158.672
G1 X-237.564 Y-158.702
G1 X-237.533 Y-158.792
G1 X-237.512 Y-158.851
G1 X-237.479 Y-158.941
G1 X-237.453 Y-159.01
G1 X-237.418 Y-159.099
G1 X-237.39 Y-159.168
G1 X-237.353 Y-159.256
G1 X-237.341 Y-159.284
G1 X-237.303 Y-159.372
G1 X-237.278 Y-159.427
G1 X-237.238 Y-159.515
G1 X-237.22 Y-159.554
G1 X-237.179 Y-159.641
G1 X-237.147 Y-159.708
G1 X-237.104 Y-159.794
G1 X-237.091 Y-159.82
G1 X-237.047 Y-159.906
G1 X-237.02 Y-159.957
G1 X-236.974 Y-160.044
G1 X-236.945 Y-160.096
G1 X-236.898 Y-160.18
G1 X-236.869 Y-160.23
G1 X-236.82 Y-160.314
G1 X-236.812 Y-160.328
G1 X-236.763 Y-160.411
G1 X-236.725 Y-160.474
G1 X-236.674 Y-160.556
G1 X-236.635 Y-160.617
G1 X-236.582 Y-160.698
G1 X-236.572 Y-160.714
G1 X-236.519 Y-160.794
G1 X-236.493 Y-160.832
G1 X-236.439 Y-160.911
G1 X-236.408 Y-160.955
G1 X-236.352 Y-161.034
G1 X-236.33 Y-161.065
G1 X-236.274 Y-161.142
G1 X-236.23 Y-161.201
G1 X-236.172 Y-161.277
G1 X-236.16 Y-161.293
G1 X-236.102 Y-161.368
G1 X-236.056 Y-161.426
G1 X-235.996 Y-161.5
G1 X-235.969 Y-161.533
G1 X-235.909 Y-161.605
G1 X-235.905 Y-161.61
G1 X-235.828 Y-161.702
G1 X-235.791 Y-161.745
G1 X-235.712 Y-161.836
G1 X-235.674 Y-161.879
G1 X-235.512 Y-162.059
G1 X-235.486 Y-162.087
G1 X-235.403 Y-162.177
G1 X-235.366 Y-162.217
G1 X-235.282 Y-162.305
G1 X-235.269 Y-162.319
G1 X-235.184 Y-162.407
G1 X-235.145 Y-162.446
G1 X-235.058 Y-162.533
G1 X-235.045 Y-162.546
G1 X-234.958 Y-162.632
G1 X-234.919 Y-162.67
G1 X-234.83 Y-162.755
G1 X-234.803 Y-162.78
G1 X-234.713 Y-162.864
G1 X-234.687 Y-162.889
G1 X-234.596 Y-162.972
G1 X-234.567 Y-162.998
G1 X-234.476 Y-163.079
G1 X-234.45 Y-163.101
G1 X-234.357 Y-163.182
G1 X-234.315 Y-163.219
G1 X-234.221 Y-163.298
G1 X-234.177 Y-163.334
G1 X-234.082 Y-163.411
G1 X-234.054 Y-163.433
G1 X-233.958 Y-163.509
G1 X-233.929 Y-163.532
G1 X-233.832 Y-163.607
G1 X-233.77 Y-163.654
G1 X-233.672 Y-163.726
G1 X-233.642 Y-163.747
G1 X-233.543 Y-163.818
G1 X-233.526 Y-163.83
G1 X-233.427 Y-163.9
G1 X-233.349 Y-163.954
G1 X-233.248 Y-164.021
G1 X-233.211 Y-164.045
G1 X-233.11 Y-164.11
G1 X-233.079 Y-164.129
G1 X-232.977 Y-164.193
G1 X-232.902 Y-164.239
G1 X-232.751 Y-164.328
G1 X-232.689 Y-164.364
G1 X-232.537 Y-164.449
G1 X-232.486 Y-164.477
G1 X-232.331 Y-164.56
G1 X-232.266 Y-164.594
G1 X-232.11 Y-164.673
G1 X-232.067 Y-164.694
G1 X-231.909 Y-164.771
G1 X-231.866 Y-164.792
G1 X-231.706 Y-164.867
G1 X-231.654 Y-164.89
G1 X-231.493 Y-164.962
G1 X-231.471 Y-164.972
G1 X-231.309 Y-165.043
G1 X-231.273 Y-165.059
G1 X-231.11 Y-165.128
G1 X-231.094 Y-165.134
G1 X-230.931 Y-165.202
G1 X-230.919 Y-165.207
G1 X-230.754 Y-165.275
G1 X-230.723 Y-165.288
G1 X-230.558 Y-165.354
G1 X-230.063 Y-165.552
G1 X-229.906 Y-165.615
G1 X-229.759 Y-165.674
G1 X-229.614 Y-165.735
G1 X-229.479 Y-165.791
G1 X-229.357 Y-165.845
G1 X-229.222 Y-165.906
G1 X-229.101 Y-165.962
G1 X-228.997 Y-166.013
G1 X-228.877 Y-166.073
G1 X-228.842 Y-166.092
G1 X-228.735 Y-166.149
G1 X-228.697 Y-166.17
G1 X-228.652 Y-166.195
G1 X-228.608 Y-166.22
G1 X-228.57 Y-166.243
G1 X-228.525 Y-166.27
G1 X-228.482 Y-166.296
G1 X-228.444 Y-166.32
G1 X-228.4 Y-166.348
G1 X-228.381 Y-166.361
G1 X-228.297 Y-166.419
G1 X-228.269 Y-166.438
G1 X-228.241 Y-166.459
G1 X-228.21 Y-166.482
G1 X-228.183 Y-166.503
G1 X-228.156 Y-166.524
G1 X-228.127 Y-166.548
G1 X-228.099 Y-166.572
G1 X-228.084 Y-166.584
G1 X-228.068 Y-166.599
G1 X-228.04 Y-166.625
G1 X-227.791 Y-166.86
G1 X-227.541 Y-167.1
G1 X-227.293 Y-167.342
G1 X-227.046 Y-167.587
G1 X-226.795 Y-167.84
G1 X-226.545 Y-168.092
G1 X-226.296 Y-168.348
G1 X-226.041 Y-168.611
G1 X-225.786 Y-168.874
G1 X-225.531 Y-169.139
G1 X-225.017 Y-169.675
G1 X-225.013 Y-169.679
G1 X-224.755 Y-169.947
G1 X-224.497 Y-170.215
G1 X-224.489 Y-170.224
G1 X-224.23 Y-170.491
G1 X-224.226 Y-170.495
G1 X-223.967 Y-170.761
G1 X-223.958 Y-170.77
G1 X-223.698 Y-171.035
G1 X-223.686 Y-171.047
G1 X-223.425 Y-171.31
G1 X-223.412 Y-171.323
G1 X-223.15 Y-171.584
G1 X-223.132 Y-171.601
G1 X-222.868 Y-171.86
G1 X-222.855 Y-171.873
G1 X-222.591 Y-172.129
G1 X-222.565 Y-172.155
G1 X-222.298 Y-172.408
G1 X-222.284 Y-172.42
G1 X-222.016 Y-172.671
G1 X-221.989 Y-172.697
G1 X-221.719 Y-172.944
G1 X-221.642 Y-173.012
G1 X-221.614 Y-173.036
G1 X-221.521 Y-173.112
G1 X-221.426 Y-173.185
G1 X-221.396 Y-173.207
G1 X-221.299 Y-173.276
G1 X-221.268 Y-173.297
G1 X-221.17 Y-173.36
G1 X-221.138 Y-173.38
G1 X-221.04 Y-173.439
G1 X-220.941 Y-173.494
G1 X-220.907 Y-173.512
G1 X-220.773 Y-173.579
G1 X-220.739 Y-173.595
G1 X-220.608 Y-173.653
G1 X-220.572 Y-173.668
G1 X-220.502 Y-173.696
G1 X-220.466 Y-173.71
G1 X-220.295 Y-173.771
G1 X-220.258 Y-173.783
G1 X-220.161 Y-173.813
G1 X-220.123 Y-173.824
G1 X-220.048 Y-173.844
G1 X-220.01 Y-173.854
G1 X-219.84 Y-173.894
G1 X-219.801 Y-173.902
G1 X-219.724 Y-173.917
G1 X-219.685 Y-173.924
G1 X-219.528 Y-173.948
G1 X-219.489 Y-173.953
G1 X-219.479 Y-173.954
G1 X-219.439 Y-173.959
G1 X-219.323 Y-173.972
G1 X-219.208 Y-173.98
G1 X-219.13 Y-173.984
G1 X-218.967 Y-173.988
G1 X-218.927
G1 X-218.843 Y-173.987
G1 X-218.805 Y-173.986
G1 X-218.726 Y-173.983
G1 X-218.687 Y-173.981
G1 X-218.518 Y-173.968
G1 X-218.48 Y-173.964
G1 X-218.387 Y-173.952
G1 X-218.35 Y-173.947
G1 X-218.253 Y-173.933
G1 X-218.217 Y-173.927
G1 X-218.133 Y-173.912
G1 X-218.097 Y-173.905
G1 X-217.947 Y-173.872
G1 X-217.845 Y-173.847
G1 X-217.705 Y-173.809
G1 X-217.603 Y-173.779
G1 X-217.53 Y-173.757
G1 X-217.427 Y-173.724
G1 X-217.339 Y-173.694
G1 X-217.237 Y-173.658
G1 X-217.16 Y-173.63
G1 X-217.058 Y-173.591
G1 X-216.973 Y-173.557
G1 X-216.872 Y-173.515
G1 X-216.833 Y-173.498
G1 X-216.742 Y-173.459
G1 X-216.717 Y-173.486
G1 X-216.548 Y-173.669
G1 X-216.386 Y-173.845
G1 X-216.054 Y-174.211
G1 X-215.888 Y-174.397
G1 X-215.882 Y-174.403
G1 X-215.709 Y-174.595
G1 X-215.536 Y-174.787
G1 X-215.364 Y-174.978
G1 X-215.352 Y-174.991
G1 X-215.181 Y-175.179
G1 X-215.011 Y-175.366
G1 X-214.993 Y-175.386
G1 X-214.818 Y-175.576
G1 X-214.813 Y-175.582
G1 X-214.638 Y-175.771
G1 X-214.614 Y-175.797
G1 X-214.437 Y-175.984
G1 X-214.425 Y-175.996
G1 X-214.247 Y-176.182
G1 X-214.235 Y-176.195
G1 X-214.056 Y-176.38
G1 X-214.025 Y-176.411
G1 X-213.844 Y-176.593
G1 X-213.832 Y-176.605
G1 X-213.65 Y-176.786
G1 X-213.612 Y-176.823
G1 X-213.427 Y-177.001
G1 X-213.425 Y-177.003
G1 X-213.325 Y-177.099
G1 X-213.313 Y-177.11
G1 X-213.111 Y-177.302
G1 X-213.1 Y-177.313
G1 X-212.998 Y-177.409
G1 X-212.987 Y-177.42
G1 X-212.884 Y-177.516
G1 X-212.872 Y-177.527
G1 X-212.769 Y-177.622
G1 X-212.757 Y-177.632
G1 X-212.653 Y-177.727
G1 X-212.641 Y-177.738
G1 X-212.537 Y-177.832
G1 X-212.502 Y-177.864
G1 X-212.396 Y-177.957
G1 X-212.29 Y-178.05
G1 X-212.253 Y-178.082
G1 X-212.146 Y-178.173
G1 X-212.122 Y-178.193
G1 X-212.014 Y-178.283
G1 X-212 Y-178.294
G1 X-211.892 Y-178.383
G1 X-211.843 Y-178.423
G1 X-211.733 Y-178.51
G1 X-211.704 Y-178.532
G1 X-211.594 Y-178.617
G1 X-211.543 Y-178.656
G1 X-211.431 Y-178.739
G1 X-211.417 Y-178.75
G1 X-211.305 Y-178.832
G1 X-211.237 Y-178.88
G1 X-211.123 Y-178.959
G1 X-211.081 Y-178.987
G1 X-210.966 Y-179.064
G1 X-210.908 Y-179.103
G1 X-210.792 Y-179.177
G1 X-210.748 Y-179.204
G1 X-210.631 Y-179.276
G1 X-210.57 Y-179.313
G1 X-210.452 Y-179.382
G1 X-210.389 Y-179.418
G1 X-210.27 Y-179.484
G1 X-210.178 Y-179.533
G1 X-210.057 Y-179.595
G1 X-210.019 Y-179.613
G1 X-209.898 Y-179.673
G1 X-209.784 Y-179.727
G1 X-209.661 Y-179.782
G1 X-209.613 Y-179.803
G1 X-209.489 Y-179.857
G1 X-209.412 Y-179.888
G1 X-209.286 Y-179.938
G1 X-209.23 Y-179.96
G1 X-209.102 Y-180.008
G1 X-209.033 Y-180.033
G1 X-208.904 Y-180.078
G1 X-208.834 Y-180.101
G1 X-208.704 Y-180.143
G1 X-208.655 Y-180.159
G1 X-208.524 Y-180.199
G1 X-208.497 Y-180.207
G1 X-208.365 Y-180.246
G1 X-208.289 Y-180.267
G1 X-208.155 Y-180.303
G1 X-208.133 Y-180.309
G1 X-207.999 Y-180.344
G1 X-207.956 Y-180.355
G1 X-207.822 Y-180.388
G1 X-207.79 Y-180.396
G1 X-207.654 Y-180.428
G1 X-207.616 Y-180.436
G1 X-207.481 Y-180.466
G1 X-207.471 Y-180.469
G1 X-207.334 Y-180.499
G1 X-207.295 Y-180.507
G1 X-207.159 Y-180.535
G1 X-207.155 Y-180.536
G1 X-207.02 Y-180.563
G1 X-206.886 Y-180.591
G1 X-206.86 Y-180.596
G1 X-206.723 Y-180.623
G1 X-206.705 Y-180.627
G1 X-206.58 Y-180.65
G1 X-206.319 Y-180.702
G1 X-206.301 Y-180.706
G1 X-206.189 Y-180.727
G1 X-206.076 Y-180.751
G1 X-206.062 Y-180.754
G1 X-205.919 Y-180.783
G1 X-205.915 Y-180.784
G1 X-205.771 Y-180.813
G1 X-205.75 Y-180.817
G1 X-205.606 Y-180.845
G1 X-205.581 Y-180.849
G1 X-205.438 Y-180.876
G1 X-205.296 Y-180.903
G1 X-205.292
G1 X-205.147 Y-180.93
G1 X-205.105 Y-180.938
G1 X-204.96 Y-180.963
G1 X-204.815 Y-180.988
G1 X-204.794 Y-180.991
G1 X-204.504 Y-181.039
G1 X-204.459 Y-181.047
G1 X-204.315 Y-181.068
G1 X-204.171 Y-181.09
G1 X-204.147 Y-181.094
G1 X-204.001 Y-181.115
G1 X-203.98 Y-181.118
G1 X-203.834 Y-181.138
G1 X-203.813 Y-181.14
G1 X-203.521 Y-181.178
G1 X-203.478 Y-181.184
G1 X-203.186 Y-181.218
G1 X-203.143 Y-181.222
G1 X-202.997 Y-181.237
G1 X-202.976 Y-181.24
G1 X-202.83 Y-181.254
G1 X-202.684 Y-181.268
G1 X-202.641 Y-181.271
G1 X-202.495 Y-181.283
G1 X-202.472 Y-181.285
G1 X-202.325 Y-181.296
G1 X-202.305 Y-181.298
G1 X-202.159 Y-181.308
G1 X-202.143 Y-181.309
G1 X-201.97 Y-181.32
G1 X-201.934 Y-181.322
G1 X-201.761 Y-181.331
G1 X-201.742 Y-181.332
G1 X-201.568 Y-181.34
G1 X-201.55
G1 X-201.376 Y-181.347
G1 X-201.358 Y-181.348
G1 X-201.185 Y-181.354
G1 X-201.148 Y-181.355
G1 X-200.8 Y-181.363
G1 X-200.763 Y-181.364
G1 X-200.415 Y-181.368
G1 X-200.397
G1 X-200.223 Y-181.369
G1 X-200.205
G1 X-200.031
G1 X-200.013
G1 X-199.839 Y-181.368
G1 X-199.821
G1 X-199.646 Y-181.366
G1 X-199.472 Y-181.364
G1 X-199.453
G1 X-199.279 Y-181.361
G1 X-199.261 Y-181.36
G1 X-199.087 Y-181.356
G1 X-198.913 Y-181.352
G1 X-198.738 Y-181.348
G1 X-198.72
G1 X-198.372 Y-181.338
G1 X-198.354 Y-181.337
G1 X-198.18 Y-181.331
G1 X-197.658 Y-181.313
G1 X-197.649
G1 X-197.469 Y-181.306
G1 X-197.288 Y-181.3
G1 X-197.271
G1 X-197.081 Y-181.293
G1 X-197.064 Y-181.292
G1 X-196.883 Y-181.285
G1 X-196.701 Y-181.278
G1 X-196.684 Y-181.277
G1 X-196.304 Y-181.261
G1 X-196.288 Y-181.26
G1 X-195.908 Y-181.242
G1 X-195.891
G1 X-195.511 Y-181.222
G1 X-195.494 Y-181.221
G1 X-195.304 Y-181.21
G1 X-195.288 Y-181.209
G1 X-195.098 Y-181.197
G1 X-195.08 Y-181.196
G1 X-194.892 Y-181.183
G1 X-194.702 Y-181.17
G1 X-194.668 Y-181.167
G1 X-194.479 Y-181.152
G1 X-194.29 Y-181.137
G1 X-194.256 Y-181.134
G1 X-194.067 Y-181.117
G1 X-194.05 Y-181.116
G1 X-193.861 Y-181.098
G1 X-193.844 Y-181.096
G1 X-193.655 Y-181.077
G1 X-193.639 Y-181.075
G1 X-193.45 Y-181.055
G1 X-193.415 Y-181.051
G1 X-193.227 Y-181.029
G1 X-193.212 Y-181.028
G1 X-193.023 Y-181.005
G1 X-193.005 Y-181.002
G1 X-192.817 Y-180.978
G1 X-192.786 Y-180.974
G1 X-192.452 Y-180.928
G1 X-192.441 Y-180.927
G1 X-192.108 Y-180.88
G1 X-192.091 Y-180.877
G1 X-191.757 Y-180.828
G1 X-191.737 Y-180.825
G1 X-191.404 Y-180.774
G1 X-191.395 Y-180.773
G1 X-191.062 Y-180.721
G1 X-191.053 Y-180.72
G1 X-190.72 Y-180.667
G1 X-190.709 Y-180.665
G1 X-190.377 Y-180.611
G1 X-190.36 Y-180.608
G1 X-190.027 Y-180.552
G1 X-190.017 Y-180.55
G1 X-189.686 Y-180.493
G1 X-189.353 Y-180.436
G1 X-189.343 Y-180.435
G1 X-189.011 Y-180.377
G1 X-188.992 Y-180.373
G1 X-188.665 Y-180.314
G1 X-188.337 Y-180.256
G1 X-188.319 Y-180.253
G1 X-187.992 Y-180.193
G1 X-187.664 Y-180.133
G1 X-187.655 Y-180.132
G1 X-187.323 Y-180.071
G1 X-187.312 Y-180.069
G1 X-186.987 Y-180.008
G1 X-186.66 Y-179.948
G1 X-186.651 Y-179.946
G1 X-186.324 Y-179.885
G1 X-185.996 Y-179.825
G1 X-185.985 Y-179.823
G1 X-185.66 Y-179.762
G1 X-185.006 Y-179.642
G1 X-184.678 Y-179.582
G1 X-184.669 Y-179.581
G1 X-184.273 Y-179.508
G1 X-183.875 Y-179.435
G1 X-183.859 Y-179.432
G1 X-183.462 Y-179.357
G1 X-183.065 Y-179.282
G1 X-183.058 Y-179.281
G1 X-182.66 Y-179.205
G1 X-182.659 Y-179.204
G1 X-182.262 Y-179.128
G1 X-182.254 Y-179.127
G1 X-181.857 Y-179.05
G1 X-181.856
G1 X-181.461 Y-178.973
G1 X-180.667 Y-178.819
G1 X-180.66 Y-178.817
G1 X-180.267 Y-178.74
G1 X-179.873 Y-178.664
G1 X-179.866 Y-178.662
G1 X-179.473 Y-178.585
G1 X-179.079 Y-178.509
G1 X-179.078
G1 X-178.683 Y-178.432
G1 X-178.291 Y-178.356
G1 X-177.901 Y-178.281
G1 X-177.507 Y-178.207
G1 X-177.113 Y-178.133
G1 X-176.725 Y-178.06
G1 X-176.331 Y-177.988
G1 X-175.941 Y-177.916
G1 X-175.554 Y-177.847
G1 X-175.166 Y-177.779
G1 X-174.824 Y-177.72
G1 X-174.486 Y-177.665
G1 X-174.142 Y-177.611
G1 X-173.793 Y-177.558
G1 X-173.439 Y-177.505
G1 X-173.088 Y-177.454
G1 X-172.732 Y-177.404
G1 X-172.373 Y-177.354
G1 X-172.013 Y-177.305
G1 X-172.012 Y-177.304
G1 X-171.284 Y-177.204
G1 X-171.275 Y-177.203
G1 X-170.911 Y-177.152
G1 X-170.91
G1 X-170.547 Y-177.101
G1 X-170.184 Y-177.05
G1 X-170.167 Y-177.048
G1 X-169.804 Y-176.995
G1 X-169.785 Y-176.992
G1 X-169.424 Y-176.937
G1 X-169.415 Y-176.935
G1 X-169.054 Y-176.879
G1 X-169.036 Y-176.877
G1 X-168.676 Y-176.819
G1 X-168.656 Y-176.815
G1 X-168.298 Y-176.755
G1 X-168.273 Y-176.751
G1 X-167.915 Y-176.688
G1 X-167.895 Y-176.684
G1 X-167.539 Y-176.619
G1 X-167.503 Y-176.613
G1 X-167.148 Y-176.544
G1 X-167.119 Y-176.538
G1 X-166.766 Y-176.466
G1 X-166.739 Y-176.46
G1 X-166.387 Y-176.385
G1 X-166.26 Y-176.356
G1 X-166.221 Y-176.346
G1 X-166.076 Y-176.305
G1 X-166.037 Y-176.293
G1 X-165.898 Y-176.246
G1 X-165.859 Y-176.232
G1 X-165.69 Y-176.166
G1 X-165.65 Y-176.149
G1 X-165.501 Y-176.081
G1 X-165.462 Y-176.062
G1 X-165.293 Y-175.973
G1 X-165.254 Y-175.951
G1 X-165.201 Y-175.921
G1 X-165.162 Y-175.898
G1 X-165.03 Y-175.815
G1 X-164.992 Y-175.79
G1 X-164.865 Y-175.703
G1 X-164.828 Y-175.676
G1 X-164.741 Y-175.61
G1 X-164.704 Y-175.581
G1 X-164.597 Y-175.493
G1 X-164.562 Y-175.463
G1 X-164.452 Y-175.364
G1 X-164.418 Y-175.332
G1 X-164.349 Y-175.265
G1 X-164.316 Y-175.232
G1 X-164.184 Y-175.092
G1 X-164.153 Y-175.057
G1 X-164.119 Y-175.018
G1 X-164.089 Y-174.983
G1 X-164.015 Y-174.893
G1 X-163.944 Y-174.8
G1 X-163.916 Y-174.762
G1 X-163.852 Y-174.672
G1 X-163.826 Y-174.634
G1 X-163.742 Y-174.505
G1 X-163.718 Y-174.466
G1 X-163.64 Y-174.332
G1 X-163.618 Y-174.292
G1 X-163.519 Y-174.097
G1 X-163.5 Y-174.056
G1 X-163.448 Y-173.937
G1 X-163.431 Y-173.896
G1 X-163.39 Y-173.791
G1 X-163.352 Y-173.684
G1 X-163.338 Y-173.642
G1 X-163.287 Y-173.475
G1 X-163.237 Y-173.454
G1 X-163.082 Y-173.393
G1 X-162.917 Y-173.329
G1 X-162.909 Y-173.326
G1 X-162.742 Y-173.262
G1 X-162.575 Y-173.199
G1 X-162.556 Y-173.191
G1 X-162.19 Y-173.051
G1 X-162.176 Y-173.046
G1 X-161.993 Y-172.975
G1 X-161.987 Y-172.973
G1 X-161.805 Y-172.902
G1 X-161.757 Y-172.883
G1 X-161.576 Y-172.809
G1 X-161.565 Y-172.804
G1 X-161.386 Y-172.73
G1 X-161.338 Y-172.71
G1 X-161.16 Y-172.633
G1 X-161.121 Y-172.616
G1 X-160.945 Y-172.537
G1 X-160.892 Y-172.512
G1 X-160.717 Y-172.43
G1 X-160.658 Y-172.401
G1 X-160.487 Y-172.316
G1 X-160.434 Y-172.289
G1 X-160.265 Y-172.201
G1 X-160.172 Y-172.151
G1 X-160.007 Y-172.058
G1 X-159.923 Y-172.009
G1 X-159.88 Y-171.983
G1 X-159.719 Y-171.879
G1 X-159.677 Y-171.85
G1 X-159.566 Y-171.77
G1 X-159.525 Y-171.739
G1 X-159.419 Y-171.655
G1 X-159.379 Y-171.622
G1 X-159.283 Y-171.539
G1 X-159.245 Y-171.505
G1 X-159.147 Y-171.414
G1 X-159.109 Y-171.377
G1 X-159.019 Y-171.286
G1 X-158.983 Y-171.248
G1 X-158.925 Y-171.185
G1 X-158.89 Y-171.146
G1 X-158.809 Y-171.052
G1 X-158.775 Y-171.011
G1 X-158.722 Y-170.946
G1 X-158.689 Y-170.904
G1 X-158.618 Y-170.809
G1 X-158.586 Y-170.765
G1 X-158.558 Y-170.727
G1 X-158.527 Y-170.683
G1 X-158.481 Y-170.615
G1 X-158.451 Y-170.57
G1 X-158.407 Y-170.502
G1 X-158.378 Y-170.456
G1 X-158.352 Y-170.414
G1 X-158.324 Y-170.368
G1 X-158.283 Y-170.299
G1 X-158.256 Y-170.252
G1 X-158.231 Y-170.207
G1 X-158.205 Y-170.16
G1 X-158.179 Y-170.113
G1 X-158.154 Y-170.067
G1 X-158.129 Y-170.02
G1 X-158.092 Y-169.949
G1 X-158.068 Y-169.901
G1 X-158.056 Y-169.877
G1 X-158.039 Y-169.842
G1 X-158.022 Y-169.808
G1 X-157.986 Y-169.734
G1 X-157.976 Y-169.711
G1 X-157.966 Y-169.69
G3 X-157.863 Y-169.457 I-2.852 J1.394
G1 X-157.852 Y-169.429
G1 X-157.811 Y-169.32
G1 X-157.775 Y-169.209
G1 X-157.766 Y-169.18
G1 X-157.733 Y-169.067
G1 X-157.665 Y-169.03
G1 X-157.226 Y-168.793
G1 X-156.78 Y-168.555
G1 X-156.337 Y-168.321
G1 X-155.89 Y-168.089
G1 X-155.437 Y-167.854
G1 X-154.985 Y-167.622
G1 X-154.532 Y-167.392
G1 X-153.614 Y-166.929
G1 X-153.156 Y-166.7
G1 X-152.693 Y-166.469
G1 X-152.231 Y-166.239
G1 X-151.769 Y-166.01
G1 X-151.762 Y-166.006
G1 X-151.299 Y-165.775
G1 X-150.836 Y-165.545
G1 X-150.834 Y-165.544
G1 X-150.368 Y-165.312
G1 X-150.358 Y-165.307
G1 X-149.894 Y-165.074
G1 X-149.892 Y-165.073
G1 X-149.427 Y-164.839
G1 X-149.422 Y-164.837
G1 X-148.959 Y-164.603
G1 X-148.956 Y-164.601
G1 X-148.492 Y-164.366
G1 X-148.478 Y-164.359
G1 X-148.016 Y-164.122
G1 X-148.008 Y-164.118
G1 X-147.548 Y-163.88
G1 X-147.531 Y-163.871
G1 X-147.071 Y-163.63
G1 X-147.066 Y-163.628
G1 X-146.718 Y-163.445
G1 X-146.699 Y-163.435
G1 X-146.353 Y-163.25
G1 X-146.34 Y-163.243
G1 X-145.994 Y-163.056
G1 X-145.985 Y-163.051
G1 X-145.64 Y-162.863
G1 X-145.634 Y-162.86
G1 X-145.289 Y-162.671
G1 X-145.273 Y-162.662
G1 X-144.929 Y-162.471
G1 X-144.925 Y-162.469
G1 X-144.582 Y-162.278
G1 X-144.58 Y-162.276
G1 X-144.236 Y-162.084
G1 X-144.232 Y-162.082
G1 X-143.889 Y-161.89
G1 X-143.883 Y-161.887
G1 X-143.543 Y-161.696
G1 X-142.86 Y-161.313
G1 X-142.522 Y-161.124
G1 X-142.186 Y-160.938
G1 X-141.845 Y-160.749
G1 X-141.512 Y-160.565
G1 X-141.178 Y-160.384
G1 X-140.844 Y-160.203
G1 X-140.514 Y-160.028
G1 X-140.183 Y-159.853
G1 X-139.853 Y-159.682
G1 X-139.521 Y-159.513
G1 X-139.19 Y-159.346
G1 X-138.876 Y-159.191
G1 X-138.875 Y-159.19
G1 X-138.863 Y-159.185
G1 X-138.858 Y-159.183
G1 X-138.835 Y-159.175
G1 X-138.823 Y-159.171
G1 X-138.816 Y-159.169
G1 X-138.784 Y-159.159
G1 X-138.771 Y-159.155
G1 X-138.738 Y-159.146
G1 X-138.719 Y-159.142
G1 X-138.686 Y-159.134
G1 X-138.648 Y-159.126
G1 X-138.634 Y-159.123
G1 X-138.583 Y-159.114
G1 X-138.576 Y-159.113
G1 X-138.538 Y-159.106
G1 X-138.447 Y-159.092
G1 X-138.409 Y-159.086
G1 X-138.369 Y-159.081
G1 X-138.315 Y-159.075
G1 X-138.257 Y-159.068
G1 X-138.198 Y-159.062
G1 X-138.194
G1 X-138.158 Y-159.058
G1 X-138.1 Y-159.053
G1 X-138.042 Y-159.049
G1 X-137.998 Y-159.047
G1 X-137.926 Y-159.045
G1 X-137.854 Y-159.044
G1 X-137.796
G1 X-137.708 Y-159.046
G1 X-137.609 Y-159.047
G1 X-137.522 Y-159.05
G1 X-137.434 Y-159.053
G1 X-137.219 Y-159.062
G1 X-137.105 Y-159.067
G1 X-137.076 Y-159.068
G1 X-136.975 Y-159.072
G1 X-136.874 Y-159.076
G1 X-136.847 Y-159.077
G1 X-136.733 Y-159.081
G1 X-136.705 Y-159.082
G1 X-136.59 Y-159.085
G1 X-136.562 Y-159.086
G1 X-136.447 Y-159.088
G1 X-136.334 Y-159.09
G1 X-136.25
G1 X-136.136 Y-159.089
G1 X-136.021 Y-159.088
G1 X-135.937 Y-159.086
G1 X-135.824 Y-159.082
G1 X-135.797 Y-159.081
G1 X-135.683 Y-159.076
G1 X-135.6 Y-159.071
G1 X-135.486 Y-159.063
G1 X-135.459 Y-159.061
G1 X-135.37 Y-159.054
G1 X-135.335 Y-159.051
G1 X-135.246 Y-159.043
G1 X-135.211 Y-159.04
G1 X-135.122 Y-159.031
G1 X-135.086 Y-159.027
G1 X-134.997 Y-159.017
G1 X-134.908 Y-159.007
G1 X-134.874 Y-159.003
G1 X-134.785 Y-158.992
G1 X-134.75 Y-158.988
G1 X-134.572 Y-158.964
G1 X-134.503 Y-158.953
G1 X-134.414 Y-158.939
G1 X-134.325 Y-158.925
G1 X-134.236 Y-158.911
G1 X-134.161 Y-158.899
G1 X-134.076 Y-158.883
G1 X-133.99 Y-158.868
G1 X-133.95 Y-158.86
G1 X-133.774 Y-158.826
G1 X-133.74 Y-158.82
G1 X-133.652 Y-158.802
G1 X-133.618 Y-158.794
G1 X-133.53 Y-158.775
G1 X-133.496 Y-158.768
G1 X-133.408 Y-158.748
G1 X-133.32 Y-158.728
G1 X-133.313 Y-158.726
G1 X-133.226 Y-158.706
G1 X-133.159 Y-158.69
G1 X-132.898 Y-158.624
G1 X-132.823 Y-158.604
G1 X-132.749 Y-158.584
G1 X-132.562 Y-158.533
G1 X-132.53 Y-158.524
G1 X-132.132 Y-158.412
G1 X-131.933 Y-158.356
G1 X-131.9 Y-158.347
G1 X-131.705 Y-158.29
G1 X-131.309 Y-158.174
G1 X-131.276 Y-158.165
G1 X-130.682 Y-157.985
G1 X-130.668 Y-157.98
G1 X-130.47 Y-157.919
G1 X-130.456 Y-157.915
G1 X-130.258 Y-157.853
G1 X-130.24 Y-157.847
G1 X-130.043 Y-157.784
G1 X-129.846 Y-157.721
G1 X-129.832 Y-157.717
G1 X-129.635 Y-157.653
G1 X-129.621 Y-157.648
G1 X-129.227 Y-157.518
G1 X-129.209 Y-157.512
G1 X-129.013 Y-157.446
G1 X-128.999 Y-157.441
G1 X-128.803 Y-157.374
G1 X-128.607 Y-157.307
G1 X-128.589 Y-157.301
G1 X-128.394 Y-157.233
G1 X-128.38 Y-157.228
G1 X-128.185 Y-157.159
G1 X-127.99 Y-157.09
G1 X-127.976 Y-157.085
G1 X-127.781 Y-157.015
G1 X-127.752 Y-157.005
G1 X-127.552 Y-156.931
G1 X-127.521 Y-156.919
G1 X-127.322 Y-156.843
G1 X-127.278 Y-156.826
G1 X-127.08 Y-156.747
G1 X-127.055 Y-156.737
G1 X-126.857 Y-156.656
G1 X-126.839 Y-156.648
G1 X-126.642 Y-156.566
G1 X-126.617 Y-156.556
G1 X-126.42 Y-156.472
G1 X-126.389 Y-156.458
G1 X-125.997 Y-156.286
G1 X-125.801 Y-156.2
G1 X-125.771 Y-156.187
G1 X-125.585 Y-156.103
G1 X-125.398 Y-156.02
G1 X-125.392 Y-156.018
G1 X-125.2 Y-155.932
G1 X-125.01 Y-155.848
G1 X-124.828 Y-155.767
G1 X-124.647 Y-155.689
G1 X-124.473 Y-155.614
G1 X-124.297 Y-155.541
G1 X-124.119 Y-155.468
G1 X-123.957 Y-155.403
G1 X-123.803 Y-155.344
G1 X-123.642 Y-155.285
G1 X-123.478 Y-155.226
G1 X-123.327 Y-155.175
G1 X-123.189 Y-155.131
G1 X-123.171 Y-155.126
G1 X-123.137 Y-155.116
G1 X-123.11 Y-155.11
G1 X-123.083 Y-155.103
G1 X-123.067 Y-155.1
G1 X-123.034 Y-155.094
G1 X-122.983 Y-155.085
G1 X-122.966 Y-155.082
G1 X-122.929 Y-155.077
G1 X-122.893 Y-155.072
G1 X-122.858 Y-155.069
G1 X-122.822 Y-155.066
G1 X-122.767 Y-155.062
G1 X-122.729 Y-155.059
G1 X-122.693 Y-155.058
G1 X-122.638 Y-155.056
G1 X-122.601
G1 X-122.565
G1 X-122.529 Y-155.057
G1 X-122.459 Y-155.059
G1 X-122.425 Y-155.06
G1 X-122.391 Y-155.063
G1 X-122.322 Y-155.067
G1 X-122.301 Y-155.069
G1 X-122.218 Y-155.078
G1 X-122.207 Y-155.08
G1 X-122.161 Y-155.087
G1 X-122.133 Y-155.091
G1 X-122.109 Y-155.096
G1 X-122.063 Y-155.105
G1 X-122.03 Y-155.112
G1 X-121.986 Y-155.122
G1 X-121.957 Y-155.129
G1 X-121.927 Y-155.137
G1 X-121.889 Y-155.148
G1 X-121.864 Y-155.155
G1 X-121.817 Y-155.17
G1 X-121.776 Y-155.183
G1 X-121.768 Y-155.186
G1 X-121.727 Y-155.202
G1 X-121.687 Y-155.217
G1 X-121.669 Y-155.224
G1 X-121.638 Y-155.237
G1 X-121.599 Y-155.254
G1 X-121.585 Y-155.261
G1 X-121.555 Y-155.276
G1 X-121.525 Y-155.291
G1 X-121.439 Y-155.337
G1 X-121.345 Y-155.388
G1 X-121.252 Y-155.442
G1 X-121.159 Y-155.497
G1 X-121.052 Y-155.563
G1 X-120.946 Y-155.629
G1 X-120.848 Y-155.693
G1 X-120.732 Y-155.77
G1 X-120.623 Y-155.844
G1 X-120.508 Y-155.923
G1 X-120.499 Y-155.929
G1 X-120.374 Y-156.015
G1 X-120.26 Y-156.095
G1 X-120.135 Y-156.183
G1 X-120.132 Y-156.186
G1 X-120.002 Y-156.277
G1 X-119.87 Y-156.37
G1 X-119.857 Y-156.379
G1 X-119.729 Y-156.469
G1 X-119.602 Y-156.559
G1 X-119.57 Y-156.58
G1 X-119.441 Y-156.669
G1 X-119.312 Y-156.758
G1 X-119.29 Y-156.774
G1 X-119.156 Y-156.865
G1 X-119.133 Y-156.88
G1 X-118.998 Y-156.97
G1 X-118.971 Y-156.988
G1 X-118.836 Y-157.076
G1 X-118.813 Y-157.091
G1 X-118.677 Y-157.178
G1 X-118.64 Y-157.201
G1 X-118.503 Y-157.286
G1 X-118.477 Y-157.302
G1 X-118.412 Y-157.341
G1 X-118.276 Y-157.426
G1 X-118.205 Y-157.472
G1 X-118.167 Y-157.496
G1 X-118.102 Y-157.536
G1 X-118.038 Y-157.577
G1 X-118.023 Y-157.586
G1 X-117.855 Y-157.692
G1 X-117.832 Y-157.707
G1 X-117.748 Y-157.759
G1 X-117.711 Y-157.782
G1 X-117.644 Y-157.821
G1 X-117.579 Y-157.862
G1 X-117.518 Y-157.899
G1 X-117.433 Y-157.949
G1 X-117.409 Y-157.963
G1 X-117.324 Y-158.012
G1 X-117.31 Y-158.02
G1 X-117.224 Y-158.069
G1 X-117.175 Y-158.096
G1 X-117.089 Y-158.143
G1 X-117.063 Y-158.157
G1 X-116.977 Y-158.203
G1 X-116.939 Y-158.223
G1 X-116.852 Y-158.268
G1 X-116.8 Y-158.294
G1 X-116.713 Y-158.337
G1 X-116.647 Y-158.369
G1 X-116.559 Y-158.41
G1 X-116.532 Y-158.422
G1 X-116.444 Y-158.462
G1 X-116.361 Y-158.499
G1 X-116.273 Y-158.536
G1 X-116.233 Y-158.552
G1 X-116.144 Y-158.588
G1 X-116.046 Y-158.626
G1 X-115.956 Y-158.659
G1 X-115.887 Y-158.683
G1 X-115.796 Y-158.714
G1 X-115.709 Y-158.743
G1 X-115.641 Y-158.764
G1 X-115.547 Y-158.791
G1 X-115.478 Y-158.81
G1 X-115.395 Y-158.832
G1 X-115.326 Y-158.849
G1 X-115.231 Y-158.871
G1 X-115.161 Y-158.886
G1 X-115.068 Y-158.904
G1 X-114.997 Y-158.917
G1 X-114.905 Y-158.933
G1 X-114.833 Y-158.944
G1 X-114.747 Y-158.955
G1 X-114.675 Y-158.964
G1 X-114.632 Y-158.97
G1 X-114.56 Y-158.978
G1 X-114.512 Y-158.982
G1 X-114.439 Y-158.99
G1 X-114.35 Y-158.997
G1 X-114.276 Y-159.002
G1 X-114.236 Y-159.004
G1 X-114.163 Y-159.008
G1 X-114.118 Y-159.01
G1 X-114.044 Y-159.013
G1 X-114.001 Y-159.015
G1 X-113.927 Y-159.017
G1 X-113.853 Y-159.019
G1 X-113.767 Y-159.02
G1 X-113.618
G1 X-113.575
G1 X-113.501 Y-159.019
G1 X-113.427 Y-159.018
G1 X-113.353 Y-159.017
G1 X-113.309 Y-159.016
G1 X-113.235 Y-159.014
G1 X-113.182 Y-159.012
G1 X-113.131
G1 X-113.087 Y-159.011
G1 X-113.036 Y-159.009
G1 X-112.985
G1 X-112.966 Y-159.008
G1 X-112.879 Y-159.007
G1 X-112.794 Y-159.006
G1 X-112.692 Y-159.005
G1 X-112.661 Y-159.004
G1 X-112.574 Y-159.003
G1 X-112.487 Y-159.002
G1 X-112.456 Y-159.001
G1 X-112.353 Y-158.999
G1 X-112.251 Y-158.997
G1 X-112.221
G1 X-112.118 Y-158.994
G1 X-112.015 Y-158.991
G1 X-111.983 Y-158.99
G1 X-111.881 Y-158.986
G1 X-111.779 Y-158.982
G1 X-111.747 Y-158.98
G1 X-111.645 Y-158.975
G1 X-111.614 Y-158.974
G1 X-111.512 Y-158.968
G1 X-111.481 Y-158.966
G1 X-111.379 Y-158.959
G1 X-111.317 Y-158.954
G1 X-111.215 Y-158.945
G1 X-111.212 Y-158.944
G1 X-111.111 Y-158.935
G1 X-111.08 Y-158.933
G1 X-110.979 Y-158.923
G1 X-110.917 Y-158.916
G1 X-110.816 Y-158.904
G1 X-110.782 Y-158.9
G1 X-110.682 Y-158.887
G1 X-110.62 Y-158.878
G1 X-110.52 Y-158.863
G1 X-110.454 Y-158.852
G1 X-110.355 Y-158.835
G1 X-110.324 Y-158.83
G1 X-110.225 Y-158.812
G1 X-110.189 Y-158.805
G1 X-110.091 Y-158.786
G1 X-109.993 Y-158.765
G1 X-109.896 Y-158.743
G1 X-109.816 Y-158.724
G1 X-109.757 Y-158.709
G1 X-109.646 Y-158.679
G1 X-109.588 Y-158.662
G1 X-109.477 Y-158.627
G1 X-109.42 Y-158.608
G1 X-109.326 Y-158.575
G1 X-109.269 Y-158.554
G1 X-109.206 Y-158.53
G1 X-109.15 Y-158.508
G1 X-109.017 Y-158.452
G1 X-108.905 Y-158.402
G1 X-108.8 Y-158.353
G1 X-108.745 Y-158.326
G1 X-108.663 Y-158.285
G1 X-108.608 Y-158.256
G1 X-108.587 Y-158.244
G1 X-108.533 Y-158.215
G1 X-108.476 Y-158.184
G1 X-108.421 Y-158.153
G1 X-108.399 Y-158.141
G1 X-108.345 Y-158.11
G1 X-108.285 Y-158.074
G1 X-108.243 Y-158.049
G1 X-108.2 Y-158.023
G1 X-108.141 Y-157.987
G1 X-108.088 Y-157.954
G1 X-108.052 Y-157.931
G1 X-108.017 Y-157.909
G1 X-107.982 Y-157.887
G1 X-107.946 Y-157.864
G1 X-107.893 Y-157.83
G1 X-107.858 Y-157.808
G1 X-107.77 Y-157.753
G1 X-107.735 Y-157.732
G1 X-107.701 Y-157.711
G1 X-107.675 Y-157.696
G1 X-107.631 Y-157.67
G1 X-107.558 Y-157.629
G1 X-107.533 Y-157.615
G1 X-107.474 Y-157.581
G1 X-107.413 Y-157.547
G1 X-107.4 Y-157.539
G1 X-107.314 Y-157.491
G1 X-107.234 Y-157.447
G1 X-107.154 Y-157.403
G1 X-107.141 Y-157.395
G1 X-107.055 Y-157.347
G1 X-107.03 Y-157.334
G1 X-106.858 Y-157.236
G1 X-106.686 Y-157.138
G1 X-106.648 Y-157.116
G1 X-106.563 Y-157.066
G1 X-106.525 Y-157.043
G1 X-106.441 Y-156.992
G1 X-106.357 Y-156.941
G1 X-106.296 Y-156.903
G1 X-106.213 Y-156.85
G1 X-106.199 Y-156.84
G1 X-106.117 Y-156.788
G1 X-106.079 Y-156.763
G1 X-105.998 Y-156.709
G1 X-105.938 Y-156.668
G1 X-105.858 Y-156.612
G1 X-105.778 Y-156.556
G1 X-105.704 Y-156.503
G1 X-105.626 Y-156.445
G1 X-105.574 Y-156.405
G1 X-105.498 Y-156.346
G1 X-105.458 Y-156.314
G1 X-105.382 Y-156.253
G1 X-105.33 Y-156.211
G1 X-105.256 Y-156.149
G1 X-105.204 Y-156.104
G1 X-105.148 Y-156.055
G1 X-105.08 Y-155.994
G1 X-105.025 Y-155.943
G1 X-104.96 Y-155.881
G1 X-104.907 Y-155.829
G1 X-104.865 Y-155.787
G1 X-104.812 Y-155.733
G1 X-104.771 Y-155.69
G1 X-104.719 Y-155.635
G1 X-104.679 Y-155.592
G1 X-104.628 Y-155.536
G1 X-104.588 Y-155.492
G1 X-104.538 Y-155.435
G1 X-104.5 Y-155.39
G1 X-104.451 Y-155.332
G1 X-104.413 Y-155.287
G1 X-104.365 Y-155.228
G1 X-104.345 Y-155.202
G1 X-104.298 Y-155.143
G1 X-104.266 Y-155.103
G1 X-104.219 Y-155.042
G1 X-104.199 Y-155.016
G1 X-104.153 Y-154.955
G1 X-104.118 Y-154.908
G1 X-104.073 Y-154.846
G1 X-104.028 Y-154.784
G1 X-103.995 Y-154.737
G1 X-103.951 Y-154.674
G1 X-103.907 Y-154.611
G1 X-103.875 Y-154.564
G1 X-103.789 Y-154.436
G1 X-103.77 Y-154.407
G1 X-103.686 Y-154.279
G1 X-103.65 Y-154.225
G1 X-103.614 Y-154.171
G1 X-103.583 Y-154.123
G1 X-103.542 Y-154.059
G1 X-103.506 Y-154.003
G1 X-103.461 Y-153.934
G1 X-103.43 Y-153.885
G1 X-103.382 Y-153.808
G1 X-103.372 Y-153.792
G1 X-103.324 Y-153.714
G1 X-103.299 Y-153.673
G1 X-103.205 Y-153.515
G1 X-103.175 Y-153.463
G1 X-103.133 Y-153.39
G1 X-103.091 Y-153.316
G1 X-103.076 Y-153.29
G1 X-103.031 Y-153.21
G1 X-103.008 Y-153.169
G1 X-102.968 Y-153.095
G1 X-102.928 Y-153.022
G1 X-102.906 Y-152.981
G1 X-102.87 Y-152.913
G1 X-102.833 Y-152.846
G1 X-102.811 Y-152.805
G1 X-102.768 Y-152.723
G1 X-102.761 Y-152.71
G1 X-102.723 Y-152.635
G1 X-102.683 Y-152.56
G1 X-102.676 Y-152.547
G1 X-102.634 Y-152.465
G1 X-102.627 Y-152.451
G1 X-102.585 Y-152.369
G1 X-102.55 Y-152.301
G1 X-102.514 Y-152.232
G1 X-102.507 Y-152.22
G1 X-102.465 Y-152.139
G1 X-102.458 Y-152.124
G1 X-102.416 Y-152.042
G1 X-102.385 Y-151.981
G1 X-102.353 Y-151.921
G1 X-102.338 Y-151.894
G1 X-102.296 Y-151.813
G1 X-102.294 Y-151.807
G1 X-102.262 Y-151.745
G1 X-102.252 Y-151.727
G1 X-102.22 Y-151.664
G1 X-102.193 Y-151.609
G1 X-102.163 Y-151.547
G1 X-102.146 Y-151.512
G1 X-102.12 Y-151.456
G1 X-102.094 Y-151.402
G1 X-102.069 Y-151.347
G1 X-102.011 Y-151.219
G1 X-101.982 Y-151.155
G1 X-101.965 Y-151.118
G1 X-101.945 Y-151.073
G1 X-101.925 Y-151.027
G1 X-101.908 Y-150.99
G1 X-101.888 Y-150.945
G1 X-101.868 Y-150.899
G1 X-101.851 Y-150.863
G1 X-101.834 Y-150.827
G1 X-101.817 Y-150.79
G1 X-101.805 Y-150.764
G1 X-101.779 Y-150.712
G1 X-101.766 Y-150.687
G1 X-101.757 Y-150.668
G1 X-101.753 Y-150.661
G1 X-101.744 Y-150.645
G1 X-101.739 Y-150.637
G1 X-101.735 Y-150.632
G1 X-101.727 Y-150.62
G1 X-101.725 Y-150.617
G1 X-101.71 Y-150.598
G1 X-101.691 Y-150.573
G1 X-101.686 Y-150.566
G1 X-101.681 Y-150.56
G1 X-101.661 Y-150.535
G1 X-101.649 Y-150.52
G1 X-101.633 Y-150.503
G1 X-101.617 Y-150.484
G1 X-101.588 Y-150.453
G1 X-101.571 Y-150.435
G1 X-101.566 Y-150.43
G1 X-101.549 Y-150.413
G1 X-101.531 Y-150.396
G1 X-101.527 Y-150.392
G1 X-101.492 Y-150.36
G1 X-101.489 Y-150.357
G1 X-101.486 Y-150.355
G1 X-101.437 Y-150.315
G1 X-101.428 Y-150.308
G1 X-101.407 Y-150.292
G1 X-101.378 Y-150.271
G1 X-101.35 Y-150.25
G1 X-101.32 Y-150.229
G1 X-101.29 Y-150.208
G1 X-101.27 Y-150.194
G1 X-101.255 Y-150.184
G1 X-101.213 Y-150.158
G1 X-101.182 Y-150.138
G1 X-101.16 Y-150.124
G1 X-101.117 Y-150.099
G1 X-101.102 Y-150.089
G1 X-101.086 Y-150.081
G1 X-101.071 Y-150.072
G1 X-101.046 Y-150.059
G1 X-101.027 Y-150.05
G1 X-100.993 Y-150.032
G1 X-100.978 Y-150.024
G1 X-100.962 Y-150.016
G1 X-100.945 Y-150.009
G1 X-100.921 Y-149.998
G1 X-100.897 Y-149.988
G1 X-100.882 Y-149.981
G1 X-100.866 Y-149.975
G1 X-100.839 Y-149.965
G1 X-100.662 Y-149.901
G1 X-100.486 Y-149.838
G1 X-100.12 Y-149.712
G1 X-99.748 Y-149.588
G1 X-99.562 Y-149.528
G1 X-99.369 Y-149.466
G1 X-99.182 Y-149.406
G1 X-98.995 Y-149.348
G1 X-98.807 Y-149.291
G1 X-98.612 Y-149.232
G1 X-98.409 Y-149.171
G1 X-98.22 Y-149.115
G1 X-98.031 Y-149.06
G1 X-97.828 Y-149.001
G1 X-97.631 Y-148.944
G1 X-97.434 Y-148.888
G1 X-97.23 Y-148.83
G1 X-97.033 Y-148.774
G1 X-96.835 Y-148.719
G1 X-96.631 Y-148.662
G1 X-96.434 Y-148.607
G1 X-96.236 Y-148.553
G1 X-96.161 Y-148.532
G1 X-96.105 Y-148.517
G1 X-96.048 Y-148.502
G1 X-95.991 Y-148.487
G1 X-95.934 Y-148.473
G1 X-95.858 Y-148.454
G1 X-95.801 Y-148.44
G1 X-95.762 Y-148.431
G1 X-95.704 Y-148.419
G1 X-95.628 Y-148.402
G1 X-95.57 Y-148.389
G1 X-95.511 Y-148.377
G1 X-95.453 Y-148.365
G1 X-95.414 Y-148.358
G1 X-95.297 Y-148.337
G1 X-95.238 Y-148.327
G1 X-95.16 Y-148.314
G1 X-95.121 Y-148.308
G1 X-95.082 Y-148.302
G1 X-95.003 Y-148.291
G1 X-94.944 Y-148.283
G1 X-94.905 Y-148.278
G1 X-94.849 Y-148.272
G1 X-94.773 Y-148.263
G1 X-94.693 Y-148.254
G1 X-94.633 Y-148.247
G1 X-94.573 Y-148.241
G1 X-94.535 Y-148.237
G1 X-94.493 Y-148.233
G1 X-94.451 Y-148.229
G1 X-94.413 Y-148.226
G1 X-94.371 Y-148.221
G1 X-94.329 Y-148.218
G1 X-94.291 Y-148.215
G1 X-94.248 Y-148.212
G1 X-94.206 Y-148.209
G1 X-94.125 Y-148.204
G1 X-94.083 Y-148.201
G1 X-93.98 Y-148.198
G1 X-93.958 Y-148.197
G1 X-93.855
G1 X-93.814 Y-148.198
G1 X-93.773 Y-148.199
G1 X-93.753
G1 X-93.733 Y-148.201
G1 X-93.693 Y-148.204
G1 X-93.654 Y-148.207
G1 X-93.641 Y-148.208
G1 X-93.609 Y-148.212
G1 X-93.608 Y-148.213
G1 X-93.551 Y-148.22
G1 X-93.513 Y-148.225
G1 X-93.475 Y-148.231
G1 X-93.437 Y-148.238
G1 X-93.399 Y-148.245
G1 X-93.361 Y-148.252
G1 X-93.323 Y-148.26
G1 X-93.286 Y-148.268
G1 X-93.249 Y-148.277
G1 X-93.212 Y-148.286
G1 X-93.176 Y-148.295
G1 X-93.141 Y-148.305
G1 X-93.105 Y-148.315
G1 X-93.071 Y-148.326
G1 X-93.038 Y-148.336
G1 X-93.023 Y-148.341
G1 X-92.991 Y-148.353
G1 X-92.961 Y-148.364
G1 X-92.949 Y-148.369
G1 X-92.92 Y-148.381
G1 X-92.893 Y-148.392
G1 X-92.867 Y-148.404
G1 X-92.843 Y-148.416
G1 X-92.7 Y-148.485
G1 X-92.549 Y-148.562
G1 X-92.398 Y-148.639
G1 X-92.242 Y-148.722
G1 X-92.085 Y-148.806
G1 X-91.929 Y-148.892
G1 X-91.767 Y-148.983
G1 X-91.605 Y-149.074
G1 X-91.449 Y-149.164
G1 X-91.286 Y-149.258
G1 X-91.119 Y-149.357
G1 X-90.951 Y-149.456
G1 X-90.783 Y-149.556
G1 X-90.615 Y-149.657
G1 X-90.447 Y-149.757
G1 X-90.279 Y-149.859
G1 X-90.267 Y-149.866
G1 X-90.098 Y-149.968
G1 X-89.755 Y-150.176
G1 X-89.743 Y-150.184
G1 X-89.568 Y-150.289
G1 X-89.392 Y-150.394
G1 X-89.379 Y-150.402
G1 X-89.204 Y-150.506
G1 X-89.203 Y-150.507
G1 X-89.028 Y-150.611
G1 X-89.014 Y-150.619
G1 X-88.844 Y-150.718
G1 X-88.791 Y-150.75
G1 X-88.747 Y-150.777
G1 X-88.691 Y-150.812
G1 X-88.635 Y-150.849
G1 X-88.577 Y-150.888
G1 X-88.507 Y-150.935
G1 X-88.437 Y-150.983
G1 X-88.366 Y-151.032
G1 X-88.283 Y-151.09
G1 X-88.26 Y-151.105
G1 X-88.187 Y-151.155
G1 X-88.114 Y-151.206
G1 X-88.09 Y-151.222
G1 X-88.006 Y-151.279
G1 X-87.982 Y-151.296
G1 X-87.898 Y-151.352
G1 X-87.871 Y-151.369
G1 X-87.787 Y-151.424
G1 X-87.759 Y-151.442
G1 X-87.674 Y-151.496
G1 X-87.669 Y-151.5
G1 X-87.584 Y-151.554
G1 X-87.506 Y-151.601
G1 X-87.42 Y-151.652
G1 X-87.388 Y-151.671
G1 X-87.302 Y-151.721
G1 X-87.246 Y-151.753
G1 X-87.159 Y-151.801
G1 X-87.097 Y-151.834
G1 X-87.009 Y-151.88
G1 X-86.949 Y-151.911
G1 X-86.861 Y-151.955
G1 X-86.796 Y-151.986
G1 X-86.707 Y-152.028
G1 X-86.615 Y-152.069
G1 X-86.525 Y-152.108
G1 X-86.43 Y-152.148
G1 X-86.338 Y-152.184
G1 X-86.265 Y-152.211
G1 X-86.178 Y-152.243
G1 X-86.107 Y-152.268
G1 X-86.018 Y-152.298
G1 X-85.949 Y-152.321
G1 X-85.859 Y-152.349
G1 X-85.82 Y-152.361
G1 X-85.73 Y-152.388
G1 X-85.629 Y-152.416
G1 X-85.538 Y-152.44
G1 X-85.532 Y-152.442
G1 X-85.44 Y-152.466
G1 X-85.341 Y-152.49
G1 X-85.248 Y-152.511
G1 X-85.212 Y-152.519
G1 X-85.118 Y-152.539
G1 X-85.084 Y-152.546
G1 X-84.99 Y-152.565
G1 X-84.923 Y-152.578
G1 X-84.828 Y-152.595
G1 X-84.795 Y-152.601
G1 X-84.7 Y-152.617
G1 X-84.666 Y-152.623
G1 X-84.571 Y-152.638
G1 X-84.537 Y-152.643
G1 X-84.442 Y-152.657
G1 X-84.376 Y-152.666
G1 X-84.281 Y-152.678
G1 X-84.185 Y-152.69
G1 X-84.119 Y-152.698
G1 X-84.024 Y-152.708
G1 X-83.991 Y-152.711
G1 X-83.895 Y-152.72
G1 X-83.8 Y-152.729
G1 X-83.734 Y-152.735
G1 X-83.639 Y-152.742
G1 X-83.544 Y-152.748
G1 X-83.511 Y-152.751
G1 X-83.416 Y-152.757
G1 X-83.322 Y-152.763
G1 X-83.289 Y-152.765
G1 X-83.195 Y-152.77
G1 X-83.162 Y-152.771
G1 X-83.067 Y-152.775
G1 X-83.044 Y-152.776
G1 X-82.959 Y-152.779
G1 X-82.922 Y-152.78
G1 X-82.836 Y-152.782
G1 X-82.799 Y-152.783
G1 X-82.713 Y-152.784
G1 X-82.676
G1 X-82.59
G1 X-82.553
G1 X-82.467 Y-152.783
G1 X-82.43 Y-152.782
G1 X-82.344 Y-152.78
G1 X-82.307 Y-152.779
G1 X-82.221 Y-152.776
G1 X-82.184 Y-152.775
G1 X-82.098 Y-152.771
G1 X-82.062 Y-152.769
G1 X-81.975 Y-152.764
G1 X-81.939 Y-152.761
G1 X-81.852 Y-152.755
G1 X-81.816 Y-152.753
G1 X-81.73 Y-152.746
G1 X-81.693 Y-152.742
G1 X-81.52 Y-152.726
G1 X-81.448 Y-152.719
G1 X-81.361 Y-152.709
G1 X-81.274 Y-152.699
G1 X-81.202 Y-152.689
G1 X-81.116 Y-152.677
G1 X-81.029 Y-152.665
G1 X-80.943 Y-152.653
G1 X-80.87 Y-152.642
G1 X-80.784 Y-152.628
G1 X-80.783
G1 X-80.698 Y-152.614
G1 X-80.661 Y-152.607
G1 X-80.576 Y-152.592
G1 X-80.538 Y-152.585
G1 X-80.453 Y-152.569
G1 X-80.416 Y-152.562
G1 X-80.332 Y-152.545
G1 X-80.328 Y-152.544
G1 X-80.245 Y-152.527
G1 X-80.235 Y-152.526
G1 X-80.158 Y-152.51
G1 X-80.123 Y-152.502
G1 X-80.046 Y-152.485
G1 X-79.97 Y-152.469
G1 X-79.892 Y-152.452
G1 X-79.855 Y-152.444
G1 X-79.777 Y-152.426
G1 X-79.74 Y-152.417
G1 X-79.583 Y-152.379
G1 X-79.504 Y-152.36
G1 X-79.428 Y-152.341
G1 X-79.35 Y-152.32
G1 X-79.311 Y-152.309
G1 X-79.233 Y-152.287
G1 X-79.229 Y-152.286
G1 X-79.151 Y-152.264
G1 X-79.076 Y-152.242
G1 X-78.998 Y-152.218
G1 X-78.992 Y-152.216
G1 X-78.915 Y-152.192
G1 X-78.838 Y-152.167
G1 X-78.762 Y-152.141
G1 X-78.718 Y-152.125
G1 X-78.642 Y-152.098
G1 X-78.564 Y-152.069
G1 X-78.489 Y-152.04
G1 X-78.442 Y-152.022
G1 X-78.368 Y-151.992
G1 X-78.323 Y-151.973
G1 X-78.25 Y-151.942
G1 X-78.168 Y-151.906
G1 X-78.096 Y-151.873
G1 X-78.015 Y-151.835
G1 X-77.944 Y-151.8
G1 X-77.894 Y-151.775
G1 X-77.824 Y-151.739
G1 X-77.709 Y-151.677
G1 X-77.64 Y-151.638
G1 X-77.589 Y-151.609
G1 X-77.521 Y-151.569
G1 X-77.437 Y-151.517
G1 X-77.371 Y-151.475
G1 X-77.308 Y-151.434
G1 X-77.161 Y-151.336
G1 X-77.129 Y-151.315
G1 X-76.983 Y-151.215
G1 X-76.952 Y-151.194
G1 X-76.807 Y-151.092
G1 X-76.788 Y-151.078
G1 X-76.644 Y-150.975
G1 X-76.602 Y-150.945
G1 X-76.458 Y-150.839
G1 X-76.441 Y-150.826
G1 X-76.298 Y-150.719
G1 X-76.279 Y-150.705
G1 X-76.137 Y-150.597
G1 X-76.108 Y-150.574
G1 X-75.966 Y-150.464
G1 X-75.938 Y-150.442
G1 X-75.797 Y-150.33
G1 X-75.79 Y-150.324
G1 X-75.65 Y-150.212
G1 X-75.621 Y-150.189
G1 X-75.483 Y-150.075
G1 X-75.456 Y-150.052
G1 X-75.318 Y-149.936
G1 X-75.31 Y-149.93
G1 X-75.172 Y-149.814
G1 X-75.146 Y-149.791
G1 X-75.01 Y-149.673
G1 X-75.002 Y-149.666
G1 X-74.866 Y-149.548
G1 X-74.838 Y-149.524
G1 X-74.704 Y-149.404
G1 X-74.697 Y-149.398
G1 X-74.563 Y-149.278
G1 X-74.536 Y-149.254
G1 X-74.404 Y-149.133
G1 X-74.273 Y-149.013
G1 X-74.247 Y-148.989
G1 X-74.116 Y-148.866
G1 X-74.108 Y-148.858
G1 X-73.977 Y-148.735
G1 X-73.961 Y-148.72
G1 X-73.831 Y-148.596
G1 X-73.823 Y-148.588
G1 X-73.694 Y-148.464
G1 X-73.678 Y-148.448
G1 X-73.55 Y-148.323
G1 X-73.537 Y-148.31
G1 X-73.333 Y-148.109
G1 X-73.31 Y-148.087
G1 X-73.109 Y-147.884
G1 X-73.087 Y-147.862
G1 X-72.888 Y-147.657
G1 X-72.868 Y-147.636
G1 X-72.67 Y-147.429
G1 X-72.656 Y-147.415
G1 X-72.46 Y-147.207
G1 X-72.442 Y-147.187
G1 X-72.247 Y-146.977
G1 X-72.236 Y-146.965
G1 X-72.042 Y-146.754
G1 X-72.03 Y-146.742
G1 X-71.838 Y-146.53
G1 X-71.829 Y-146.52
G1 X-71.637 Y-146.307
G1 X-71.628 Y-146.298
G1 X-71.437 Y-146.084
G1 X-71.434 Y-146.081
G1 X-71.243 Y-145.867
G1 X-71.236 Y-145.859
G1 X-71.046 Y-145.644
G1 X-70.857 Y-145.431
G1 X-70.669 Y-145.22
G1 X-70.665 Y-145.216
G1 X-70.478 Y-145.005
G1 X-70.295 Y-144.8
G1 X-70.109 Y-144.593
G1 X-69.924 Y-144.388
G1 X-69.744 Y-144.191
G1 X-69.563 Y-143.996
G1 X-69.38 Y-143.801
G1 X-69.199 Y-143.61
G1 X-69.018 Y-143.422
G1 X-68.837 Y-143.237
G1 X-68.744 Y-143.144
G1 X-68.642 Y-143.044
G1 X-68.54 Y-142.944
G1 X-68.437 Y-142.844
G1 X-68.333 Y-142.744
G1 X-68.233 Y-142.65
G1 X-68.133 Y-142.556
G1 X-68.023 Y-142.456
G1 X-68.018 Y-142.451
G1 X-67.914 Y-142.355
G1 X-67.812 Y-142.262
G1 X-67.703 Y-142.165
G1 X-67.594 Y-142.068
G1 X-67.478 Y-141.966
G1 X-67.368 Y-141.869
G1 X-67.262 Y-141.777
G1 X-67.15 Y-141.682
G1 X-67.038 Y-141.586
G1 X-66.925 Y-141.491
G1 X-66.805 Y-141.391
G1 X-66.692 Y-141.295
G1 X-66.583 Y-141.206
G1 X-66.468 Y-141.111
G1 X-66.346 Y-141.012
G1 X-66.23 Y-140.917
G1 X-66.065 Y-140.785
G1 X-65.902 Y-140.654
G1 X-65.741 Y-140.528
G1 X-65.574 Y-140.399
G1 X-65.398 Y-140.264
G1 X-65.229 Y-140.134
G1 X-65.06 Y-140.006
G1 X-64.881 Y-139.872
G1 X-64.705 Y-139.74
G1 X-64.533 Y-139.612
G1 X-64.355 Y-139.481
G1 X-64.348 Y-139.475
G1 X-64.169 Y-139.343
G1 X-63.99 Y-139.211
G1 X-63.982 Y-139.205
G1 X-63.803 Y-139.072
G1 X-63.623 Y-138.94
G1 X-63.614 Y-138.933
G1 X-63.43 Y-138.797
G1 X-63.429 Y-138.796
G1 X-63.246 Y-138.66
G1 X-63.244 Y-138.659
G1 X-63.061 Y-138.523
G1 X-63.059 Y-138.521
G1 X-62.876 Y-138.385
G1 X-62.865 Y-138.377
G1 X-62.683 Y-138.24
G1 X-62.671 Y-138.231
G1 X-62.489 Y-138.093
G1 X-62.485 Y-138.09
G1 X-62.304 Y-137.952
G1 X-62.291 Y-137.943
G1 X-62.111 Y-137.804
G1 X-62.098 Y-137.794
G1 X-61.918 Y-137.654
G1 X-61.911 Y-137.649
G1 X-61.406 Y-137.254
G1 X-61.404 Y-137.252
G1 X-60.9 Y-136.857
G1 X-60.892 Y-136.852
G1 X-60.388 Y-136.455
G1 X-60.387 Y-136.454
G1 X-59.883 Y-136.057
G1 X-59.379 Y-135.659
G1 X-59.374 Y-135.656
G1 X-58.871 Y-135.258
G1 X-58.368 Y-134.86
G1 X-58.364 Y-134.857
G1 X-57.862 Y-134.458
G1 X-57.359 Y-134.058
G1 X-56.856 Y-133.659
G1 X-56.354 Y-133.26
G1 X-55.851 Y-132.861
G1 X-55.351 Y-132.464
G1 X-54.85 Y-132.067
G1 X-54.847 Y-132.065
G1 X-54.346 Y-131.667
G1 X-53.846 Y-131.271
G1 X-53.343 Y-130.873
G1 X-52.842 Y-130.477
G1 X-52.342 Y-130.084
G1 X-51.841 Y-129.689
G1 X-51.339 Y-129.296
G1 X-50.838 Y-128.904
G1 X-50.337 Y-128.514
G1 X-49.832 Y-128.123
G1 X-49.829 Y-128.12
G1 X-49.759 Y-128.066
G1 X-49.692 Y-128.013
G1 X-49.556 Y-127.908
G1 X-49.489 Y-127.856
G1 X-49.421 Y-127.804
G1 X-49.367 Y-127.762
G1 X-49.312 Y-127.721
G1 X-49.247 Y-127.672
G1 X-49.193 Y-127.632
G1 X-49.151 Y-127.601
G1 X-49.098 Y-127.563
G1 X-49.046 Y-127.526
G1 X-49.005 Y-127.498
G1 X-48.965 Y-127.471
G1 X-48.913 Y-127.438
G1 X-48.874 Y-127.412
G1 X-48.848 Y-127.396
G1 X-48.81 Y-127.373
G1 X-48.771 Y-127.351
G1 X-48.747 Y-127.337
G1 X-48.723 Y-127.325
G1 X-48.686 Y-127.305
G1 X-48.652 Y-127.288
G1 X-47.604 Y-126.793
G1 X-46.534 Y-126.289
G1 X-45.465 Y-125.789
G1 X-44.392 Y-125.29
G1 X-43.316 Y-124.792
G1 X-42.24 Y-124.295
G1 X-41.163 Y-123.801
G1 X-40.082 Y-123.306
G1 X-39.002 Y-122.812
G1 X-37.922 Y-122.319
G1 X-36.84 Y-121.827
G1 X-34.673 Y-120.841
G1 X-34.67 Y-120.84
G1 X-33.588 Y-120.346
G1 X-32.506 Y-119.854
G1 X-32.503 Y-119.852
G1 X-31.421 Y-119.358
G1 X-31.418 Y-119.357
G1 X-30.336 Y-118.862
G1 X-30.331 Y-118.86
G1 X-29.25 Y-118.363
G1 X-28.169 Y-117.865
G1 X-28.163 Y-117.863
G1 X-27.084 Y-117.364
G1 X-27.08 Y-117.362
G1 X-26.003 Y-116.862
G1 X-25.995 Y-116.859
G1 X-24.918 Y-116.356
G1 X-24.912 Y-116.353
G1 X-23.837 Y-115.848
G1 X-23.831 Y-115.845
G1 X-22.758 Y-115.338
G1 X-22.702 Y-115.311
G1 X-22.673 Y-115.297
G1 X-22.606 Y-115.263
G1 X-22.578 Y-115.248
G1 X-22.426 Y-115.162
G1 X-22.398 Y-115.145
G1 X-22.324 Y-115.1
G1 X-22.296 Y-115.082
G1 X-22.287 Y-115.077
G1 X-22.259 Y-115.059
G1 X-22.118 Y-114.962
G1 X-22.09 Y-114.942
G1 X-22.013 Y-114.885
G1 X-21.985 Y-114.864
G1 X-21.907 Y-114.802
G1 X-21.88 Y-114.78
G1 X-21.853 Y-114.757
G1 X-21.826 Y-114.735
G1 X-21.742 Y-114.662
G1 X-21.716 Y-114.639
G1 X-21.625 Y-114.554
G1 X-21.601 Y-114.53
G1 X-21.514 Y-114.442
G1 X-21.49 Y-114.417
G1 X-21.443 Y-114.367
G1 X-21.421 Y-114.342
G1 X-21.324 Y-114.232
G1 X-21.303 Y-114.206
G1 X-21.242 Y-114.131
G1 X-21.222 Y-114.105
G1 X-21.133 Y-113.985
G1 X-21.114 Y-113.958
G1 X-21.072 Y-113.897
G1 X-21.054 Y-113.871
G1 X-20.991 Y-113.773
G1 X-20.931 Y-113.673
G1 X-20.915 Y-113.645
G1 X-20.866 Y-113.556
G1 X-20.852 Y-113.529
G1 X-20.777 Y-113.377
G1 X-20.764 Y-113.35
G1 X-20.679 Y-113.149
G1 X-20.669 Y-113.121
G1 X-20.613 Y-112.962
G1 X-20.604 Y-112.935
G3 X-20.536 Y-112.689 I-3.022 J0.974
G1 X-20.529 Y-112.661
G1 X-20.504 Y-112.547
G1 X-20.484 Y-112.432
G1 X-20.48 Y-112.405
G1 X-20.454 Y-112.205
G1 X-20.451 Y-112.167
G1 X-20.439 Y-111.99
G1 X-20.437 Y-111.951
G1 X-20.435 Y-111.797
G1 Y-111.757
G1 X-20.44 Y-111.619
G1 X-20.442 Y-111.578
G1 X-20.452 Y-111.447
G1 X-20.456 Y-111.405
G1 X-20.469 Y-111.286
G1 X-20.475 Y-111.244
G1 X-20.494 Y-111.12
G1 X-20.501 Y-111.078
G1 X-20.519 Y-110.985
G1 X-20.528 Y-110.942
G1 X-20.547 Y-110.855
G1 X-20.557 Y-110.811
G1 X-20.583 Y-110.708
G1 X-20.595 Y-110.665
G1 X-20.615 Y-110.592
G1 X-20.628 Y-110.548
G1 X-20.652 Y-110.473
G1 X-20.666 Y-110.429
G1 X-20.696 Y-110.34
G1 X-20.711 Y-110.297
G1 X-20.73 Y-110.246
G1 X-20.746 Y-110.202
G1 X-20.776 Y-110.126
G1 X-20.793 Y-110.083
G1 X-20.818 Y-110.025
G1 X-20.836 Y-109.982
G1 X-20.856 Y-109.937
G1 X-20.875 Y-109.894
G1 X-20.91 Y-109.817
G1 X-20.93 Y-109.775
G1 X-20.96 Y-109.715
G1 X-20.981 Y-109.674
G1 X-20.997 Y-109.641
G1 X-21.019 Y-109.6
G1 X-21.054 Y-109.534
G1 X-21.076 Y-109.494
G1 X-21.105 Y-109.443
G1 X-21.127 Y-109.404
G1 X-21.14 Y-109.383
G1 X-21.162 Y-109.344
G1 X-21.21 Y-109.265
G1 X-21.233 Y-109.228
G1 X-21.253 Y-109.196
G1 X-21.549 Y-108.735
G1 X-21.562 Y-108.714
G1 X-21.862 Y-108.255
G1 X-21.873 Y-108.238
G1 X-22.175 Y-107.78
G1 X-22.185 Y-107.766
G1 X-22.491 Y-107.309
G1 X-22.501 Y-107.293
G1 X-22.809 Y-106.838
G1 X-22.815 Y-106.83
G1 X-23.125 Y-106.375
G1 X-23.132 Y-106.366
G1 X-23.444 Y-105.912
G1 X-23.449 Y-105.904
G1 X-23.762 Y-105.451
G1 X-23.765 Y-105.447
G1 X-24.079 Y-104.994
G1 X-24.082 Y-104.99
G1 X-24.396 Y-104.539
G1 X-24.709 Y-104.089
G1 X-25.021 Y-103.638
G1 X-25.332 Y-103.189
G1 X-25.639 Y-102.743
G1 X-25.943 Y-102.299
G1 X-26.243 Y-101.856
G1 X-26.54 Y-101.414
G1 X-26.833 Y-100.972
G1 X-27.12 Y-100.533
G1 X-27.403 Y-100.093
G1 X-27.68 Y-99.654
G1 X-27.95 Y-99.218
G1 X-28.154 Y-98.881
G1 X-27.974 Y-98.782
G1 X-27.754 Y-98.664
G1 X-27.529 Y-98.546
G1 X-27.299 Y-98.427
G1 X-27.063 Y-98.307
G1 X-26.823 Y-98.186
G1 X-26.578 Y-98.063
G1 X-26.33 Y-97.939
G1 X-26.329 Y-97.938
G1 X-26.078 Y-97.812
G1 X-26.075 Y-97.811
G1 X-25.825 Y-97.685
G1 X-25.816 Y-97.681
G1 X-25.567 Y-97.554
G1 X-25.555 Y-97.548
G1 X-25.306 Y-97.421
G1 X-25.29 Y-97.413
G1 X-25.042 Y-97.284
G1 X-25.022 Y-97.274
G1 X-24.775 Y-97.144
G1 X-24.752 Y-97.131
G1 X-24.507 Y-96.999
G1 X-24.48 Y-96.984
G1 X-24.236 Y-96.85
G1 X-24.205 Y-96.833
G1 X-23.963 Y-96.696
G1 X-23.928 Y-96.676
G1 X-23.688 Y-96.536
G1 X-23.649 Y-96.513
G1 X-23.412 Y-96.371
G1 X-23.405 Y-96.367
G1 X-23.322 Y-96.316
G1 X-23.243 Y-96.269
G1 X-23.155 Y-96.217
G1 X-23.062 Y-96.162
G1 X-22.967 Y-96.106
G1 X-22.956 Y-96.1
G1 X-22.861 Y-96.043
G1 X-22.846 Y-96.034
G1 X-22.751 Y-95.977
G1 X-22.728 Y-95.963
G1 X-22.633 Y-95.905
G1 X-22.605 Y-95.887
G1 X-22.511 Y-95.828
G1 X-22.475 Y-95.805
G1 X-22.382 Y-95.745
G1 X-22.339 Y-95.717
G1 X-22.247 Y-95.655
G1 X-22.201 Y-95.623
G1 X-22.11 Y-95.56
G1 X-22.057 Y-95.522
G1 X-21.968 Y-95.457
G1 X-21.905 Y-95.411
G1 X-21.819 Y-95.344
G1 X-21.753 Y-95.293
G1 X-21.669 Y-95.224
G1 X-21.593 Y-95.161
G1 X-21.512 Y-95.091
G1 X-21.436 Y-95.024
G1 X-21.357 Y-94.951
G1 X-21.275 Y-94.873
G1 X-21.199 Y-94.798
G1 X-21.109 Y-94.706
G1 X-21.037 Y-94.628
G1 X-20.949 Y-94.53
G1 X-20.88 Y-94.449
G1 X-20.788 Y-94.338
G1 X-20.723 Y-94.255
G1 X-20.63 Y-94.13
G1 X-20.57 Y-94.044
G1 X-20.479 Y-93.908
G1 X-20.422 Y-93.819
G1 X-20.333 Y-93.669
G1 X-20.281 Y-93.577
G1 X-20.236 Y-93.493
G1 X-19.683 Y-92.427
G1 X-19.676 Y-92.413
G1 X-19.127 Y-91.344
G1 X-19.121 Y-91.331
G1 X-18.576 Y-90.257
G1 X-18.57 Y-90.245
G1 X-18.03 Y-89.168
G1 X-18.024 Y-89.157
G1 X-17.488 Y-88.077
G1 X-17.482 Y-88.066
G1 X-16.95 Y-86.983
G1 X-16.945 Y-86.973
G1 X-16.416 Y-85.888
G1 X-16.411 Y-85.879
G1 X-15.885 Y-84.791
G1 X-15.881 Y-84.783
G1 X-15.357 Y-83.693
G1 X-15.354 Y-83.685
G1 X-14.833 Y-82.593
G1 X-14.83 Y-82.586
G1 X-14.311 Y-81.492
G1 X-14.308 Y-81.487
G1 X-13.792 Y-80.391
G1 X-13.789 Y-80.386
G1 X-13.275 Y-79.289
G1 X-13.273 Y-79.285
G1 X-12.759 Y-78.187
G1 X-12.758 Y-78.183
G1 X-12.246 Y-77.085
G1 X-12.245 Y-77.082
G1 X-11.734 Y-75.983
G1 X-11.733 Y-75.981
G1 X-11.222 Y-74.882
G1 Y-74.881
G1 X-10.712 Y-73.781
G1 X-10.203 Y-72.682
G1 X-9.694 Y-71.584
G1 X-9.184 Y-70.487
G1 X-8.675 Y-69.392
G1 X-8.166 Y-68.299
G1 X-7.654 Y-67.205
G1 Y-67.204
G1 X-7.585 Y-67.058
G1 X-7.582 Y-67.051
G1 X-7.514 Y-66.904
G1 X-7.511 Y-66.897
G1 X-7.443 Y-66.75
G1 X-7.438 Y-66.74
G1 X-7.371 Y-66.593
G1 X-7.366 Y-66.582
G1 X-7.299 Y-66.435
G1 X-7.294 Y-66.423
G1 X-7.227 Y-66.275
G1 X-7.222 Y-66.263
G1 X-7.156 Y-66.114
G1 X-7.15 Y-66.101
G1 X-7.085 Y-65.953
G1 X-7.079 Y-65.938
G1 X-7.015 Y-65.789
G1 X-7.007 Y-65.773
G1 X-6.944 Y-65.623
G1 X-6.937 Y-65.606
G1 X-6.874 Y-65.456
G1 X-6.867 Y-65.438
G1 X-6.805 Y-65.288
G1 X-6.797 Y-65.268
G1 X-6.736 Y-65.118
G1 X-6.728 Y-65.097
G1 X-6.668 Y-64.946
G1 X-6.659 Y-64.924
G1 X-6.601 Y-64.773
G1 X-6.592 Y-64.751
G1 X-6.535 Y-64.599
G1 X-6.526 Y-64.574
G1 X-6.47 Y-64.422
G1 X-6.46 Y-64.396
G1 X-6.405 Y-64.243
G1 X-6.396 Y-64.216
G1 X-6.343 Y-64.063
G1 X-6.333 Y-64.035
G1 X-6.281 Y-63.882
G1 X-6.271 Y-63.852
G1 X-6.221 Y-63.698
G1 X-6.211 Y-63.667
G1 X-6.162 Y-63.513
G1 X-6.152 Y-63.481
G1 X-6.105 Y-63.326
G1 X-6.095 Y-63.292
G1 X-6.049 Y-63.137
G1 X-6.044 Y-63.117
G1 X-5.749 Y-62.083
G1 X-5.747 Y-62.077
G1 X-5.455 Y-61.043
G1 X-5.453 Y-61.038
G1 X-5.162 Y-60.002
G1 X-5.161 Y-59.997
G1 X-4.871 Y-58.962
G1 X-4.87 Y-58.957
G1 X-4.582 Y-57.921
G1 X-4.581 Y-57.916
G1 X-4.295 Y-56.88
G1 X-4.293 Y-56.875
G1 X-4.009 Y-55.838
G1 X-4.007 Y-55.834
G1 X-3.724 Y-54.796
G1 X-3.723 Y-54.792
G1 X-3.441 Y-53.754
G1 X-3.44 Y-53.751
G1 X-3.159 Y-52.712
G1 X-3.158 Y-52.709
G1 X-2.878 Y-51.67
G1 X-2.877 Y-51.667
G1 X-2.598 Y-50.628
G1 X-2.597 Y-50.625
G1 X-2.319 Y-49.586
G1 Y-49.583
G1 X-2.042 Y-48.543
G1 X-2.041 Y-48.541
G1 X-1.765 Y-47.501
G1 X-1.764 Y-47.499
G1 X-1.488 Y-46.459
G1 Y-46.457
G1 X-1.213 Y-45.417
G1 Y-45.415
G1 X-0.938 Y-44.375
G1 Y-44.374
G1 X-0.664 Y-43.333
G1 X-0.663 Y-43.332
G1 X-0.39 Y-42.292
G1 X-0.116 Y-41.251
G1 X0.157 Y-40.21
G1 X0.43 Y-39.169
G1 X0.703 Y-38.129
G1 X0.704 Y-38.126
G1 X0.732 Y-38.019
G1 X0.733 Y-38.015
G1 X0.761 Y-37.907
G1 X0.763 Y-37.9
G1 X0.791 Y-37.792
G1 X0.793 Y-37.783
G1 X0.821 Y-37.675
G1 X0.823 Y-37.666
G1 X0.85 Y-37.558
G1 X0.853 Y-37.545
G1 X0.88 Y-37.436
G1 X0.883 Y-37.423
G1 X0.909 Y-37.315
G1 X0.913 Y-37.298
G1 X0.939 Y-37.19
G1 X0.943 Y-37.173
G1 X0.968 Y-37.065
G1 X0.972 Y-37.045
G1 X0.997 Y-36.936
G1 X1.001 Y-36.915
G1 X1.025 Y-36.807
G1 X1.03 Y-36.783
G1 X1.053 Y-36.674
G1 X1.058 Y-36.649
G1 X1.08 Y-36.54
G1 X1.082 Y-36.527
G1 Z-7.62
G1 X1.085 Y-36.513
G1 X1.106 Y-36.404
G1 X1.111 Y-36.375
G1 X1.131 Y-36.266
G1 X1.137 Y-36.236
G1 X1.156 Y-36.126
G1 X1.161 Y-36.093
G1 X1.179 Y-35.984
G1 X1.184 Y-35.95
G1 X1.201 Y-35.84
G1 X1.206 Y-35.803
G1 X1.221 Y-35.693
G1 X1.226 Y-35.655
G1 X1.24 Y-35.545
G1 X1.245 Y-35.505
G1 X1.257 Y-35.395
G1 X1.262 Y-35.352
G1 X1.273 Y-35.242
G1 X1.277 Y-35.198
G1 X1.286 Y-35.087
G1 X1.29 Y-35.041
G1 X1.298 Y-34.93
G1 X1.299 Y-34.905
G1 X1.39 Y-33.46
G1 Y-33.456
G1 X1.479 Y-32.011
G1 X1.48 Y-32.008
G1 X1.567 Y-30.563
G1 Y-30.559
G1 X1.652 Y-29.114
G1 X1.653 Y-29.11
G1 X1.737 Y-27.665
G1 Y-27.662
G1 X1.819 Y-26.216
G1 Y-26.213
G1 X1.901 Y-24.767
G1 Y-24.764
G1 X1.981 Y-23.318
G1 Y-23.316
G1 X2.06 Y-21.87
G1 Y-21.867
G1 X2.138 Y-20.421
G1 Y-20.419
G1 X2.215 Y-18.973
G1 Y-18.971
G1 X2.291 Y-17.524
G1 Y-17.523
G1 X2.366 Y-16.076
G1 Y-16.075
G1 X2.44 Y-14.628
G1 X2.441 Y-14.627
G1 X2.515 Y-13.18
G1 Y-13.179
G1 X2.588 Y-11.733
G1 X2.661 Y-10.285
G1 X2.734 Y-8.838
G1 X2.807 Y-7.391
G1 X2.879 Y-5.944
G1 X2.952 Y-4.498
G1 X3.025 Y-3.052
G1 X3.098 Y-1.606
G1 X3.17 Y-0.172
G1 X3.171 Y-0.166
G1 Y-0.161
G1 X3.172 Y-0.144
G1 X3.175 Y-0.118
G1 X3.178 Y-0.082
G1 Y-0.08
G1 X3.181 Y-0.041
G1 X3.182 Y-0.029
G1 X3.185 Y0.01
G1 X3.187 Y0.03
G1 X3.19 Y0.07
G1 X3.192 Y0.1
G1 X3.195 Y0.139
G1 X3.197 Y0.178
G1 X3.199 Y0.217
G1 X3.201 Y0.266
G1 X3.203 Y0.305
G1 X3.205 Y0.365
G1 Y0.404
G1 X3.206 Y0.474
G1 Y0.512
G1 X3.204 Y0.595
G1 X3.203 Y0.633
G1 X3.199 Y0.728
G1 X3.197 Y0.765
G1 X3.189 Y0.874
G1 X3.185 Y0.911
G1 X3.171 Y1.035
G1 X3.167 Y1.071
G1 X3.145 Y1.21
G1 X3.139 Y1.245
G1 X3.107 Y1.402
G1 X3.099 Y1.436
G1 X3.054 Y1.609
G1 X3.044 Y1.642
G1 X2.982 Y1.831
G1 X2.971 Y1.863
G1 X2.889 Y2.067
G1 X2.876 Y2.098
G1 X2.825 Y2.207
G1 X2.77 Y2.314
G1 X2.755 Y2.343
G3 X2.623 Y2.567 I-2.799 J-1.498
G1 X2.605 Y2.595
G1 X2.491 Y2.759
G1 X2.465 Y2.795
G1 X2.391 Y2.891
G1 X2.363 Y2.926
G1 X2.29 Y3.014
G1 X2.26 Y3.049
G1 X2.188 Y3.13
G1 X2.155 Y3.165
G1 X2.085 Y3.239
G1 X2.051 Y3.274
G1 X1.98 Y3.344
G1 X1.944 Y3.378
G1 X1.874 Y3.443
G1 X1.836 Y3.477
G1 X1.766 Y3.539
G1 X1.727 Y3.572
G1 X1.656 Y3.63
G1 X1.616 Y3.662
G1 X1.543 Y3.718
G1 X1.502 Y3.75
G1 X1.428 Y3.804
G1 X1.385 Y3.834
G1 X1.31 Y3.886
G1 X1.266 Y3.915
G1 X1.188 Y3.965
G1 X1.144 Y3.993
G1 X1.062 Y4.042
G1 X1.017 Y4.069
G1 X0.933 Y4.116
G1 X0.887 Y4.141
G1 X0.798 Y4.187
G1 X0.752 Y4.211
G1 X0.659 Y4.256
G1 X0.611 Y4.278
G1 X0.513 Y4.321
G1 X0.465 Y4.341
G1 X0.361 Y4.383
G1 X0.313 Y4.402
G1 X0.202 Y4.442
G1 X0.154 Y4.458
G1 X0.035 Y4.496
G1 X-0.014 Y4.51
G1 X-0.141 Y4.545
G1 X-0.189 Y4.557
G1 X-0.326 Y4.588
G1 X-0.374 Y4.598
G1 X-0.521 Y4.625
G1 X-0.568 Y4.632
G1 X-0.67 Y4.647
G1 X-0.88 Y4.672
G1 X-0.923 Y4.677
G1 X-1.133 Y4.701
G1 X-1.173 Y4.705
G1 X-1.385 Y4.725
G1 X-1.422 Y4.729
G1 X-1.635 Y4.747
G1 X-1.669 Y4.749
G1 X-1.882 Y4.765
G1 X-1.914 Y4.767
G1 X-2.128 Y4.781
G1 X-2.158 Y4.783
G1 X-2.372 Y4.795
G1 X-2.399 Y4.796
G1 X-2.614 Y4.806
G1 X-2.639 Y4.807
G1 X-2.854 Y4.815
G1 X-2.876 Y4.816
G1 X-3.092 Y4.823
G1 X-3.112 Y4.824
G1 X-3.328 Y4.829
G1 X-3.345 Y4.83
G1 X-3.562 Y4.834
G1 X-3.576
G1 X-3.793 Y4.838
G1 X-3.806
G1 X-4.023 Y4.841
G1 X-4.033
G1 X-4.25 Y4.843
G1 X-4.257
G1 X-4.475 Y4.844
G1 X-4.48
G1 X-4.697 Y4.845
G1 X-4.7
G1 X-4.917 Y4.846
G1 X-5.134 Y4.847
G1 X-5.348 Y4.848
G1 X-5.559 Y4.85
G1 X-5.767 Y4.851
G1 X-5.973 Y4.854
G1 X-6.173 Y4.857
G1 X-6.238 Y4.858
G1 X-6.305 Y4.86
G1 X-6.377 Y4.862
G1 X-6.454 Y4.865
G1 X-6.536 Y4.869
G1 X-6.621 Y4.872
G1 X-6.624
G1 X-6.71 Y4.875
G1 X-6.718 Y4.876
G1 X-6.804 Y4.879
G1 X-6.816
G1 X-6.903 Y4.882
G1 X-6.92 Y4.883
G1 X-7.007 Y4.885
G1 X-7.029 Y4.886
G1 X-7.115 Y4.887
G1 X-7.143 Y4.888
G1 X-7.229 Y4.889
G1 X-7.261
G1 X-7.347
G1 X-7.384
G1 X-7.47 Y4.888
G1 X-7.512 Y4.887
G1 X-7.598 Y4.885
G1 X-7.645 Y4.884
G1 X-7.731 Y4.881
G1 X-7.783 Y4.878
G1 X-7.869 Y4.874
G1 X-7.926 Y4.87
G1 X-8.012 Y4.864
G1 X-8.074 Y4.859
G1 X-8.159 Y4.851
G1 X-8.227 Y4.844
G1 X-8.311 Y4.834
G1 X-8.384 Y4.825
G1 X-8.468 Y4.813
G1 X-8.545 Y4.802
G1 X-8.63 Y4.788
G1 X-8.712 Y4.774
G1 X-8.795 Y4.758
G1 X-8.882 Y4.74
G1 X-8.965 Y4.722
G1 X-9.013 Y4.711
G1 X-9.763 Y4.535
G1 X-9.771 Y4.533
G1 X-10.521 Y4.355
G1 X-10.528 Y4.353
G1 X-11.278 Y4.173
G1 X-11.285 Y4.171
G1 X-12.035 Y3.989
G1 X-12.042 Y3.987
G1 X-12.791 Y3.804
G1 X-12.797 Y3.802
G1 X-13.546 Y3.617
G1 X-13.553 Y3.615
G1 X-14.301 Y3.429
G1 X-14.307 Y3.427
G1 X-15.056 Y3.239
G1 X-15.062 Y3.237
G1 X-15.81 Y3.048
G1 X-15.815 Y3.046
G1 X-16.564 Y2.855
G1 X-16.569 Y2.854
G1 X-17.317 Y2.662
G1 X-17.321 Y2.661
G1 X-18.069 Y2.467
G1 X-18.074 Y2.466
G1 X-18.821 Y2.271
G1 X-18.825 Y2.27
G1 X-19.573 Y2.075
G1 X-19.577 Y2.074
G1 X-20.324 Y1.877
G1 X-20.327 Y1.876
G1 X-21.074 Y1.679
G1 X-21.078 Y1.678
G1 X-21.824 Y1.48
G1 X-21.827 Y1.479
G1 X-22.574 Y1.281
G1 X-22.576 Y1.28
G1 X-23.323 Y1.08
G1 X-23.325
G1 X-24.071 Y0.88
G1 X-24.073 Y0.879
G1 X-24.819 Y0.679
G1 X-24.821 Y0.678
G1 X-25.567 Y0.478
G1 X-25.568 Y0.477
G1 X-26.314 Y0.276
G1 X-26.315
G1 X-27.06 Y0.074
G1 X-28.515 Y-0.319
G1 X-29.969 Y-0.713
G1 X-31.423 Y-1.107
G1 X-32.878 Y-1.501
G1 X-32.879 Y-1.502
G1 X-34.333 Y-1.896
G1 X-34.334 Y-1.897
G1 X-35.787 Y-2.292
G1 X-35.789
G1 X-37.242 Y-2.688
G1 X-37.244 Y-2.689
G1 X-38.697 Y-3.085
G1 X-38.699 Y-3.086
G1 X-40.152 Y-3.483
G1 X-40.153 Y-3.484
G1 X-41.606 Y-3.882
G1 X-41.608 Y-3.883
G1 X-43.06 Y-4.282
G1 X-43.063
G1 X-44.515 Y-4.683
G1 X-44.517
G1 X-45.969 Y-5.085
G1 X-45.971
G1 X-47.423 Y-5.488
G1 X-47.425
G1 X-48.876 Y-5.892
G1 X-48.879 Y-5.893
G1 X-50.33 Y-6.298
G1 X-50.333
G1 X-51.783 Y-6.705
G1 X-51.786
G1 X-53.236 Y-7.113
G1 X-53.239 Y-7.114
G1 X-54.688 Y-7.523
G1 X-54.691 Y-7.524
G1 X-56.14 Y-7.935
G1 X-56.143 Y-7.936
G1 X-57.592 Y-8.348
G1 X-57.595 Y-8.349
G1 X-59.042 Y-8.763
G1 X-59.046 Y-8.764
G1 X-60.493 Y-9.18
G1 X-60.497 Y-9.181
G1 X-61.943 Y-9.598
G1 X-61.963 Y-9.604
G1 X-62.114 Y-9.649
G1 X-62.147 Y-9.659
G1 X-62.297 Y-9.705
G1 X-62.33 Y-9.715
G1 X-62.48 Y-9.763
G1 X-62.513 Y-9.774
G1 X-62.662 Y-9.823
G1 X-62.692 Y-9.833
G1 X-62.84 Y-9.884
G1 X-62.871 Y-9.895
G1 X-63.019 Y-9.947
G1 X-63.047 Y-9.957
G1 X-63.195 Y-10.011
G1 X-63.222 Y-10.022
G1 X-63.37 Y-10.077
G1 X-63.398 Y-10.087
G1 X-63.545 Y-10.144
G1 X-63.57 Y-10.154
G1 X-63.717 Y-10.212
G1 X-63.739 Y-10.221
G1 X-63.885 Y-10.28
G1 X-63.91 Y-10.291
G1 X-64.056 Y-10.351
G1 X-64.079 Y-10.36
G1 X-64.224 Y-10.422
G1 X-64.245 Y-10.431
G1 X-64.39 Y-10.494
G1 X-64.411 Y-10.503
G1 X-64.555 Y-10.566
G1 X-64.575 Y-10.575
G1 X-64.718 Y-10.64
G1 X-64.737 Y-10.648
G1 X-64.88 Y-10.714
G1 X-64.899 Y-10.722
G1 X-65.041 Y-10.789
G1 X-65.058 Y-10.796
G1 X-65.2 Y-10.863
G1 X-65.217 Y-10.872
G1 X-65.359 Y-10.94
G1 X-65.374 Y-10.947
G1 X-65.516 Y-11.015
G1 X-65.531 Y-11.023
G1 X-65.672 Y-11.092
G1 X-65.685 Y-11.099
G1 X-65.826 Y-11.169
G1 X-65.837 Y-11.174
G1 X-65.977 Y-11.245
G1 X-65.993 Y-11.253
G1 X-66.309 Y-11.414
G1 X-66.325 Y-11.422
G1 X-66.641 Y-11.585
G1 X-66.655 Y-11.593
G1 X-66.97 Y-11.757
G1 X-66.985 Y-11.765
G1 X-67.299 Y-11.931
G1 X-67.311 Y-11.938
G1 X-67.624 Y-12.105
G1 X-67.634 Y-12.111
G1 X-67.947 Y-12.28
G1 X-67.959 Y-12.286
G1 X-68.271 Y-12.456
G1 X-68.28 Y-12.461
G1 X-68.591 Y-12.633
G1 X-68.598 Y-12.637
G1 X-68.91 Y-12.809
G1 X-68.918 Y-12.813
G1 X-69.228 Y-12.986
G1 X-69.234 Y-12.989
G1 X-69.544 Y-13.163
G1 X-69.549 Y-13.165
G1 X-69.859 Y-13.34
G1 X-69.862 Y-13.341
G1 X-70.172 Y-13.516
G1 X-70.175 Y-13.518
G1 X-70.485 Y-13.692
G1 X-70.486 Y-13.693
G1 X-70.796 Y-13.868
G1 X-71.105 Y-14.043
G1 X-71.414 Y-14.217
G1 X-71.722 Y-14.391
G1 X-72.028 Y-14.563
G1 X-72.334 Y-14.735
G1 X-72.639 Y-14.905
G1 X-72.943 Y-15.074
G1 X-73.246 Y-15.241
G1 X-73.554 Y-15.41
G1 X-73.562 Y-15.414
G1 X-73.649 Y-15.462
G1 X-73.679 Y-15.479
G1 X-73.766 Y-15.528
G1 X-73.784 Y-15.538
G1 X-73.871 Y-15.588
G1 X-73.888 Y-15.598
G1 X-73.975 Y-15.649
G1 X-73.99 Y-15.657
G1 X-74.076 Y-15.708
G1 X-74.083 Y-15.712
G1 X-74.17 Y-15.764
G1 X-74.176 Y-15.767
G1 X-74.263 Y-15.819
G1 X-74.264
G1 X-74.35 Y-15.871
G1 X-74.431 Y-15.919
G1 X-74.509 Y-15.965
G1 X-74.583 Y-16.009
G1 X-74.653 Y-16.049
G1 X-74.721 Y-16.088
G1 X-74.784 Y-16.123
G1 X-74.841 Y-16.155
G1 X-74.896 Y-16.184
G1 X-74.947 Y-16.21
G1 X-74.993 Y-16.233
G1 X-75.034 Y-16.252
G1 X-75.071 Y-16.269
G1 X-75.106 Y-16.285
G1 X-75.133 Y-16.296
G1 X-75.158 Y-16.305
G1 X-75.182 Y-16.314
G1 X-75.196 Y-16.319
G1 X-75.218 Y-16.325
G1 X-75.243 Y-16.333
G1 X-75.271 Y-16.34
G1 X-75.302 Y-16.348
G1 X-75.335 Y-16.355
G1 X-75.37 Y-16.363
G1 X-75.408 Y-16.37
G1 X-75.448 Y-16.378
G1 X-75.491 Y-16.385
G1 X-75.537 Y-16.392
G1 X-75.585 Y-16.399
G1 X-75.636 Y-16.405
G1 X-75.69 Y-16.412
G1 X-75.743 Y-16.417
G1 X-75.799 Y-16.423
G1 X-75.859 Y-16.428
G1 X-75.92 Y-16.433
G1 X-75.982 Y-16.437
G1 X-76.046 Y-16.441
G1 X-76.111 Y-16.445
G1 X-76.178 Y-16.448
G1 X-76.249 Y-16.452
G1 X-76.311 Y-16.454
G1 X-76.394 Y-16.456
G1 X-76.471 Y-16.457
G1 X-76.553
G1 X-76.64 Y-16.456
G1 X-76.732 Y-16.453
G1 X-76.827 Y-16.449
G1 X-76.927 Y-16.444
G1 X-77.033 Y-16.438
G1 X-77.142 Y-16.432
G1 X-77.256 Y-16.424
G1 X-77.374 Y-16.416
G1 X-77.496 Y-16.407
G1 X-77.623 Y-16.397
G1 X-77.751 Y-16.388
G1 X-77.756
G1 X-77.883 Y-16.378
G1 X-77.896 Y-16.377
G1 X-78.023 Y-16.369
G1 X-78.038 Y-16.368
G1 X-78.165 Y-16.36
G1 X-78.183 Y-16.359
G1 X-78.31 Y-16.351
G1 X-78.335 Y-16.35
G1 X-78.462 Y-16.344
G1 X-78.487 Y-16.342
G1 X-78.614 Y-16.337
G1 X-78.649 Y-16.336
G1 X-78.776 Y-16.332
G1 X-78.813 Y-16.331
G1 X-78.94 Y-16.328
G1 X-78.98
G1 X-79.107 Y-16.327
G1 X-79.152
G1 X-79.279 Y-16.328
G1 X-79.31
G1 X-79.357 Y-16.329
G1 X-79.384
G1 X-79.432 Y-16.331
G1 X-79.458
G1 X-79.506 Y-16.333
G1 X-79.531 Y-16.334
G1 X-79.579 Y-16.336
G1 X-79.606 Y-16.337
G1 X-79.654 Y-16.34
G1 X-79.686 Y-16.341
G1 X-79.734 Y-16.344
G1 X-79.767 Y-16.346
G1 X-79.815 Y-16.35
G1 X-79.854 Y-16.353
G1 X-79.902 Y-16.357
G1 X-79.935 Y-16.36
G1 X-79.984 Y-16.364
G1 X-80.029 Y-16.369
G1 X-80.077 Y-16.374
G1 X-80.117 Y-16.378
G1 X-80.165 Y-16.384
G1 X-80.218 Y-16.391
G1 X-80.266 Y-16.398
G1 X-80.313 Y-16.405
G1 X-80.361 Y-16.412
G1 X-80.409 Y-16.42
G1 X-80.456 Y-16.428
G1 X-80.517 Y-16.439
G1 X-80.564 Y-16.447
G1 X-80.619 Y-16.458
G1 X-80.666 Y-16.468
G1 X-80.73 Y-16.482
G1 X-80.777 Y-16.493
G1 X-80.838 Y-16.507
G1 X-80.884 Y-16.519
G1 X-80.955 Y-16.537
G1 X-81.001 Y-16.55
G1 X-81.074 Y-16.571
G1 X-81.119 Y-16.584
G1 X-81.19 Y-16.607
G1 X-81.234 Y-16.621
G1 X-81.308 Y-16.646
G1 X-81.352 Y-16.662
G1 X-81.44 Y-16.694
G1 X-81.483 Y-16.711
G1 X-81.565 Y-16.744
G1 X-81.607 Y-16.762
G1 X-81.681 Y-16.794
G1 X-81.722 Y-16.813
G1 X-81.792 Y-16.845
G1 X-81.833 Y-16.865
G1 X-81.88 Y-16.888
G1 X-81.921 Y-16.908
G1 X-81.989 Y-16.943
G1 X-82.03 Y-16.965
G1 X-82.083 Y-16.994
G1 X-82.124 Y-17.017
G1 X-82.183 Y-17.05
G1 X-82.224 Y-17.074
G1 X-82.277 Y-17.106
G1 X-82.318 Y-17.131
G1 X-82.365 Y-17.16
G1 X-82.406 Y-17.186
G1 X-82.468 Y-17.226
G1 X-82.507 Y-17.253
G1 X-82.557 Y-17.287
G1 X-82.597 Y-17.314
G1 X-82.646 Y-17.349
G1 X-82.685 Y-17.377
G1 X-82.738 Y-17.417
G1 X-82.777 Y-17.446
G1 X-82.829 Y-17.486
G1 X-82.867 Y-17.516
G1 X-82.925 Y-17.563
G1 X-82.962 Y-17.593
G1 X-83.008 Y-17.632
G1 X-83.044 Y-17.664
G1 X-83.097 Y-17.71
G1 X-83.132 Y-17.742
G1 X-83.187 Y-17.793
G1 X-83.221 Y-17.825
G1 X-83.276 Y-17.878
G1 X-83.309 Y-17.911
G1 X-83.36 Y-17.962
G1 X-83.392 Y-17.996
G1 X-83.449 Y-18.056
G1 X-83.48 Y-18.091
G1 X-83.537 Y-18.154
G1 X-83.567 Y-18.188
G1 X-83.623 Y-18.254
G1 X-83.651 Y-18.29
G1 X-83.707 Y-18.359
G1 X-83.734 Y-18.395
G1 X-83.792 Y-18.472
G1 X-83.818 Y-18.508
G1 X-83.884 Y-18.601
G1 X-83.907 Y-18.636
G1 X-83.98 Y-18.749
G1 X-84.002 Y-18.785
G1 X-84.061 Y-18.885
G1 X-84.082 Y-18.922
G1 X-84.136 Y-19.023
G1 X-84.156 Y-19.061
G1 X-84.203 Y-19.157
G1 X-84.222 Y-19.195
G1 X-84.262 Y-19.284
G1 X-84.28 Y-19.324
G1 X-84.315 Y-19.408
G1 X-84.331 Y-19.448
G1 X-84.361 Y-19.525
G1 X-84.377 Y-19.566
G1 X-84.402 Y-19.638
G1 X-84.417 Y-19.679
G1 X-84.441 Y-19.751
G1 X-84.454 Y-19.793
G1 X-84.473 Y-19.855
G1 X-84.486 Y-19.898
G1 X-84.503 Y-19.958
G1 X-84.515 Y-20.001
G1 X-84.528 Y-20.046
G1 X-84.539 Y-20.089
G1 X-84.55 Y-20.134
G1 X-84.561 Y-20.178
G1 X-84.572 Y-20.223
G1 X-84.582 Y-20.267
G1 X-84.591 Y-20.309
G1 X-84.6 Y-20.353
G1 X-84.606 Y-20.381
G1 X-84.616 Y-20.425
G1 X-84.62 Y-20.445
G1 X-84.629 Y-20.489
G1 X-84.635 Y-20.522
G1 X-84.643 Y-20.566
G1 X-84.646 Y-20.579
G1 X-84.654 Y-20.623
G1 X-84.656 Y-20.635
G1 X-84.664 Y-20.679
G1 X-84.666 Y-20.689
G1 X-84.673 Y-20.733
G1 X-84.675 Y-20.742
G1 X-84.681 Y-20.779
G1 X-84.688 Y-20.817
G1 X-84.696 Y-20.865
G1 X-84.704 Y-20.911
G1 X-84.717 Y-21.001
G1 X-84.723 Y-21.047
G1 X-84.732 Y-21.123
G1 X-84.737 Y-21.169
G1 X-84.744 Y-21.245
G1 X-84.748 Y-21.291
G1 X-84.753 Y-21.353
G1 X-84.756 Y-21.4
G1 X-84.759 Y-21.454
G1 X-84.761 Y-21.501
G1 X-84.763 Y-21.549
G1 X-84.764 Y-21.596
G1 X-84.765 Y-21.63
G1 X-84.766 Y-21.677
G1 X-84.767 Y-21.717
G1 Y-21.764
G1 Y-21.778
G1 X-84.768 Y-21.825
G1 Y-21.845
G1 Y-21.892
G1 Y-21.899
G1 X-84.767 Y-21.943
G1 Y-21.971
G1 X-84.793 Y-22.012
G1 X-84.8 Y-22.023
G1 X-87.718 Y-23.697
G1 X-90.924 Y-25.531
G1 X-94.134 Y-27.362
G1 X-97.347 Y-29.189
G1 X-100.562 Y-31.014
G1 X-103.78 Y-32.836
G1 X-107.001 Y-34.656
G1 X-110.222 Y-36.475
G1 X-113.446 Y-38.292
G1 X-116.67 Y-40.109
G1 X-119.895 Y-41.925
G1 X-123.122 Y-43.741
G1 X-126.349 Y-45.557
G1 X-129.575 Y-47.374
G1 X-132.801 Y-49.191
G1 X-132.803 Y-49.192
G1 X-136.028 Y-51.011
G1 X-136.029 Y-51.012
G1 X-139.252 Y-52.832
G1 X-139.254 Y-52.833
G1 X-142.476 Y-54.655
G1 X-142.478 Y-54.656
G1 X-145.698 Y-56.481
G1 X-145.701 Y-56.482
G1 X-148.919 Y-58.31
G1 X-148.922 Y-58.312
G1 X-152.137 Y-60.142
G1 X-152.14 Y-60.144
G1 X-155.353 Y-61.978
G1 X-155.357 Y-61.98
G1 X-158.567 Y-63.817
G1 X-158.571 Y-63.82
G1 X-161.777 Y-65.662
G1 X-161.821 Y-65.688
G1 X-161.9 Y-65.735
G1 X-161.991 Y-65.791
G1 X-162.068 Y-65.841
G1 X-162.142 Y-65.889
G1 X-162.218 Y-65.941
G1 X-162.303 Y-66.002
G1 X-162.377 Y-66.056
G1 X-162.455 Y-66.115
G1 X-162.527 Y-66.171
G1 X-162.588 Y-66.22
G1 X-162.659 Y-66.278
G1 X-162.712 Y-66.323
G1 X-162.782 Y-66.383
G1 X-162.849 Y-66.442
G1 X-162.917 Y-66.504
G1 X-162.947 Y-66.532
G1 X-163.015 Y-66.595
G1 X-163.076 Y-66.653
G1 X-163.142 Y-66.718
G1 X-163.182 Y-66.758
G1 X-163.247 Y-66.824
G1 X-163.283 Y-66.862
G1 X-163.347 Y-66.93
G1 X-163.382 Y-66.967
G1 X-163.445 Y-67.035
G1 X-163.477 Y-67.071
G1 X-163.539 Y-67.14
G1 X-163.568 Y-67.173
G1 X-163.629 Y-67.243
G1 X-163.639 Y-67.255
G1 X-163.7 Y-67.326
G1 X-163.741 Y-67.374
G1 X-163.8 Y-67.446
G1 X-163.807 Y-67.454
G1 X-163.866 Y-67.526
G1 X-163.87 Y-67.531
G1 X-163.929 Y-67.604
G1 X-163.948 Y-67.627
G1 X-164.006 Y-67.7
G1 X-164.023 Y-67.721
G1 X-164.137 Y-67.866
G1 X-164.15 Y-67.883
G1 X-164.204 Y-67.953
G1 X-164.259 Y-68.023
G1 X-164.271 Y-68.039
G1 X-164.316 Y-68.097
G1 X-164.376 Y-68.178
G1 X-164.419 Y-68.237
G1 X-164.452 Y-68.284
G1 X-164.494 Y-68.345
G1 X-164.546 Y-68.423
G1 X-164.586 Y-68.484
G1 X-164.597 Y-68.502
G1 X-164.637 Y-68.564
G1 X-164.685 Y-68.642
G1 X-164.723 Y-68.705
G1 X-164.731 Y-68.718
G1 X-164.769 Y-68.782
G1 X-164.795 Y-68.827
G1 X-164.832 Y-68.892
